/* XPM */
static char *atxt[] = {
/* columns rows colors chars-per-pixel */
"500 500 256 2 ",
"   c #14100E",
".  c #191715",
"X  c #191615",
"o  c #170C09",
"O  c #251B17",
"+  c #331A10",
"@  c #2A241B",
"#  c #382619",
"$  c #3A2F14",
"%  c #1C1B25",
"&  c #1A3436",
"*  c #292827",
"=  c #372A25",
"-  c #38352A",
";  c #293637",
":  c #383936",
">  c #2A2D33",
",  c #261E24",
"<  c #481D12",
"1  c #45251B",
"2  c #4A2618",
"3  c #562718",
"4  c #4D3616",
"5  c #682618",
"6  c #792518",
"7  c #762517",
"8  c #6E3617",
"9  c #472924",
"0  c #473828",
"q  c #573728",
"w  c #463A35",
"e  c #543029",
"r  c #6B3726",
"t  c #743826",
"y  c #6A1E14",
"u  c #3A4338",
"i  c #1C4239",
"p  c #564816",
"a  c #704D17",
"s  c #57472A",
"d  c #45463A",
"f  c #494738",
"g  c #564B36",
"h  c #585338",
"j  c #4B452B",
"k  c #684829",
"l  c #75532B",
"z  c #685739",
"x  c #775838",
"c  c #6F4C2D",
"v  c #776637",
"b  c #71672F",
"n  c #736718",
"m  c #173A46",
"M  c #363B47",
"N  c #2B374F",
"B  c #34396F",
"V  c #271D4D",
"C  c #453B50",
"Z  c #493D66",
"A  c #124449",
"S  c #104A58",
"D  c #394449",
"F  c #374E55",
"G  c #394B73",
"H  c #394C6E",
"J  c #356C71",
"K  c #37696D",
"L  c #0F556B",
"P  c #494946",
"I  c #474848",
"U  c #554C47",
"Y  c #4B534B",
"T  c #585448",
"R  c #494A55",
"E  c #474857",
"W  c #554C58",
"Q  c #4A5555",
"!  c #485857",
"~  c #565957",
"^  c #585957",
"/  c #675947",
"(  c #675956",
")  c #75574B",
"_  c #59635A",
"`  c #4F6357",
"'  c #6A6449",
"]  c #796947",
"[  c #676459",
"{  c #776857",
"}  c #797352",
"|  c #494C6A",
" . c #575666",
".. c #475375",
"X. c #4C506E",
"o. c #6A5767",
"O. c #526869",
"+. c #686865",
"@. c #756B65",
"#. c #787368",
"$. c #737574",
"%. c #852718",
"&. c #892917",
"*. c #953416",
"=. c #932B15",
"-. c #A83719",
";. c #B23916",
":. c #913623",
">. c #AA3B22",
",. c #891E0C",
"<. c #975919",
"1. c #8A5217",
"2. c #B9441B",
"3. c #AC5414",
"4. c #B75816",
"5. c #A84714",
"6. c #966C13",
"7. c #907314",
"8. c #A76918",
"9. c #B27214",
"0. c #B06F15",
"q. c #895828",
"w. c #985A28",
"e. c #985A36",
"r. c #8B5130",
"t. c #B84523",
"y. c #A65A29",
"u. c #A65B36",
"i. c #B0522A",
"p. c #996429",
"a. c #996636",
"s. c #8A6D33",
"d. c #A6662A",
"f. c #A96828",
"g. c #B56928",
"h. c #AA7527",
"j. c #A96636",
"k. c #A76637",
"l. c #B46837",
"z. c #AD7638",
"x. c #B4772C",
"c. c #C7471C",
"v. c #D44D1D",
"b. c #C55B14",
"n. c #D4551A",
"m. c #D76E09",
"M. c #CA730B",
"N. c #D97309",
"B. c #D97408",
"V. c #D87414",
"C. c #CC6C13",
"Z. c #E47606",
"A. c #E3760B",
"S. c #E47213",
"D. c #E26F1A",
"F. c #C74A23",
"G. c #D85324",
"H. c #CD5325",
"J. c #E45725",
"K. c #CC6B2A",
"L. c #D06F2D",
"P. c #EA6C2D",
"I. c #E87130",
"U. c #E3511C",
"Y. c #8C584B",
"T. c #92594E",
"R. c #B05151",
"E. c #A95749",
"W. c #856A47",
"Q. c #85734A",
"!. c #8B7649",
"~. c #887655",
"^. c #926F51",
"/. c #A86847",
"(. c #AD754E",
"). c #8C6E6C",
"_. c #887668",
"`. c #95756D",
"'. c #A96A78",
"]. c #AF786F",
"[. c #915964",
"{. c #D0744C",
"}. c #C53D17",
"|. c #6A865E",
" X c #5B845F",
".X c #998816",
"XX c #AE8B0C",
"oX c #B4940A",
"OX c #94882D",
"+X c #928634",
"@X c #B1892C",
"#X c #AE882E",
"$X c #BAA20D",
"%X c #CBAA0C",
"&X c #CF8B22",
"*X c #94844F",
"=X c #B28651",
"-X c #938674",
";X c #B78776",
":X c #AE8B6F",
">X c #BBA575",
",X c #B0A54E",
"<X c #CD8E50",
"1X c #C8906E",
"2X c #CCA975",
"3X c #E39F67",
"4X c #E0C32C",
"5X c #32548D",
"6X c #385488",
"7X c #33518A",
"8X c #28708E",
"9X c #4B4B8A",
"0X c #485188",
"qX c #5D7288",
"wX c #413D86",
"eX c #AD7186",
"rX c #B37786",
"tX c #937584",
"yX c #C17B8D",
"uX c #2D8690",
"iX c #2C91AA",
"pX c #5D8C96",
"aX c #3EA6C6",
"sX c #94918D",
"dX c #AA958A",
"fX c #B1918A",
"gX c #B6A897",
"hX c #AFA493",
"jX c #B7B1AA",
"kX c #B0ADA8",
"lX c #9B9FA4",
"zX c #C48E8A",
"xX c #CCAB89",
"cX c #C8AC97",
"vX c #C9B39B",
"bX c #D7B59B",
"nX c #D2AE8D",
"mX c #EAB99B",
"MX c #E5B79A",
"NX c #F0B899",
"BX c #C9B7A8",
"VX c #D6B9A6",
"CX c #D8BAA5",
"ZX c #C8BBB1",
"AX c #E7BCA4",
"SX c #F2BDA3",
"DX c #E8BCB1",
"FX c #D5C8B6",
"GX c #CEC4B4",
"HX c #EDC3AA",
"JX c #E6C39E",
"KX c #D8D5C8",
"LX c #CDCFC8",
"PX c #E2DDCC",
"IX c #E4E0CF",
"UX c #BAC2C1",
/* pixels */
"d.w.w.y.y.y.<.<.<.<.<.<.<.8.8.8.<.<.3.3.8.8.8.8.6.6.6.8.3.1.1.1.1.1.n n p p p p s z -XkXGXLXLXGXGXLXKXPXKXKXKXFXFXFXFXFXFXPXPXFXBX;X^.l p a 6.6.1.1.1.q.s.a.!.*X^.^.^.(.^.`.].(.].].:X:X].:X;X].].].'.;X].fXfX'.].rX].rX].].].rX].eX-XrXfXrXrXrXyXeXeXeXeXrXrXrX].'.].rX'.fXrX'.rX'.].-X].rX].'.].;X].rX].rX].].].].].].(.].(.].].'.'.(.`.].].(./.Y.Y.T.Y.r.r.Y.x x x ) / U U W W W U U U ) ( ) ( ) ) U U ) ( o.) W ( ( ( ) o.) ) ) o.o.o.o.o.W o.o.o.o.o. . .W W W  .o.o.o.o.o.o.o.o.o.o.o.o.o.o.o.o.o.o.@.o. .W X.X.X.X.X.X.X.X.X.X.......................0XqX..| X.o.qXqXo.$.o.) T.T.Y.Y.W.Y.r.r.s.e.e.e.e.e.w.w.w.w.w.u.u.e.w.w.w.e.e.w.w.w.e.e.e.e.k.e.e.w.w.r.r.r.r.r.r.<.w.w.e.e.e.e.w.w.w.w.e.e.u.e.w.w.r.i.y.y.y.y.f.d.f.f.w.p.d.j.k.p.p.d.d.k.p.p.p.d.d.d.f.f.f.k.k.y.y.w.w.w.w.r.w.w.w.w.w.u.u.u.y.e.e.r.r.:.r.r.r.r.x r.r.r.x x x x x l Y.Y.r.s.r.x s.r.Y.r.v x x z z z g g s g g g g g g g g f g g g d f d P I P E | | X.X.| | | X.| X.| N M C R R E F | | E E F F H N F F H M N B N N B N N S B N N S N N B N S B m B N B ",
"y.y.w.d.d.y.<.<.<.<.<.<.8.8.8.8.<.<.3.3.8.8.8.8.6.<.<.<.1.1.1.1.1.1.n a p p p p z |.dXBXLXLXGXLXLXLXKXKXKXKXKXGXFXFXFXFXKXPXKXGXgX-Xv l a 1.7.6.6.6.6.p.s.a.z.a.(.^.^.^.].`.`.].(.].`.].].].].].].].'.;X].fXrX].].rX;XrXyX].rX].rX`.'.].].rXfXrXrXrXeXeXeXrXrXrXrX].].rXrXrXrX].].].].eX].'.'.'.].rX].].].].].].].].].`.].`.`.].].].(.'.].].`.`.(./.T.E.T.Y.Y.W.) ) ) ) / / ( W o.( ( W T / ( ( ) ( ) C C ) ) ) ) ( ( ( ( ( ) ) o.) o.W W W W W W  .o.o.o.W W W W  .o.o.o.o.o.o.o. .X. .o. .o. .o.o.o.o.o.o.o.o. . .X. .X.X. .| | | X.........X.X.X.| ..X..... .X.| X.o.o.qXqXtX[.[.T.T.Y.) r.r.x e.e.e.e.e.a.e.e.w.q.w.w.w.w.w.w.e.e.w.w.e.w.w.w.w.e.e.e.e.e.e.e.w.r.r.i.r.w.w.w.e.e.u.e.e.e.e.r.u.e.e.u.e.w.w.w.y.y.y.y.w.w.p.p.p.w.w.p.p.p.p.p.p.d.d.d.d.p.p.p.p.p.d.p.d.y.y.w.w.w.w.w.w.w.w.w.w.w.u.u.u.e.e.e.u.r.:.r.e.e.e.Y.s.s.Y.x x x x x l c l ) r.Y.r.Y.r.r.s.r.' x c z z g g g g g g g g g g g g g g f d d P P P I E | X.|  .| | | | | X.| B M I R R E F F Z N E F N N m N N N N N S N S N N N N N N B N V B m N m V N N B G ",
"y.y.y.d.y.y.<.8.8.<.8.8.8.8.8.8.8.6.3.8.6.8.8.6.6.1.<.1.1.1.1.1.1.1.n a a p p p ' -XjXFXLXGXLXLXLXLXKXKXKXKXKXFXFXFXFXFXKXKXGXhX-Xx k a n s.7.6.6.6.7.p.s..Xs.!.!.!./.^.(.].:X].].`.].'.'.].].`.'.].;X;X].fX].;XrXrX].].].].].].eX].'.].eXrXrXrXeXeXeXeXrXfXrXrX].rX].rXrXrX].].].rXrX].rX].`.fX].rXrX].].'.].`.].].`.].(.].].].].^.`.(.^.].`.(.(./.T.E.T.T.Y.W.) z ' / / / ( ( o.o.( W T T ( ( ( / U C U ) ( ( ( / U / ) ) W o.( W ( W W C W W W W W W o.W W W  . .o. . .o.o.Z ( W W W W W W W W  .o.o. .o.o.o. . .o. .X.X.X.| | | | | ......| | | | | | | | | X.X.X. . .o.o.[.[.[.[.) ) x r.q.r.e.e.Y.e.Y.T.e.e.e.r.w.w.w.w.e.w.e.e.w.e.e.w.w.w.e.e.e.e.e.w.w.w.e.e.e.e.e.r.y.e.e.e.e.u.u.u.e.e.e.e.e.u.i.w.w.w.y.y.y.y.w.w.p.w.p.w.w.w.w.p.p.p.f.p.d.f.j.p.p.p.w.w.y.w.w.w.w.w.w.w.w.y.w.y.w.w.w.y.u.u.u.u.e.e.e.e.i.e.e.e.r.r.r.e.x x x x x x c x x x r.e.r.r.r.Y.r.x x x k z g g g g g h h h g U U U U U g U P P P I I R E | X.X. .| X. .X.| | | C Z | | | E E M F N E B M N B N N B N N m N N S N B N N S N m m S m m V V N B G 0X",
"w.y.y.d.d.y.y.f.8.8.8.<.3.8.8.8.8.8.8.6.8.8.8.6.<.1.<.<.6.<.<.1.1.6.n n n p p z *XhXGXKXKXLXLXLXKXLXKXLXKXKXKXKXFXFXFXFXKXFXgX-X] s k l 7.7.7.6.6.6.7.7.s.h.h.z.z.*X!.(.].:X;X:X].:X].:X].`.].:X;X1XfX;X;X].rXeX].].rX].rXrX].rX].rX].eXrXrXrXrXrXeXeXrXrXrXrX].rX].fXrXrX].rXrXrXrXyXrX;X'.eX].].].rX].'.(.].].].(.].(.].`.'.(.].(.^.(.^.`.^.].^.E.T.Y.Y.Y.Y.Y.) x / / U / W ( W ( W W W W ( ( ( / U U U U ( ( U C U U Z W W W W W C W W Z C W W W W W W W W W W  .W  . .W C W Z W W | W W W W W X.o.X.W o. .o. . . . .X.X.X.X.| | | | ....| X.| | ..| | | | | X.| | X.| X.o.o.o.) [.[.Y.x Y.Y.r.Y.e.Y.Y.T.Y.e.e.e.e.a.w.q.w.e.e.e.a.e.e.w.e.w.w.e.e.e.e.w.w.e.r.e.w.e.e.e.e.u.E.u.e.e.u.u.u.u.e.e.e.e.r.y.w.w.w.w.y.w.w.w.w.w.w.w.e.p.w.p.p.k.f.j.p.p.p.d.p.w.w.w.w.w.w.w.w.w.w.w.y.y.y.y.y.y.w.w.y.e.e.y.w.r.r.e.r.e.e.e.Y.r.W.r.x x x x ) x x c x x x x x x s.x x x x x c k k z g U U h h h h g g / U T U U U P P P I I I | | X.X.| | | X.X.X.| | C E | | E E E | D F F F N F N F N F N N B H N N B M A B N N m m m m m V V V F ..0X",
"w.w.w.d.y.y.p.y.8.8.<.<.<.8.8.8.8.8.8.3.8.8.8.6.6.<.6.<.6.6.1.1.1.1.n n n p z Q.:XgXGXFXLXLXKXKXKXLXLXGXLXLXKXKXKXFXFXFXFXBX-X] s k l s.7.6.6.6.7.6.6.6.9.h.h.x.z.z.z.*X^.:X;X;X;X;X;X;X].].;X;X;X;X;X;X].rX'.].].].].'.].'.].].].rX].].rXrXfXrXrXeXrXrXrXrXrX].].rXfXfXrX].'.fXrXfXrXrX;XrXrX].rX].].rX].].].(.].`.].`.].(.].`.].!.^.^.(.^.`.`.^.R.T.T.T.T.Y.Y.) ) ) ( U U U W W W W W W W W ( U U W U W U W U W U U W W W W W W W W W W R W W W W W W W W W C Z W R W W W E | Z W W | | W W W W  . . .Z W  . . . . .X.X.....X.| | | | | | | | | | ....| | | | X.X.| X.| Z W W W ) ) ) T.T.Y.T.Y.Y.e.Y.Y.Y.Y.e.e.e.a.a.e.q.q.e.a.a.a.a.w.w.e.q.w.w.a.e.a.p.p.e.q.q.w.e.e.e.u.u.u.e.e.e.e.u.u.u.e.e.e.e.e.w.w.w.w.w.w.w.w.w.w.w.w.w.j.f.p.d.p.k.j.k.d.p.w.w.w.w.w.w.w.w.w.w.e.y.w.y.y.y.u.u.y.y.y.w.w.w.w.w.w.w.r.:.r.e.e.e.r.r.r.Y.x x x x x x x l l c c l x x r.x x x x x c c k k U U T h h h h h g U T U U P P C I P I I I E | X. .X.| | X.X. .X.| E | | E E E R E E E E D F F M F D E F F N N F F F B F F N B S m m m N V V V B G 6X",
"<.<.y.y.y.y.3.8.8.<.<.<.<.<.8.8.8.8.8.8.8.8.8.6.6.6.7.6.8.6.<.<.<.1.1.n a a ] *X>XGXGXUXLXIXLXLXLXKXGXGXGXGXGXGXPXFXFXFXGX>X} l p b s.7.7.6.7.6.6.6.7.6.6.7.h.9.s.s.z.!.!.(.].:X].;X;X;X;XfX;X;XfX;X].fXfX1X;X'.eX'.rX].rX;X].fX].rXrXrXrXyXrXrXeXeXrXrXrXrXrXyXrXeXfXfXrX].'.rXfXfXfX;X].].].].;XrX].rX`.].].].].].(.].`.].].].].^.^.^.`.`.`.(.(.^.^.(.(.^.[.~.( ) ( ( ( U U Z W W W W W W W W W W W W ( W W W W W W W W W W W Z W W W W W W W W Z W C | | R | Z Z Z Z E E E | | | | | ..| | X.X. . . .W W W  . . .X.| X.X...X.| | | | | | | | | X...| | | | | | Z X.| X. .o.C C W ( Y.Y.Y.T.Y.Y.Y.e.Y.T.Y.T.e.e.r.e.a.w.q.q.w.p.a.p.p.w.w.w.p.w.w.p.a.a.a.a.e.w.e.e.e.e.e.e.a.e.e.e.e.e.u.u.e.e.e.e.e.e.w.w.w.w.y.w.w.w.w.y.w.w.p.z.j.j.d.d.k.k.p.w.w.w.w.w.w.w.w.w.w.y.u.k.u.u.y.y.y.u.u.u.y.u.u.y.w.w.w.w.w.r.r.r.e.e.e.W.r.r.r.x x ) x x r.x x x l z l l c x x x x x x x z z g g U / T T h h h U U U U P I P I P P I I P R R | | | | X.X.| | X.| E R R R R R E E E | E R H Z F B F B N F S N F N F H H F N V N N m m S m m m B B G ",
"1.<.y.y.y.y.<.8.8.<.<.<.<.<.8.8.8.8.0.6.8.8.6.6.6.6.7.6.8.3.1.6.p.l a a p b _.dXjXGXLXUXLXLXLXKXLXKXLXGXUXGXGXGXFXFXFXGXhX~.h p n 7.7.6.6.6.6.7.6.6.6.6.6.7.6.7.7.s.a.a.!.(.(.].].:X;X;XdXfX;X].;X].1XfXfXfXrX'.;X].].;XfXrXyXrX].].].'.rXrXrXrXeXrXrXrXrXrX].].].rXeXrX].].].].].yXyX].rX].].rX].].].].].].].(.(.`.(.].(.].(.`.`.^.^.(.`.`.`.`.^.^.^.`._.@.~.Y.) o.) ( ( W W W W W W W W W W W W W ( ( ( W U W W ^ ^ W W W W W W W W W W W | | X.| | | | | | | | | | | | | | X.X.X.X.| | X.| X.X. . .o.W W X.| X.| | | X...X.| | | | ....| | | | | | | | | | | | | X. . . .W W Z W o.) Y.Y.Y.T.T.T.e.Y.Y.Y.q.e.e.r.e.w.w.q.q.w.p.p.w.w.p.p.p.p.p.p.p.a.a.a.a.a.a.a.e.w.e.e.e.e.e.e.e.e.u.u.u.e.e.e.e.w.w.w.w.y.i.u.u.u.k.j.j.j.k.j.k.d.d.p.p.w.w.w.w.w.w.w.w.w.y.w.w.y.y.j.j.u.u.y.y.y.u.y.y.u.u.i.u.y.w.y.u.e.r.r.e.e.e.e.e.x r.e.x x x x ) x x x W.) ) x x x x x c z x x x z z z / U / T h h g g g U U P I P I P P I I P I I E | | E | | | | |  .| E R E R E R E E E | | | | F M F N N N B m N B N S F F N N N S N N N m N m N N N B ",
"1.y.d.y.y.<.<.8.0.8.8.3.<.<.6.8.8.8.8.3.8.8.6.6.6.6.6.6.6.<.<.<.7.n a p a +X-XgXGXGXUXLXLXLXLXKXKXKXLXUXGXGXZXZXFXKXFXhX~.z p a 6.7.6.6.7.6.6.6.7.6.7.6.6.6.6.6.7.6.a.a.a.^.(.].`.].'.;XfXdXdXeXfXfXfXfXfXfXdXfXdXdXfXfXfXfXrXrXfX].rXeXrXrXrXrXrXrXrXyXrXrXrX].rX].dX].eXeX].rXrX].].].].yX].yX].zXzX].].].].].].].].`.].`.].].].].].`.`.`.`.`.^.[.T.^.T.Y.) o.) ) ( ( ( ( W W W W W W W W ^ W W W ( ( ^ W U W W W W W W o.Z o. .W  . .X.X.X.| X.X.| | | | | X.| | | | | | X.X. .X.| X.| X.X.| X.X.Z X.W | | | | | | | ......X.| | ......H X.| | | | | H | | | X.X.| X.X.X. .W o.( ) ( ) ) T.Y.Y.Y.Y.Y.Y.r.a.e.e.a.q.q.q.w.w.w.w.w.w.w.p.p.p.p.p.p.p.w.w.a.a.a.a.a.a.e.e.e.e.e.e.e.e.u.u.u.u.u.e.e.e.w.y.u.u.u.u.u.k.k.j.j.j.d.w.w.w.w.w.w.w.w.w.w.w.w.y.y.y.y.y.w.w.y.y.u.u.u.y.y.d.y.u.y.y.u.u.u.u.u.w.u.u.e.e.u.e.e.r.Y.s.r.x x x x x x x x x ) W.~.W.) ) x x c k c z / / z z z g g U h h h h U U U U W P I I R R E I R I I R R E R E E E E E | E R R R R E R R E E E | | | F D B F F N N N N N m B N N N B B N B S N V m B S N N B ",
"1.y.g.f.d.y.<.8.8.8.8.<.<.<.8.8.9.9.0.0.9.6.6.6.7.7.6.6.6.<.q.q.l a p a s.*XgXvXGXGXjXUXKXLXLXLXLXKXGXGXGXjXjXjXFXHXBX-Xz p a s.7.7.7.6.6.6.6.7.6.6.6.6.6.6.6.6.6.6.z.z.d.(.:X:X].:X:X;XfXfXfXdXfXfXfX;X:XeX].fXfXfXfXfXfXfX'.].rXrXrXrXrXrXrXrXrXrXrXrXyX].].].].].].'.].fX].].eX'.].fXrX].].].;XrX].`.].].].(.`.].].].(.].].(.(.].].].`.(.].^.)._.~.T.Y.( ) o.o.) ( ( o.o.o. .W W C W ^  .^ W W W W ^ ^ W W W W (  . .+. . . .| |  .| | X.| X.| X.| | | X.X.X.| X.| | | | | X.X.............| | | | E E E E | | | | | ..| | | | | ..............| | X.....H | X.X.| W | | X.W W W W ( ) ) T.T.Y.Y.Y.T.Y.r.e.e.e.Y.q.q.w.a.a.w.w.w.w.w.w.w.p.w.e.e.w.w.w.q.q.w.w.w.w.e.e.w.w.w.e.e.e.u.u.u.u.e.e.e.e.u.u.u.u.u.j.u.k.k.k.j.u.w.r.1.y.w.w.w.w.w.w.q.w.w.j.j.j.f.y.y.w.w.y.y.y.y.y.y.y.y.y.u.y.y.y.u.u.w.w.w.u.u.e.e.r.r.W.s.) x l x x x x x x x x x ) ) / z z x ) x c c / / / / z g g g g g g g g U U U U U I E E E R R R R R R I E R R R E R E R E R E R W W R R E R E | | | | E C F B F N N N N N B S B S N m m N S N N V m m N B N G ",
"1.y.y.g.w.<.3.8.8.8.8.8.8.8.8.8.6.9.0.6.8.6.6.6.6.1.<.<.<.<.1.a p 8 a s.*X>XGXGXGXGXGXLXLXLXLXLXLXFXLXLXGXGXGXGXFXGXdX] k p n 6..X.X.X6.6.6.6.6.7.6.7.7.7.6.7.6.7.8.h.z.(.=X=X:X:X:X;X;XfXfX;X;XrX;XfXfXfX].eXdXfXrXfX].rXrXrXfXrXrXfXrXrXfXyXyXrXzXfXrXrX].yXyX].yX].].'.'.'.].'.;X].'.].].].].].].].(.(.].].].].(.`.].`.].].`.`.].(.`.].^.^.^.T.T.Y.).).[.) W ( W ( Z  .o.o.W  . . .W W  .W W W W W W W W W R R R E ~  .W | X.| | | | | X.| | | | H | | | | | | | | | | | | | X.| X.X.| | | | X.| | H E | | | | | | X...H | | | | ..| ........X.| | | ..| | | | | | | | | | W W W W ( / Y.Y.Y.Y.r.r.e.e.e.e.e.e.e.e.p.a.a.a.e.e.e.e.a.p.w.w.e.q.w.w.p.w.q.q.q.w.w.w.a.e.e.e.a.a.e.e.e.e.e.e.e.e.w.e.j.j.j.u.u.y.w.k.u.u.u.w.r.r.1.<.w.w.w.w.y.d.d.u.d.k.d.y.y.y.y.w.d.d.y.u.y.y.y.y.y.u.u.u.w.u.u.u.u.y.e.u.e.e.r.r.Y.r.r.r.x l x x x x ) x x x x x z z z c ) x z z z g h z / / z z U T T h g g f P U U U W ~ W  .R R R R R E R E R E R R E R R R R R R E R R E R R R E E E E F F F N H N F F F N N N N N N N N N N N B m V m m m S B ",
"<.3.g.y.3.6.8.8.<.8.8.8.8.8.8.0.9.9.9.9.6.6.6.<.1.1.1.1.q.1.a a p k n ~.>XGXFXGXUXGXLXKXLXKXKXLXFXLXFXFXGXGXGXFXGXhXW.k p l q.7.XX7.7.6.6.6.7.7.6.6.6.6.6.6.6.6.7.h.h.z.(.=X=X=X=X:X;X;XfX;X;X].].].:XfX:X].].rX].].fXrXfXrXfXfXrXrXrXrXfXzXzXyXrXzXyXrX].1X].].yX].rX].rX].].].].].].rXyX].yX].].].].].].].].].].].].(.`.'.].`.`.(./.].(.(.^.^.Y.Y.Y.@.@.) ) U o.o.W W  .W  .W  . .W W W W W W W W W W W W W E R R R R | E | | | | | | | | | | | | | | | | | | H | | | | | | | | | | | | | | | ..| | | | | | X.| ..| ....G | | | | | | ..| | X.X.| H Z | | | | | Z | | | | | W W W U ) ) Y.T.Y.Y.Y.Y.u.E.e.e.e.e.e.e.a.a.a.a.e.r.e.r.w.w.w.q.q.q.q.q.e.q.e.w.q.w.w.e.a.a.a.e.a.e.e.e.e.e.e.e.e.e.w.e.j.j.j.u.u.y.w.w.u.u.w.w.w.w.w.w.w.w.w.w.f.f.j.j.d.u.j.u.d.d.y.y.f.d.u.u.y.y.y.y.u.u.u.u.u.u.u.u.u.u.y.u.e.r.e.r.s.r.x r.x x x ) x x x x x x x x x z c r h c z z z g h z z z z g U T h h h f I I P U P U W  . .R E E R E E R I E R E E R E E R E E R R R R R E E R E E E E D E M N N N M D H F N N N N N N B N S B N N m m N B N m ",
"<.w.g.y.w.<.8.8.<.8.8.8.8.8.8.8.9.9.9.6.6.6.7.6.<.<.1.1.q.q.a a k x ~.-XhXGXGXUXGXLXLXLXLXLXLXLXKXKXLXGXGXGXFXGXhX~.k 4 p q.s.7.7.7.6.6.6.6.6.6.7.6.6.7.6.6.9.6.6.0.h.x.z.(.=X=X=X:X].;X;X;X;X:X`.:X:X;X:X:X;X;XfXfXfXfXfXdXdXdXhXrXrXrXrXfXfXrXrXfXfXrX].rXyX].].].].yX].;XrXrXrXyX].].].].].].].].].`.(.].].(.].(.`.].(.(.].(.].(.^.].`.].(.^.T.( ( ) o.o.o.o.o.o.o. .W W W W W  . .W W W W W W W W W W R E E R R R R R E | | | | | | | | | | | | | | ....X.H H | | | | | | | | | | | | | H | | | | | | X.X...............| | | | | E | | | | | | | | | | | | | | | | | X.W W o.W W U z ) Y.T.Y.T.Y.T.E.T.e.Y.e.Y.e.e.e.e.r.r.s.Y.q.q.q.r.q.q.r.r.r.w.q.a.a.q.w.e.e.a.a.a.e.e.e.e.e.u.a.u.e.k.k.u.u.u.j.j.u.e.w.w.w.u.u.e.w.w.w.w.w.w.y.w.e.f.d.j.j.j.j.j.k.y.j.j.k.j.j.y.y.y.y.y.y.u.u.u.u.u.u.u.u.u.y.w.w.w.r.r.) q.Y.s.r.Y.x x x x x x x x x x x z z h k g h h z h g h z z z z h h h h h U U P P I U Y P R W W E E R E R R R I R I R R E R E R I R I I R E R R E E E E F R E | E H F N B B F M H m N N m N m N V N N N m m m m B B ",
"y.y.y.w.<.<.9.8.6.3.8.8.8.8.8.6.9.6.7.6.6.6.6.<.<.<.3.<.q.a a a x ~.-XgXGXGXGXLXLXLXLXKXLXLXLXUXKXLXGXLXGXFXFXGX-Xs 4 p b s.p.7..X7.7.7.6.6.6.6.6.7.6.6.7.6.9.9.6.9.9.h.h.z.(.z.^.(.(.=X:X].:X:X:X:X:X:X:X;X;X;X;X;XfXfXfXfXfXfXdXeXrXrXfXfXfXrXrXfXrXrXyX].].].].yXyX].].rX].].].].].].].].{.].].(.].].].(.].].`.].`.].].(.`.(.(.^.^.(.(.]./.[.[.o.) ) o.o.o.o.| o. . . .W W W W  .W W W W W W W W W W R R W R R E R R R | | | | | | | | | | ..................H H | | ..| | | | | | | | | | G | | | | | ..................| | | | | | | | | | | | | | | | | | | | | H | | |  .o.o.W W / ) ) T.T.Y.Y.T.Y.Y.T.Y.Y.T.Y.e.Y.x s.Y.e.Y.e.e.e.e.a.e.e.e.e.e.e.a.e.a.w.w.e.e.e.e.e.e.e.e.e.j.j.j.j.j.k.k.j.u.u.u.u.w.w.w.e.u.u.u.e.w.w.w.y.w.y.u.j.k.k.k.u.u.k.k.u.u.u.y.u.k.j.y.y.y.y.y.y.u.u.u.y.u.u.u.u.y.y.w.w.r.r.r.r.e.r.r.Y.) x x x x x x x x l c z z g g g g g g g U g h g z z h h h h h h T U P I I P W I I E E R E E R E E R I E I I R R R R E I I P I P I E R E | R E F R | | | | M F M F B M F F M N m F N N N N N N N N N m N N ",
"y.y.3.<.<.<.8.8.8.8.8.8.8.8.8.6.0.6.6.6.7.6.<.<.<.<.<.6.q.a k c } -XhXjXGXGXGXGXLXKXLXLXLXKXLXLXGXGXGXGXKXFXGX-Xs 2 2 k s.7.7..XXX9.6.6.6.6.7.6.6.6.6.7.6.6.9.6.6.6.8.8.d.d.f.p.a.k.k.(./.(.(.(.=X=X=X=X=X=X=X:X;X;X;X1X].1XfX].fXfXrXfXfXfXfXrXrXrXrX].].].yX].].].].].rX].'.].].].].`.].].].].].].(.].].].].].].].(.].(.(.`.(.(.^.R.^.^.^.T.Y.).[.) o.o.o.o.o.W W  . . .W W W W W W ( ^  . .^ W W W W W W  . . . .| | | X.X.X.| | | ..| | X.....................| | ....................| ........| | X...................| | | | | H | | | | | X.| | | X.H | | | Z | | | X.|  . .W ( ( ( { [.Y.T.T.Y.T.Y.Y.T.Y.Y.Y.T.Y.r.Y.W.Y.T.W.Y.e.a.^./.a.e.r.e.a.e.q.q.q.q.q.q.e.e.e.e.e.e.k.j.k.j.j.j.k.k.u.e.e.e.w.w.w.u.u.k.u.j.k.u.u.u.u.u.d.j.k.j.k.u.u.u.u.u.y.y.y.y.y.y.u.u.u.u.u.u.u.y.u.y.y.y.y.y.u.u.u.w.w.e.r.q.] x r.s.x x x x x x x x x x l c z z z g g g g g g g h z z z z z h h h g T T U U I P P W I R E R E R R R R R R E I R I P P I I I R R E P I P I E Q X.E R R R R R E E N F F I D F F N m B N N N N S m N m N N B N B m ",
"f.y.w.<.<.<.8.8.8.8.8.8.9.9.8.6.6.6.7.6.8.6.<.<.<.w.p.w.x k g ' _.sXjXjXZXLXLXKXKXKXKXKXIXIXLXLXGXGXUXGXFXBXdX' 2 4 p q.7.7..XoX9.9.9.9.XX6.6.7.7.6.6.6.6.6.6.6.6.6.6.8.8.8.<.w.p.p.p.j.k.a.a.k.#X(.(.(.z.#X(.=X(.(.:X;X;XrX].1XfXfXfXfXfXfXfXrXrXrXrX].yX].].].yX].yXrX].].].].].].(.].].].1X].].{.].].].].(.].(.].(.(.(.(.(.(.(.[.E.^.]./.Y.Y.[.[.o.o.o.o.o. .W W |  . . . . .W W W W ^ ^  .W W W W R W W  . . . .| | | | | | ....| ..| | X...............G ..H | | | | | | | | | | | | | | | | | H | | ............| ....| H | | | | | | X.| | X.| | | H H H | | | | | | | | X. . .( o.{ Y.~.W.Y.Y.Y.Y.T.Y.T.W.W.W.W.W.W.Y.Y.W.Y.Y.s.) W.^.T.Y.s.s.Y.r.s.r.q.q.r.e.e.e.e.u.j.j.k.k.k.j.j.k.j.u.u.e.w.w.w.e.e.e.e.e.u.u.u.j.k.u.u.y.y.u.u.j.k.j.u.y.y.y.y.u.u.u.y.y.y.y.u.u.u.u.u.u.y.y.y.w.w.w.w.u.u.u.u.e.e.e.r.r.r.r.] x x x x x x z ) l c l c z z g g g g g g g g z z z z z h h h h g T T Y U I U W R R R R R R R R I P I E R I I I I P I I I E W E R I I R R R R R E E R R F M M E D F B D D D A N N N N N M m N N N S N N S B F ",
"g.d.6.<.<.<.<.6.3.8.8.8.8.9.6.6.0.6.6.8.8.6.6.<.<.w.w.q.c k z } sXkXjXUXLXLXLXLXKXLXLXLXLXLXKXLXFXFXFXKXGXdX] p 2 4 b s.7.7..X9.6.6.6.9.9.9.6.6.6.6.6.7.7.6.9.6.6.8.8.8.8.8.8.8.d.d.h.h.h.h.d.h.z.k.f.d.h.h.(.(.(.(.(.;X;X1X].fXfXfXfXfXfXfXfXrXrXrXzX].].].yXyX].].1X].].yXrX].].].].].(.].].(.;X].].].].{.].].].].].(.`.].(.(.(.(.E.T.(./.R.T.o.Y.o.o.o.o. .W  .R |  . . . . .W W W W W W W W W W W R R W  . .X.X.| | | | | | | | | G | H K G G G G G G G G G H H H H G G G H G H G H G H H G G G | X.............| G ..| | | | | | | X.|  .| | | | H G G | | | H | | | | | | | X. . .o.@.@.{ o.) [.~.~.~.Y.x ) Y.] ) ) r.) x Y.W.W.W.W.W.Q.{ r.r.r.x Y.r.v r.e.e.a.a.a.a.k.j.j.j.j.j.j.a.a.e.w.e.e.w.w.w.w.e.u.e.w.w.e.u.u.u.e.e.w.y.y.y.u.k.u.u.u.y.y.u.u.k.k.u.u.u.u.u.l.l.k.u.u.y.y.y.w.w.w.y.u.u.u.u.e.e.e.r.Y.s.r.r.x x z z x z z z x z l c l z z z z z g h g z z z z / / z z h U T U U U U U U W E R E R E E R P I I I R R R E I I I I I R E R R R I I R E E R R E |  .R E E F F B D F F B F F S N N N D N B N N N m B N N N N ",
"g.f.6.<.<.<.<.3.6.0.3.0.0.9.6.9.6.6.6.6.9.6.6.1.<.d.w.a q k ' -XkXUXUXUXLXKXLXKXKXLXKXLXLXKXKXLXFXFXKXGXhX{ j $ j k s.s.7.7.7.0.6.7.9.9.9.9.9.7.6.7.7.6.6.6.6.6.8.0.0.0.8.0.0.8.h.h.h.8.h.8.f.0.8.8.8.8.h.h.z.z.z.k.(.=X:X:X;X;XfXfXfXfXfXfXfXfXfXrXrXrX].rX].].].].1X].].].yX].].rX1X].].].{.].].].;X:X;X].].].].].].(.(.(.].(.(.(.E.E.(./.R.^.{ ) o.o.o.o.W W  .| | |  . . . .W W W W W W W W W W W W E Q  . . .| | | | | | | | H H H H H G H G G H G G G G H H H G G H H H G G | H ..| H ..H | H | | X.........X.H | | | | | | | | X.X. .X.| | | H H G G H | | | | | | H | | | |  .| o.( ( ( ) ) o.Y.).{ ) ) / ) / z z x x x r.) ] Y.W.W.W.s.W.e.r.r.e.r.v e.e.a.a./.a.a.j.j.a.a.k.a.a.w.w.w.w.u.u.e.w.w.w.e.j.e.e.e.e.e.u.u.e.w.w.w.y.y.u.j.k.u.u.u.u.u.k.k.k.k.j.u.u.u.j.i.l.j.u.u.u.y.w.y.y.u.u.u.u.u.u.e.e.r.W.W.r.x x x x z z z z z x x x x x z z z z z z h h g h z z z z z h h h T U U U U T W W I R C E R R R P P I E E E R R P P P P I W R I I R I R R E E R R | X. . .E E E E M E B B I D F M N N N N D F N B N N m N B N H ",
"y.f.<.<.<.<.<.6.6.6.8.6.9.9.9.9.9.9.6.6.6.6.1.<.y.p.q.k 4 s { sXjXUXUXUXLXLXLXKXIXKXLXLXKXKXKXFXFXFXFXhX~.s 1 4 k v s.a.7.7.7.7.6.6.9.9.9.9.9.6.6.9.7.6.6.6.6.9.9.0.8.0.9.9.9.0.9.0.0.8.6.8.8.9.0.0.8.8.8.f.h.z.h.d.z.(.(.:X;X;XfXfXfXfXdXfXrXfXfXfXfXrXyX].].yXyXyX].].].].].].].].].;X].].].].(.;X:X;X;X;X{.].;X{.].].(.(./.R.(./.E.E.R./.(.^.).) ) o.o.( E W W W | X.X. . .W W W W R W Z W W  .W W W W |  . . .| | | | | | Z | E H G ....G G G ..K ....G G G G H ....G ........| | X.| X.X...| | | | | ............| | | E H | | X.X.X.X...| | | H H H ..| | | | | | | | | | | | | E R ^ W ( W ( ) ( ( ) ( ( / / / z z / / x z ) x ) ] x ) x x r.x x x W.r.e.a.a././.a.e.a.a.a.e.a.a.w.w.w.w.u.u.u.j.e.e.e.e.u.k.a.u.u.u.u.u.u.e.w.w.w.y.y.j.d.u.u.y.u.y.y.j.j.y.j.j.y.u.u.y.i.l.i.u.y.u.y.y.u.u.j.u.u.w.e.e.a.r.r.r.r.x x x x z z z z x x x x x x z z z z z z z h h g h z z z h h h h T U U U U ~ W W P R W I R W R U R R R E R P I I R R I R W R I I R E R E R R E E | Q W E E E | E F D F M F B F D M M M N D F N N F B N N m N N ",
"y.8.3.<.<.6.7.6.6.0.6.6.9.9.6.9.9.9.9.6.6.6.6.1.p.p.l s 4 h -XkXjXLXUXLXLXLXKXKXKXLXKXKXKXKXKXFXFXFXvX-Xh 2 4 p b 7.OX#XXX6.6.6.XX6.6.9.6.9.9.9.9.9.XX6.6.9.6.9.0.8.8.8.0.0.0.0.0.9.0.8.8.0.8.0.8.0.8.0.8.8.h.z.h.j.l.(.(.(.=X1X].fXfXfXfXrXfXfXfXfXfXrXrX].].].].].].].1X].{.].].].].1X].].].].].].;X;X;X;X].].].].].(.(./.E././.E.E.E.E./.(.`.).) ( o.o.o. .E W | | X.X.| W  .W W W E W W W W  .W |  .X. . . . . .| | | | H | | | ................G ..G ........X.X...............K ..............X.| H | ......| ....| | | | | | | H ..G ..X.| | H | | | | | | | | | | | | | H | | E R | W | W  .o.( ^ ( ( T T U T / T / ) ( / / ) ) / z z ) x x x x ) s.Y.e.e.Y.k.a.a.e.e.a.e.w.w.w.w.w.p.u.u.k.k.k.e.u.k.e.u.k.k.u.e.u.k.e.u.e.w.w.w.y.y.u.d.j.j.y.y.y.y.y.y.y.y.y.y.l.i.j.i.l.l.l.i.u.i.u.u.u.u.a.e.e.e.r.r.x r.x W.W.x x x z z z x x x x x x x x z z z z z / z T z / z / T h h h T T T P U U T ~ W P W I I P W R W W W W R I R I R R R R R R I I I I I R R E E R R E E E E F F M F B M F F D D E F D D M D D N D D F N N N N S N ",
"y.y.w.<.<.6.7.6.6.6.9.9.6.6.6.6.6.9.9.6.6.6.6.<.p.v k 4 f @.hXjXjXjXUXLXLXLXLXKXKXKXKXKXFXFXPXFXHXvX*Xh 9 2 p a p.h.@XXX9.6.6.6.0.9.9.9.9.9.9.6.7.6.6.6.9.9.9.3.8.6.8.8.8.6.8.8.9.9.0.9.9.9.0.6.8.0.h.x.h.f.f.d.f.k.z.l.(.(.].].].fXfXfXfXrXfXfXzXrXyXrXrXrXyX].yX1X1X].yX1X].].1X].].].{.1X{.].1X1X].].].{.].].;X(.{.].E.E.E.R.E.E.E.E.E.E.R.(.[.) ( ) o.o.o.W E | | | | X. . . . . .W W  .W | | | | X.| X.X.X.X.| | | | | | | | ..................G G G G ......................G G G ..............G H H H H | | | | | | | | | | X.G H G G H | X.| | | | | | | | | | | | | | F H | | | | | | X.X. .W ^ ^ W W W W T U W ( ( ^ ( ( ( / / / / ) x v ) ) W.W.Y.r.r.e.e.a.e.w.w.w.w.w.w.p.p.f.k.k.w.e.e.w.j.k.k.k.j.u.u.e.e.k.e.e.e.e.w.w.y.y.y.u.i.l.l.l.k.y.d.y.y.y.y.y.y.l.l.l.l.i.i.H.i.i.i.u.u.u.e.a.r.r.q.l c c c l x W.x x c c z ) ) ) ) x x x ) z z z z z z / / / / / / / T h g T T T T U U Y U U U W U U P I I I E W W W W P I P R R R P f P P I I I I I P R E E E F E E E F M M F I E | B M M F F D D D M M m M M F N N F N B N ",
"y.<.<.<.6.6.6.6.9.9.6.6.6.6.6.6.7.0.9.0.6.6.6.6.q.k 0 $ U tXlXUXUXUXLXLXKXKXPXKXKXKXKXKXKXFXKXPXGX-Xz 0 + 3 k x h.0.9.9.0.9.9.9.9.0.9.0.9.9.9.9.9.9.9.9.9.9.8.8.8.8.3.8.8.8.8.0.0.9.6.9.9.9.0.9.0.9.9.0.8.8.0.h.d.k.(.(.{.<X1X1X].fXzXfXrXrXrXrXrXrXrXrXrXrX].].].].zX].zX1X1X].{.].].].].].].].(.].].].{.].(.(.(.(.(.(.(./.R.E.E.E.E.E.E.E.E./.^.{ ) o.o.o.o. .| |  .X.X.X.|  . . .W W  . .X.| W | X.X.X.X.X.| X.X.X.X.| | | | | | | | ............G G G H G G ............G G ..G H G ........G G G G G G H | X.| | ..| | ..X.X...| G G G G K X.X.| | | | X.| | | | | | | | | X.X.X.....| X...X.X.|  . . . .^ W W ( [ ( W W W U ( ( ( ( ( ( ) ) ] ] ] W.W.s.W.s.r.Y.e.a.e.a.a.p.p.p.p.p.d.d.k.k.k.k.j.j.k.k.k.k.e.e.e.j.j.j.k.k.u.y.y.y.y.y.y.y.j.y.j.l.y.y.y.y.i.u.l.l.l.l.l.l.i.G.L.K.L.u.u.u.e.e.q.l a k k r r k k k k z z x c z z z z z x x x z z z z z z z / / / / U U / T T T T ( T T T U U U U U U P U P I I I P R E W W U I U Q Q R R P I P P P I I I I E R E E R R R E M F F F M H M D M M M M D D D D ; N M M F F F D F F M ",
"y.y.8.8.8.8.6.6.6.7.6.7.7.6.7.6.7.6.6.9.0.6.p.1.l q 1 u o.lXlXUXLXLXLXLXKXPXKXKXKXIXFXLXHXFXFXZXdX) e 1 e k v z.@X@X6.6.6.9.9.9.9.9.9.9.9.9.9.6.6.6.9.9.9.6.8.8.8.0.9.9.8.0.0.9.9.9.9.0.8.0.0.9.9.0.9.8.8.8.0.x.f.f.x.(.(.(.(.].].fXzXzXrXeXrXrX].rXrXrXrXrXfXrX].].].].].1X].].].(./.{.(.(.(.(.(.(.(.(.(././.(.(.R.(.(.(.R.E.E.E.E./.(.(./.E.E.[.) ) o.o.).+. .X.X.X.X.X.| | | X.| W  . .o. .X.X.X.X.X.| X.X. .|  .X.| X.| | | | | | | ....G ......G G K H H G ........G G G G H G G G ........G G G ......X.......................................X.| X...X.X.| | | | | | | ................| | X.X. . . . .W W W ^ ^ ^ W U P W W ^ ( ( / ) ) ] ] ] ] x ) s.r.s.e.e.e.a.a.a.a.k.k.d.p.p.d.d.d.k.k.k.k.e.e.e.e.e.e.e.k.k.k.k.j.j.k.l.l.j.u.y.y.y.y.y.y.l.f.y.y.y.i.i.g.l.l.l.l.l.i.i.i.i.l.l.l.l.k.e.l c 8 8 8 q s k s s s s c z z z z z z x x x x x x z z z x z z z z z z / / T T T ( ( T T T T U Y Y U U U U U I P I P W W W W W W W W W Q Q W Y P P P R R I E R E R R R E R E E F Z C F D F M M M B E M M M M M m D D D A F F D B H ",
"y.y.8.8.8.0.6.7.7.9.9.7.6.6.7.6.6.7.6.9.0.6.6.q.r # 9 U sXlXUXUXLXLXLXLXKXKXKXKXPXPXFXFXHXFXgX`./ 0 = 2 q l s.h.#Xh.6.6.6.9.9.9.9.9.9.9.9.9.9.6.6.6.9.9.9.6.8.8.8.8.9.9.9.9.9.8.8.8.6.9.0.9.9.9.9.0.8.8.8.f.g.f.f.d.k.z.l.k.k.(.(.].zX].].].fXrXrXyXrXrXrXfXzXzXyX].].yX{.].].].(./././././././.R.(././.E.E./.E.R.E./././.E.E.E.E.E./.E.E.E.E.Y.T.) o.( o.o. .W | X.| X.| | | | | | W  . .X.X.X.X.X.X.| |  .| | | | X.X.X.X.........................G G G G G G K G ..G G H H G G ................G ..................................................X.| ....X.| | | | | | ............| | | H G | | X. . . .W W W W W W ^ ( ( ( ( / ) ) / z z x x v x l r.r.s.e.a.e.w.a.p.k.a.k.d.f.d.p.p.p.d.f.d.e.w.e.w.w.e.e.e.u.u.k./.j.j.k.j.l.j.u.y.w.y.y.y.j.l.y.y.y.y.y.i.i.f.j.g.i.i.i.i.i.i.t.i.i.u.k.e.q.a 8 a a q k c z k k s s s s x x x x x x x x x x x x ) ) x x ) z z / / / / T T T T ^ T T T Y Y Y Y U U U U U R I I P U W W W W W U W W ~ R R Y Y P P I E R E R R E E E E E E F M E R I E F E D C F F M M N N M M M D F B N N N S N ",
"3.<.<.8.6.6.6.8.9.6.6.6.6.7.6.6.6.6.6.6.3.6.l k 2 + - +.sXkXUXUXLXLXLXIXKXKXKXKXPXFXFXKXKXVX-XC 0 + # q k v s.s.#X6.6.8.6.9.0.9.9.6.9.9.9.9.9.6.9.9.9.9.0.0.8.8.8.8.9.6.8.0.8.8.8.8.8.0.0.8.0.0.0.8.8.8.8.g.g.f.f.z.z.l.k.k.k./.(.;XzXzXrXrXfXrX].rXrXrXyXzXzXzXzX].yX{.].].(.(.(./././././././././././.(.(.(.E.E.E.E.u.E.E.E.E.u.u.E.E.E.E.e.Y.Y.( ) ( ( W R W W | | | | | | | E W W X.X.| X.X.X.X.X.X.X.X.| | | | | | ..................................G G G G G G G G H H H G ............G G G ........................................0X........X.....0XO...X.X.| ..| | ..........| | | | | X.X.X.X.X. . .W W W W ^ +.{ @.+.o.( / / / z z x x x c z q.e.e.a.a.a.p.a.k.j.k.k.d.j.d.p.p.p.p.d.p.d.d.a.u.k.u.k.u.j.k.k.j.j.j.u.j.u.u.y.w.w.w.y.y.y.u.y.y.i.y.y.y.y.y.y.i.u.i.i.i.l.l.l.l.u.w.r.l a 8 8 k k l l z ] ] v l k j s z z z x x ) x x x l x ) ) ) x x x z z z / / / T T T ~ Y T T T T Y Y Y U U U U U U U P P U U U W W W W W W W W W R I R E R E E R R E R E E E E E E E E R B F N N F F F D M M N N M M M M F N S B N N N ",
"<.<.<.6.6.0.9.9.9.6.6.6.6.6.9.6.7.6.7.6.<.1.t q # + U sXUXUXUXLXLXIXKXIXKXKXKXKXPXFXHXPXFXdX' 0 # 9 4 k v s.s.h.6.6.6.h.9.9.9.9.9.9.9.9.9.9.0.9.0.9.9.0.0.0.8.8.0.8.f.8.8.8.8.8.8.8.8.f.8.g.f.g.g.f.8.8.d.f.f.f.g.z.(.z.l.f.j.(.`.;XzXfX].rXrXrX].rXyXfXyXzXzXzXzX].].].].(.(.(.R./././././././././././.(././.E.E.E.E.E.E.E.E.E.u.u.E.E.E.E.e.Y.T.) ) W W U U Z W | | | | | | | W  . .X.| X.X.| X.X.X.X.X.X.| | Z | X.X...............G ....G ......0X....G H G G G H G G G H G G G G G ..G ..H G ..........................................................0XqX........| | | ............X...| | ..X.X.X. . . .W W W ^ ^ +.[ o.( ( ( / / c z x x x r.v l q.w.a.a.a.p.p.p.k.k.k.j.l.z.z.p.k.d.p.p.k.d.f.k.k.k.j.k.k.k.j.j.j.j.u.e.u.u.u.y.u.y.w.y.y.y.y.d.y.y.y.y.y.y.3.y.3.w.y.i.i.j.i.j.j.w.r.c 8 4 8 k c z z x x ] ] } ] x s j z z z x x ) x x x x ) ) x x x x x x z z / U / T T ^ W T Y U T T T Y U U U U U U U U I P Y U U W W W W W W U E W E E E E R R R E R R E R R E F E E E E E F D F E E F F N M D N N D D D M N N N N S B N ",
"p.<.<.6.6.6.6.9.6.9.9.9.6.0.9.6.6.8.6.6.1.a r 2 # C $.sXUXUXUXLXLXIXIXIXIXIXIXKXKXFXFXPXgX} j 9 9 9 s z s.7.s.#X6.6.8.0.9.9.9.9.9.9.9.0.6.9.0.0.9.9.0.8.f.8.8.f.8.3.f.f.8.f.8.8.f.8.8.d.f.g.g.l.x.g.f.f.f.f.j.d.f.l.z.z.l.l./.(.(.].fXzXzX].].].].yXrXyXzXzXzXzXzXyX].1X].(.(.(.(./././././././././.a./././.E.E.E.E.E.E.E.E.E.u.E.E.E.E.E.E.u.T.T.) ) ) ) U U Z  .W Z | | | | X. . .X. .X.W W X. .| X.| X.X.X.|  .| X.X.| ....G G ....G ..G G ......9X0X6XG H G 6XG G G H G H G G H H G H G G G G ............................................................qX........X.......X...................X.X.X.X. . . .^ ^ ^ ^ W ( T T / U z c x c x x s.s.s.p.q.w.a.p.a.a.d.d.j.f.j.z.z.z.l.k.k.f.j.j.j.k.j.k.j.j.k.k.k.j.k.k.a.k.u.u.u.j.u.u.j.l.u.y.y.w.p.f.y.y.y.d.y.y.3.y.w.y.y.y.i.i.i.u.u.r.1.a 8 4 s k z ) v h z z ] ~.!.} x c z z l z z x x x x ) x x x x x x x x z z z U T T ^ ^ ^ W U Y U T T T U U U U U U U U P U U U U U W W W W U I I R Q R E R R E E R E R E E R E D M E E F F N M M F N D B F I D M N D D D F N N N N N N N ",
"p.w.6.7.6.6.6.7.6.9.9.9.9.0.9.9.0.0.8.8.1.a 3 = M X.qXZXUXLXLXLXLXIXIXIXIXIXKXLXFXFXPXFX-Xg # # 2 q k b s.s.7.6.6.9.9.9.6.9.9.0.0.9.0.9.9.9.9.9.9.9.0.f.d.d.f.y.d.f.f.j.l.g.g.l.l.g.f.f.f.l.l.l.l.l.g.g.l.l.l.l.f.l.z.(.(.(./.(.(.].].zXzX].'.rX;XrXrXzXzXzXzXzXzXzX1X1X].(.].{.(././././././././.T.a.a.k././.E.E.E.E.u.u.E.u.u.u.E.E.E.e.E.E.T.T.) ) ) ( ( W W  .| | | | X.X.|  . .o. . .W W  . .X. .|  .Z X.X.X.X.X.X.....G G G G G G G G G G G 0X0X9X0X6XG G 6XG G G G H G H G G G H G G G G ......................0X..0X..........G ........................................................X.....X.X. .X. . .^ W W W U U U U h g k c x ' r.W.s.r.s.p.p.p.p.p.p.p.k.d.d.f.d.k.z.l.j.j.k.j.k.k.j.j.j.j.k.k.k.k.j.k.j.a.e.e.j.k.k.l.l.l.l.j.j.k.y.y.y.i.y.y.y.y.y.y.y.y.y.d.y.y.y.y.y.y.w.w.q.a p r k z z z h g s k ' } ~.~.~.W.} z z z x x x x x x ) ) x x x Y.x ) x z z / / T T ^ W ~ U U U U T T U U I T T U U U U U U U U Y W ~ W W R P P R W E R R E R R E R E E R R E F F E R E C M F D D F E F F M D N D M D F F N N N S N N S ",
"<.6.7.6.7.6.6.9.9.6.6.9.9.9.9.9.0.8.8.1.a 4 2 = M +.lXUXLXLXLXLXLXIXIXIXIXKXKXKXFXPXGXfX{ 0 + 1 4 k b s.+X.X6.7.x.9.9.9.9.9.9.9.0.0.9.9.9.0.0.0.0.0.8.d.f.d.f.l.j.l.l.l.l.l.z.z.z.(.l.l.j.l.l.l.l.l.l.(.{.(.(.(.l.l./.(.(.(.(././.(.].1XfX;X].].fXrXrXrXzXzXrXrXzXzXzX].].(.(.R.(./././././././.k.w.e.e.e././././.E.E.u.u.u.e.e.u.E.E.e.E.E.E.E.T.) ) ) ) o.o.W  .W |  .| | X. .X.| X. . .W o. . . .o.X.| X.X.| X.....X.......G G G G ....G H H G 6X6X6X6X5X6XG 6X6X6X6XG G G G G G G G G H G ............0X......0X9X9X9X9X9X9X0X0X..H G G ....0X..................................X.......| | | ..X.X.X. . . . . .T U T T T T / / / z x x s.s.s.r.q.q.p.p.p.p.p.f.d.f.d.p.d.f.d.k.d.k.j.j.d.d.j.k.j.d.w.w.w.k.k.k.j.u.e.e.e.j.k./.j.u.u.u.w.w.y.y.y.y.y.y.y.y.y.y.d.g.y.l.g.i.i.y.u.u.u.j.w.l 8 4 q s z h g g g s g z ] Q._.~.~.~.] ] z z x x x x Y.T.Y.Y.x Y.Y.W.W.W.) ) / / / ^ W W I U U U U T U U U P T W U U U U U U U Y U W ~ ~ W U I I I W W E E R E R R E R Q Q R E E D E R Z | F B E E E E C D F D D D F N F F m B m V N B N ",
"1.6.6.6.6.6.9.XXXX7.7.6.6.9.6.6.6.6.1.a 8 < + w X.qXkXUXLXLXLXLXKXKXKXKXKXPXFXKXPXKXgX' 0 # $ 4 p n s.7.6.7.6.6.9.9.9.9.9.9.9.0.9.0.0.0.g.g.f.g.8.d.d.k.l.{.(.(.(.{.(.(.(.(.(.{.(.(.(.(.{.E./.(.(.{.(.(.(.{./.(.(.(.R.(.(.].{.R.(.`.(.].].;X1XrX].rXrXrXzXzXyXfXfX].].1X/./././././././.k.k.u.e.e.e.e.e.e./.E.E.E.E.E.E.E.E.u.e.e.e.E.E.E.e.e.Y.T.) ) ) ) o.o.o. . . . .X.X.X.| X.|  . . .X.W W W X. . .Z X.|  .X.....| G G G H G ..0X0X0XG H H G 6X6X6X6X6X6X6X6X6X6X6X6X5X6X6X6X9X..H G ..9X9X0X..0X0X0X9X..G G 0X9X0X9X9X9X9X0X6X6XH G G G 0X0X0X..........................| X.| X.....9X9X......X.| X.W W W W W ~ T T T Y T / / / x x x r.s.w.p.p.p.p.p.d.d.d.f.d.d.d.d.d.f.d.d.f.j.f.k.f.j.k.j.k.p.w.w.w.w.a.j.k.k.j.j.j.j.u.e.u.u.u.u.u.u.u.u.y.u.k.y.y.y.y.y.y.y.j.y.g.i.i.i.i.l.j.y.1.a p 4 s s s s j h g g z / ) ] _.-X-X*X~.Q.] v l c c W.W.T.T.T.T.T.Y.Y.r.x ) x / / / T W W W W U U U U T T U U U U U U U U U U U U Y U U W W Y W U P W E E E E R R E R R R R E R E E R R F F E E | F M C M M D D D D D D D N N N B B N N N ",
"1.6.7.6.6.6.9.XX.X6.6.9.9.6.6.6.6.6.q.a 4 $ 1 C X.sXjXLXKXIXKXIXPXPXKXKXKXLXFXFXPXFX-Xh # 1 0 p l s.7.7.6.6.6.9.0.9.9.9.9.9.9.0.9.0.0.g.g.g.l.g.k.k././.(.(.(.(.(.(.(.{.(.(.(./.R.{.(.{.(.(.(.{.(.(.(.{.(.(.{.(.(./.(.(.{.(.(.(.(.(.].].].;X].].rXfXrXrXfXzXzXfXzXyX].{././.l.E./././././.k./././.e.e.e.r././.E.E.E.E.E.E.u.u.u.u.u.E.E.E.E.R.Y.T.Y.Y.) W ) o.W W  . .X. .X. .X.X.| X. .| W W W | X. . .X.X.X.X.............G G G G 6X6X6X6X6X6X6X6X6X6X6X6X6X6X6X6X6X6X6X6X6X6X5X9X9X0X....9X9X..G 0X0X0X9X6X6X6X6X6X0X0X6X5X0X6X6X6X6X6XG G 0X9X0X............................X.X.X.............X.X.X.| W R W W ( ^ T T T T / / x x x x q.q.q.s.p.p.p.p.p.d.d.d.d.f.f.d.f.f.d.f.d.d.j.k.j.j.j.d.f.f.k.k.j.d.k.j.k.j.k.k.j.k.e.e.u.j.j.j.k.k.j.k.u.u.y.y.y.y.y.y.i.i.y.g.l.l.l.l.u.u.l.u.r.8 8 8 4 4 s g h s h z z z z z ' } ~.~.-X-X~.Q.W.Y.x c W.Y.T.^./.^.T.W.Y.W.) ) ) ) / / T T T W W U U U T T T T T U U U U U U U T T U U U ~ I W W W W U W R E E E E R R E F E R R E R R E E F M E E M | M M M D D A D D M D M N m m N N N B S ",
"6.6.6.6.7.6.6.7.6.6.6.9.6.6.6.6.p.p.b q # # - W qXlXUXLXKXKXIXIXPXPXKXKXPXFXKXPXFXfX[ 0 # $ q l n 6.6.6.6.7.6.0.9.0.9.6.9.9.9.9.9.0.g.g.l.l.(./././.(./.(.R.{.(./.(.(.R.(.(.(.(.(.(.(.{.].(.{.].(./.(.R.(.(.R.(.R.{.(.(.R.(.(./.(.].(.].].1X].fXfXzXfXfXzXzXzXzXzXyX].(././.u.E././.E.E.E./././././.a.u.k./.a.k.u.E.E.E.E.u.u.E.E.u.E.u.E.E.E.T.Y.r.T.) ) o.) Z W  . . .X.X.| X. . . . .o.| | W W  . .X.X.X.X.X...........9XG H G G G 6X6X6X6X6X6X6X6X6X6X8X0XG 6X6X8X6X6X6X6X6X6X9X9X9X9X9X9X9X9XG ..6X0X6X5X0X6X6X6X6X6X6X5X6X6X6X6X6X6X6X6X6X6X0XG H G ....G G ..............................X.X. . .W W U T ( [ ~ T T T T z z x x ) s.r.l q.w.p.p.p.p.w.d.d.d.f.g.f.f.g.g.f.g.f.f.d.f.j.f.d.p.d.k.j.k.k.l.k.k.k.u.e.k.e.e.e.e.j.k.j.k.j.k.l.k.u.u.u.y.y.y.y.y.y.l.l.l.l.l.l.i.i.l.l.y.r.a 8 5 4 4 s g j h h z / z / z z z ' W.~._.~.Q.W.W.x x W.Y.^.(.(.(.^.W.T.W.W.) Y.W.) ( / / ( ( ^ T U T T T T T T U U U U U T T T T T Y Y Y W ~ W W W W W W W E W W E E R R E E R R R E R Z F F B E F M N M N F D F D D A N N m N N N m B N N ",
"6.6.6.6.6.6.6.7.6.6.6.9.7.6.7.6.w.q.a 4 @ # w o.fXUXLXKXLXLXKXKXKXKXKXPXFXFXFXPXBX_.f # # 4 p a n 7.7.6.6.6.6.6.9.9.9.9.9.0.0.0.g.g.g.g.(.(.(.].{.].(.].(.].].].(.].].(.].R.].'.(.].].].].].].].(.].].(.].(.].].].].].(.].(.].].].].].].].yXrXfXfXyXfXfXzXzXzXzXzX].]././.u.u.u.E.u.u.E.u./././././././.j.a.a.e.e././.E.E.u.u.E.E.u.u.r.e.E.E.R.T.R.T.Y.) ) ) o.W W  . .W X.X.X. . . . . .X.X. .W  . .X.X.X.X.X...........9XG H G G 6X6X6X5X6X6X6X6X6X5X6X6X6X6X6X6X6X6X6X6X6X6X6X6X0X0X6X0X6X0X0X6X6X6X6X5X5X0X6X5X6X5X5X6X5X5X5X6X6X6X5X6X6X6X6X6XG G G G G G G ....................X.X.X...X.X.X. .W W W W T ( ( T T T T / z z x x r.e.q.s.w.p.p.p.p.p.d.d.f.f.g.g.g.f.f.g.g.g.g.f.f.d.y.d.y.d.d.j.j.k.k.k.e.d.e.e.k.e.e.k.u.k.j.j.k.j.k.j.l.l.k.u.u.y.y.y.i.i.g.l.l.l.l.l.l.l.i.i.u.w.1.&.8 a 4 p j j h h h z / / / z z h z b ] ] W.] s.] x x W.Y.Y.[.^.^.^.T.T.Y.W.^.T.~._.{ ) / / / ~ T U U T T T T T U U U U T T T T ~ ~ T Y T ^ ~ W W W W W W W E R W W R E R E R E R E E E D D F D D H M F E F F M F D F D N & N N F N N S N N ",
"6.7.7.7.6.7.6.7.6.7.7.6.6.6.6.p.q.a 4 $ @ * I tXlXUXKXPXKXKXKXKXKXKXKXKXFXFXPXKXhXh # + 4 p p n 7.6.6.6.6.0.0.8.9.9.9.9.9.9.0.f.g.g.l.{.(.(.(.].;X{.].].].].1X].].].].].].].].].{.zX].].].].].].].].].].yX{.].].].].{.].].{.].;X].yX].].].rX].rX;XrXrXzXfXzXzXzX1X].(.R./.u.u.u.u.u.u.E.j.E././././././.k.k.a.e././././.E.u.E.u.E.u.e.e.u.E.E.E.E.E.E.Y.Y.) ) o.W W  .o. .X. . . . . . . . . . . . . . . .X.| X.........0XG G G G 6X6X6X6X6XG G 5X5X5X5X5X5X5X5X6X6X6X6X6X6X6X6X6X6X6X6X6X6X6X6X6X6X6X6X5X5X5X5X5X5X5X5X5X5X5X5X5X5X5X5X5X5X5X5X5X5X5X5X0X6X0XG ................ ...X.X.X.X.X. . . . .^ W ( _ / / / T T h / z z x x x e.s.q.q.p.p.p.p.p.p.d.f.g.g.g.g.g.g.d.f.g.f.g.f.j.d.u.y.f.d.d.d.k.p.j.e.e.d.k.k.k.k.j.k.k.j.k.k.j.j.k.j.l.k.j.u.u.u.y.y.y.i.l.l.i.l.l.l.l.i.t.u.u.w.w.8 a a k j j j s g g h z / z z z z z z z x l x ] W.] W.W.T.T.T.T.T.(.(.`./.W.Y.T._._.~.{ { / / / T T U U U U T T U T T T T T ~ ~ T T T T T W ~ ^ W W U R W W R W W W E R R R R E R E E F M D F D M M M D F E D A D F F N N m N N S N B N N m ",
"6.7.XX7.6.6.6.6.6.7..X7.6.7.6.7.l 3 < O * ; ` sXUXLXKXPXPXIXIXPXPXKXKXFXFXPXPXGX-X$ + $ p p n p.6.7.6.8.6.6.8.8.9.9.9.0.6.8.8.g.g.l.(.(.(.(.].{.].].1X].{.].].].{.].].].1X].yX].].].].{.].].].].yX1X].yX].yX].].].1X].].].].].].].{.].].].].].].].yX].].].].].1X].]./.u.u.u.u.E.E./.R.E.E.E././././././././.u.e./././.E.E.u.u.u.u.u.u.u.E.u.E.E.u.E.E.T.Y.T.[.) W  . . . . . . . . . . . . . . . . . . . .X.X.X.X.......0X..6X6X6X6X6X6X6XG G 6X5X5X9X5X5X5X5X5X6X6X6X6X6X6X6X6XG G H G G G 6X6X9X6X6X5X5X5X5X5X5X5X5X5X5X5X5X5X5X5X5X5X5X5X5X5X5X5X5X5X9X0X0X0X0X..0X........ . . . . . .X.X. . .+. . .( [ [ [ / h z / z z z z x x ] x q.q.w.p.p.p.p.p.p.d.g.g.g.g.g.g.g.f.y.y.y.d.f.k.k.l.l.l.j.d.d.p.w.w.d.f.f.k.k.j.j.j.j.j.k.e.e.j.k.j.j.k.k.u.u.u.u.u.y.y.l.l.l.i.i.i.l.l.u.l.l.l.y.w.8 8 a s s 4 j s g z z z z z z z z z z z x x ] W.W.W.W.W.^./.E.T.T.(.(.].`.^.^.T.Y.{ Y.~.) ) / / T U U U U U T U T T T T T T W T T T T T T T T ~ ~ W Y Y W W R R W W R E R R R R R E E D F B F M M M F D B N F F F F S F m N N N B N N S N B ",
"6..X.X.X6.7.6.6.6.6.6.6.6.7.s.s.n 3 + * * M O.lXUXKXKXPXKXPXPXPXKXKXKXPXKXPXKX>Xz $ + $ p a 1.6.6.7.7.6.6.6.8.0.0.9.0.8.8.8.f.g.l.l.{.(.(.R.].].].].].].].].].].].].yX].yX].].].].].].].].].].yX].1X].].].yX].].].{.].].].1X].{.].].].].].yXyX].].rXyX].].].zX1X].(.R.E.u.u.u.E././.(./.E././././././././././././././.E.u.u.u.u.u.E.R.E.E.E.E.E.u.E.E.T.Y.T.[.) ) W  . . . . . . . . . . . . . . . . . . .| | X.........G 0X6X6X6X6X6XG G G 6X6X5X0X5X5X5X5X5X5X6X6X6X6X6X6X6X6X6XG G G G G K 6X0X0X5X5X5X5X5X5X5X5X5X5X5X5X5X5X5X5X5X5X5X5X5X5X6X6X0X9X9X9X9X9X9X9X9X......0X..X. . . . . . . . .o.^ ( [ [ { { ' z z z z z z v v s.r.s.q.q.w.p.p.p.p.p.f.f.g.g.g.g.l.g.g.f.f.f.f.f.g.g.k.j.l.l.d.w.w.w.w.p.f.k.j.k.j.k.j.k.k.j.e.e.k.j.j.k.j.k.k.u.u.u.l.u.y.y.i.l.u.i.y.l.l.l.l.l.(.{.k.w.8 8 r q q 4 4 p s h z z s s j s z z z x ] ] ] ] W.W.x r.^.(.T.T.E.(.].].`.(.`.Y.) ) ) v ] ] ' / / U U U U U T T T T T T T T ~ T T T T T / T ~ ~ T W Y I U U W W W W R E R R E R R E F B N F M M M F F C F F B D F N N N m N N B N N N N N m ",
"6..XoX6.6.6.6.7.6.6.6.7.6.6.p.b 8 3 = * > R tXUXKXKXKXKXFXKXKXKXFXFXFXKXPXIXGX-Xj + $ p s v 7.7.6.6.6.6.6.7.6.9.h.h.h.h.h.g.g.g.l.l.(.(.(.(.].].{.].].].].{.].].].rX].].].].].yXyX].].].1X].{.].].].yX].].].].].].].{.].].].].].1X].yX].].].].].yX].].].].yX].1X].(./.(.j.E.u.u.u.E.E.E.E.E././.j.j.j.j./././././././.u.u.u.u.u.u.E.E.E.E.E.E.E.E.E.E.T.Y.T.[.o.o.o. . . . . . . . . . . . . . . . . . . . . ...X.........6X6X6X5X6X6X6X6XG 6X5X5X5X5X5X5X5X5X5X6X5X6X6X6X5X6X6X6X5XG G G H G G 5X6X5X5X5X5X5X5X8X8X8X5X8X8X5X5X5X5X5X5X5X5X5X5X6X5X5X9X9X9X9X9X9X9X9X....0X9X.. .o.o.o.o. . .o.o.[ ( [ ' ' ' ] ] ] v z z z v v ] v s.s.w.q.p.p.p.p.k.k.f.k.g.f.f.f.f.g.g.g.g.g.g.g.g.d.y.y.y.w.w.w.w.p.d.d.f.k.k.j.k.j.j.k.j.k.k.j.j.j.k.j.k.j.k.u.u.j.j.u.u.u.l.l.l.i.i.l.l.l.l.l.l.z.l.u.a a a 5 4 $ 4 q s s k s s s s g h z ] ] ] ] W.W.W.] x x /.(.E.E.R.{.(.^.^.^./.Y.x ) ) ) ) ] ' / / T T T T T T T T T T T T W W U U U T T U U T T T W W Y Y U W W W W R E R E R E R E C F F D M M M | M | E M E F D B N N B N N m B S m N N N ",
"6..XXX7.6.6.7.6.6.7.7.6.6.6.n p 8 4 @ > M  .sXUXKXKXKXKXKXKXPXPXKXGXGXFXKXKXgX} $ + 4 a n 7.s..X8.7.6.6.6.6.6.9.h.h.h.h.g.g.l.l./.(.{.(.(.(.(.`.].].].].].].].].].].].].].].].yX'.].rX].].(.].'.].].].1X1X].rXyX].].].].].].].{.].yX].].rXyXzX].;X].].].rX].1X1X3X(././.l.u.u.e.e.u.u.u.E.E.E.E.u.u.u.u.u./.E.E././.E.E.u.u.u.u.E.E.u.E.E.E.u.E.R.R.E.Y.Y.Y.Y.Y.) W W W  .W W Z W X. . . . . .X. .W W W  . .X. ...X.....G G 6X6X6X6X6X6X5X5X0X5X5X5X5X5X5X5X5X5X6X6X6X6X6X6X6X6X5X5X5X6X0X5X5X5X6X6X5X5X5X5X5X5X5XiX5XiX8X5X5X5X5X5X5X5X5X5X5X5X5X6X0X9X9X9X9X9X9X9X9XX.....qXqXo.o.$.o.o.o.o.o.+.o.+.+.} { z z v ] x z z b v v s.s.Y.s.p.p.p.p.p.a.d.z.z.g.f.d.y.d.f.g.l.l.f.f.f.f.y.y.w.w.w.w.d.d.d.d.j.j.d.d.y.k.f.j.k.k.j.j.j.l.k.k.k.k.k.k.k.k.j.j.u.u.y.u.l.l.l.l.i.i.l.i.i.i./.l.u.u.r.:.a a < 4 4 4 j q 4 s s g z z z ] Q.] Q.Q.W.W.~.W.W.Y.T.(.{.].].].'.].'.R.[.T.Y.W.Y.] ' v ] z / / / T T T T T ~ T T W T U U U U U T U U U T T T T T Y U U W W W W R E R R E E R E D M D D M M M F F E E F N | F N N N B N N N N N N m m m ",
".X.XXX7.7.6.6.6.7.9.6.6.6.s.n k 4 + , ; N +.lXLXLXKXPXPXKXKXKXKXKXKXKXFXKXGXdXh $ 4 p p n 7.6..X6.7.6.7.7.9.6.0.h.x.x.x.z.(.(.l.E./.(.(.].(.(.].].].].(.].1X1X].zXfXzXrXzX].rXzXzX1X].yX].].;X1XzX1XyXzX1X].].].1X].].{.1X].].].].].yX].1X1X;XfXfXfXfXzX].rX1X1X{.(.j.u.u.u.u.u.E.E.E.u.E.E.E.E.E.E.E.E.E.E.E.e.E.E.E.E.E.u.u.E.E.E.R.R.E.E.E.E.E.R.R.R.R.T.Y.Y.) o.o.W W W  .W  .o.X. . . .X.| X.W  .o. .X.....9X0X9X0X6X6X6X6X6X5X5X5X5X5X5X5X5X5X5X5X5X5X5X5X6X6X6X6X5X5X5X5X5X5X5X5X5X5X5X5X5X5X5X5X5X5X8X8X5X5X5X5X8X5X5X5X5X5X5X5X5X5X5X5X5X6X5X0X9X9X9X9X9X9XqX9X....X. .o.o.$.+.o.o.o.+.$.+.+.@.o.[ { / ] ] v z x x v x x s.s.a.a.p.p.d.d.k.f.j.d.g.g.j.j.g.l.g.l.f.d.y.y.d.y.y.y.d.d.y.f.p.d.d.d.d.d.w.w.d.j.k.k.k.l.k.j.j.l.k.k.j.j.l.l.l.l.u.j.l.j.u.u.u.l.u.u.l.i.i.i.l.K.u.u.w.r.r.c a p a 4 4 4 4 4 s c s s c / Q.Q./ ] W.] ~.~.[.W.Y./.R.R.].].'.].'.].'.[.[.T.~.~.Q.W.] ) ) ' / / / / / / T T T / / T U g T / / / U U U U U T U T U Y I U R E W E I E R R P I I D D D M M D M D M F D B F F N F H m B m N F B m N m N N ",
".X.X.X7.6.6.6.7.6.9.9.7.7.s.b s # O * > F pXUXLXKXKXPXPXKXKXKXKXKXKXKXPXKXZX|.s $ p a 7.6.7.7.6.6.6.6.6.9.9.9.h.h.z.z.(.(.(.(./.(.].].(.].(.(.(.{.].(.].].1XyX;XfX;X;X].fX;X;XfX1X].].;X1X].1X;XzX{.].1X1X].].1X].;X].].{.].(.].].].].{.zX].].fXfXfXfXfX].1X1X1X].l.l.d.j.l.E.E.E.E.R.E.E.R.E.E.R.R.R.R.R.E.E.E.E.E.E.E.E.E.E.E.E.R.E.R.R.E.E.E.e.R.R.R.R.R.T.T.Y.o.o.( ^ ( | o. . .| X. .X.X.| | X.X. . .X...0X0X0X0X0X5X5X5X5X5X5X5X5X5X5X5X5X5X5X5X5X5X5X5X5X5X6X5X5X5X5X5X5X5X5X5X5X5X5X5X5X5X5X5X5X5X5X8X8X5X5X5X5XiX5X5X5X5X5X5X5X5X5X5X5X5X5X5X6X0X5X9X9X9X9X0X9X..X.X.o. .$.$.$.$.o.o.o.o.$.$.o.[ { { { W.) v v ) x x ] Y.s.e.s.a.a.k.f.j.j.j.g.g.g.g.l.g.g.l.f.f.y.y.y.y.y.y.d.y.j.d.d.d.p.d.d.d.j.d.d.d.j.l.j.l.j.l.k.j.k.l.l.l.l.l.l.l.l.l.l.l.l.l.l.u.u.u.u.u.l.i.i.i.l.l.l.y.r.1.r.q.1.1.a a a 4 4 4 s k s j h z ] ] ) ] { ] W.{ [.).T.E.(.R.].].].].'.].'.'.[.).^.[.{ ^.^.W.) ) ) / / / / / T T / / / / / z z z / / / / T / U U U T U Y U I E R W R I R I P P I I D M D M M D D D M F D F D H D F N N m N F A A N N M N m ",
"6.7.6.7.6.7.6.7.9.9.6.6.7.q.a 4 @ * * N ! sXUXLXLXKXIXKXKXKXKXKXKXKXKXPXKXsX' j $ p n 7..X.X7.6.6.6.6.9.9.9.#Xh.h.z.l.x.(.{.(.(.].{.].].].].].(.].].1X].1X].;X;X;XfX;X].;X].'.].fX1X;X;X].].].1X].].].].].].].].].{.].].].].R./.].yX].yX].].].].fXfXfXfXfX].1X1X{./.j.f.l.u.E.E.E.E.R.R.R.R.R.R.E.R.R.R.R.E.R.E.E.E.R.R.E.E.E.E.E.R.E.R.R.R.R.R.R.R.R.R.R.R.R.T.T.) ) ( W W o.W  . . .X.| | | Z | | | X.X.X.......G G 5X5X5X5X5X5X5X5X5X5X5X5X5X5X5X5X5X5X5X5X5X5X6X0X5X5X5X5X8X5X5X5X5X5X5X5X5X5X5X5X5X5X5X8X8X8X5X5X5X5X5X5X5X5X5X5X5X5X5X5X5X5X6X6X6X6X0X9X9X9X9X....X.X. . .o.$.$.$.+.o.o.o.o.qXqX+.[ ( { } [.W.] s.s.v s.s.s.s.s.r.q.a.a.k.k.j.l.l.g.g.g.g.g.g.f.d.f.y.f.y.d.y.y.f.f.j.f.d.f.p.f.f.j.k.k.j.f.l.l.l.l.j.k.k.l.j.l.l.l.l.l.l.l.l.l.l.l.l.l.l.u.u.u.u.u.i.i.i.l.l.l.l.i.e.y.y.w.r.r.a a a a 8 4 s s j s k ] ] x ) ] W.[.~.W.~.W.T./.'.'.].yXyX].].'.'.].].).~.~.Y.^.`.`.W.) ) / z / / / T T T / / z / z z x z / / / / / / / U T U U U P W ~ W E R E I P P I P D M : M D D D D D C F M B G F B F N B S F F N m N A N N ",
"7.6.6.7.6.6.7.6.6.6.6.6.6.1.p $ @ * ; D $.lXLXLXKXPXPXKXKXKXFXFXFXKXIXFXjX} h j p p n .X.X.X6.6.6.9.6.6.9.9.h.h.h.k.z.z.(.{.(.].].].].{.].].].].].].].].].].].;X1XzX;X;X:X].`.`.;X;X:X:X].].].].].].(.].].].].].].].(.].].{.(.].].].].].].].yX;X].fXfXfXfX].].].(.l.j.g.g.u.u.u.E.E.R.R.R.R.R.R.R.R.R.R.R.E.E.R.R.R.R.R.R.R.R.T.E.E.R.R.R.R.R.R.E.R.R.E.E.R.R.[.T.) ) o.W W W W W W  . . .X.X.R | | | X.X.X.X...G G G 6X6X5X5X5X5X6X5X5X5X5X5X5X5X5X5X5X5X5X5X5X5X5X6X5X5X5X5X5X8X5X5X5X5X5X5X5X5X5X5X5X5X5XiX5X8X5X5X5X8X5X5X5X5X5X5X5X5X5X5X5X5X5X5X6X0X9X9X9X9X .....X. .+.o.o.+.$.+.+.+.+.o.o.$.o.( ( / / { { W.s.s.v s.W.r.v s.s.r.r.a.a.k.k.j.l.l.g.g.g.f.d.d.d.f.f.d.g.g.f.d.d.j.j.k.j.d.f.f.d.d.j.j.k.k.j.l.l.j.j.j.k.k.l.l.l.l.l.l.l.l.l.j.l.l.j.j.l.l.u.u.u.u.u.y.i.i.i.j.l.l.i.u.u.u.u.w.q.q.r.a a p q s q q k l x ] z ) W.Y._.W.W.W.Q.^.'.'.].].].].'.'.].'.'.(.`.Y.~.[.~.`.=X_.Y.] { ) / / / T / T U z z ) x x x ) ) z / / / z / C g U Y U P U W W W R W U P P I f D : M M D D D D F M F M H H M F F N N B N A m B N N N N ",
"XX6.6.6.6.6.6.6.6.6.7.6.7.n p $ @ - : F qXUXLXLXKXIXPXLXKXKXKXFXFXPXKXZX-X' s h b n n 7.7..X6.6.9.9.9.9.9.h.h.h.z.z.z.@X(.(.(.].].].].].yX].;X1X1X].1X].].].{.].].].;X;X].].`.(.:X:X:X:X=X].].(.(.].].].].{.(.].].].(.(.(.(./.].{.].(.].].1X;XfX].rXfXfXfX1X].(.(.j.l.g.g.u.u.u.u.E.R.R.R.R.R.R.R.R.R.R.R.R.R.E.R.R.R.R.R.R.R.R.E.R.R.R.R.R.R.R.E.E.R.R.R.R.R.[.T.) W ) o.) W W W  . . . . .X.| | | X. .X.........G 6X6X5X5X5X5X5X6X5X5X5X5X5X5X5X5X5X5X5X5X5X5X5X5X5X5X5X5X5X5X8X5X5X5X5X5X5X5X5X5X5X5X5X5X5X8XiX5X5X5X8X8X5X5X5X5X5X5X5X5X5X5X5X5X6X6X5X0X9X9X9X0X..0X0XO.O.$.o.+.o.+.+.+.+.+.+.@.( ^ / / / ) ] ] ) v ] r.s.s.W.r.s.q.s.a.a.d.d.f.k.j.g.f.f.f.f.f.f.g.g.g.g.f.k.j.f.k.d.y.y.y.j.f.f.d.d.d.j.j.f.d.d.d.f.z.k.l.l.l.l.l./.l.l.j.j.k.j.l.j.j.l.l.l.l.l.u.u.l.l.l.i.i.i.i./.K.l.l.y.r.:.1.r.r.c a q 3 4 q s l ] ] ] ) ] W.] W.W.W.[.`.'.].].].].'.'.].].].'.].`.~.).W.^.^.].`.~.[.W.) ) / / / / T z z / ) ] ) x x x z z z / z z f f U Y P P W W W Q R W R P I P C D : M D D u D D D H I B F H E B B N S N N N N N S N N N ",
"XX7.7.7.6.7.6.9.9.6.6.7.7.n 0 $ * ; :  .lXUXLXLXKXIXPXKXKXPXFXGXGXPXPXgX' j h ' v b n 7..X.X.X.X.X9.9.9.6.h.h.h.z.(.(.(.(.].].1X1X].].rX].].1X1X1X1X].].1X;X].].(.].;X:X].`.(.].].`.].:X:X;X].].].(.(././.(.(./././././.(./.].].].].].].].1XzXfXfXfXfXfXzX1X].]././.i.g.g.i.u.u.E.R.R.R.R.R.R.R.R.R.R.R.R.R.R.R.R.R.R.R.R.R.R.R.R.R.R.R.R.R.R.E.E.R.R.E.E.R.R.E.T.) ) o.) ( W W W  . . .| X.X.| | X.| X.........6X6X6X6X5X5X5X5X5X5X5X5X5X5X5X5X5X5X5X5X5X5X5X5X5X5X5X5X5X5X5X5X5X5X5X5X5X5X5X5X5X5X5X5X8XiX8X8X5XiX5X5X8X8X8X5X5X8X5X5X5X5X5X5X5X6XG 5X6X6X9X9X9XqX9X.... . . .+.O.+.+.+.+.+.+.+.{ { ' ' ' ] ] ] ] v v v s.s.r.s.Y.s.e.a.j.k.p.y.d.d.g.g.f.d.f.g.g.g.g.d.f.f.j.j.j.k.u.w.w.w.p.k.j.j.d.y.d.f.d.f.y.d.j.j.l.l.l.l.l.l.l.l.l.j.k.k.k.j.u.u.j.l.l.l.u.u.u.u.l.l.l.l.i.i.u.l.{.l.u.w.r.r.r.r.q.q.1.a s p q k k l v ] x x ] ] W.W.W.^.(.].].].].yX].'.yX].].'.(.].^.`.^.`.`.`.`.^.^.[.} ' / / / / z z z / ) W.W.W.) ) x z z z z z g f g P Y U I P U W P W P P I P I M M D D D D D D D E D F D H D F N m B m B S N N B N N B ",
".X.X7.6.6.6.7.9.9.6.6.6.6.n 4 @ @ > M +.lXLXLXLXKXKXKXKXFXFXFXFXFXFXFX-Xg j s z v n n 7..X.X.X.X.X.X9.0.0.#Xh.h.x.z.z.(./.{.].].1XzXzX].].rXrX;XfX1X1X].fX;X;X:X:X].].].].].;X;X].].(.(.].(.(././.E.T.Y.e.T.E.E.R./.(.(.].(.(.(.(.].].;XfX].fXfXfXfXrX].].].].{.(.l.g.g.l.l.l.u.E.R.R.R.R.R.R.R.R.R.R.R.R.R.R.R.R.R.R.R.R.R.R.R.R.R.R.R.R.R.R.R.R.R.R.R.R.R.R.E.T.) ) ) ( W ( W W  . .W | | | | | | | X.........6X6X6X5X5X5X5X5X5X5X5X5X5X5X5X5X5X5X5X5X5X5X5X5X5X5X5X5X5X5X5X5X5X5X5X5X5X5X5X5X5X5X5X5X5X5X5XiX8X5X5X5X8X8X5X8X8X5X5X5X5X5X5X5X5X5X5XG G G 9X9X9X0X......X. . .O. . . ._ _ +.[ ) { { { ] ] v ] ] v v v v s.s.W.s.s.e.s.a.a.a.y.y.y.j.l.l.g.g.g.l.l.l.f.y.y.j.j.j.k.k.y.y.w.w.w.j.k.j.y.y.y.y.y.y.j.l.l.l.l.l.l.l.l.l.l.l.j.j.u.u.j.l.j.u.j.l.l.l.l.j.j.u.l.l.l.l.l.l.l.l.l./.l.u.u.e.e.e.e.e.r.l l k 8 q r k l x l l x ) W.W.W.W././.].].].].].].].].rX'.'.].].].`.].`.^.`.).^._._.Y./ U / / / / / ) W.W.Y.W.r.W.l z z z z h U g g U Y R I P Y P P W R P P I I M M M D D D D D F B F M F M F N B m N N N N N B N N N S ",
"XXXX6.6.6.6.9.9.9.8.6.h.s.z 4 @ * ; W qXkXLXLXLXKXKXKXKXFXGXFXFXFXGXgX_.j j j b z n n 7..X.X.X.XXX.X9.9.9.h.h.h.h.h.x.(.(.].;X1X].zXzXzXfXrX].].].;X;X;X;X;X;X;X1X].].].].].;X].(.(./.E./.E.T.e.r.e.T.r.r.Y.Y.Y.E./././.(.(.(.(.(.(.(.].].].].rXfX].'.].(.].(.(.z.z.g.g.g.g.l.j.E.R.R.R.R.R.R.R.R.R.R.R.R.R.R.R.R.R.R.R.R.R.R.R.R.R.R.R.R.R.R.R.E.R.R.R.R.R.R.E.T.Y.) ) ) o.( ( W  . . .| | | | | | | | ..........6X5X5X5X5X5X5X6X5X5X5X5X5X5X5X5X5X5X5X5X5X5X5X5X5X5X5X5X5X5X5X5X5X8X5X5X5X8X5X8X5X5XiX8X5X8X5X8X5X5X5X5X5X5X5X5X5X5X5X5X5X5X5X5X5X6X6X6X9X9X..9X9X....X. . .O. . . .Q T T ' ' / ' } ] ] v ] v v v v v v W.s.W.s.s.s.a.a.p.k.d.d.j.l.l.l.g.g.g.l.j.g.f.y.y.j.j.k.k.k.y.e.e.w.w.y.e.k.u.y.j.u.y.y.l.l.l.l.z.l.l.l.l.l.l.l.j.j.k.k.l.l.u.u.j./.l.l.E.l.l.l.l.l.l.l.l.l.l.l.l.j./.j.u.u.k.e.u.e.r.q.l l a k q q q c k k z ) ] W.W.W.^./.].].].].'.].].].'.'.{.'.].].].]._.`.^.^.).`.^.W.) / / / / z ) ] W.s.r.Y.v W.c c c z z z h g g T Y P P f I I I P P P P P I P D D I D D M D D F E D B M F B N N S B S N N B B N m N ",
"7.6.6.7.7.6.9.6.8.6.9.7.p.a 0 # - u  .pXkXLXLXLXLXKXKXLXKXGXGXKXFXGX-X' 0 4 j h s p n 7..X.X7..X9.9.0.9.9.9.h.h.z.#X=Xz.(.=X;X;XfX1XzXfXfXzXzXfX1XrX;X].].].;X1X1X1X].(.{.(.R.E./.E././.E.E.Y.r.Y.u.e.r.e.e.a.e.Y.e.e.e.T.T.^./.T.E.^./.(.`.].].zX].].(./.(.{.z.l.z.g.f.g.g.i.u.u.R.R.R.R.R.R.R.R.R.R.R.R.R.R.R.R.R.R.R.R.R.R.R.R.R.R.R.R.R.R.R.E.E.E.E.R.E.R.e.T.Y.) ) ) ) ( ( ( ( o. . .X.X.| | | | | | | ....6X6X6X5X5X5X5X5X5X6X5X5X5X5X5X8X5X5X5X8X5X5X5X5X8X8X5X5X5X5X5X5X8X8X8X5X5X8X8X8X5X5X5X5X8X5X8X8X8X5XiX5XiX5X5X5X5X5X5X5X5X5X5X5X6X6X6X0X9X9X9X..0X9X....X. . . . . .^ ~ ~ ~ ` ' { v v ] v v v v v ] s.W.s.s.r.s.Y.v e.w.w.p.k.j.j.l.l.l.y.g.j.f.j.f.f.j.u.l.j.j.j.k.k.u.k.e.e.w.w.w.e.u.k.k.k.j.j.j.l.u.i.j.l.l.l.l.K./.j.k.k.j.k.l.l.l.j.j.l.l.l.l.l.l.l.l.l.l.i.i.l.l.l.u.i.l.l.u./.k.u.u.u.e.q.q.l l k k k r k c k c x Y.) ] W.T./.(.(.].R.].{.].'.].'.rX(.].'.].].`.].^.^.`.`.`.).) / / / ) ) Y.W.W.r.Y.r.s.W.c c c k z z z T U T T P P d I P I P I I P P C P I I P I D M D E E E B I F M I H N N N N N N S m m B N ",
"7.7.6.6.6.9.9.6.6.6.6.<.a p 4 = - M ..sXUXLXLXLXKXLXLXGXKXGXFXFXGXhX} j $ $ j j p p n .X.X7..X.X7.9.9.9.9.h.h.h.x.#X=X=X=X=X;X;X;X].rXzXzXfXfXfX;X;X].].].].].].zX].]./.E.E.E.u.R.E././.T.E.T.T.e.u.e.e.u.e.r.e.r.:.:.r.r.r.e.T.e.r.Y.W.^.^.].].1X;X].(.(.(.=Xz.h.d.8.8.8.g.i.i.i.R.R.R.R.R.R.R.R.R.R.R.R.R.R.R.R.R.R.R.R.R.R.R.R.R.R.R.R.R.R.R.E.e.E.E.E.E.E.E.T.T.Y.Y.o.) ) o.o.( o.o. . .W  . .| | | | | ......6X5X5X5X5X5X5X5X6X5X5X5X5X5X5X5X5X5X8X5X5X5X5X8X8X5X5X5X5X5X8X5X8X8X8X8X8X8X8X5X5X5X5X5XiX5X8X8X8X8XiXiX5X8X5X5X5X5X5X5X5X5X5X5X0X0X9X9X9XqX9X9X0X..X.X. . . . . .^ ^ _ ' ' ' ' b b b v s.s.v s.r.) s.r.s.s.x s.s.q.p.w.p.k.k.l.l.l.l.u.i.y.y.d.f.f.j.j.l.j.k.j.j.j.k.k.u.e.u.w.w.u.k.j.j.k.k.k.u.y.w.w.y.k.j.l.j.l.u.j.l.l.j.k.j.l.j.u.l.l.l.l.l.l.l.l.l.l.i.l.i.l.l.l.l.l.l./.(./.E.u.u.u.u.w.r.q.r.l k r k k k k c x x x x ] ) T./.(.].(.].].].].].].].].'.].tX].`.].[.`.^.'.`.).) / ) / ) W.W.W.Y.r.v r.Y.s.x c c c z z z h T T T U P P U P I P I P P I P I f I I I D M D F E E F M F H H N N N N B V N N N B N B ",
"oX6.6.7.6.9.9.9.6.6.6.1.a 4 $ # ; D +.lXUXLXKXLXKXKXLXGXFXFXFXFXjX-Xk $ $ $ j p p p n .X.X.XXXXXXX9.9.9.9.9.h.h.x.z.x.z.(.=X1X;X;X;XzXzXzXfX].'.;XzXzX].].^.(.]./.E.E.E.T.E.E.T.E.T.Y.r.e.e.E.e.r.r.e.e.r.r.r.r.e.w.r.r.r.r.r.e.a.q.q.r.e.T.^.].].].]././.{.=Xz.z.3.6.8.f.g.g.u.i.u.E.R.R.R.R.R.R.R.R.R.R.R.R.R.R.R.R.R.R.R.R.R.R.R.R.R.R.R.R.R.E.R.R.E.E.R.R.E.E.T.Y.W.{ [.@.@.o.W W o.o. .W  . . .| | | G G G G 6X6X5X5X5X5X5X5X5X5X5X5X5X5X5X5X5X5X5X5X5X5X8X8X5X5X0X5X5X5X5X5X8X8X8X8X8X8X8X5X5X5X5X5X5XiX5XiX5X8X5X5X5XiX5X5X5X5X5X5X5X6X6X0X9X9X9XqX9X9X.. . .X. . .o.+.+.+._ _ [ ' z h b b b b v v a.^.s.v s.s.s.s.r.s.s.s.a.a.a.a.k.l.l.l.l.l.l.l.f.y.f.j.d.d.j.k.l.y.y.u.u.k.k.k.k.k.a.w.w.k.j.k.k.k.k.k.k.y.w.w.d.l.l.l.u.k.j.j.l.l.j.j.j.j.j.l.l.l.l.l.l.l.l.l.l.l.l.l.l./.u.u.u././././.E.u.u.u.u.k.u.e.r.r.l l k p k k k c x x ] r.r.) Y.^.^.(.].].].].].].'.'.'.].].].rX].`.(.].`.`.`._.Y.Y.] ) Y.W.W.Q.r.Y.r.e.e.x x x c z z z z h U T T T T T T Y I I P I I P I I I D I I I P D M E E C F D H H F B m N B S m B N m S N ",
".X7.6.6.6.9.9.9.6.9.8.p.l 4 + # ; Y qXkXUXLXLXLXKXKXKXLXGXGXFXFXjX} j $ $ $ $ $ p p n .X.X.X.XXXXX9.9.XXXXXXh.h.8.h.x.#X=X=X=X:X:XzXzXzXzXfXfX1X].;X;X].`.T.Y.Y.Y.Y.T.E.E.Y.e.r.r.r.r.:.r.:.r.r.r.r.:.r.r.r.i.u.e.e.u.e.e.e.e.e.w.w.r.s.W.Y.W.W.^.(././.a.j.x.z.h.f.0.0.8.g.g.l.u.u.R.R.R.R.R.R.R.R.R.R.R.R.R.R.R.R.R.R.R.R.R.R.R.R.R.R.R.R.R.E.E.E.E.E.E.E.E.E.E.Y.Y.W.^.W.{ @.o.) o.o.o.o. . . . . . . .X.......G 6X6X6X6X5X5X5X5X5X5X5X5X5X5X5X5X5X5X5X5X5X5X5X5X5X5X5X5X5X5X5X5X5X8X8X8X8X8X5X5X5X5X5XiX5X5XiX5X5XiX5X5X5X5X5X5X5X5X5X5X9X9X9X9X0XqXqXqX....X.X. .+.+.+.+.+.[ [ ~ h h h z b b b b b s.s.s.s.b b n s.s.s.s.s.a.a.a.a.a.k.j.k.j.f.f.l.l.g.k.k.j.k.k.j.k.k.y.e.e.j.j.k.e.e.e.e.e.u.j.j.u.u.j.j.j./.j.k.u.j.l.l.l.l.j.j.l.j.j.l.k.k.j.u.u.j.l./.l.k.j.k.j.l.l.l.l.l.j.u.u.u.u.u.l.R.l.l.j.u.u.j./.e.e.e.q.l a 4 4 k k k k l x W.W.Y.W.W.(.(.`.].{.].].].].'.'.].yX].yX].].].].].].(._.~.~.~.) ) Y.Y.Y.Y.r.a.e.x r.x x x z z z z g U U U T T T U Y P Y I P P P I I P I P f I I I R R R E F N E B E M N N H N N N N S N N ",
"6.6.7.6.6.6.9.9.9.9.h.p.k 4 # - : ..lXUXLXKXLXLXIXLXKXUXGXFXFXGXdX' - @ $ $ $ $ $ p b OX.X.XXXXXXXXX9.XXXXXXXX#Xh.#X#X#X=X=X(.=X:X;X;XzXfXfXfXcXzXzX].^.T.Y.r.x r.r.r.r.r.c a a 8 l r.r.r.u.u.u.i.u.u.l.l.l.l.l.l.u.u.u.u.E.E./.y.w.e.s.s.r.] W.^.(.(.T.a.j.z.z.h.h.x.9.0.h.l.l.E.e.E.R.R.R.R.R.R.R.R.R.R.R.R.R.R.R.R.R.R.R.R.R.R.R.R.R.R.R.R.R.E.E.E.E.E.E.E.E.Y.Y.^.^.[.{ ) ( o.o.o.W o.o.( ( ^ ^ ^  . . .X.......G 5X6X5X5X6X6X6X6X5X5X5X5X5X5X5X5X5X5X5X5X5X5X5X5X5X5X5X5X5X5X5X5X5X5X5X5X5X5X5X5X5X5X5X5X5X5X5X5X5X5X5X5X5X5X5X5X5X5X9X9X9X9X9XqXO.O.O.O. . . . .+.+.( ~ ^ T / ' ' ' ' ' v b v v b b b b v v b s.s.s.OXs.p.a.a.a.a.j.k.k.f.y.y.y.l.l.l.l.l.l.l.l.k.j.w.d.k.k.k././.k.u.e.e.a.e.e.u.u.j.j.k.k.l.j.k.j.j.j.l.l.l.u.l.l.k.j.j.k.l.l.l.j.j.l.l.j.k.k.j.j.j.k.k.j.j.u.u.u.u.u.l./.(.(.(.(.l././.E.u.e.e.e.q.l 8 4 k k s k c x ] W.W.W.W.^.^.^.].].].].{.].(.].'.].].].].].].].].].`.).W.{ [.).).Y.Y.Y.T.Y.Y.e.W.] Y.x x z z z z g U U U U U T T U P Y U U I I P P I P I P I I C E R E R E M F F M N N N D F N m N N N B ",
"6.6.6.6.6.6.9.9.9.6.6.q.p + # * M  .kXLXKXKXKXKXKXKXKXGXFXFXGXGX-Xh @ @ @ $ @ $ $ p s.OX.X.XXXXXXXXXXXXXXXXXXX@X#X@X@X@X#Xz.!.(.:X;XfXfXfX'.:X].`.W.l c c r q a t a 1.r.a 8 7 &.:.q.r.w.u.u.i.i.i.i.l.l./.L.K.k.l./.l.u.l.u.E.l.i.y.e.r.l c x ) !.^.^././.z.z.h.h.h.h.h.8.f.k./.E.E.R.R.R.R.R.R.R.R.R.R.R.R.R.R.R.R.R.R.R.R.R.R.R.R.R.R.R.R.R.R.E.u.E.E.E.E.E.E.E.T.Y.T.T.) ) o.) ) ) o.o.o.o.o.^ ~ ^  .O. . .......G G G 5X5X5X6X6X5X5X5X6X5X5X5X5X5X5X5X5X5X5X5X5X5X5X5X5X5X5X5X5X5X5X5X5X5X5X5X5X5X5X5X5X5X5X5X5X5X5X5X5X5X5X6X6X6X6X9X9X9X9X..0X..+.O.+.$.+.+.+.^ ^ T ( / / T ' ' } } ] ] v b v b v b v b s.s.s.s.s.s.7.7.a.p.p.a.a.a.k.k.j.d.d.j.l.k.l.l.l.j.j.j.j.w.w.k.k.k././././.k.e.e.e.w.w.e.u.j.k.k.e.j.j.j.j.l.g.l.l.l.l.l.l.k.j.j.k.l.l.j.j.l.l.l.l.k.k.k.j.u.u.k.k.u.u.k.j.j.E.(.{.(.{./.{.(././.j.u.u.u.e.r.k k r k q q r k c x x x Y.] W.W.^.(.(.`.].].].].].].'.].].].].'.].'.].'.).~.^.W.`.`.^.Y.W.Y.T.T.T.e.W.r.x x z z z z g T U U U U U U Y P Y P I I P I I P I I I I I P R E R R E F E F F N F D N F N N m N A N ",
"7.6.6.7.6.7.7.9.7.6.6.p.8 + # * N O.UXKXKXKXKXKXPXKXKXFXFXFXFXkX} - @ @ = * $ $ $ p s.+X.XXXXXXXXX9.XXXXXXXXXX9.7.@Xh.x.z.z.*X^.].`.].`.'.^.Y.W.r.r q 4 4 2 2 < 3 3 8 r.r.<.i.i.i.y.i.H.F.i.u.i.i.i.u.t.i.H.i.H.F.i.i.i.u.l.j.l.i.y.y.r.k 4 q s k x W.s.a.k.p.p.0.8.h.8.8.w.a.E.E.E.R.R.R.R.R.R.R.R.R.R.R.R.R.R.R.R.R.R.R.R.R.R.R.R.R.R.R.R.R.E.E.E.E.E.E.E.u.E.E.Y.Y.T.T.[.) ) o.) ) ( o.o.o.( ( ( ( ( ^  . .X.....G G G 5X5X5X5X5X5X5X5X5X5X5X5X5X5X5X5X5X5X5X5X5X5X5X5X5X5X5X5X5X5X5X5X5X5X5X5X5X5X5X5X5X5X5X5X5X5X5X5X5X5X5X6X6X6XG ..0X....X.O.X. ._ _ +.+.+.[ ( T / ' { ] ' ] v ' z b z l b b b b b b s.s.+Xs.s.OXs.s.s.a.p.p.a.a.p.z.k.k.k.l.l.k.j.j.j.j.j.k.j.k.u.w.u.j.k.a.E.e.a.e.a.e.e.w.r.w.e.a.j.j.k.j.l.l.(.(./.l.l.l.l.l.j.k.j.k.k.l.l.l.j.l.l.l.u.u.j.u.j.u.u.u.u.u.u.k.k.j.k./././.E./.(./././.E.l.u.e.r.a 8 4 4 p q q q s s s c x z x ) Y.W.W.^.(.].].(.].].{.].].].].'.'.'.].'.'.[.[.[.W.).`.`.W.Y.T.Y.s.r.Y.W.r.x x x / / / U T U U U U U Y Y P P I I I I P P I I I I I P I E R R E E E E E D F E B F F m N M N N N ",
"9.7.6.6.6.6.7.6.6.6.8.q.4 + = > M $.jXLXKXKXLXIXIXPXKXKXFXIXKXhX/ $ @ = = = @ $ $ p n .X.XXXXXXX6.9.XXXXXXXXXX9.7.h.h.h.a.a.!.W.W.Y.{ ~.Y.) U r e 5 4 4 3 3 3 3 8 a w.i.K.l.H.t.t.F.H.H.H.H.F.F.H.F.F.F.F.F.F.G.F.F.t.F.H.K.i.u.i.i.w.l q 3 $ # 9 s l s.a.p.p.p.d.6.<.6.d.w.e.e.R.[.T.R.R.[.R.R.R.R.R.R.R.R.R.R.R.R.R.R.R.R.R.R.R.R.R.R.R.R.R.u.E.E.u.E.E.E.u.E.E.T.Y.T.T.) ) ( ) ) o.) @.{ { o.( ( ( ( ^  . . .......G G 6X5X5X5X5X5X5X5X5X5X5X5X5X5X5X5X5X5X5X5X5X5X5X5X5X5X5X5X5X5X5X5X5X5X5X5X5X5X5X5X5X5X5X5X5X5X5X5X5X5X5X6X0X0X0XG O.X.O. .^ ^ ^ ~ ' _ ( ( ' ' / / v ] } ] ] b l c c c c b b b b s.s.h.s.s.s.s.p.h.s.s.h.p.a.a.d.p.j.k.j.l.l.j.d.y.l.j.j.j.k.k.j.k.u.k.k.e.e.e.e.e.e./.a.e.e.r.r.r.e.u.j.j.j.j.(.(.(.l.j.l.f.l.l.j.j.j.j.l.l.l.j.j.j.l.u.u.u.u.u.j.j.u.u.u.u.k.k.j.j./.j.k.u.l.E.E.(.(.l.u.l.k.e.r.6 8 4 k q q q s s s q k x z z x ) ] W.~.^.].].].].].].].].].].].yX].yX].].'.[.[.[.^.).^.^.T.Y.Y.e.Y.Y.Y.r.) x c / ) / T / T U U U U T Y P Y P I I I I C I I I I P I P R E E R R R E R F D D F D N N N N A N N ",
"9.6.9.6.7.6.6.7.6.h.p.l 4 + * > P qXjXKXKXKXKXIXPXKXKXKXPXIXGX-XU @ @ = * @ @ @ p p b 7.6.6.XX6.7.9.9.9.9.XX7.0.6.h.6.p.q.q.q.l z r q U U q e 9 3 < 3 3 8 8 :.:.<.8.l.H.K.H.H.H.H.H.H.H.H.G.H.H.H.H.G.H.v.v.v.G.H.F.F.F.H.G.H.F.2.i.y.l r 9 # # $ j s q.a.p.p.p.p.w.w.w.p.w.e.e.:.T.Y.T.[.[.[.R.R.R.R.R.R.R.R.R.R.R.R.R.R.R.R.R.R.R.R.R.R.E.E.R.E.E.E.E.E.E.E.E.E.T.Y.T.Y.).) ) ( [.[.[.) { { { [ [ ( ( ( [ _  .O.......6X5X5X5X5X5X5X5X5X5X5X5X5X5X5X5X5X5X5X5X8X5X5X5X5X5X5X5X5X5X5X5X5X5X5X5X5X5X5X5X5X5X5X5X5X5X5X5X5X5X5X5X0X0X0X....O.O._ O.( _ ( T ' / z z ' ' z z l v x v b b x c l b l b v v b s.s.s.s.<.p.p.s.s.s.s.a.a.a.k.a.k.k.j.j.l.l.l.d.y.l.l.j.j.j.j.j.k.k.k.a.k.e.e.k.e./././.e.e.w.r.r.w.e.j./.e.k.k.z.k.k.j.d.p.l.j.j.j.j.k.j.l.l.l.j.j.k.u.u.u.u.u.u.k.j.k.e.e.k.k.j.j.l.l.l.u.u././.(.(./.l./././.u.r.l x x z k q q k s s k c k s z z ) s.W.T.^.(.(.].].].{.].{.].].].].].].rX'.).)._.).^.^.`.^.T.Y.Y.Y.Y.W.r.x l x / ) ( ( / W U U U U U Y Y U T Y I P I f I I P P I P I E R R E R E E D M D D F D m N m ; N M N ",
"7.7.6.9.6.6.6.6.6.h.p.a < + O > F pXUXLXKXKXKXKXFXFXFXKXPXPXZX-Xw @ @ - @ @ @ $ $ p b s.7..X.X6.7.6.7.6.6.9.9.0.h.6.6.1.a a 8 0 e 9 2 9 9 3 9 3 < 3 7 :.-.w.t.i.H.K.K.F.F.v.c.F.H.F.H.H.F.c.F.H.H.G.G.G.v.G.v.v.v.F.F.G.H.H.H.H.F.t.w.r.s 2 # # $ $ k x s.p.p.p.d.p.p.p.p.a.r.r.Y.T.[.[.[.[.[.[.[.R.R.R.R.R.R.R.R.R.R.R.R.R.R.R.R.R.R.R.R.e.E.E.E.E.E.e.E.E.E.E.E./.^.T.T.Y.).{ { [.[.[.( ) { { { { { ( ( ( +.+. .......6X6X6X6X5X5X5X5X8X5X5X5X5X5X5X5X5X5X5X5X5X5X5X5X5X5X5X5X5X5X5X5X5X5X5X5X5X5X5X5X5X5X5X5X5X5X5X5X7X5X5X5XG ....X...O.O.+.[ [ [ ' ' ' ' z x v v s.v x l c l b b v x ] v b v v v s.s.s.7.s.p.s.p.p.p.a.a.k.a.a.p.p.p.k.k.j.j.l.j.d.y.l.l.j.k.u.k.k.k.k.k.k.j.j.k././././.a.k.a.u.a.e.e.e.a.k.e.e.k.j.j.a.p.w.p.j.l.k.j.k.j.k.l.l.l.l.l.l.l.j.u.u.u.k.j.j.k.a.e.a.k.j./././.l.E././.(.(.l.l././././.k.k.T.^.^.r.l q s k c k k k s g g z x ) Y.Y.T.^.].].].{.].].].].{.].yX].].].'.].`.`.`.`.`.`.^.(.^.T.Y.Y.W.r.x c x ) ) ) ) ( W U U U U T T Y U Y I I I I I I P P I P I P R R R R E I D D M D D u ; N N N m M M m ",
"6.6.6.6.6.6.6.9.h.p.1.4 # O . > ` pXUXKXKXKXKXKXKXFXFXPXPXKXjX} 0 O = - @ @ @ = u g b +X.X7.6.6.6.6.6.6.6.6.7.7.7.q.a 4 < < < < 3 3 5 e 5 5 t t t r.y.i.4.F.t.F.H.H.G.F.F.c.c.c.c.c.F.F.v.v.F.v.G.G.G.G.G.G.G.v.v.v.v.G.G.G.G.H.H.H.i.r.q 2 # # @ 4 q x q.q.q.p.p.p.p.a.a.] W.) ) Y.[.[.[.[.[.[.[.[.[.R.R.R.R.R.R.R.R.R.R.R.R.R.R.R.R.R.E.E.E.E.E.E.E.E.E.E.E.E.E.E.T.Y.Y.T.W.[.{ @.) ) ) o.{ W.).{ { { ( ( +. . .X.....H G 6X5X5X5X5X5X5X5X5X5X5X5X5X5X5X5X5X5X5X5X5X5X5X5X5X5X8X5X5X5X5X5X5X5X5X5X5X5X5X5X5X5X5X5X5X7XG wX7XwX| |  . . .[ _ +.[ ' ' ] ] v v ] v v v v s.b b l x v b s.s.s.s.s.q.q.q.s.s.s.s.s.s.a.h.x.h.d.d.f.k.k.w.k.k.f.p.d.j.k.f.d.w.l.j.j.j.e.e.e.j.k.a.k.k.a.a.a.e.e.e.a.a.j././.k.k.e.e.e.e.e.w.e.u.k.j.j.l.j.k.j.k.j.k.j.l.l.l.l.l.l./.j.j.k.j.l.k.j.j.u.k.j.j.j.k.l.k.j.j././.l.u.u./.(././././././.^.^.!.x s k c l k s q q s s z z ) x Y.W.^.T.^.].].].{.].].].].'.'.'.].].].].'.`.`.`.`.^.^.^.T.Y.Y.T.T.x c ) Y.) ) ( ( ^ U U U U T T U P P I I I I I U w w P I P I I R R I I M D M M D D D N M m M N ; N M ",
"9.6.9.9.0.6.6.6.p.q.p 9 # * % ; O.lXLXLXIXLXIXIXPXKXFXFXKXFXdX( - = * * * , O + 9 s v b s.s.6.6.6.6.6.6.6.6.7.p.k q 4 < < < < < y 6 r.:.c r.i.i.i.i.t.H.H.H.H.H.G.G.G.G.c.c.c.c.v.v.v.F.v.G.G.G.G.G.G.G.G.G.G.G.v.v.v.v.v.F.v.G.H.F.i.e.t 5 1 # @ 0 s ) ) x q.q.w.a.a.r.T.) ) ) ) [.o.o.[.o.[.[.[.[.[.[.R.R.R.R.R.R.R.R.R.R.R.R.R.E.E.E.E.E.R.E.E.E.E.E.u.E.E././.E.^.W.Y.T.T.W.[.).).W.^.[.[.~.~.[.~.{ { ( { ( _  . .....G 6X6X6X5X5X6X5X5X5X5X5X5X5X5X5X5X5X5X5X5X5X5X5X5X5X5X5X5X6X5X5X5X5X5X5X8X8X5X5X5X5X5X5X5X5X6XG ..X. ._ ` T T ' ' ' ' ] ] v v v s.v v v v b b v v s.s.s.l q.q.q.q.q.s.s.q.q.p.p.p.q.s.x.(.z.h.p.p.f.z.z.z.z.z.z.k.j.d.p.p.p.p.a.w.e.k.k.a.e.e.e.e.e.e.e.e.e.a.a.a.a.k.j.j.j.j.j.u.e.e.w.e.e.u.j.j.j.k.j.j.l.j.k.j.f.f.d.j.l.l.l.l./.l.l.j.j.u.u.j.j.k.l.l.l.k.k.j.j.j.l.l.l././././.R././././.(./.].].(.(.Y.x r q k k s 4 p s s g h z z x ] ] W.^.^.].].].].].'.].].].].T.T.T.^.].`.`.^.^.~.^.[.Y.Y.Y.Y.Y.x x ) ) ' / ) / ( T T U U U T T U U U P I P I P P U P I I P W W P P D D D D D M N m M M m M ; N m M ",
"6.6.7.6.6.6.7.6.q.l s $ - * % ; 8XlXLXKXKXKXKXKXKXKXFXFXIXZX-XT - = * > * * * @ $ j z l n n n n n n n n a a a 4 $ + < < < < 3 y y :.i.i.i.t.t.H.F.H.G.v.v.v.v.c.c.F.c.c.v.v.F.G.G.G.G.G.G.G.G.G.G.G.G.G.G.G.G.G.G.v.v.G.v.v.v.G.G.H.H.E.q.3 1 # # - g z ) x x q.q.q.s.) o.) ) o.Z o.o.o.o.[.o.o.o.Y.[.[.[.R.R.R.R.R.R.R.R.R.R.R.R.E.u.E.E.E.E.E.u.E.E.E.E.E.E.E.E.E.T.T.Y.T.Y.T.T.T.).{ { { { { ( ) ) Y.T.~.~.[ +.O. .....0X6X6X5X5X5X5X5X5X5X5X5X5X5X5X5X5X5X5X5X5X5X5X5X5X5X5X6X6X6X5X5X5X5X5X5X5X5X5X5X5X5X5X5X5XG G ..O.O.[ _ ' ' ' } v b b v v v v b b b b b b b l c v v s.q.q.p.p.p.p.p.a.p.p.p.p.p.p.p.p.p.q.p.f.d.p.d.h.z.z.h.x.z.k.k.k.k.a.a.p.a.q.w.e.e.e.e.e.e.a.a.e.a./././.k.a.e.e.j.j.j.j.k.a.a.e.e.e.e.j.j.j.l.j.k.k.l.l.k.k.d.d.d.z.l.l.l.l.K.l.l.l.l.l.j.l.j.l.j.j.j.l.j.j.j.l.l.l.l././.(.(.(././.(.R.].(.].].].].^.T.x c k k q 4 q s s s s s h z z x ] ) W.^.(.].<X].].'.].].'.'.^.^.`.^.`.).~.[.W.~.^.Y.Y.T.T.Y.) ) x ) ) / / / T T T U U U U U U U P I P I P I I P P I I I U W P D : D D D : M D ; M M M m N M M m ",
"7.6.6.9.0.7.6.7.n l 4 $ @ * % N $.kXLXKXKXKXKXKXFXFXFXKXKXBX-XU = = = , * = # @ # j s s p a n l n a p a 8 4 3 < < 3 3 5 5 5 *.:.:.r.i.i.i.i.H.H.H.H.G.v.v.v.c.c.c.c.c.c.v.G.G.G.G.G.G.G.G.v.G.G.G.G.v.G.G.v.v.G.v.v.v.G.v.v.v.G.G.H.H.l.r.5 # # = - d h ) x x r.r.s.) ) ) ) o.[.o.o.wX9X9X9Xo.o.o.o.[.[.[.R.R.R.R.R.R.R.R.R.R.R.R.E.R.E.E.E.E.E.R.E.E.E.E.E.E.E.E.E.E.T.Y.Y.T.T.T.Y.Y.~.{ ( ) ( ) ) { ) _.W.} { +.o. .....9X6X6X0X0X6X6X5X5X5X5X5X5X5X5X5X5X5X5X5X5X5X5X5X5X5X5X6X5X5X5X5X5X6X5X5X5X5X5X5X5X5X6X5X7X6X....O.O.[ ' ' ' b b b b b b v v b v b b b n l n a l b q.q.q.w.p.p.p.p.p.q.q.p.p.w.w.p.p.p.q.1.w.p.<.<.f.f.f.d.f.f.k.k.k.k.k.k.j.k.k.q.w.w.a.e.e.e.a./.a.a.k./././.k.a.a.e.k.d.j.j.k.j.k.k.a.e.u.j.k.j.j.k.j.j.j.l.l.k.j.d.f.f.l.l.z.l.l.l.l.l.l.l.l.l.l.l.l.k.k.j.j.k.k.k.l.l./././.(.R.(.(./.(.{.(.].].].(.].].^.W.x k q q 0 q q s s s s s s h z z x r.T.^.].(.].{.].'.'.].'.`.(.`.^.~.~.W.T.Y.[._.T.Y.T.W.T.Y.) ) x / / / / / T U U U U U U U U U I I P I P P I P f P W W W U I : D D M : ; M N N M M m N m ; N ",
"6.6.6.6.6.6.6.6.7.a 4 @ @ * * D qXjXLXKXKXKXIXKXKXFXFXKXKXjX_.g - = = = * * * @ * 0 j 0 s p r p 4 4 4 8 3 < < < 5 6 %.7 8 6 r.<.u.i.i.i.t.t.H.H.H.H.F.v.F.}.c.c.c.c.c.c.H.G.G.G.G.G.G.G.G.v.v.v.v.v.v.v.F.F.c.v.v.c.v.v.v.v.c.v.G.H.H.i.1.5 < # = = - f / x ) s.r.r.) ) o.o.o.o.o.o.9X9X9XwX9Xo.o.o.[.[.[.[.R.R.R.R.R.R.R.R.R.R.R.R.R.R.E.E.e.E.E.R.E.E.E.E.E.E.E.E.E.E.T.^.T.T.Y.T.Y.Y.[.Y.) Y.) [.Y.) ~.[.[.W.{  . .| X.9XG 6X6X0XqX6X5X5X5X5X5X5X5X5X5X5X5X5X5X5X5X5X5X5X5X5X5X5X0X0X9X0X0X5X5X5X5X5X5X5X5X6X7X7X.... .` _ [ ` ' ' b b h b h b v v b b b b b n a a l c l l q.p.p.p.w.w.w.w.q.p.p.p.q.p.q.w.p.q.6.p.<.p.p.d.d.p.d.f.d.d.j.p.d.k.d.j.j.j.a.a.k.k.a.k.e.k./.k.k.a.a.E.a.a.a.a.k.k.k.j.j.j.k.j.k.k.u.j.j.j.k.k.k.k.j.j.l.l.k.d.f.d.g.g.l.z.l.l.l.l.l.l.l.l.l.g.l.l.j.l.j.k.j.k.k./././.E.].(.(.(.(.].(.(.].].].{.].].].].`.Y.c s q q q q s s s s s g h h c x ) Y.T./.].].].'.'.'.'.].].].`.^._.T.Y.Y.Y.Y.Y.Y.T.Y.T.Y.Y.) ) ) / / / / / T T T T T T U U U P I I I P I I P I C P W W W I I D D D : ; ; ; N M M ; N M m N M ",
"7.6.7.6.6.6.6.6.q.8 2 @ @ % > E qXUXKXKXKXKXIXKXFXFXPXPXKXcX_.h = = = = * * @ @ = : 9 9 e 4 2 3 < < 3 3 5 3 3 3 5 :.:.6 *.:.y.i.i.t.i.H.H.c.F.c.H.H.v.c.c.c.c.c.c.c.c.c.c.G.G.G.G.G.G.G.v.v.v.G.v.v.c.v.c.c.c.c.c.c.F.v.F.c.}.c.v.F.F.i.r.5 < # @ @ = - w z ) ) ] ) ) ) o.o.o.o.o.9X9X9X9X9XwXo.o.o.o.[.[.[.R.R.R.R.R.R.R.R.R.R.R.R.R.R.R.E.E.E.E.R.E.E.E.E.E.u.u.E.E./././.^.T.Y.T.Y.Y.T.Y.Y.T.T.~.Y.Y.~.~.[.{ [ (  . .| ..G G 6XqX0X6X5X5X5X5X5X5X5X5X5X5X5X5X5X5X5X5X5X5X5X5X6X6X0X0X0X0X9X6X5X5X5X5X5X5X6X6X6XG O.O.` _ _ ' ' b b b b b b b v x b z b v v b b b a l l z l q.w.p.w.w.w.w.p.w.p.p.q.q.w.q.w.w.p.p.6.w.d.f.d.p.p.p.f.d.p.d.p.d.p.f.j.j.k.p.k.j.k.k.j.j.j.j.k.a.a.e.e.a.a.a.k.l.l.k.j.k.k.j.u.j.j.u.u.k.k.k.j.f.j.k.d.j.d.f.d.d.d.g.g.g.l.x.g.l.l.l.l.g.l.g.g.l.l.l.l.j./././././././.(.].(.(.(.].(.^.].].].].(.].`.].`.(.^.) c q q q q q j p s s h h h k c l ) Y.^.`.].].].'.'.].].].`.`.^.^.Y.T.Y.x Y.Y.Y.Y.Y.Y.Y.Y.) ) ) U ) / / ( / U / U T T T U U U P I I I I I I I d P W W C w D D D D : ; ; ; N M M m M m M m m ",
"6.6.6.6.7.6.7.p.q.p 2 # * * > R sXUXKXKXKXKXPXPXPXHXHXPXKXjX_.U = = = * * * * * = = 0 9 # 1 < < < 3 3 y 5 5 5 %.6 =.*.i.y.t.t.i.t.t.F.F.H.c.c.c.v.v.v.c.v.F.c.c.c.c.c.c.c.v.v.v.H.H.H.v.v.v.G.G.G.v.v.v.G.c.c.c.c.c.c.c.c.F.v.c.v.F.F.i.r.5 < # @ * * * w w T ) ) ) ) o.o.o.o.o.9X9X9X9X9X9Xo.9XZ o.o.o.W [.R.R.R.R.R.R.R.R.R.R.R.R.R.R.R.R.R.E.E.R.E.E.E.E.E.E.E.E.E././././.^.T.T.T.Y.T.Y.T.Y.T.T.[.~.Y.~.{ { { o.o. . ...G G G 6X5X6X5X5X5X5X5X5X5X5X5X5X5X5X5X6X5X0X5X5X5X5X6X6X5X5X5X6X5X5X5X5X5X5X5X6X6X6XG H O.O._ _ ' ' ` b b b v b b b b l k l b b v s.b b l x b l l q.q.w.w.w.w.p.p.p.p.p.p.p.e.w.w.w.w.w.w.<.p.f.d.p.w.p.p.d.d.d.h.k.k.k.j.d.j.j.j.k.k.j.j.k.k.k.j.k.a.a.a.a.a.k.k.k.z.k.k.j.d.e.e.u.u.e.e.k.k.a.k.f.f.f.d.d.d.f.d.f.f.g.g.0.x.x.g.9.g.g.g.0.g.g.g.l.l.l././././././././.(.(.(.(.^.].].(.].(.(.].].].].(.(.].'.`.^.x k 4 p s q q p s s s h h k k c x Y.Y./.`.].R.].].'.].].^.^.^.[.~.^.Y.) ) ) Y.T.Y.Y.) ) x ) ) ) ) ( ) ( ) / / T T T T U U U U I I I I I P I I I P C M : : : D M : u ; N N M M M m N M M M ",
"6.6.7.6.6.6.6.p.a p $ @ * * > | sXUXKXLXKXKXPXPXKXFXKXKXGXgX@.w = = = , O * * - = = 9 + + # < < 3 5 y 8 6 6 t *.*.-.t.i.t.H.H.F.t.F.F.F.H.c.c.c.v.v.G.G.G.G.G.H.G.H.c.v.v.v.v.v.v.H.G.G.G.G.G.G.G.J.G.G.G.F.c.c.c.F.F.F.H.G.G.H.v.G.G.i.y.:.2 + = > - * > w U U ( ) o.o.o.o.o.Z 9X9X9XwX9X9X9X9X9X[.o.o.) [.[.[.R.R.R.R.R.R.R.R.R.R.R.R.R.R.E.E.E.E.R.R.R.R.R.E.E.E.E.u.R.E.E.E.E.T.Y.T.Y.T.Y.T.Y.Y.Y.Y.T.^.~.~.{ { o.o. .X.G G G 6X6X6X5X5X5X5X5X5X5X5X5X5X5X6X0X5X5X5X5X5X5X5X5X6X5X5X5X5X5X6X5X6X5X5X6X6X5XG H K ` ` ` ` ' h h b v b b b v b b b l c c l v v b b b b x c q.q.q.q.r.a.a.a.p.p.p.q.q.w.a.p.w.w.w.w.<.<.<.p.p.w.w.w.p.p.d.f.h.k.k.j.j.d.j.j.k.k.j.k.k.k.a.a.k.k./././.k././.k.k.k.j.j.w.w.w.w.w.w.e.e.a.a.a.j.f.d.d.j.j.f.f.h.g.g.g.h.x.x.x.g.x.g.g.x.x.x.h.g.l.l.l././././.(.].(.(.].(.(.].].].`.].].].].`.].].].].].].].`.^.W.c r s q q 4 q s s s s s s s k k x Y.T.^.(.].'.].].`.^.^.^.^.^.~.~.Y.Y.T.Y.Y.Y.Y.) x ) ) ) c ) ) ) W ) ( / / / T T T U U U U P C I I I I I P I I M M M : M : M ; M M N M M M M m ; m m ; ",
"6.6.7.6.6.6.8.6.a 8 2 = * * > Q sXUXLXLXFXKXKXPXPXKXKXKXZXdX+.0 = = = * * * * = 9 , 9 9 1 < < 5 5 8 6 ,.:.:.:.i.2.2.t.t.t.t.2.2.F.F.F.v.H.c.c.c.n.v.H.G.G.G.G.G.G.G.G.G.H.F.v.v.v.G.G.G.G.G.G.G.G.G.G.G.G.v.c.c.v.F.c.v.G.G.G.G.v.G.H.K.j.r.r # = - - ; : C C C W W o.o.o.o.o.9X9X9X9X9X9X9X9X9X9X9X9Xo.o.[.T.[.[.R.Y.R.R.R.R.R.R.R.R.R.R.R.E.E.E.u.R.R.R.R.R.E.E.E.E.E.E.E.E.E.E.E.T.T.T.Y.T.Y.Y.Y.Y.Y.T.^.T.[.W.o.o.o. .......G G G 5X5X5X5X5X5X5X5X5X5X5X5X5X6X5X9X5X0X5X9X5X5X0X0X6X6X5X6X5X6X6X6X5X6X6XG G F Y ` ` ` ' h b b b b b b v b v b b v x x l b b v b b x l l l q.q.q.q.e.e.w.w.w.q.q.q.w.w.p.p.p.p.p.p.w.p.p.p.p.p.p.p.p.p.d.d.f.d.f.d.d.d.p.a.p.p.a.a.k.j.a.k././.(.(.(.k.j.a.k.j.f.y.y.w.w.w.e.w.e.w.w.a.a.p.j.k.d.f.h.h.d.g.g.h.x.x.x.x.C.x.x.g.g.g.x.x.K.9.#Xl././.(.(.].(.(.`.].'.(.(.(./.`.].(.`.].(.].'.(.].].].].(.].].^.Y.x k s s q p p s s p p s s s k z ) W.T.^.`.].].].].T.T.Y.Y.).T.~.{ W.T.) ) ) Y.) ) x ) ) ) W ) ) ) ) / / / / U U U U U U U U P P P I U U U U I I I I M M ; M M M D D D N N m M N N M N ",
"9.9.9.9.8.6.8.<.a 4 2 = * * & ! sXkXLXLXGXGXFXKXKXFXFXKXgX-X{ 0 # = = = = , , 9 1 9 9 < 3 y 5 7 :.:.%.&.>.>.t.t.F.F.t.F.H.F.F.F.F.F.F.G.H.c.c.c.v.G.F.F.c.c.F.F.H.G.H.H.H.F.c.c.v.v.G.G.G.G.G.G.J.G.F.G.v.v.F.c.c.c.}.F.F.G.G.G.G.G.G.H.{.e.r # = * * ; : C C C Z o.o.Z o.9X[.9X9X9X9X9X9X9XwXwXZ Z o.o.o.( [.[.[.T.T.E.E.E.R.R.R.R.R.R.R.R.E.E.R.R.R.R.R.R.E.E.E.E.u.E.E./.E.u.E.E.u.T.^.^.^.^.^.^.Y.Y.Y.T.Y.T.Y.( ( ( W | X.....H H 6X6X6X6X6X5X5X6X5X5X5X5X6X0X0X0X5X5X5X6X6X6X9X0X5X6X6X6X6X6X6X6X6X6X6XG ..! ! ` ' ' b b b b b b b b b x b b v s.W.v v x l b v v v x x q.q.e.q.q.l c x q.q.q.a.w.q.q.q.p.p.w.w.p.p.p.p.p.p.f.p.p.p.p.p.f.f.p.p.p.p.w.p.p.p.p.a.k.k.k.f.k.(.(.(.j.k.a.a.a.w.w.y.y.d.j.k.k.k.j.u.d.a.a.p.f.k.k.j.d.f.d.f.h.g.g.g.h.9.9.9.9.9.x.x.x.x.x.L.K.z.l.(./.(.(.].(.].`.(.].(.(.].(.].(.].`.(.].`.].'.(.'.].].].].`.`.T.Y.Y.k s q q s s p p 0 j s s z z / Y.W.^.`.].].].^.T.T.Y.T.W.W.W.W.W.) x x ) W.W.] x ) ) ) / / ) / / / / / / U U U U U U U U U I I I I P P Y P I M : : : M M M M M D D F N N N N D ; N ",
"9.9.9.9.9.9.0.p.a 3 1 @ * * D O.lXUXLXLXLXLXKXKXKXKXKXFXhX-X( e 9 = = = = 9 9 1 < < 9 y 7 :.:.r.:.i.i.i.>.F.F.F.F.F.F.H.H.H.F.F.F.F.F.G.H.H.G.F.F.H.G.v.v.H.H.F.F.F.G.G.F.F.c.c.c.c.c.F.v.v.F.v.v.v.G.v.F.}.F.}.c.v.G.F.H.G.v.v.v.G.F.H.u.e.c 4 # = * > N M C C Z o.o.o.o.[.wX9X9X9X9X9X9X9XwXwXZ 9X9Xo.o.[.[.[.[.T.E.E.E.E.E.E.R.R.R.R.R.R.E.E.E.E.E.E.E.E.E.E.E.E.E.E.T.T.T.Y.T.T.E.E.E.E.T.Y.E.E.R.T./.T.T.W.Y.{ @.{ o.X...0X0X0X0X0X6X6X6X5X6X6X5X6X6X6X5X6X5X0X0X9X0X5X6X6X5X5X0X6X6X5X6X6X5X6X6X6X6X6X....O.` ` _ ' h b h b ' b b b b v b b v v v v v x z v v x v x x r.x l q.s.r.q.q.q.q.q.q.q.w.w.q.q.p.a.k.y.p.p.p.p.a.p.p.p.p.k.d.d.p.p.p.<.<.<.p.d.j.j.z.z.j.z.a.a./.k.j.k.j.k.k.k.j.j.j.k.f.d.w.w.u.j.k.j.k.k.d.f.h.p.j.p.p.p.f.h.h.x.g.0.0.0.9.9.9.9.9.x.@Xx.K.x.x.{.(.(.].].^.^.^.^.^.`.^.^.^.`.(.`.].].].].].].`.].].R.'.(.].].(.^./.) c k q q j j 4 0 4 4 s h z z x { { !.T.^.].].].^.Y.Y.W.W.W.W.W.W.Y.) ) x ) r.) ) ) v ) ) ) ) ( ) U / / / U / U U T T Y Y U I Y Y P P P I P I I M M M M D M E F F N N A N m N m N M ",
"9.9.9.9.9.h.x.d.1.3 1 # * * D qXlXLXKXIXKXKXPXPXPXPXKXBXfX).U 9 # , = 9 = < < < 3 3 6 t :.e.y.y.i.i.F.i.F.F.H.F.F.F.F.F.H.F.F.F.F.F.F.H.G.G.H.H.G.H.G.G.G.H.G.H.F.H.G.G.F.F.F.F.v.c.c.c.c.v.v.c.F.v.G.G.G.v.v.G.G.G.G.F.H.F.v.}.v.v.c.>.i.y.r.q < @ * * > N M Z Z Z Z o.Z o.wXwX9X9X9XwX9X9X9X9X9X9X9X9Xo.o.[.[.[.[.T.E.E.E.E.R.R.R.R.R.R.E.E.R.E.R.E.E.E.E.E.E.E.E.E.Y.T.T.T.E.E.T.E.E.E.E.Y.Y.T.E.E.E././.T.Y.T.{ @.o.o.X.....0XqX0X0X6X6X5X6X6X6X6X6X6X6X6X5X0X9X9X9X6X6X6X6X0X0X9X9X0X5X6X6X6X6X6X6X6XG .... .` ` _  Xn h b b b b b b b v b v ] v v v x v z z v z x x c z l c l v v x l l l l q.q.w.q.q.q.q.w.a.w.q.w.p.w.p.p.p.p.p.d.p.p.p.p.p.d.y.p.p.d.j.k.z.k.d.a.p.p.k.d.z.z.j.k.k.j.k.k.j.j.k.p.y.u.a.k.j.k.j.j.d.p.p.d.f.p.d.h.f.h.h.h.g.0.9.9.9.9.9.x.x.x.9.x.K.x.z.(.(.(.].^./.(.`.].^.^.^.^.^.`.].].].].].(.].].'.'.(.'.].].`.`.].].(.W.l s q q p 4 $ j p j s h z z / ) ) Y.) [.^.^.^.T.T.W.Y.T.W.) W.W.W.] ) ) ) ) ) ) ) ) ) x ) ) ) ) ) ) / / U T U T T U U P R P I Y Y P I P I I P C M M M D F M F N N N F m M ; M m m ",
"3.9.M.b.&XK.g.d.8 3 # @ * * D pXUXLXLXLXKXPXPXKXKXPXFXgX-X] q 2 < < 9 9 3 3 3 3 t r.:.>.e.i.i.t.t.t.F.H.F.F.H.F.t.t.F.F.F.F.F.F.F.F.F.F.F.F.F.H.H.H.G.G.G.H.F.H.H.G.G.G.G.G.G.G.G.v.v.v.c.v.v.v.v.G.G.G.G.G.G.G.G.G.G.J.G.H.v.v.v.v.v.F.t.i.e.c e # * * > N N Z Z Z Z Z Z Z wX[.9X9X9X9X9X9X9X9X9X9X9X9X9Xo.o.[.[.[.Y.Y.T.E.E.R.R.R.R.R.R.R.R.R.R.R.E.E.E.E.E.E.T.Y.Y.Y.Y.T.E.E.E.u.E.E.E.E.E.Y.Y.Y.E.E./.T.Y.T.[.{ ( o.o.| ......G 0X6X6X6X6X6X6X6X6X6X6X6X5X0X0X9X0X5X5X6X5X0X9X9X9X9X0X5X6X6X6X6X6X6X6X....X.O.` ` T h ` h b b b v b b ] b ] z x x v v v z z z z z x l l z c c x x l l l c l c x x l q.q.q.q.q.q.q.q.w.q.<.w.<.w.w.w.q.p.p.p.f.f.f.f.d.p.p.p.k.d.d.d.p.p.k.k.z.z.z.z.k.k.j.j.j.l.k.j.d.d.f.k.j.d.d.j.d.d.d.a.d.h.f.f.h.h.f.8.8.0.0.9.h.9.9.9.x.9.K.x.@X9.z.x.(.(.(.(.^.).^.`.`.`.].^.^.`.`.(.(.`.`.(.`.].(.'.].`.].].(.].].].].].~.) l s q 4 4 4 s s j g h h z z / ) ) ) T.^.^.^.T.W.) Y.Y.) ) x ) ] ) x x Y.] Y.) x ) x ) ) ) ) ) ) / / U / U T U U U U U I I P I Y I P I P I P I M M M D D H F F N N N N M N m M M ",
"4.g.C.C.C.L.l.w.8 4 # @ * * D qXaXKXKXKXKXKXKXKXPXFXBXdXY.c 2 < 3 3 3 5 6 8 8 1.r.y.y.i.i.i.i.i.t.F.F.F.H.F.F.t.t.t.F.F.F.F.F.>.t.F.F.F.F.F.F.F.F.H.F.F.H.v.F.F.H.F.G.G.G.G.G.G.G.G.G.G.v.G.G.v.G.G.J.G.G.G.G.G.G.G.G.G.G.G.G.G.v.G.H.H.F.u.k.r.r 1 # = > M N | o.Z Z Z wXwX9X9X9X9X9X9X9X9X9X9X9X9XqX9X9X9Xo.[.[.[.T.Y.Y.E.u.E.R.R.R.R.R.R.E.E.R.R.R.E.u.E.E.E.Y.Y.Y.T.T.T.E.^.E.E.E.E.E.E.T.T.Y.Y.T.E.Y.Y.Y.Y.[.{ ) ( o. ...G G G G G 6X6X6X6X6X5X6X6X6X6X6X6X6X0X6X5X6X6X6X6X9X9X9X9X0X5X6X6X6X6X6X6X0X0X..X.O._ _ T Y h b b b b b b b b b b z z z v v z ' ' v v z z l c c c z l l c c c c c l c c x x q.q.r.q.q.q.q.q.q.1.1.1.1.w.q.q.q.p.d.h.f.d.d.p.p.p.p.w.p.p.p.p.p.d.z.z.z.z.z.k.j.l.z.l.j.j.f.k.k.j.j.d.d.d.d.f.f.d.d.d.f.d.d.f.d.8.8.8.8.0.h.x.@XC.x.K.XXL.K.x.g.h.(.(.(.(.].`.`.`.`.`.~.^.`.].`.`.`.`.`.`.`.^.].].'.].].(.'.].].].{.].].^.[.x c q 4 4 0 j s j h h h h h / / ' ) Y.W.Y.W.Y.x ) ) ) x ) r.] ) ) ) ) ) Y.Y.) ) v Y.x ) ) ) ) ' / / z C T U U U U U U I I I I I P I P I I P C C M M D D M D D N N N N m m M ; N ",
"C.C.b.C.C.K.g.w.8 2 1 # * > D pXlXLXKXKXKXKXPXFXHXcX-XY.c 3 3 5 r t t t r.y.i.y.y.y.y.3.i.2.4.4.;.t.F.F.F.H.F.>.t.t.t.t.>.t.t.t.t.F.F.F.F.F.t.F.F.F.F.F.c.c.c.c.F.F.F.F.G.G.G.G.G.G.G.G.G.G.G.J.G.J.G.G.G.J.v.F.v.v.v.v.G.G.G.G.v.G.G.H.H.H.(.e.t 3 # = = > V | Z Z Z Z 9X9X9X9X9X9X9X9X9X9X9X9X9X9XqX9X9Xo.o.o.) [.T.r.r.T.E.E.E.R.R.R.R.R.R.E.E.R.E.u.E.E.E.Y.T.T.T.Y.Y.T.E.E.Y.E.E.E.E.Y.T.[.T.Y.T.Y.Y.Y.Y.W.~.Y.{ o.o. .X.....G G 6X5X6X6X6X5X5X6X6X6X6X5X6X6X6X6X5X6X6X6X6X6X6X0X9X0X6X6X6X6X6X6X6X0X0X.... ._ _ ~ h ' b  Xb b v b h b h h z z z z v ' ' z z z z z c l l c c c k l l c l c k l l z r.q.s.] q.q.q.q.q.q.q.q.1.q.q.<.w.p.p.d.d.f.d.p.p.p.p.p.p.w.p.p.p.d.d.d.j.z.z.z.j.z.z.k.k.j.d.d.j.f.f.d.d.w.d.d.f.h.f.h.f.d.f.f.d.f.8.8.8.h.x.x.x.x.x.x.L.L.L.L.x.f.k././.(.(.`.`.`.).).`.].-X`.`.`.^.`.`.^.].`.].(.].].].'.].].].(.].].].].`.^.W.) s q 4 q 0 j j h h h h z / ' ] { Y.T.) ) ) ] ) ) ] ) ) x ) ) ) v ) Y.T.Y.] x ) ) ) ) ) r.) ) ) / / U / ) U U U U U I I I I I I P I P P I I M M M M F H M M D N m M m M m N M ",
"C.9.4.0.0.g.g.w.t 3 1 + % * P _.kXUXKXPXHXPXHXDXxX`.l 7 8 5 7 :.r.e.e.e.u.i.i.3.3.3.3.3.2.2.2.2.t.2.F.t.>.F.>.F.>.F.F.t.t.t.t.t.>.F.t.t.>.}.;.t.;.F.2.}.}.;.}.c.F.c.c.F.F.F.v.G.H.G.G.G.G.G.P.P.P.J.G.J.J.J.J.G.G.G.v.v.v.v.v.v.v.G.G.G.H.H.K.i.8 3 # = = > V M Z Z Z Z 9X9X9X9X9X9X9XeX9X9X9X9X9X9X9X9X9X .o.o.o.[.T.Y.T.T.E.E.R.R.R.R.E.E.E.E.R.R.E.E.E.E.E.E.Y.E.E.Y.Y.T.T.Y.T.T.Y.E.E.Y.Y.Y.Y.T.Y.T.Y.Y.W.^.~.{ { o.o.+.X.........6X6X6X6X6X5X5X5X5X6X5X6X6X6X6X5X0X0X0X6X6XG 5X6X6X5X6X6X6X5X6X6X0X......0XX. .~ _ [ [ ` b ' ' ] b b b b v b z z z z / / z z z z z x x x z l c l c x x x x l z x x v r.s.s.p.p.a.a.p.p.p.w.w.w.w.w.p.p.w.w.w.w.w.w.w.p.p.p.p.p.w.d.f.d.d.f.f.d.j.j.k.z.z.k.j.d.p.p.p.f.d.f.d.w.d.d.f.h.g.j.d.f.h.h.h.h.h.g.h.h.x.9.x.9.@Xx.L.L.L.K.x.l.(./.(.(.].`.).`.~._.`.`.`.`.`.`.`.^.`.].`.].'.'.].`.].].].].`.`.].].(.].].^.^.) k q q 0 $ 4 j s h h h h h ' { ) ) ) ) ) ) ) ) x ) x ) ) W.) x ) x Y.Y.Y.) Y.) ) x ) ) ) ) ) ) / / / / / T T U U U P P I P I P I P I P P C C M M M N N N N N M N ; N M m N m ",
"M.9.0.0.4.8.f.w.a 3 # , * > P sXlXZXFXFXHXFXAXxX(.r.8 8 :.:.:.r.i.i.i.u.i.t.t.2.2.2.2.2.2.2.2.2.2.2.>.t.F.t.F.>.t.t.t.t.t.t.t.t.t.t.F.;.F.>.}.;.;.;.2.c.}.}.;.t.F.F.F.}.}.F.}.v.v.v.G.G.G.v.P.P.P.J.G.F.J.J.J.J.G.G.G.G.G.J.J.v.v.G.G.G.H.H.H.i.:.3 < + , * M V C Z Z 9X9X9XwXwX9X9XwXwX9X9X9X9X9X9X9X9X9Xo.o.o.[.[.Y.Y.T.E.E.E.R.R.R.R.R.E.R.R.R.R.R.E.E.R.R.E.E.u.E.E.u.E.Y.Y.E.T.Y.Y.T.Y.T.T.T.Y.T.Y.T.Y.T.Y.[.) ( (  . .........G G 6X6X6X5X6X5X6X6X0X0X0X0X6X6X5X0X9X0X0X6XG 6X6X6X6X6X6X6X6X6X6XG .......... .~ ~ ~ ~ ` ' ' ' ' } } |.} ] ] ] ] ] ' ] ' ' ' / / z z x x x x c x x x x v v x x x r.s.r.q.q.a.a.p.q.q.q.q.w.w.p.p.p.q.w.w.w.w.w.w.w.w.f.f.p.p.p.d.d.d.f.p.d.d.f.j.f.f.j.k.k.k.k.d.d.d.d.f.d.f.d.d.f.f.f.d.f.g.z.h.f.f.h.h.d.8.0.8.g.g.x.x.K.L.L.x.h.x./.(.(.].].`.`.~._.Y.Q.~.^.[.~.`.).).`.`.(.].].].].].(.(.].].(.].].(.].].].`.(.^.W./ s j 0 4 4 j j h h g h h h ' ( / x ' ) x ) ) ) ) ) ) x ) ) x ) ) ) ) ) ) x ) x ] ) ) x ) x / / / / U T T T T U f P f P I P I P I P I P P I M M M N N N B N m M m M N M M m ",
"9.9.9.0.3.3.6.<.a 3 2 1 > : W qXkXZXZXCXbXxX:X^.x t 8 :.r.i.i.i.t.t.t.t.t.t.t.t.F.t.t.t.2.2.2.2.2.2.2.2.t.t.i.t.t.t.t.t.F.F.F.F.F.F.F.F.t.c.F.;.c.;.F.c.}.}.c.F.F.F.F.c.c.c.c.c.v.v.v.v.H.G.J.P.J.J.J.G.G.G.v.v.v.v.v.J.G.J.J.J.G.G.G.G.G.H.H.i.r.7 2 + , = : > V Z Z X.9X9XwXwX9X9X9X9X9X9X9X9X9X9X9XtX9X9X[.o.o.[.^.W.T.E.E.E.R.R.R.R.R.E.R.R.R.R.R.R.R.R.R.E.E.E.E.E.E.E.[.T.T.T.E.T.Y.Y.T.Y.T.Y.T.Y.T.Y.T.Y.) ) ( (  .X.X.X.H G G G 6X6X0X5X5X5X6X6X6X9X9X9X5X6X6X6X9X9X0X5X6X6X5X6X5X6X5X6X9X7XG G G ........X. . .~ ^ T T z ' ' ' } ' } ' ] ] } } } } } @.{ ' ' z z z c x x x r.v x x v x x x Y.s.r.s.q.q.q.p.q.q.q.q.q.q.q.q.w.q.q.w.q.w.w.w.w.w.w.p.d.d.d.d.d.f.d.f.d.d.d.f.d.f.d.j.k.k.k.k.j.f.f.f.d.f.d.d.f.f.d.f.f.f.g.z.h.d.d.d.d.f.8.8.8.8.x.x.K.L.L.K.K.g.l.(.(.(.].`.`.]._.^._.[.W.[.~.).^.`.`.`.`.`.].].`.].].`.(.].(.].].`.].'.].(.].^.~.W.) c q 4 0 4 4 j j h h g g h / ' ' { ) / / / / ) / x ) x ) ) ) ) ) ) x x ) ) Y.x ) x ) x ) ) ) / / C U U T T U f f P d P P C P P P P P P P I M D M B M B F N N m N M ; M m M ",
"9.9.9.0.6.5.<.8 5 5 q 9 9 w W tXkXZXcX:X:X^.r.r.r.t t r.*.i.t.>.t.t.t.t.;.t.t.;.>.>.t.;.2.;.2.2.t.2.t.t.t.F.t.t.F.F.t.F.F.F.F.F.F.F.F.F.F.F.F.F.F.c.F.F.c.}.c.c.F.F.c.c.c.F.F.}.F.v.v.v.v.G.J.J.J.G.G.J.J.G.F.G.v.v.v.v.J.v.J.U.G.G.G.G.G.G.H.F.e.6 3 < # w M > V Z Z Z 9X9X9XwX9X9X9X9X9X9X9X9X9X9X9X9X9X9XZ o.o.[.[.W.T.T.T.E.E.R.E.E.R.E.E.R.R.R.R.R.R.R.R.R.R.E.E.u.E./.T.T.Y.T.E.T.^.T.T.T.T.Y.Y.T.T.Y.Y.) ) ( ( o. .| | | | G G G 6X6X5X5X5X5X6X6X6X6X0X6X0X6X6XG G 6X0X0X0X6XG 0X0XG 6XG 9X9X6X............O.O. .^ _ ( _ ` ' ' ' ' ' ' ' ' ' ] ' { [ #.#.@.{ ' / z l x l x x e.v x x x x x x v s.!.!.a.r.q.e.u.a.a.q.q.q.q.q.q.w.q.w.w.w.w.w.w.q.<.w.p.p.p.f.d.f.f.d.f.f.f.d.f.d.d.f.d.d.j.f.d.d.p.d.d.d.d.d.d.d.d.h.f.f.g.h.z.h.h.h.h.h.x.9.0.x.x.x.L.L.L.L.L.l.l.(.(.^.^.`.^.`.`.)._.~.).W.~._.`.`.`.`.^.^.^.(.(.].].].].].].].].(.].].].`.^.).[.] ) z q 4 0 0 $ j j h z h g h z ' ' { { ) ) / / / / ) ) ) x ) x ) r.) ) ) ) Y.Y.Y.) ) ] ) x ) / / U U U U T T U g f f d I P P P P P P P d P I D F F F F F E N N ; N m N m m M ",
"6.0.0.8.8.1.a 8 5 r r q e w ^ ).dXgX-Xr.r.r.a :.:.r.r.i.t.t.i.t.t.t.t.t.>.>.>.>.>.>.>.;.2.2.2.2.>.t.2.;.;.>.t.>.F.}.F.>.F.F.F.F.F.F.t.F.F.F.t.F.F.F.F.c.c.c.c.F.F.c.c.F.F.F.F.F.F.F.v.v.v.G.G.G.v.G.J.J.J.J.G.J.J.v.v.v.}.v.F.v.G.J.G.G.F.F.H.H.i.r.5 # = - : > w Z Z X.9X9X9X9X9X9X9X9X9X9X9XwX9X9X9X9X9X9X9Xo.o.o.) [.Y.W.Y.Y.E.E.e.R.E.E.R.R.R.R.R.R.R.R.E.E.R.E.E.E.T./.T.E.T.T./.T.^.T.T.[.T.Y.Y.Y.Y.Y.) o.( ( W  .X.X.X.| ..G 0X9X0X6X0X5X5X5X5X6X6X6X6XG H H G H H G G ..0XG G G G B H G 9X0X0X............X.+.^ _ ^ _ _ ' ' ' ' ' ' ' ' ' [ ' { [ [ [ { { { ' ' ] z x z z v ] ] x x x ] ) r.s.!.^.z.a.s.r.a.a.W.a.a.w.q.q.q.q.s.q.q.p.w.w.w.w.w.<.w.p.p.d.f.d.d.d.f.h.f.g.d.d.f.f.8.d.d.d.d.f.f.d.p.p.f.f.d.d.f.f.f.f.f.g.d.g.x.9.h.x.x.x.x.9.x.K.x.K.K.x.K.l.l./.(.^.].^.(.].`.`.`.`.`.)._._._._.).`.).Q.[.`.^.^.].].].].].].].(.`.(.`.`.`.^.W.Q.] W.z s 0 0 j j j - s z z z g g U / / ) { / / / ) / / z ) ) ) ) / z ) ] ) x Y.Y.Y.) ] ) x ) ) / U g U T U U U g g w U P U P P I I I I I C I M M E D M M M F F S M M N N M M ; ",
"0.8.f.8.<.1.7 5 r q r r r e / { ^.T.r.t :.r.:.:.:.:.*.t.t.>.i.t.t.t.>.t.t.t.>.>.>.-.;.2.t.2.2.;.-.-.t.;.}.t.;.>.;.t.;.t.t.;.;.>.;.>.t.;.F.;.;.F.F.F.t.2.c.F.F.F.F.F.F.F.G.G.v.v.v.c.v.v.G.v.v.v.v.v.J.J.J.J.J.J.J.J.v.v.F.J.J.G.G.G.G.G.v.F.v.F.F.i.t 2 @ * * > > M V Z 9X9X9X9X9X9X9X9X9X9XeXwX9X9X9X9X9X9X9X9Xo.o.( ~.Q.r.s.r.Y.Y.E.E.R.R.R.R.R.R.R.R.R.E.E.E.E.E.T.T.Y.T.T.T.Y.Y.Y.T.T.[.[.T.Y.Y.Y.{ { [ ) ( W  . . .X...........9X9X0X0X0X5X5X0X6X6X0X5X0XG G G G G G G G H H G B B B B B B H ..G ........| X. . .~ ~ ~ ~ ~ _ T ' ' ' _ +.[ { { { ' [ T ( ( { { } ] ] ' z v v v ] ] ] W.W.W.W.!.!.(.(.!.^.W.W.T.e.r.e.a.a.a.a.q.r.q.a.a.a.q.q.q.q.w.p.p.p.p.p.f.d.f.f.d.d.f.d.d.8.8.8.8.8.y.<.f.d.f.d.d.p.d.d.w.d.g.g.f.f.g.g.8.f.g.x.x.x.x.9.9.9.9.L.K.@X9.x.z.l./.(.^.(.].].`.].(.`.`.~.).)._._._._._._.~.~.~.`.].].(.`.].].(.`.(.].].].`.W.W.W.] ] ] ] ) h w 4 0 j 0 - s h / / z j g h T / / ( / / z / / / / / / / / / ) ) x ) ) ) ) ) r.) ) ) ) / / g g U T U U U U U U U U U P P P I P C C M M M M M M M M N D B N B F m m N ; ",
"8.8.8.8.w.1.8 3 q q r r e e e c x k t r.:.6 6 6 %.&.&.>.>.t.>.>.>.>.-.-.-.-.>.t.t.F.t.t.t.>.;.t.2.t.t.t.t.F.F.F.t.t.>.F.>.F.t.t.F.>.;.;.}.;.;.;.;.;.2.2.2.c.c.c.F.F.F.c.v.v.v.v.v.v.v.v.v.G.G.G.J.v.J.J.U.U.J.J.J.G.v.v.v.}.J.G.G.G.G.v.v.G.G.G.H.l.r.e 9 > * * > > V Z X.9X9X9X9X9X9X9X9X9X9X9X9X9X9X9X9X9X9X9Xo.o.#.T.Q.v W.s.r.Y.Y.E.R.R.R.R.R.R.R.R.R.E.E.E.E.T.T.T.T.T.R.E.Y.T.Y.T.T.Y.Y.T.T.Y.Y.) o.W ) (  . . . .X.X.X.....0X0X0X6X6X6X6X0X0X9X9X9X9X9X9X....G H H H | | | | H B B H H H H G | | ....X.| | |  .~ Q ^ ^ _ [ [ [ [ [ [ [ ' T T T T T T T / ' ] ] ] v z b v ] ' ] ] ] ] ) x ) ^.^.^./.^.^.`.^.T.T.E.e.a.a.a.a.a.a.q.q.q.q.q.q.q.q.w.p.p.w.w.w.p.d.f.p.p.<.8.f.f.8.8.8.8.8.8.8.f.f.d.d.d.y.y.y.d.g.g.g.g.g.g.g.f.d.f.g.h.x.x.h.9.x.x.x.x.K.z.l.l.l././.].].].`.'.].`.`.).~.[.~._._.@.@.@.#._._._.`.).].^.`.(.(.].(.^.(.`.`.^.W.W.W.s.] ] ] ' z j 0 0 $ j j j j h ' / h h h / / / / / / h / / / / ) / / / / / ) x ) x ) ) ) ) ) v ) z / / U g U U U U U U U U U U U U I I P C C C C C P M M M M M | N N N F N N N m M ",
"3.3.<.<.1.:.8 5 r r q q e e e q q e 5 8 7 %.%.%.&.=.:.r.-.-.-.-.-.-.-.-.>.-.;.;.t.t.t.t.F.;.F.t.t.t.t.F.F.H.H.H.F.t.F.F.t.t.t.t.t.F.t.t.F.H.F.F.F.2.2.2.2.2.c.F.F.F.F.}.F.}.v.v.v.v.v.v.v.v.G.J.J.J.J.J.v.v.v.G.F.v.v.v.v.v.v.v.G.G.G.G.v.G.G.G.G.u.r.) 9 = > * , > M C Z 9X9X9X9X9X9X9X9X9X9XwX9X9X9X9X9X9X9X9Xo.o.@.).W.Y.r.r.e.Y.Y.T.E.R.R.R.R.R.R.R.R.E.E.E.E.E.E.e./.(.(.(.R.R.T.T.Y.Y.T.Y.[.W.Y.( ) ( ( W W W W  .X.X.X...........0X6XG G G 6X9X9X9X..........G | H ..| | | | | | | | H | | ..| ......X. . . . . .R ^ _ [ [ [ [ [ [ [ _ ~ T U U U U U f g h h h h h h h h z z z / z z z z z v W.W.W.W.^.(./.W.Y.T.W.^./.a.a.a.a.a.q.q.q.r.w.a.a.a.a.p.w.w.w.p.p.p.p.p.<.6.8.d.d.f.8.8.d.f.g.g.g.f.8.8.8.8.f.f.g.g.g.g.g.x.x.f.8.8.0.8.9.9.0.9.9.x.9.g.x.l.z.l.(.(.(.'.`.(.].].].`.).).{ ) ~._._.@.{ { #._.)._.~.[.`.`.`.^.^.(.].(.].(.^.^.W.) ] ) ) ) ] ] / h j j - j j j j s T ' / g g z / / / / h h / / / / / / / / / ) Y.) ] ) x ) ) x ) / ) / / T U g g U U U U U U U U P I I I P P P P I P P I C M M F F M F B N D M M M M M ",
"3.<.1.&.8 8 8 q q e 9 9 9 e e e q q r 7 6 :.:.r.r.r.i.i.-.-.-.>.-.>.>.>.>.;.t.t.>.F.;.;.}.;.;.>.;.;.t.F.F.F.F.F.t.>.F.t.t.F.F.t.;.;.t.F.t.t.F.F.2.;.2.c.2.c.c.F.H.H.F.F.F.F.v.v.v.v.v.}.F.v.G.J.J.J.J.v.v.v.v.v.v.}.v.v.v.v.v.v.G.G.G.G.G.G.U.G.H.i.R.:.9 @ * * * > > C o.9X9X9X9X9X9X9X9X9XwXwX9X9X9X9X9X9X9X9XX.o.o.{ ) x v s.W.Y.Y.E.R.R.R.R.R.R.R.R.R.R.R.R.E.u.E.E.E.T.R.E.R.E.R.T.T.Y.Y.Y.[.[.Y.) o.( ( W W W W X.| X.X...............G G G G 0X....H H ....| | H | | H | | H | | | ..| | | | ........X. . . . . .Q ~ [ [ [ ( ~ ~ T T Y Y P P P d f f w j f f h j j s h h s k g h z z z z g k c v v ^.^.^.^.^.T.T.^.^.^.W.s.e.a.e.a.s.s.x s.a.a.a.a.p.w.w.w.w.w.p.p.p.d.d.d.f.g.g.g.g.g.g.g.g.g.d.8.8.8.d.f.f.g.g.g.g.g.x.x.g.3.6.8.8.0.8.0.9.0.g.g.g.l.x.(.{.(.].(.`.].`.`.(.`.).).).W.).)._.).@.{ [ { @.@.{ { ~.^.).`.(.`.(.^.^.^.^.^.W.W.) ] ] ) ) ) ) / z h j 4 - j j j j z z { / h g z / / / / g U / / / / / / / / / / ) ) x ) x ) ) / / / / / / U g g g U U U U U U C P I P I I P I P I I I I F M F E N | F F N D M N A : m ",
"*.:.=.&.5 5 5 q e 2 # # 9 1 e 3 3 5 8 8 %.:.:.:.5.-.5.*.-.-.-.-.>.>.>.t.t.t.;.F.;.>.;.;.;.2.F.F.F.t.;.c.2.}.;.>.t.}.>.t.t.>.>.F.t.t.t.t.t.t.F.F.F.F.c.c.c.c.c.F.G.G.H.F.F.F.c.c.v.v.v.v.F.}.v.v.J.J.J.G.v.v.v.J.J.J.J.v.G.G.G.G.G.J.J.v.v.G.v.G.H.F.l.r.q # * > , > V V Z 9X9X9X9X9X9X9X9X9X9X9XwXwX9X9X9X9X9X9X..o.o.{ ) Y.r.s.s.Y.Y.R.R.R.R.R.R.R.R.R.R.R.R.R.E.E.E.E.E.E.E.R.R.:.R.R.R.Y.T.Y.Y.Y.Y.) ) ) ( W W W W | | X.X.X...........G G ....| | ..| | | | X.| | H | | | | | | | | | ....| H | | | X.X. . . . . .^ ~ ~ _ ^ ^ ~ Y T T Y Y I I P f d f w - - 0 j j 0 j j j j j 0 0 j j g g s s k h z ) ] ^.^.^.^.T.^.^.^.^.W.W.W.W.W.W.s.r.r.r.e.a.a.a.p.p.p.p.p.w.w.w.d.d.d.d.g.g.g.g.g.g.g.g.f.f.f.8.f.d.g.f.d.f.g.g.g.g.g.g.g.f.8.8.8.8.8.0.0.8.g.x.l.z.z.z.(.(.(.(.(.(.`.`.`.`.`.`.).^.).).)._.@.#.+.[ +.@.{ { { ~.).`.`.`.^.^.T.T.^.W.W.T.) ) ] x ) x ) ) z z j u $ $ j j s g h ' ' z h g h / / / z g g g / ) ( / / U ) z x ) ) Y.) ' / / / / / / / U g g g U U U U U U P P P I P P I P I I I I E E H M F F E N F N D D ; N N N ",
":.:.:.%.5 r 5 9 9 < + + < 1 9 y q r 8 t :.:.*.5.>.-.-.*.-.-.-.-.>.t.t.t.F.>.>.}.;.;.F.t.F.F.F.F.F.t.t.t.;.;.;.;.>.;.;.F.t.t.t.t.t.t.t.t.t.t.>.F.F.F.c.c.;.c.}.F.H.H.F.F.F.H.F.c.v.v.v.v.}.}.v.v.G.J.G.G.F.U.U.J.J.J.J.J.G.G.G.G.J.J.J.v.v.v.v.v.F.H.l.r.e # = > > > V V C Z 9X9X9X9X9XwX9X9X9X9X9X9X9X9X9X9X9X9X9X9X[.[.] Y.s.x Y.Y.Y.R.R.R.R.R.R.R.R.R.R.R.T.R.R.>.E.R./.R.R.R.R.R.E.E.R.T.T.Y.Y.Y.Y.) ( ) W W W W  .W | X.| W | X...| ..H | | G | H | | | | | | H | | Z | | | | | B H | | | H G | | | | | |  . . . . . .^ ^ ^ ~ Y Y T Y Y Y I P d f f d j - 0 4 u j j 0 j j j j 0 $ $ $ 4 u $ $ j p s p s z l ] Q.~.).^.^.^.^.W.W.W.W.^.s.s.r.r.r.e.e.a.a.p.p.p.p.w.p.p.d.d.f.f.f.f.f.g.f.4.f.d.f.8.8.d.f.g.g.g.f.8.f.8.f.g.f.g.g.0.8.h.h.0.8.0.8.g.g.x.l.z.(.(.(.(.(.`.].`.`.`.`.].(.].`.`.`.).)._.#.#.+.+.[ @.+.[ [ @.~.).~.^.~.^.[.Y.W.W.W.Y.) ) x ) ) ) / / / / h f $ $ u s j j h z ] z s s g / / / / g g g U ( / / / / ) / z ) / ) / / / / / / / / / / T z g U U U U U W P P P I I I I I I I I I E E E F M B D D M M N D ; N N M ",
":.:.:.t r 5 2 1 + , 1 1 9 9 5 e t :.r.r.r.:.-.>.>.>.;.;.-.-.-.;.>.F.>.F.F.;.}.;.;.>.F.F.F.}.}.>.}.F.}.;.t.;.;.>.-.-.>.>.F.t.t.t.t.t.t.t.t.t.t.}.c.F.F.c.F.c.F.F.F.H.c.F.G.H.F.c.c.v.v.v.c.c.v.v.v.v.G.J.J.J.U.J.J.J.J.J.J.G.G.J.J.J.G.v.v.v.v.v.F.H.H.e.t 3 = = * > > N V Z 9X9X9X9X9XwX9X9X9XwX9X9X9X9X9X9X9X9X9XeXZ [.W.W.Y.Y.T.T.T.T.R.R.R.R.R.R.R.R.R.R.E.T.T.R.T.T./.(.R.T.T.R.R.T.R.R.R.Y.Y.Y.Y.Y.) o.) W W W  . .| | | | | | | | | | | G G H H | | | | | | | E | | | | | | | B | | | | H G H X.| | |  . . . . . . .^ ^ ~ Y Y Y Y Y I I I u d d j j j j h h h h h g f h h j j j $ $ $ $ $ $ $ $ $ p p p s z ] W.W.^.^.^.^.Y.~.W.W.^.W.!.Y.s.e.a.a.a.p.p.p.p.p.p.w.p.d.p.d.<.d.f.d.d.d.f.f.d.f.8.d.f.g.g.g.g.8.8.8.8.8.8.g.g.g.f.h.h.9.9.9.9.g.x.g.x.z.l.z.(.(.(.(.(.].`.(.].`.'.].].`.`.`.)._.@._.#.+.[ +._ [ [ ( ( { / ] Y.Y.Y.Y.Y.Y.W.W.) ) ) ) ) ) / / / / / / g - $ j j j j j h ' z h j h h / ' / / g g g / / / / / U z z / / / / / / / / / / / / / / g g g f U U U U I I I P I I I I I I I I E E D B F F B F F A N N D M m m ",
"r t t r e 2 1 1 < , 1 3 3 5 r r t :.:.r.r.>.>.F.t.t.t.t.;.-.;.t.t.>.;.;.>.;.2.;.;.F.F.F.;.;.;.;.;.>.;.;.;.;.;.>.-.-.t.F.t.t.t.t.t.}.;.t.}.;.;.t.;.F.c.c.c.c.c.F.F.F.c.v.G.H.F.c.c.v.v.v.c.}.v.v.v.v.G.J.J.U.U.G.J.J.J.J.J.J.G.G.G.G.v.v.v.v.v.U.J.H.H.E.e.r # O * : M N C Z Z 9X9X9X9X9X9X9X9X9X9X9X9X9X9X9X9X9X9Xo.o.[.{ W.W.Y.Y.Y.T.[.R.R.R.R.R.R.R.R.E.E.E.Y.T.T.T.Y.Y.[.Y.Y.Y.Y.[.[.[.[.[.Y.Y.Y.T.[.) ) W W W W  . .X.X. .X.X.| | | | | | | | | X.| | X.| | | | | | | | | | | | Z B H | | H G | X.| | W  .o. .o. . .+.^ ~ Y Y Y Y I d : : w : d j h h s z ' ' ] } ' ' ] [ ] z z h h h f j $ $ $ $ $ $ $ $ j z s x W.Y.~.T.[._.~.Y.W.W./.^.^./.a.s.r.a.q.p.p.p.p.p.w.w.w.p.<.<.<.<.y.d.f.f.f.f.8.8.d.l.g.g.f.f.8.8.8.8.8.g.g.g.g.g.0.0.9.9.9.0.x.x.x.l.l.l./././.(.`.`.(.].`.(.].`.(.].^.`.`.).#.@.{ @.[ _ _ _ _ ( ( ( ( / ) ) { Y.Y.T.Y.W.W.Y.r.] / o.) / T / / / / / j - 4 $ j j j j h z h h g g h / { { z g g U / / / / / U z z / / / / / / x ) / / / / U g g w I U U U U I P P I I P I P D M D D E E F F F C I F N N ; N m N ; ; ",
"r r 5 3 < + + 1 1 1 3 e r r t 6 :.:.%.5.>.;.>.>.t.>.-.-.;.;.t.t.F.>.F.c.;.>.t.;.>.>.>.>.;.;.;.;.-.-.>.>.>.>.>.;.>.;.>.t.t.>.t.;.}.>.t.F.F.F.F.F.F.F.F.c.F.F.F.F.F.F.F.H.G.G.F.F.v.v.v.v.v.v.v.v.v.v.G.J.J.U.U.U.J.J.J.J.J.J.G.G.G.G.U.U.v.v.U.U.G.J.G.i.u.x 1 O * > M V V C Z 9X9X9X9X9X9X9X9X9X9X9X9X9X9X9X9X9Xo.o.W o.) Y.W.W.T.T.E.[.R.R.'.R.R.R.R.R.R.E.E.T.Y.[.[.[.Y.Y.Y.Y.Y.[.Y.Y.T.Y.Y.Y.T.T.T.Y.o.) U W W  . . . . . .X.| | | Z | | | | X.X. . . .W W R C | | | | H | | | | B B B | | | H |  .W W W  .o.o.o.o.+.$.+.^ ^ ~ ~ I I d w w g T ' ' ' ] W.] ] } ~.Q.~.~.~.~.~.} } } } } } ' h j q 4 j j p h s s j c ' ) ] ~.{ W.W.] ] ) W.^.^.W.W.r.s.r.q.a.p.p.p.p.w.w.w.w.w.<.<.<.<.d.d.f.f.f.8.8.d.f.g.g.8.8.8.8.3.8.8.g.8.g.g.f.8.0.9.9.9.g.x.9.x.l.l.l.(././.].(.].`.].].].`.].].-X`.'.'.`.).@.[ [ _ ^ _ _ _ [ [ [ ( ( { { { ' Y.T.W.W.W.W.) ) { { ) / U / / / / / g 0 $ $ - j $ 0 h h h s j 0 s z { { ( / g q U / / / z z z ) / / U / / / / / U U U / U g g g P P U U U P P P P P I P I D M D D F N F C B F D N N N M M N ; ; ; ",
"r e 9 < < # 1 1 1 9 e e r r 6 %.:.:.r.r.;.>.>.-.-.-.>.>.;.;.F.;.;.>.;.>.F.>.>.>.>.-.;.>.>.>.=.=.-.-.-.-.*.-.-.>.-.>.F.>.>.;.>.;.>.F.F.F.F.H.F.F.F.F.F.F.F.F.F.F.F.G.v.F.F.G.G.G.G.v.v.G.v.v.v.v.v.v.v.v.v.v.v.U.J.J.J.J.G.G.G.v.G.G.G.J.U.U.U.U.v.P.J.t.i.:.9 # = - : N N N Z X.9X9X9X9X9X9X9XwXwXwX9X9X9X9X9X9XwXX.o.o.) Y.Y.Y.Y.T.Y.R.R.R.R.R.R.R.R.R.R.R.[.[.:.[.[.) ) o.o.) ( ) ) ) T.[.[.[.[.[.Y.[.) t Z W W W o. .W E W Z | | | | | | X. .X. . . . . .W W | X.X.| Z X.| | | | | | X.| | | E E W W W W W o.( o.o.@.+.( ~ ( T T I Y T / ' { _._._.~.~.~.~.~.Q.Q.~.*X~.} } ] ] } !.~.~.~.~.Q.} b s h b Q.} h 0 4 s z ) { ] ] ) W.W.W.W.W.W.W.s.s.s.r.r.a.p.p.p.p.p.w.w.w.w.p.w.w.w.w.p.f.d.f.d.8.8.8.f.d.d.8.8.8.8.8.8.8.g.g.g.g.x.9.8.8.9.x.g.8.h.x.l.l.(.(.].(.`.].].`.].].`.].].`.].].`.)._._.@.[ [ [ +.+.+.O._ +.+.+.{ { { ( ) ) v W.W.W.) ) / / { { ( / / / / / T T f 0 0 0 0 j j j j h j j j j h / { { ) T g e / / / / / / / / U C / / ) / / / / / T g g U T U U I P I Y P C I I P I I R D E E E E F D D D D D M M m M N ; ; ; ",
"9 < 1 < + 1 9 9 1 3 5 7 r 6 %.%.=.*.>.>.;.>.>.-.-.-.;.;.;.;.;.;.}.t.>.F.>.F.>.>.>.>.>.>.>.;.-.;.-.>.>.-.-.-.-.-.-.t.F.;.;.>.;.F.t.F.F.F.F.F.F.F.F.F.F.}.}.F.F.F.}.F.v.F.F.H.G.G.G.v.c.v.G.G.U.G.G.G.U.G.J.J.J.U.U.G.J.J.J.G.G.v.G.G.J.J.U.U.U.U.v.J.G.H.F.r.r < @ = : : M M V Z 9X9X9X9X9X9X9X9XwX9X9X9X9X9X9X9X9XX.o.) ) T.Y.Y.Y.Y.Y.T.R.R.R.R.R.R.R.R.T.[.[.[.[.[.[.) ) ) ) ) o.o.) ) ) ) Y.[.[.T.Y.[.) o.) ) W W  . .W W W W W E W E E E E E E E R W E E E R R E E R C Z Z | | | B B Z | | | | | W W  .o.o.o.( ( o.o.( U P f U U T [ _.} Q._.`._.~.~.~.*X*X!.Q.Q.Q.} ~.!.Q.W.] *XQ.~.~.~.~.} ] Q.v v Q.*X*Xv s 4 j 4 s h z / ] { @.~.] ) W.W.W.!.^.Y.a.a.a.a.p.p.p.p.p.p.p.p.p.w.w.w.d.d.d.d.8.8.8.8.f.f.d.8.8.d.8.8.8.8.8.8.8.8.g.h.8.9.x.9.x.g.x.x.z.(.(.{.(.(.].].].^.^.`.^.`.`.(.`.`.`.).)._.@.[ [ [ [ _ ` _ _ _ _ [ ^ / ( ( ( ) ] ] ] x x ) / ( ) { ( / / / / / / T g f 0 - - - - j j j j j j s h h / ' / / g 0 g U T / / U U U / / ) ) / / / / / / / U U U U U U I P I P P f I P I P I E D D D F W N D D D M M N M M N m M m ; ",
"+ + + + < 1 9 9 3 e r 5 %.%.&.%.*.-.>.-.>.>.-.-.-.>.;.;.;.;.;.t.}.>.t.>.>.>.-.>.>.-.>.;.-.-.=.=.-.-.>.t.-.-.-.>.-.;.t.;.;.;.2.>.t.F.F.t.F.F.F.F.F.F.c.;.F.F.F.F.}.c.F.F.F.F.G.G.F.c.c.c.c.G.G.G.G.G.G.G.U.J.J.G.J.G.J.G.G.G.G.G.G.G.J.U.U.U.U.U.U.J.G.H.F.i.:.2 + = : : > V M Z 9X9X9X9X9X9XwX9X9X9X9X9X9X9X9X9Xo.o.o.) [.Y.Y.Y.T.Y.T.T.R.R.R.R.R.R.R.R.R.[.[.T.[.o.) ) W ) ( W W  .( ( ) ) ) [.) ) [.t ) ) o.U U ( o.^ W W W W W R E R W E E W W W R W W E R W C C M M C N Z | | Z B Z Z | |  .X. . .W W o.o.o.o.( ) { / U w f / [ @.#._._.~.~.~.~.~.~.} !.!.Q.Q.Q.Q.Q.Q.Q.Q.Q.Q.Q.Q.Q.Q.~.~.Q.Q.Q.} *X*X*X*X} v z s q 0 g z / z ] ] ] ] x x r.W.W./.^.s.W.a.a.p.a.p.p.a.a.p.p.w.w.w.w.p.f.f.d.f.8.8.8.8.d.d.f.8.h.g.8.f.8.8.8.f.f.0.8.8.0.x.x.x.x.K.K.z.{.(.(.(.`.(.`.`.^.`.^.`.].`.(.(.`.`.).)._.@.[ _ _ +._ _ _ +.O._ ^ ~ T ( [ ( ( ) ) ) ) ) ) / ( ( ( ( ( ( ( / / / / / U j - - = $ 0 j 0 - j j h h h z z / ( U g 0 g g / / T g U / / ( ( / / U U / / T U U T T Y I I I I P P I I I I P E E E M M M E E E E D M M N M m M M M M ; ",
"o + + < 3 2 2 3 5 r r 6 %.%.:.>.>.-.-.-.-.-.-.-.-.;.;.;.>.-.>.;.;.>.>.;.>.=.=.:.-.-.-.=.=.=.=.=.-.;.>.F.t.2.>.;.;.;.t.t.;.;.F.F.F.F.F.F.}.F.F.F.F.F.F.}.F.v.F.F.F.}.}.F.}.F.F.G.G.F.c.c.c.H.G.G.G.v.G.G.G.G.v.J.G.G.v.G.G.G.J.G.G.G.G.U.U.U.U.U.U.J.U.F.F.t.e.e + = - * > > M C o.9X9X9X9X9XwX9XtX9X9X9X9X9X9X9X9Xo.o.o.) [.[.Y.Y.T.Y.T.T.R.R.R.R.R.R.[.[.[.[.[.[.Y.o.o.W o.o.W Z o. .( Z ) o.) Y.Z ) ) W o.Y.U W W W W W W W W W R E R W W W W W W W W W W W | C Z N N N M Z | | N B M | | Z C R E C C W o.o.) ) o.( ) / h h ) } -X_._.~.~.~.~.!.!.~.!.Q.Q.Q.Q.Q.Q.!.Q.Q.Q.Q.Q.Q.!.!.Q.!.!.~.!.~.Q.Q.!.!.!.*X*X!.] ] ' z z z / h z ) ] ] ] ] v ) s.s.W.s.a.a.a.a.a.a.a.a.a.p.p.p.p.w.w.w.w.d.f.d.d.8.f.f.d.d.d.8.f.g.f.g.8.f.f.g.g.g.8.8.g.x.x.9.x.x.x.(.z.(.z./.(./.^.^././.^.(.`.].].].`.`.).).#.{ [ _ _ _ _ ! _ _ O._ _ _ _ [ [ [ ( ( ) / ) ) / / ) ( ( ( W ( ( / / ( ( ( T h f 0 = $ 0 0 0 0 j j j j j h / ( ' ) h g s g T / T U / / / / / / ) T U / / U U U T T Y I I I P P P I I I I I E E F M M M F E R D M N N D M M m m m N ; ",
"< + < < 2 3 3 3 5 t %.6 %.%.:.:.;.>.-.;.-.-.-.-.-.-.}.;.t.-.-.>.-.-.-.=.=.-.=.-.>.-.=.-.*.>.*.-.-.;.>.F.>.t.t.}.}.F.>.t.F.;.t.F.F.F.F.}.;.F.F.F.F.F.F.F.F.F.F.F.F.F.c.c.c.F.F.G.G.H.F.F.F.F.H.v.v.v.v.v.G.G.J.J.J.J.G.J.G.G.J.J.J.G.J.J.G.G.J.U.U.U.U.U.}.v.i.:.3 # = - * V : M Z X.9X9X9X9X9X9X9X9X9XwX9X9X9X9X..| o.( ) ) W.[.Y.Y.Y.[.[.R.R.R.R.[.R.[.[.[.[.[.( ) o.o.W  . .W W  . . .W o.( o.o.o.) o.) ) o.) C W W W W W W W W R E R W W W W W W E E E W  .W E E B M Z | | | | B N Z Z | Z C C C C C C W ) o.) o.) o.) ) { Q.-X-X~.~.~.~.!.!.~.~.!.~.~.~.Q.Q.Q.Q.Q.Q.Q.Q.Q.!.!.!.!.!.!.^.~.~.~.!.!.!.Q.Q.!.*X*X*X~.~.' ' z z s h x W.~.Q.} W.x x r.v s.s.a.a.a.a.a.a.a.a.p.p.p.p.w.w.w.w.y.d.f.d.f.d.f.8.d.8.8.d.8.g.g.f.d.f.g.g.g.x.g.g.9.g.g.g.x.(.z.(.(./././.^.^.^.^.^.^.(.].].].].`.).).~.{ [ [ _ _ _ _ Q ` O._ _ _ _ _ [ [ [ [ / ( / / / / / ( ( ( ( ~ ( ( ^ / ( ( ( / T Y f - - - 0 0 j j j j $ j h h / ' { ' z g s h U T T / / / / / / / U U T T U U T T Y I U I I I P P I I I I M D D D M M E D E R F D M N M M M M M N ; N ",
"< < < 3 3 5 5 7 6 %.:.%.%.:.:.>.>.=.=.>.-.-.-.-.>.;.;.;.t.>.-.-.-.-.-.=.&.-.-.>.>.-.-.>.>.>.>.>.;.;.t.F.F.t.t.t.F.>.F.F.F.F.F.F.F.F.F.}.;.F.F.F.F.F.F.F.F.}.F.H.G.v.c.c.c.F.H.G.G.G.G.H.F.F.c.c.G.G.v.v.v.U.J.J.G.G.v.G.J.G.G.J.G.J.J.J.G.J.J.J.U.U.J.J.v.}.>.i.5 1 # = = > > N Z Z 9X9X9X9XwX9X9X9X9X9XwX9X9X9X9X .Z ) o.) ] Y.Y.Y.Y.[.R.R.R.R.[.[.[.[.[.[.[.W ) ( o.o.o. . .X.X.X.X. . . .o.o.o.o.o.o.) o.) C U W W W W W W W W W R W W W W W W W R C I Z E E | | | | | E E B | Z Z Z Z Z C C C Z W W o.o.) ) ) ) ~.^.~.^.~.~.~.-X~.!.~.!.!.Q.!.~.~.~.~.} *X~.Q.Q.Q.!.Q.Q.Q.!.!.!.!.!.~.~.~.~.!.*X*X!.Q.!.!.!.~.~.*X*X} } } h s h ' ] Q.~.~.Q.W.v x x v v e.a.a.a.a.a.a.p.p.p.p.w.w.w.w.<.<.<.d.f.d.d.d.p.8.8.8.<.8.f.d.f.d.f.g.g.K.K.x.g.g.8.8.g.l.l.L.(.(.(././.^.(.(.^.^.`.`.`.(.'.(.`.T.~.~.{ [ [ _ _ +.` Y ` ~ _ _ ~ ~ _ _ _ [ ( ( / / / / / T T ( ^ ( ~ ( ( W ( ( ( ( T T T T f u - 0 0 j j j j j g g h h / { { / j 0 0 g h / / / / / / U / U U U U U U U W Y U P I P I I I R I I M M D D D F F E D E E R D D M M D m m N ; N M ",
"< < < 3 5 5 5 6 %.%.%.%.:.:.:.>.>.=.=.>.-.>.-.-.-.-.;.;.t.t.>.-.>.>.>.=.=.=.:.>.-.-.>.>.>.F.F.H.F.>.F.F.t.F.F.F.F.F.F.F.F.F.F.F.F.F.}.t.t.}.}.F.F.F.F.c.c.}.}.F.G.H.F.c.F.F.F.H.v.G.G.H.G.F.H.G.G.G.G.G.G.G.G.G.v.F.v.v.v.G.G.G.G.J.J.G.G.G.J.J.U.U.J.J.U.}.t.u.c e = = - > > V Z | 9X9X9X9X9X9X9X9X9X9X9X9X9X9X9X . .) ) ) { ^.T.Y.Y.Y.R.R.[.[.[.[.[.[.[.Y.) W ( o.o.o.|  .X.X.X.X.X.| X. . .o.o.o.o.o.) ) ) W U W W W W W W W W W W W W W W W W W E Z C C C C X.| | | E M N B B Z Z C C C C C W [.o.o.o.) ) { @.{ ^._.~.~.`.~.~.!.Q.!.!.(.!.~.~.~.~.~.~.~.~.~.~.~.!.Q.!.} Q.Q.Q.Q.Q.Q.!.Q.Q.~.!.!.Q.Q.Q.~.~.Q.~.~.~.~.*X*X~.] ' z x v ] Q.~.~.!.!.s.] v e.r.s.a.a.a.a.a.a.p.p.p.w.w.w.w.<.w.p.d.d.f.p.w.w.w.d.d.8.8.d.d.d.d.f.g.g.g.g.g.g.g.8.f.h.l.z.#X(.z.(./.^.^.(.(.(.`.(.].].`.^.[.T.T.^.{ { ( _ _ _ ` _ ` ` ~ ~ ^ ~ Q ^ ~ _ _ ( / / / / z / T T T ^ ^ ~ ( ( T ~ ( ^ T P T T T T j - 0 0 0 j j 0 j g g g h h ' } ' h g q 0 f T / / / / / ( / U U U U U U U Y Y U U I I P I E I I D M M D D D D D E D E E R E D D D D m M m ; D m ",
"< y y 3 5 5 6 6 %.%.%.%.:.:.:.:.:.:.=.-.-.-.>.>.-.-.-.>.-.>.t.t.;.>.;.=.=.=.=.=.=.-.>.t.t.t.F.G.F.F.F.F.F.}.c.F.F.F.F.F.F.F.F.;.}.t.t.c.F.F.c.F.c.}.F.F.c.}.}.v.F.F.F.F.c.c.c.c.F.G.H.H.v.v.F.H.F.G.J.G.J.J.J.G.G.J.J.G.G.G.G.G.J.J.J.G.G.G.J.J.J.U.U.J.U.}.t.u.T.c 9 # = * > N V Z X.9X9X9X9X9X9X9X9X9X9X9X9X9XX.o.o.o.[ [.} [.T.T.[.:.[.[.R.[.[.[.[.o.W ) ) ) ) o. . . .Z X.X.| X.| | X. . .o.o.o.o.t o.) ( ( ) W ) W W W W W  .o.W W W W W W W W | | |  .W | | | | E C V B B B Z Z Z C C W W W o.o.) o.) ( ) ) [.[.~.~.!.`._.!.!.!.!.!.!.!.Q.Q.Q.~.~.~.} ~.~.~.~.Q.Q.Q.*Xs.} ] W.Q.Q.Q.Q.Q.Q.Q.] v W.Q.Q.Q.!.~.~.~.~.*X*X*X*XQ.] ' z z v ] Q.!.^.!.W.v Y.r.Y.s.a.a.a.a.a.p.p.w.w.w.w.w.w.w.w.p.p.p.p.w.p.d.f.d.d.d.f.d.d.f.d.d.f.8.g.g.g.g.g.g.g.z.z.{.(.z.(.=X^.(.^.^.^.(.].^.(.(.^.[.[.).`.[.' [ ^ ` ` ` ` _ _ ~ ~ _ _ _ _ ~ _ ^ ~ ( ( / / / / / T T T T ( ( ( ( T ^ ( T U T ~ ~ h d 0 - - - 0 j 0 j g j f h h z ' ] ' g w 0 0 g U / / ) ( ( / T U W W W U U I U P I I I U P I P D D M D E F D D M M D D F M F D F D D M N M N m N ",
"3 5 5 y 7 6 6 6 %.%.%.%.:.:.:.:.:.=.>.>.>.>.>.>.>.-.-.-.=.-.>.t.>.>.:.=.=.=.=.-.-.>.t.i.t.t.t.;.;.F.F.F.F.c.F.F.F.;.;.2.F.F.c.}.c.c.F.F.F.F.F.}.F.F.G.G.G.H.F.F.F.c.c.c.c.c.c.c.c.c.c.c.c.c.c.c.v.v.G.G.G.G.J.G.G.J.J.J.J.J.J.J.G.J.J.G.G.G.G.J.J.U.U.J.U.U.c.>.E.Y.r @ = = > > V Z | ..9X9X9X9X9X9X9X9X9X9X9X9X9Xo.[.o.{ ^.^.Y.T.T.Y.Y.[.R.R.[.[.Y.o.) ) ) W W W o. . .W | | | X.| | | X.X. . .Z o.) o.( ) ( ( o.( ( ( W W W  . . . .W R R C C C R W W  .X.| | R | W Z B B B Z Z Z Z C R W W W W o.) ) ) ) { [.~.^._.`.-X*X~.~.Q.!.!.!.*X!.Q.!.Q.~.~.~.~.~.~.~.~.~.*X!.} Q.Q.] ] ] Q.!.!.!.Q.] ] Q.Q.Q.} W.W.Q.~.~.~.Q.} } } *X*X~.Q.' z z z v !.!.*X!.s.s.r.r.q.r.e.a.a.a.a.p.p.a.p.p.w.w.w.w.w.w.w.w.w.p.p.h.z.f.<.<.<.d.d.d.d.d.d.f.x.x.g.g.g.g.g.g.z.z.z.j././.!./.^.^./.].(.].^.^.(.].`.^._.{ { [ _ ` ` ` _ ~ Y Y _ _ _ _ _ _ ^ ^ ~ ^ / ' ( / T T T T T ~ ( ^ T T ^ ( ( T T T ~ ~ f d - = - $ j j j j j h h h h T } { ' s j j d g C / / ( ( ( U W W W W R R W P P I I I W I P P D M M D E E D D N N D D D F F B D D D m M m D N ; ",
"6 7 7 7 7 7 6 6 %.%.%.%.:.:.>.>.>.>.-.>.>.>.>.>.>.>.-.=.=.-.>.>.>.>.:.=.>.=.=.*.>.>.t.t.t.t.t.t.2.t.2.;.;.2.F.>.F.t.t.F.F.F.F.>.c.}.F.F.F.F.F.F.F.F.F.F.F.G.F.F.F.c.v.F.c.c.c.c.c.c.c.c.c.c.c.v.v.v.v.v.G.G.G.v.G.J.J.J.G.J.G.G.G.J.J.J.J.J.J.J.J.U.U.U.J.J.}.}.t.i.c 9 - - - : : N Z ..9X9X9X9X9X9X9X9X9XwX9XqXo.o.) ) W.W.^.T.Y.Y.Y.T.[.[.[.[.[.o.o.o.W o.W o.W o. .X.| | | X.X.X.| | X. . . .W o.W W ( o.( ( o.W ( W W W W W  . .W R C R E C C R R E R W | | C Z Z Z Z Z Z Z C Z C C C C R C W U ) U U q q ( W._.~.~.~.*X~.~.~.~.~.!.~.Q.Q.Q.Q.~.~.~.Q.Q.Q.Q.} ] ] ] ] ] !.] ] ] Q.Q.Q.} ] Q.Q.Q.!.Q.Q.] ] Q.Q.~.Q.Q.Q.Q.] *X!.Q.Q.} ] c k h z ] Q.} *X!.s.s.q.q.r.s.a.a.a.a.s.7.a.a.p.w.w.w.w.y.d.d.d.y.w.w.w.f.d.d.w.w.f.f.h.f.d.g.g.g.g.g.f.f.8.g.l.x.z.j.j.a.^.^.E.^.^.^.^.(.^.(.^.(.`.).~.W.{ ) / ( / [ ~ T T T T ^ ^ _ ~ _ _ [ _ [ [ ^ ~ ' / T _ ( ~ ~ ( ^ _ ^ ^ ^ ^ ^ ~ ~ ~ ~ T Y u - - u - - - j j s h h h b ' { ] ' h f - 0 g / / ( ( / U U R I R R W ~ R R I R R I I I M D I E E E E D D N M M F D M D M M M M M m N N ; ; ",
"6 6 6 7 6 6 6 6 %.%.%.%.:.:.>.>.>.-.-.-.>.>.>.>.>.>.-.=.=.=.-.-.>.=.:.:.:.-.:.:.i.>.t.t.t.t.t.t.2.2.2.2.;.t.>.F.;.;.;.2.;.F.F.F.F.F.F.H.F.H.F.F.F.G.F.F.F.v.H.F.F.F.F.F.F.H.H.c.c.c.c.c.c.v.v.v.v.v.v.v.J.G.G.G.G.G.G.J.G.G.J.F.G.J.J.J.U.J.J.J.J.U.J.J.J.J.}.}.F.H.T.k e = - : D D E X.9X9X9X9X9XwXwX9X9X9X9X9Xo.o.) Y.W.e.Y.Y.Y.T.T.Y.[.T.T.T.[.Z o.) o.o.o.X. .X.X.X.| |  .| | X.| | X. . . . .W W ( ( ( ( ^ W W W W E E W W W W E C C C E C R R R E R E W E C C Z Z Z Z Z Z N Z N C C C C C w w e e q g z ' _.~.~.~.~.~.~.!.!.~.!.Q.Q.Q.Q.Q.Q.Q.!.~.Q.!.Q.Q.Q.} ] } } Q.!.Q.Q.] !.] ] ] v ] s.Q.Q.Q.!.Q.] ] Q.Q.Q.Q.!.Q.Q.] !.!.!.Q.Q.z s s h z z ] !.*X!.a.e.s.W.e.W.q.s.e.s.s.a.p.p.w.w.w.w.y.d.d.p.w.w.w.w.d.f.f.d.d.d.f.g.f.f.k.f.j.g.g.g.g.8.g.g.g.k.k.k.k.a./.(./.^.^.(.^.].].^.`.`.^.Y.{ ] ) / / ' T / T T T T T T T T ^ _ _ [ [ [ ~ T ^ ~ ~ ^ [ ~ ~ ~ _ ^ ~ ^ ~ ~ ^ ^ ^ ~ T T T u - - - - - $ j j j j h h h h ' } } / h 0 0 g T U / T U U P P R R R R I I I E E R P D D M M D D D E D D D M M D D F D M M M M M N m ; N i ; ",
"6 6 6 7 6 6 6 %.%.%.%.&.:.:.>.>.-.-.-.>.>.>.>.-.>.=.=.=.:.=.=.=.>.:.>.:.=.>.>.>.i.t.t.t.t.t.t.t.2.2.2.t.c.t.;.F.F.2.;.;.t.F.F.F.F.F.H.H.H.G.H.G.H.F.F.F.F.v.v.H.F.F.v.F.G.H.H.v.v.c.c.c.c.v.v.G.v.v.v.v.v.G.G.G.J.G.G.G.G.G.J.J.J.J.J.U.U.J.J.J.U.U.U.J.P.P.U.}.v.{./.c 9 # = : D D |  .9X9X9X9X9XwXwXwX9X9X9XX.o.o.) W.s.s.Y.:.T.Y.T.T.[.[.Y.Y.[.Y.) ) (  .o.W o.X.| | | | | X.| X.|  . . . . . .W W W ( ( o.( ( W W W W E W W W E Z C C C E R R R R E R R E W C Z Z C Z Z Z Z N C V C C C C w e 9 9 w w / ] } _.~.~.~.~.Q.Q.Q.] W.} Q.Q.Q.Q.Q.Q.Q.Q.Q.Q.] Q.Q.Q.Q.] Q.s.Q.Q.Q.Q.v Q.] ] v v v ] ' } Q.Q.] ] W.Q.Q.Q.Q.Q.Q.Q.*X!.~.!.*XQ.v z s s s h h ' !.(.s.a.a.a.e.r.q.r.s.s.s.s.a.p.w.p.y.w.p.d.d.y.w.w.w.p.d.d.f.f.f.d.d.g.f.j.k.k.l.j.g.g.g.g.g.g.g.j.j.k.a.a.a././.^.(.].(.(.`.`.`.^.T.W.) ) ) / / / / / / / T T T T ~ T T T _ [ [ [ ~ T ~ ~ ^ _ [ _ ^ ^ _ ^ ~ ^ ^ ~ ~ ^ T ^ ^ T ~ f j u - - - j j j j j h j h h z ' |.{ ) j 0 0 f U U U U U W Y Y W R P P I I I R I I D M M D M M D D D D M M M D M D D D M M m M M D ; N N ; ",
"6 6 7 6 6 6 6 %.6 %.&.=.:.:.>.-.-.-.-.>.>.>.>.=.=.=.=.=.:.=.=.>.>.>.>.>.>.r.i.t.t.t.F.t.t.2.t.t.;.t.t.t.c.2.2.2.2.;.2.2.2.F.F.F.F.H.G.F.G.H.F.H.F.F.F.F.F.F.F.G.H.G.F.F.G.H.F.v.c.c.c.c.c.v.G.G.G.v.v.v.G.G.J.J.G.G.v.J.G.J.J.J.J.J.J.J.U.J.J.U.U.U.U.U.J.P.U.}.v.H.(.Y.q + = - u D F H ..9X9X9X9X9XwXwXwXwX9XX.o.o.{ W.r.s.Y.T.T.Y.T.[.[.T.Y.Y.W o.) W ) Z W o.W X.X.| Z | | | | | | |  . . .W ^ W W W +.+.o.( W W W W o.W  .W W E C C C C C E R E E E E E E C C Z Z Z Z Z W Z N N C C C w 0 w 0 0 0 g / } ~.~.~.~.~.~.!.Q.] ] ] ] Q.Q.Q.] Q.!.Q.!.Q.Q.] ] Q.!.!.} ] Q.Q.] !.v v v ] ] v v v ] ] ] ] } ] ] ] ] ] Q.Q.Q.Q.Q.Q.~.~.~.!.!.!.} v z j p - j h !.!.!.Q.W.a.s.e.x s.e.s.s.s.a.a.a.f.d.p.d.f.d.y.w.w.w.p.w.d.d.d.d.f.d.f.d.k.k.k.j.j.l.g.g.g.g.g.g.g.f.f.k.a.k.k./.(.(.].(.].].`.(.^.T.Y.) x ) ) / / / / / / T T T / T T T Y [ [ [ [ ^ T ~ ^ ~ _ [ _ ~ ~ ^ ~ ^ ~ ^ ~ ^ ~ T ~ ^ ^ ~ Y f w - - - - j j j j j j j j j h } #.' T 0 - j d Y U U U W Y ~ W W P P D D D P D D D D D D M M M D D D M M M N M M : M M m M M N ; ; m M ; ",
"7 6 6 7 6 %.%.%.6 :.:.:.:.:.-.-.-.-.>.>.>.>.>.=.=.=.=.=.=.=.=.=.=.>.:.>.>.:.r.t.t.t.t.t.t.2.2.;.t.t.t.t.;.2.2.2.2.2.2.2.t.F.F.F.F.H.H.H.F.F.F.F.F.F.v.F.F.F.F.G.G.G.F.F.F.c.c.c.c.c.c.c.c.G.G.G.G.v.v.v.G.G.J.J.G.G.v.v.v.G.G.J.J.J.G.G.G.J.J.U.U.U.U.U.U.J.U.U.}.F.R.(.x e # = ; M N B 9X9X9X9X9X9X9XwXwXwX.. .o.o.{ W.W.s.W.^.Y.Y.Y.[.[.[.Y.[.) ) Y.W W W W W W  . .| | | | | | | | | | E W W W W W W ~ ^ ( W W W  . .o. . .W W E C C C R | Z R R E E R W E E C Z Z Z Z Z Z Z M N V C C 9 = = 0 f / { ~._._.~.~.~.!.!.Q.Q.!.} Q.Q.Q.Q.!.] ] !.Q.Q.Q.Q.Q.] ] !.Q.s.] ] ] ] ] !.v b v ] v ] ] ] } } v ] ] ] ] ] ] Q.!.Q.Q.!.Q.Q.Q.Q.!.Q.Q.Q.] ] h p $ 4 s b ] *XQ.q.r.W.v e.e.s.W.s.e.a.p.p.p.d.d.d.k.j.k.p.w.w.w.w.d.j.d.f.d.f.f.k.k.k.f.f.d.f.f.g.g.g.g.g.g.f.d.d.d.k.a./.(.`.^.(.].`.].`.T.T.Y.) ) ) x ) / / / / / / T / / / T T T [ [ [ [ [ ^ ~ ~ _ [ [ _ ~ ^ ~ ^ ~ ^ ~ ^ ~ ~ T T ~ ~ ^ T Y f d - - $ $ - - j j j j j j j h ' [ / h j j w d U P P U U Y W E P D D D D D D D D D D D M M M M : M M M M ; M M D N M m M M M m N M N N ",
"6 6 6 7 6 %.%.%.6 %.:.&.:.-.>.>.-.-.>.>.>.>.=.,.%.%.=.>.:.&.%.%.:.:.:.:.:.-.:.i.t.t.t.t.2.2.2.;.t.F.t.t.;.2.2.t.t.t.t.t.t.t.t.F.F.F.F.F.F.F.F.2.F.F.F.G.F.F.F.H.G.G.v.c.c.c.c.c.c.c.c.c.v.G.G.G.v.v.v.G.G.G.G.G.v.v.v.v.v.v.v.G.J.G.G.G.J.J.U.U.U.U.U.U.U.J.J.U.v.}.H.R.Y.r 9 * > N N N B B H 9X9X9X9XwXwXZ | | o.o.{ ~.W.s.Y.Y.Y.Y.Y.Y.[.[.R.t ) ) ) Z W W W W W W o.X.Z | | | | | | E E E E W W E W W I E W W W R W  .|  . .W W E E C C R C C | E E W W W W | R W Z C C C C C C M : > = * * 9 f z ] ~.~.~.~.~.~.~.~.~.Q.Q.Q.Q.Q.Q.Q.Q.Q.Q.Q.Q.Q.Q.Q.Q.Q.Q.Q.Q.} ] ] ] ] ] ] } Q.!.Q.] ] ] ] ] ] Q.v } ] } } Q.!.Q.} Q.Q.Q.~.!.!.Q.!.Q.Q.} ~.~.v s 4 $ p c ] } Q.W.r.r.s.x r.W.s.r.s.p.p.p.p.p.p.p.p.k.l.z.d.p.w.w.d.j.j.f.f.d.k.k.j.j.k.f.f.d.f.f.f.f.g.g.f.g.f.d.d.f.k./.(.].(.].(.].`.`.^.W.Y.x x ) ) ) / / / / / / / / / / T T U ( ' [ [ ( T T T ~ _ _ _ ^ ~ ^ ~ ^ ~ ^ ^ ^ ^ ~ ^ ~ T ~ ~ ~ T P d - - - - j j j 0 j j j j h h T ' ' h j - u d w w w P P I I D M D D M M M D D D D D D D D D M D m M M N M M M N ; M M M N M M m m M ",
"6 6 7 6 6 %.%.%.%.:.:.:.:.-.>.-.-.-.>.>.=.=.=.=.%.%.:.:.>.:.:.:.:.:.&.:.:.*.*.>.>.2.2.t.t.2.2.>.t.F.t.;.-.>.t.t.t.F.F.F.F.t.2.F.F.F.}.F.}.F.F.F.F.F.F.F.F.F.F.F.F.F.F.c.c.c.c.c.c.c.F.v.G.U.G.v.v.v.v.G.G.G.G.v.G.G.G.G.G.G.G.G.U.G.G.G.G.U.U.U.U.U.U.U.U.U.J.J.v.v.{.{./.Y.e = > m H N B B B G 9X9X9XwXB Z | W o.o.{ T.W.W.W.W.T.Y.T.[.[.[.[.[.o.) o.) W W W W W  .X.| H | | | | | H | E E E E E E E R R W W W E C C R W W W W C C C C C E C C C E | | | | | | | Z C C C C C C C : > , O O 0 U ) { Q.~.~.~.~.~.~.~.~.~.!.Q.Q.Q.W.] } Q.Q.!.Q.Q.Q.!.Q.Q.} *XQ.s.Q.] ] ] ] ] ] ] Q.} Q.Q.!.Q.] Q.!.Q.Q.Q.Q.!.Q.Q.Q.Q.*X*X*X!.^.!.!.!.!.Q.Q.Q.Q.*XQ.z j $ p j h v ~.W.W.W.Y.Y.r.r.] r.q.q.p.p.p.w.w.w.p.k.z.z.z.d.p.p.p.p.p.p.p.f.j.k.j.j.k.j.g.g.g.f.f.g.g.g.g.f.d.f.f.d.k.k././.(.`.(.(.(.^.^.Y.r.x ) ) x ) ) ) / / / / / / / / / T T T ^ ( ( T T T T _ _ _ _ ^ _ _ _ ~ ^ ^ ^ ^ ~ ^ ~ ~ Y ~ ^ ^ T U f d - = j j u j j j h j j j h h ' #.{ h - : d w w : : : : M D D D D D : M M D D D D D D D D D ; N N m M M M M M m N m M m M M M M m ",
"6 6 6 5 6 6 %.%.:.:.:.:.:.>.>.>.>.=.>.>.:.=.%.%.%.=.:.:.>.>.>.:.:.:.=.:.:.>.-.-.-.>.-.t.t.t.2.t.t.t.>.>.>.t.t.F.t.t.t.F.t.t.2.2.F.c.c.t.F.F.F.F.F.F.F.F.F.F.c.F.F.F.F.F.F.v.c.c.c.c.c.G.G.F.c.c.v.v.G.G.G.G.v.G.G.G.G.J.J.J.J.J.G.v.G.v.J.U.U.U.U.U.U.U.U.U.U.J.v.v.F.{.{.T.r = > M N N F G Z | 9X9X9X9XwXZ | Z W ( { { ) x W.W.[.T.T.[.[.[.[.) t o.) W W W W W W  .| | | | | | | | | | | E E W W R R R W W W W E E E R R W R E C C C C C C C C C Z W E C Z C C C C C C C M M : > > = = = f / { _.*X~.~.~.~.Q.} ~.Q.Q.} !.Q.Q.Q.Q.} Q.Q.Q.Q.Q.Q.Q.Q.] Q.Q.!.Q.Q.!.} Q.v v ] ] ] v } Q.Q.!.Q.Q.!.Q.!.Q.!.!.Q.!.Q.!.Q.!.*X*X} ~.~.(.!.z.!.!.Q.Q.~.Q.] z j j $ j h / ] W.~.W.Y.Y.Y.s.r.r.q.q.w.w.w.q.w.p.p.a.a.a.a.a.p.p.p.p.w.p.j.z.k.k.j.k.j.l.g.g.g.g.g.g.g.g.g.f.d.f.f.d.k./.(./.(.`.`.]./.^.^.] x x ) ) ) v / / / / / / / / / / U T T / / / T / _ T ^ _ _ _ _ _ _ _ _  .~ ^ ^ ~ ^ ~ ~ Y Y ~ T T T P d w = 0 j j p j j j j j j h j z } } ` f j f d w w w : : M D D D D M M : u : D D D D D D D D D D N m M D D M M m N M N M M M M M M ",
"6 6 6 6 6 6 %.%.:.:.:.:.-.-.>.>.>.>.>.>.:.=.%.%.%.%.=.%.:.:.>.:.=.=.=.=.=.-.-.-.-.-.-.;.;.t.t.t.F.>.>.>.t.t.t.>.>.t.t.t.t.2.2.t.F.;.;.t.F.F.F.F.F.F.F.F.F.G.v.G.F.v.F.G.G.H.F.c.c.c.c.c.F.c.c.c.c.v.G.G.G.v.v.v.G.v.v.G.J.J.G.G.G.G.G.J.J.J.U.J.J.U.J.U.U.U.U.J.U.}.}.H.K.E.t 9 = > M N M N B | X.9X9X9X9X..| W W ( ) ( ) / x ) t Y.) [.o.[.) ) ) o.o.) ) W W W W W | | | | | | | E | | | | E R R R R R R R E C C E Z C C E E C C C C E Z Z C C C Z Z E C C V C C C C N M > > * , = 9 w U ' } _._.*X~.Q.~.Q.Q.] Q.Q.~.Q.~.~.~.!.!.~.Q.!.!.Q.Q.Q.Q.Q.*XQ.Q.Q.Q.Q.!.!.!.} Q.Q.Q.] v ] ] Q.] Q.] ] ] !.!.] ] Q.Q.Q.Q.!.Q.} !.Q.~.!.!.*X~.!.!.!.!.} Q.~.~.' j j u $ s / { W.Y.Y.Y.e.r.r.Y.q.q.q.q.q.w.p.p.a.q.p.p.a.a.p.p.q.q.w.p.k.z.k.k.w.f.k.l.l.g.g.g.g.g.g.g.g.f.f.d.f.f.k./././.(.(.(.(.^.^.T.Y.x x ) x ) ) ) ) / / / / / / / / / T / / / ( / ' [ ~ Y ^ _ ^ _ _ _ _ +._ ^ ^ W ~  .^ ^ U ~ ^ ^ Y Y U h w - - 0 - - 0 - j j j j j j h ' } } T g d d w : : : : M M ; M M M ; : ; ; M M D D D D D D D D D D D D D D M M M N ; M M M M M M ",
"y 6 6 6 6 6 %.%.:.=.:.:.-.>.>.=.>.>.>.>.:.,.,.%.%.%.%.%.%.=.:.:.:.=.:.=.>.>.>.>.-.-.-.t.t.;.t.t.>.;.;.>.t.t.t.t.;.2.2.t.;.t.2.F.F.t.F.F.c.c.F.F.F.}.F.F.H.G.G.G.G.F.H.v.G.G.v.c.c.c.c.c.c.c.c.c.v.v.G.G.G.U.v.v.v.v.v.v.v.v.G.G.v.G.G.G.J.U.J.J.P.U.J.J.U.U.U.J.U.v.}.F.t.i.t 3 9 = : V N N M Z  .X.9X..9XX.| R W W ) / / / / ) Y.o.o.) ) W ( W o.) o.o.o.o.Z W W  .| | | | H | | H | | | | | | | W E E W R R C E Z | Z Z R C C C C C C Z C C C M Z Z C C C N C N C V N V > > > > w g / } ~.~.Q.~.Q.} Q.Q.Q.] ] Q.Q.~.Q.~.Q.} Q.~.~.~.Q.!.] Q.Q.!.Q.*XQ.Q.Q.Q.Q.!.Q.Q.Q.Q.!.!.Q.} ] Q.Q.] ] ] ] ] Q.v } ] ] !.!.Q.Q.Q.Q.Q.Q.!.!.!.!.~.~.!.!.~.Q.~.~.*X] z h u - $ g z z Y.Y.Y.Y.Y.e.r.q.q.q.q.q.p.a.a.a.q.q.q.q.a.p.p.a.q.w.w.j.d.z.y.d.f.u.f.j.g.f.g.g.g.g.g.g.f.g.f.g.f.k./././.(.(.(.`.(.(.^.W.s.) x ) x ) Y.x / ) / / / / / / / / / / / / / / ' ~ T T _ _ ` _ O._ _ +.~ W ^ Q ^ ^ W ~ ~ ^ ~ Q Y T U d u - - $ - - - - 0 j s f j h T [ @.{ ' g : : : : : : : : ; ; M : M ; ; ; M D D D D D M D D D u D D M D D m ; m M m D D M M : M ",
"6 6 6 6 6 6 %.%.:.=.=.=.-.>.:.:.:.:.>.=.%.,.y %.%.%.%.%.%.:.:.:.:.:.:.>.>.>.F.;.-.-.-.t.t.t.t.t.>.-.>.>.>.t.t.t.F.t.2.2.2.;.t.t.t.F.F.;.;.;.c.c.}.F.F.F.F.F.G.G.G.F.v.F.v.c.v.v.c.c.c.c.c.c.c.v.v.G.G.G.G.G.G.v.G.G.U.G.v.v.G.G.v.v.v.v.G.J.J.J.J.U.U.J.U.U.U.J.J.U.v.}.F.>.%.5 e 9 > M M C V Z | B B B 9X| W W W W ( U / / ( ) o.o.t ) ) o.o.o.) W o.o.W W W W  . .| | | | E | | | | | | | | | | E W R  .W E E E | | | | E R C C C C C C C C C M C C C C C Z Z N V > > > > > w w T [ _._.~.} Q.Q.Q.W.] ] ] !.Q.Q.Q.Q.Q.Q.Q.] Q.Q.~.~.Q.Q.] Q.Q.Q.Q.v Q.Q.Q.*XQ.~.!.Q.Q.Q.Q.Q.Q.Q.Q.!.s.} ] ] ] ] ] v v ] ] Q.v Q.W.Q.Q.Q.Q.!.Q.!.Q.Q.!.!.~.!.~.~.~.} ] } z f $ = # 4 z ' ) { ^.W.Y.Y.q.q.q.q.q.q.p.a.p.s.q.q.p.p.p.a.a.k.p.w.w.a.z.k.j.j.d.d.j.l.g.f.f.g.g.g.f.g.g.g.g.g.k.z.(.(.(.`.].].`.`.].^.W.W.x Y.) ) x x ) ) / / / / / / / / / / / / / / / T T / _ _ Y ^ _ O.+.O._ ^ ~ Q ~ ~ ~ ~ ! Q Q ! Y Y Y P f f - - - 0 0 0 j g h z T h s h } } { ' 0 0 : : : : : : ; ; ; u D M ; ; M M D u D m m N D D D D ; M M M M N M m D D D D N M M ",
"6 6 %.%.%.%.=.=.:.=.=.=.>.>.:.:.:.>.=.:.%.%.%.%.%.%.%.%.%.:.:.:.:.:.=.=.>.>.t.;.-.>.>.t.t.t.t.t.>.>.-.>.F.>.t.t.t.2.2.2.;.t.t.t.t.t.2.t.;.;.c.F.F.F.F.c.F.F.F.H.F.G.v.F.F.F.c.c.c.c.v.G.G.c.v.v.v.v.v.v.v.v.v.G.G.G.G.G.G.G.J.J.v.v.v.G.G.J.J.J.J.U.J.J.J.U.U.J.J.U.U.v.F.t.>.:.e 9 = : M M N V B B B B | E W W W ( W U U T ) ( ( ) ) o.o.o.) ( ( ( o.o.o.o.W W  . . .| | | | | | | | | | | E | E E E E E E E E | | | | Z C C C C C C C C C C C Z Z C C C C C C V V > > > > > w w ( { #.~.Q.] Q.Q.Q.Q.Q.Q.Q.Q.Q.Q.Q.~.~.Q.] ] ] W.Q.] ] ] v ] ] W.Q.Q.Q.Q.Q.Q.Q.Q.Q.Q.Q.Q.Q.Q.Q.!.Q.Q.Q.Q.] ] ] ] ] ] ] ] v v v v v ] !.Q.Q.Q.!.Q.Q.Q.Q.!.!.!.!.*X~.Q.!.~.] z d $ $ $ j x W.Y.Y.] T.Y.W.s.r.x q.q.p.s.s.s.q.s.s.p.p.s.d.k.z.k.a.a.k.j.j.k.j.j.l.g.g.g.g.g.g.g.g.g.g.g.g.g.z.(.z.{.(.(.(.].(.`.(.^.W.x ] Y.Y.Y.x x ) ] ) z / / / / / / / / / / / / / T T T _ _ Y ~  .+.O.+.O. .^ ^ ^ ~ ~ Q Q Q ~ ~ Q Y Y T Y d w - u - 0 - j h h ' ' h j h / } } @.h j - - : : : : : ; : u M : ; ; ; ; D D D N M D D D D M M M M M M M N M D D M M N m M ",
"6 %.%.%.%.%.%.=.=.:.>.=.:.:.-.>.:.:.=.=.%.%.%.%.%.%.%.%.%.:.:.:.:.=.=.:.>.>.F.>.-.>.>.t.>.>.>.>.>.>.>.>.t.F.t.-.t.t.t.t.F.t.t.t.t.2.2.>.t.F.c.F.F.F.c.F.}.F.F.F.F.F.F.F.F.F.F.c.c.F.H.H.G.H.v.v.v.v.v.v.v.c.v.G.G.J.G.G.J.G.J.J.G.G.G.G.G.G.G.G.J.U.J.J.J.J.U.U.U.U.v.}.v.G.i.:.6 e 9 = - M M M N N H | | E E R W W W U U U U U U ( ( o.) W W C C W Z o.o.o.W  . . .X.X.X.....| H | | | H B N | | | | | C C C C E E | | Z Z Z C C C C C C C C Z Z Z Z Z Z C C V C V > > : - - w U / { ~.~.] ] ] Q.!.Q.Q.Q.Q.Q.Q.Q.Q.~.~.Q.] ] ] ] ] ] ] ] v v W.W.Q.W.W.Q.Q.Q.!.Q.Q.Q.!.Q.Q.Q.Q.Q.Q.Q.Q.Q.Q.!.Q.Q.Q.Q.!.!.} ] } ] ] Q.Q.Q.Q.Q.Q.Q.Q.Q.Q.!.Q.!.(.^.~.~.~.~.~.} h 0 $ $ j h ) ) Y.Y.W.Y.W.s.W.s.q.q.r.s.s.s.s.s.s.p.s.p.a.a.a.z.z.j.k.p.j.d.j.j.g.g.g.l.l.g.g.g.f.f.g.g.g.g.z.(.(.(.(.(.].].(.(.^.^.W.r.r.r.r.W.) x ) ) ) / / / / / / / T T T / / / / ^ ~ ~ _ _ Q Y ` _ _  . .^ ^ ^ ^ ~ Q ! Q Q Q Q ! ~ ~ ^ Y d d - $ - - - j s g h h h h g T ' |.#.{ h u - u : : : D M ; : : : ; ; ; ; M M : M D D D D D M M F D F D D M D D D D ; N M M ",
"%.%.%.%.%.%.%.=.=.=.:.:.=.:.-.>.>.=.%.%.%.%.%.%.%.%.%.%.:.:.:.:.:.:.:.>.>.>.>.>.>.>.>.>.>.-.>.>.>.>.>.t.>.>.>.>.t.t.t.t.t.t.>.F.;.F.F.F.F.F.c.;.;.}.c.F.c.c.F.F.F.F.c.F.F.H.F.c.c.c.v.H.H.G.G.G.G.G.G.v.v.v.v.v.v.v.G.G.G.G.G.J.G.G.G.G.G.G.J.G.J.U.J.J.J.J.J.U.U.U.v.}.v.F.F.>.6 5 e 9 = C C N V C H | | E I U ^ ^ ^ R I U U U U U W o.o.W C C C W W o. . .W  . . .X.| | X...........| | | | | | | | | C C C E E | | Z Z C C C C C C C C C C Z Z Z C Z C C C M V N > V : : w T [ ' ' W.] ] ] ] ] !.Q.] ] ] ] Q.] ] Q.!.Q.Q.} } } Q.Q.Q.!.] ] W.W.W.W.W.s.Q.W.Q.!.!.Q.Q.Q.!.Q.Q.Q.!.!.Q.Q.!.Q.Q.!.!.Q.!.!.!.!.Q.Q.Q.Q.Q.Q.Q.!.Q.Q.Q.Q.!.!.!.!.!.^.!.~.~.~.~.~.] h j j 0 0 g z Y.Y.W.W.W.s.r.s.x q.s.] s.s.q.r.s.s.s.p.q.q.s.k.k.k.z.k.j.d.d.f.j.y.d.g.g.g.g.g.8.g.g.g.g.g.z.(.(.(.(.(.`.(.^.].^.^.Y.W.r.r.W.Y.] ) x ) x x / / / / / / T T T T T / T T Y Y _ _ Y Y ` _ _ ~ ~ ! Q ! ! Q Q ! ! ! |  .^ ^ ^ ^ Y Y Y u $ - - - 0 j j j h h h j h h ' ' #.' f u : : : : I : : : : ; : ; ; ; ; ; ; M D D D D M M D D F F F M M D M D M M m N M ",
"%.%.%.%.%.%.%.=.=.:.:.=.=.:.=.>.=.:.%.6 %.%.%.%.%.%.%.%.:.:.:.>.:.:.>.>.>.>.>.-.>.>.-.>.:.:.>.>.>.>.>.t.>.>.;.;.;.t.t.t.t.t.F.2.;.;.t.F.F.F.2.;.;.t.c.}.c.}.c.c.c.c.c.F.H.H.F.}.c.c.c.F.F.v.v.v.v.U.G.v.v.v.v.v.v.v.v.G.G.G.G.J.G.G.G.G.G.G.G.G.J.J.U.U.U.J.J.J.U.U.U.}.c.F.F.>.:.6 e 9 9 C N M N C E | | W R R W ^  .W W E W W W W W o.o.o.o.C C W W W W W W W W  . .| | G G G G ......| | | X.| | | | C E E | W C Z C C Z C C Z C C C C C C N C Z V C C C C V V M > * > d U [ { { { ~.Q.Q.Q.Q.Q.Q.!.] ] ] ] ] ] } Q.} Q.Q.} } Q.Q.Q.Q.!.Q.Q.Q.Q.!.Q.W.] ] ] ] ] W.Q.Q.Q.Q.W.] ] ] Q.Q.Q.!.Q.Q.Q.W.] ] ] ] ] Q.!.Q.Q.Q.Q.Q.Q.Q.!.Q.Q.!.(.!.!.!.!.!.!.!.~.~.*X} v T f j - 0 z ) W.W.W.W.W.W.W.s.r.] r.s.q.q.q.q.s.s.s.q.q.w.q.p.a.z.z.f.j.d.d.y.<.y.d.g.g.g.f.f.f.f.g.g.g.g.z.z./.(.(.(.].(.(.(./.Y.r.r.e.W.W.W.Y.) ) ) ) ) ) / / z / T T T T h z T T Y T ~ _ ~ Q ~ ~ _ ~  .^ ^  .Q Q ! ! ~  .+. . .^ ^ Q Y Y f d u - - - - - j p u j j h h h h T ' [ / g u : : : u : : ; ; ; : ; ; ; ; ; ; M D D D D D D D D D N F F M D M D M M M m M ",
"%.%.%.%.%.%.%.=.=.=.=.=.=.:.:.>.=.=.%.6 6 %.6 6 %.%.%.%.:.=.:.=.=.:.:.>.>.>.>.>.:.>.=.>.=.=.>.>.>.>.>.>.t.-.-.;.;.>.F.t.t.2.2.;.;.F.;.F.F.>.F.t.;.F.c.c.c.}.}.c.}.c.c.c.F.F.c.c.c.c.c.c.c.c.v.c.v.v.v.v.v.v.v.v.v.v.G.G.G.G.G.G.v.G.G.G.G.G.G.n.v.J.G.U.U.U.J.J.U.U.U.U.v.v.G.t.>.:.r e 9 V V M N M M R P W W W R W  .W W W E E R W W W o. . .W W W W W W W W W W X.X.Z B G B G G ..........| B B Z M | | E | | | R Z C C C Z C C C C C C C C V N C V V C C C V M > > * - C ( { { { ~.~.~.~.Q.Q.Q.Q.Q.Q.Q.] Q.Q.Q.Q.Q.} ] ] } ] ] Q.!.Q.!.!.Q.Q.!.Q.Q.Q.Q.] ] ] ] W.s.Q.Q.Q.s.] ] ] W.] Q.Q.Q.Q.W.] ] v ] ] Q.] ] ] Q.!.Q.Q.Q.!.!.!.!.!.z.!.!.!.Q.Q.!.!.!.~.~.~.} ' T h u - g / ) ] W.W.W.W.s.r.s.W.s.r.v r.q.q.q.s.s.a.e.q.p.p.p.k.k.j.j.d.f.y.y.y.f.f.g.f.d.d.d.d.d.f.d.d.f.j.k./.(.(.`.(.(.^.T.Y.q.q.s.] W.W.W.) ) x ) ) ) / / / / T ~ T h h h T T T T _ [ ^ Q ~ _ _ _  .+._  .O. .^  .O._ O. .~ ! Q Q Y Y Y d u - - - - - $ $ 0 j j j j j p h h ' [ T d : : : - : ; ; : : ; ; ; ; ; ; ; D M D D D D D D D M N F D D D M D D M m M M ",
"%.%.%.%.%.%.%.%.=.=.=.=.=.=.:.=.:.%.%.6 %.%.6 6 6 6 %.%.:.=.=.=.=.>.:.:.=.:.=.:.=.-.=.=.=.=.:.-.>.>.t.>.>.;.>.t.;.}.;.2.2.2.2.;.t.;.t.;.}.t.;.F.F.F.F.c.}.}.}.}.}.}.c.c.F.F.c.c.c.v.F.c.c.c.c.c.F.v.v.v.v.v.v.G.v.v.G.G.G.G.v.v.v.H.H.H.G.G.G.n.v.U.G.G.U.U.J.U.U.U.J.J.U.v.G.F.F.>.:.6 9 > M N N M : C C W ~ R R W  .o.W E R R E C R W W  . .W Z W W C C W W  .E | | B B B B B G G G | ....| B B B C E | | | | E C C C Z C Z Z C Z C C C M C N C N N C M C N M > > > > w U ( { { } } Q.Q.~.Q.Q.s.] Q.Q.Q.Q.Q.Q.~.~.~.Q.] ] ] ] ] ] Q.Q.~.!.!.Q.Q.W.Q.Q.Q.] Q.W.Q.W.Q.Q.Q.Q.W.] Q.] } ] ] W.W.!.W.Q.} ] ] Q.Q.Q.Q.] Q.Q.Q.Q.Q.Q.Q.!.!.!.!.!.!.!.Q.Q.Q.Q.~.~.~.~.} ' ' h u - j g U x ] Y.] W.] s.s.s.s.s.s.e.s.q.q.s.a.a.a.a.a.a.p.a.a.k.d.f.l.j.d.y.f.f.g.f.d.f.f.f.8.8.8.d.d.f.k.k.(.(.`.(.]./.T.Y.Y.s.s.W.W.W.W.] ] ) ) x ) / / z z T h h h h h T T T ` [ [ _ Y ~ _ O.O._ O.O.+._ O. . .O. .+.~ Q Q ! Q I P P d d j - $ - - - i $ $ j j j j h h h T _ _ P d u : > : ; ; : ; : ; ; u ; ; ; M M M D D D D M F M D D D D D D D D M M M M ",
"%.%.%.%.%.%.%.%.=.=.>.=.=.=.=.=.:.%.%.6 %.%.%.6 6 6 %.%.:.%.%.%.=.=.=.=.=.=.=.=.=.=.=.=.=.=.=.=.>.>.>.>.t.t.t.t.c.;.2.2.t.2.t.t.t.t.2.;.;.t.2.F.F.F.F.F.c.}.}.}.}.c.c.c.}.c.c.c.F.G.H.c.c.c.c.c.F.v.v.v.v.v.G.v.v.G.G.G.G.v.v.v.v.G.H.G.G.G.G.n.n.G.G.J.G.v.v.U.U.U.J.U.U.U.U.G.F.>.:.:.r : M N N ; ; M M R U W R E W  . .W E W W C C E W W W W Z W Z Z C C W  .X.| Z B B B B B B G B B G ..X...| B C E E | | E R C C Z W Z Z Z Z Z C C C C V N M V M V C C V V > , V C W ( ( } { } } } Q.Q.Q.] v ] ] Q.Q.Q.} Q.Q.~.Q.Q.} ] ] ] ] ] ] !.!.!.!.W.W.W.Q.!.Q.Q.Q.!.!.Q.Q.Q.Q.Q.Q.W.Q.Q.Q.] W.W.] W.W.Q.Q.!.!.!.!.Q.Q.Q.Q.Q.Q.!.Q.Q.Q.!.Q.!.!.(.!.Q.Q.Q.Q.!.!.~.Q.~.~.} ' T f - $ - w k / / x ) v s.s.W.s.s.s.s.v e.q.s.s.e.a.a.a.a.p.p.p.y.y.j.l.l.l.f.f.g.g.f.d.d.d.f.8.8.8.d.d.j.k.k./.(.(.(.(.(.^.Y.r.r.s.W.W.W.W.] ] ] x ) z / / z z h h T h T h T [ _ T _ +._ Y ^ _ O._ O.O.O.O._ _ O._ O.O. .Q Q Q Q Q I I P I d f j u - - $ $ $ p j j u j h h h T ' _ ~ P d : - : : : ; ; : : : ; ; ; ; ; : M D D D D F D M M M D D D D D D D M M D ",
"6 %.%.%.%.%.%.=.>.=.=.=.=.=.=.=.%.%.%.%.%.%.%.6 6 %.%.:.%.%.%.%.=.=.=.=.=.=.=.=.=.=.&.=.=.=.=.:.>.>.>.>.>.t.t.t.t.t.t.;.;.t.t.F.t.F.F.;.;.;.}.F.F.F.F.F.c.c.;.}.}.}.c.c.;.}.c.F.F.H.H.H.c.v.v.v.v.v.G.v.v.v.v.v.v.v.U.G.G.G.v.}.n.v.G.G.G.G.G.G.n.G.G.J.U.v.v.v.J.J.U.U.U.v.U.U.G.t.R.R.t e M M ; N ; : C I W W W P R |  .W E W W W W E E C W W C W Z Z Z | X.| | Z Z B B | ..9XG G B G ..9X..Z E | | | C E E E C C C | | Z Z Z Z C C Z V N N C C Z V V Z B V V , % * C o.@.[ ' } Q.Q.Q.Q.Q.Q.W.W.!.] ] Q.] ] } } ] ] ] Q.!.Q.Q.] ] ] Q.!.!.Q.Q.] W.Q.Q.!.Q.Q.Q.Q.!.Q.Q.Q.Q.W.W.Q.Q.Q.s.Q.W.W.W.W.] ] Q.Q.] Q.Q.Q.!.Q.Q.Q.Q.Q.Q.Q.Q.Q.!.s.!.!.!.Q.!.!.!.!.^.^.!.*XQ.} ' ' u - = 0 0 q g z / ) W.x s.s.!.W.s.s.W.s.q.s.s.a.a.a.a.a.a.a.w.w.y.j.l.l.g.g.g.g.g.f.f.f.d.8.8.8.f.f.k.k.k./.(.(.].^.`.W.r.W.r.r.r.W.W.W.v ] ) ) / / z / z / ' T T T T T T ' T _ _ +._ T ~ ^ O.O.! ~ ~ ! ` O.O.+._ O.` ! Q E E R P I I I d u u u - - - $ $ 4 u j j p j s h h z ' [ ~ P u : : ; ; ; ; : : : : : ; ; : : : D D D D D F D M D D D D u D D D D M D ",
"6 %.%.%.%.%.%.%.%.=.=.=.=.=.%.%.%.%.%.%.%.6 6 6 6 6 %.%.%.%.:.%.%.&.=.=.=.=.,.%.%.=.:.:.=.%.=.>.>.>.t.>.>.>.>.>.>.}.>.;.}.;.t.;.;.;.;.;.;.;.}.;.c.c.c.c.c.2.c.c.c.2.c.c.;.;.c.c.F.F.H.H.G.G.v.v.}.c.c.c.v.v.v.c.G.G.G.G.v.v.v.v.v.v.v.v.v.v.v.G.J.G.J.J.J.G.v.v.v.U.J.J.U.v.v.v.v.v.F.>.:.t e : : > > > C I U W W W W W W W W W W W R C C E R E C C Z Z | | | | | B B B B B B B B B B B B B Z Z | | | | E E E E E R E | | Z C Z Z Z Z V N C V C V Z B B B B V > * , : W [ { { } ] Q.Q.!.Q.!.Q.Q.W.] ] ] ] ] ] Q.Q.] Q.Q.v ] ] ] ] ] ] ] Q.!.Q.Q.Q.Q.Q.Q.Q.!.Q.~.!.!.Q.Q.Q.Q.Q.Q.] ] W.Q.W.W.W.W.W.] ] ] ] ] ] Q.~.~.~.~.W.W.Q.Q.!.!.W.W.s.s.Q.!.!.*X`.!.!.!.(.!.Q.] } } ' h - - - - f g g U ' ] x s.W.W.W.W.!.!./.s.a.s.s.W.a.a.a.a.a.p.p.p.d.j.l.l.l.g.g.g.g.g.f.d.f.8.8.g.g.l./././././.(.^.^.^.W.Y.r.r.W.W.Y.x ) ) ) ) ) z z h h z / / / T T T T T T Y Y _ [ _ ~ Q ` ` ` _ O.O.` ` ` ` Q Q Q ! Q ! Q Y Y P D u u u P d : - - - - - 4 j j j s s h h h h ' [ ~ d - : ; ; ; ; : : : : : : : : : D D P I D I E R D D I I D M D M D D D D ",
"6 %.%.%.%.%.%.%.%.:.=.=.=.%.%.%.%.%.%.%.%.%.6 6 6 6 6 %.%.%.%.%.&.&.=.=.=.=.=.=.%.%.%.%.%.%.%.=.=.>.>.>.>.>.t.}.t.F.;.t.>.F.F.>.2.F.c.}.c.}.}.F.c.c.c.c.2.2.2.c.2.c.c.c.c.2.}.}.F.F.F.F.F.F.G.c.c.c.c.c.v.v.G.v.G.G.G.v.v.v.v.v.v.v.v.v.v.v.G.G.G.v.v.J.J.G.v.v.v.G.G.J.v.v.v.U.U.G.H.t.i.r.w - > > V > - C E W W W U W W W C W W W R C C E R R E E Z Z | | | | X...X.B B B B wXwXwXwXwXwXB B Z Z Z Z Z C C C C C C C | E C E C Z Z C C M M C N Z B B B B C > > % O 0 T ( { { ~.~.Q.Q.Q.Q.Q.Q.Q.Q.Q.Q.Q.} ] ] ] ] ] ] Q.] ] ] ] ] ] ] ] ] Q.!.} ] !.Q.!.!.Q.Q.Q.!.!.Q.W.W.s.s.Q.Q.Q.Q.s.W.W.W.W.W.W.Q.v ] ] ] ] } W.!.~.W.W.Q.Q.W.W.W.Q.Q.Q.Q.!.!.(.!.(.(.!.s.*XQ.} ~.~.' h U d : - - - 0 s / ' ] W.W.) x W.W.!.!.!.^.s.r.s.s.a.a.a.a.a.p.p.p.j.l.l.l.g.g.g.g.g.g.g.f.d.f.g.f.f.g.l./././.(./.^.W.r.s.q.W.W.W.] x ] ) x z x z z z z z ' / / Y T T T T Y Y Y Q _ _ ! ! ! ` ` ` ` ` ` ` ` ! Q ! Q Q Q Y I I I I D D u F P P d u : u - - 4 $ j j j j s h h h ' ' [ T u u u : : : : ; ; : : ; : : : u D D P P P I P I I I I I M M M M : : M ",
"6 %.%.%.%.%.%.%.%.%.%.%.%.%.%.%.%.=.%.%.%.%.%.%.6 6 6 %.%.%.%.6 %.%.=.=.%.:.:.=.%.%.%.y %.=.=.:.=.=.>.>.>.>.>.}.>.>.>.>.F.t.F.F.2.c.c.c.c.}.;.}.c.c.c.c.2.2.2.c.2.2.;.2.c.c.;.;.c.}.c.c.F.F.G.v.v.v.v.F.G.G.G.G.G.G.G.v.v.c.v.v.c.v.v.v.v.v.J.G.v.v.v.G.G.J.G.G.v.v.U.J.n.U.U.U.U.J.G.H.R.Y.U w > > > > : C I W W P P U W W W W W R E R E E E E R | | | | E | | Z ....Z B B B B B B B B B B B B B Z C C C C C C C C Z Z E E E E Z Z C N M M M V V B B B Z Z V > . * w T { { { ~.~.] W.W.W.W.!.!.!.Q.Q.Q.Q.Q.] ] ] ] W.Q.] ] Q.Q.] v ] ] ] } ] ] ] Q.Q.!.Q.Q.!.Q.Q.W.W.W.s.W.Q.Q.Q.Q.Q.Q.W.W.W.W.W.!.Q.W.W.s.W.W.] Q.Q.Q.Q.Q.Q.] ] ] Q.Q.Q.Q.Q.Q.!.!.!.!.!.!.!.!.!.~.~.} ' T T Y d - * * # 0 h ) ] { ] ] ] ] ] ] ^.^./.^.W.s.r.s.a.k.a.a.p.p.p.f.k.j.g.g.g.g.g.g.g.g.g.d.d.f.f.j.l./.(././././.Q.W.s.x ) r.s.W.v x ) ) x z z z z h z h h h T h h h T T Y u u Y Y ~ Y Y Y ! ! ~ ! ` ` ! Q Q ! Q Q Y I I I P D D D D D F f P P I d u u 4 0 0 p j j s j j h f f T [ [ h u u : : : : > ; : - - : : : : u u I P I R E I I P I D M M M D M D D ",
"6 %.%.%.%.%.%.%.%.%.%.%.%.%.%.%.%.%.%.%.%.%.%.%.%.6 6 %.%.%.6 y %.%.%.%.%.%.%.%.%.%.y %.%.%.:.:.=.=.=.=.>.>.>.>.>.;.>.;.t.t.t.t.2.c.c.c.}.}.}.}.}.2.;.c.2.2.2.c.c.2.2.;.c.F.c.;.;.;.;.c.c.v.c.v.v.H.v.H.G.G.G.G.G.G.v.v.c.c.c.v.v.v.v.v.v.v.G.G.v.v.v.v.G.J.J.J.v.v.v.J.v.U.U.v.U.v.G.H.F.E.) f * , & ; M I P P P I P W R W W W R I R R E R R R R E | | | E Z Z B Z Z B B B B B B wXwXwXB wXZ B H Z | E C C C C C C C E W R E Z Z Z C C N C M C B B B B B N M = , : P [ { { { Q.Q.Q.] ] ] v ] !.Q.!.] Q.Q.Q.Q.} Q.] ] ] ] ] Q.Q.Q.Q.Q.] ] ] ] v } !.Q.Q.Q.Q.Q.W.!.Q.Q.Q.W.W.Q.!.Q.Q.!.Q.Q.Q.W.!.!.!.!.^.!.!.W.!.} Q.Q.Q.} } Q.] ' ] v Q.] Q.!.Q.Q.Q.Q.!.!.(.!.z.^.!.Q.} ] ' / f : - * * @ = 0 T { { { ] ' x ' x v W.~.^.^.^.W.^.^.k.a.p.p.p.p.w.d.j.g.g.g.l.g.g.g.g.d.8.8.g.f.l./.L.(././././.W.s.r.r.e.r.Y.W.) x ) ) x x z z z h z h h h g h h h h Y Y d u u d u Y I ! Q Y Y Q Q ` ` ! Q Q ! Q I I I I P I D D D D D D D P I d j j 0 - - u j j j j h h f h ` } [ [ u u : : : : - : : u : : : : - ; : D D P R R I P P I D M D D D M D P ",
"6 %.%.%.%.%.%.%.%.%.%.%.%.%.%.%.%.%.%.%.%.%.%.%.%.6 6 %.%.%.%.%.%.%.=.%.%.,.%.%.%.%.%.%.%.:.:.:.=.&.=.:.=.>.>.=.;.-.>.;.}.t.>.>.;.}.F.F.c.}.c.}.;.>.;.2.2.2.c.c.F.2.F.;.c.c.;.;.;.}.2.F.c.c.c.v.F.v.H.G.G.G.G.H.v.v.v.c.c.v.G.v.v.v.v.v.v.v.v.U.G.v.v.v.v.G.J.J.G.v.v.v.v.U.v.v.v.v.G.F.H.E.Y./ w - > ; ; D D u I I W W W I R E E R E E E R E E C E | | | | Z Z B B Z B wXwX9XwXB wXwXwXwXwXB Z Z | Z Z C C E W R E C Z R R R E Z C C V M M N C N B B B B V V > - P / { #.{ } } Q.!.] ] ] v ] } Q.!.] Q.Q.Q.~.~.~.Q.] Q.Q.] Q.!.Q.W.] ] ] ] ] ] s.Q.Q.Q.Q.W.!.!.Q.Q.] Q.] Q.Q.} ] Q.Q.Q.Q.Q.!.!./.!.!.z.!.!.!.!.!.!.!.} ] ] ] ] ' v z ' ] Q.} !.Q.!.Q.Q.!.!.!.(.^.+X!.Q.Q.~.{ / f f - - = * - f / / [ { T g s g h k ) W.^.^.^.(.(.^.w.p.p.p.p.w.d.y.f.g.l.l.g.g.g.g.f.8.8.g.g.l.l./.{.(././.W.W.W.r.W.r.) ) ) x ) ) r.) / z z z z h h g f j f g h d d d d u u u u d D D Y Y Y Y ! ~ ! ! ! Q ! R I I I I I I D D F D D D D I I d d f j - - 0 j j j j h j f g h ( @.+.T u : u u : - : - - u > ; * ; ; : : : I E E R P P D D M D D I D D P ",
"6 %.%.%.%.%.%.%.%.%.%.%.%.%.%.%.%.%.%.%.%.%.%.%.6 6 6 %.%.6 6 %.:.%.=.&.%.=.,.%.%.%.%.%.%.:.:.:.=.%.=.=.=.>.;.>.>.>.t.t.>.;.}.}.;.F.F.F.F.c.c.F.F.;.F.2.2.c.c.c.2.2.;.F.;.2.;.2.}.c.c.F.F.c.c.c.c.v.H.F.F.v.v.v.v.c.v.v.v.v.G.v.v.v.c.v.v.v.v.v.G.v.v.v.v.v.G.J.G.G.v.v.v.U.v.n.v.v.v.H.t.E.T.Y.U w * > > : - : : I W W W U I E W E E E R E E C N M Z | | | | Z B B B wX9X9X9XwXwXwXwXB B B B B Z C Z C C C W W E C C Z E C E C C C C V N C V N N B B B B V V : w / { _._.~.} } *X} } ] ] v ] ] Q.} ] Q.!.~.~.!.~.!.!.Q.Q.Q.] Q.} ] ] ] ] W.] ] ] W.W.Q.W.W.!.!.Q.W.] ] ] ] v ] ] ] Q.Q.Q.Q.!.!.!.!.^.^.!.(.!.!.!.!.!.Q.] ] ] ] ' ' z z v v ] } Q.Q.!.Q.!.!.^.!.!.(.!.Q.^.~.~._.( U w - = * - : P / ( / U - = 9 0 0 h ] W.W.^.(.^.^.a.a.a.a.p.w.y.y.y.f.f.g.g.g.x.x.g.g.0.g.g.g.l.l.(./././.T.T.Y.r.x x ) ) ) ) x ) ] ) ) ) / z z h h g g j j f g d d d f f u u f d d d Y Y Y Q ! ~ ~ ! Q ! Q I P I I Y R Q D I D F D D D I I I d j - - - - 0 j j j j j f h h T ' [ [ T f d f f d - - u - - * : : ; : : u D R R I P I D D M M D D D D I ",
"6 %.%.%.%.%.%.%.%.%.%.%.%.%.%.6 6 6 6 %.6 %.%.%.6 6 6 %.6 6 %.:.:.:.%.%.%.%.%.%.%.%.%.%.%.:.%.%.%.%.%.=.=.=.>.>.>.t.>.t.t.}.}.;.t.F.F.F.F.F.F.F.F.F.F.2.2.c.c.c.2.2.2.;.;.;.;.F.c.F.F.F.F.F.c.c.c.c.v.c.c.c.F.v.c.c.c.v.v.G.G.v.v.c.c.v.v.v.v.v.v.v.v.v.v.v.G.G.G.G.G.G.n.U.v.v.n.b.v.v.F.u.E.E.) C 9 * > > * * : P W W W U R R E R R E E E E E M C C Z | | B B B B B B B wXwXwXwXwXB B B B B N V N B C C C C C C C C C C C C C C C Z C V C V V V B B B V V > > w / ( { } ~.} } Q.Q.Q.Q.] ] ] ] v ] Q.!.Q.Q.Q.Q.Q.Q.~.} ] ] ] ] ] v ] Q.!.Q.W.W.W.W.W.W.W.Q.Q.Q.] ] ] ] ] ] ] ] ] ] ] ] W.Q.Q.Q.!.W.W.W.!.!.!.Q.!.Q.!.] ] ] ] ] ] v z z z v ] ] ] Q.Q.Q.!.!.!.Q.Q.Q.!.^.!.~._.`.{ / w = * * * * : P ( [ T w = @ # 4 z ] { ] W.^.^.^.a.a.a.a.a.y.y.y.y.y.y.y.g.g.x.x.x.x.g.g.g.g.g.l./.(././.T.T.Y.x x x ) ) v ) ) ) ) x ) x ) z z / z g g g g g h d f f f f d f Y P P d I I Y ! Q ! Q Q Q Q Q Y I R R Q Q Q Y D D D D D D D I d d d u $ - - j j j j j 0 f f g h T ' [ T T Y T f d - - : : - : : : u : : D D W W ~ P D D D M : u u D D D ",
"6 6 %.%.%.%.%.%.6 %.%.%.%.%.%.6 6 6 6 %.6 6 %.%.%.6 %.%.%.%.%.=.%.%.%.%.%.%.%.%.%.%.%.%.%.%.%.%.%.%.%.%.=.=.=.=.>.>.>.>.}.>.;.;.t.t.>.F.>.F.F.F.F.F.;.;.;.2.t.;.;.;.2.;.;.;.;.c.c.c.c.F.F.c.c.c.c.c.c.c.c.c.F.F.c.c.c.v.G.v.v.v.v.c.c.c.v.v.c.c.v.v.v.v.v.v.G.G.G.J.G.G.v.v.n.b.n.n.n.v.H.F.E././.) w - * * * * : f U W E E R R E E E E C N E C N N V Z | H H B B B B B B B B B B wXwX9X9XwXB B Z Z Z Z C C C C C C C C C C C C C C C V C N N V C N V C V V > > g / { } ~.Q.} ] } Q.Q.Q.Q.Q.Q.v ] ] } ~.~.Q.] ] ] ] !.Q.] ] ] ] ] ] ] Q.Q.!.Q.W.W.W.] W.Q.Q.Q.Q.] ] ] ] } ] ' ' ] ] ] ] ] ] ] Q.s.W.W.W.!.!.Q.Q.Q.Q.} ] ] ] ] ] ] ] ] ] z z z z ] ] ] !.!.Q.!.Q.W.s.h.!.Q.s.!.~._.{ U - - - * * > : C U U w = # = / ~.-X`.~.W.W.W.!.(./.a.a.a.d.d.d.y.y.y.y.y.g.g.g.g.9.x.g.g.g.l.l.l.(.(.^.T.T.Y.x x x x x ) ) x ) ) ) ) ) ) / z / / h g g g g h f f f f u u d f P I d u I Q ! ! Q Q Q ^ ^ Q R R R Q R Q Q ! F D D D D D D M I d u - - - $ j j 0 j 0 0 j s g g g h ' ' ' ' h d w - : d f Y I ~ ~ u : : D D W ^ W P P D M M M : u D P P ",
"6 6 6 6 6 6 %.%.6 %.%.%.%.%.%.6 6 6 6 6 6 6 %.%.6 %.%.%.%.%.%.%.%.%.,.%.:.:.=.%.%.6 6 %.%.%.%.%.%.:.%.%.%.%.%.=.>.>.>.>.>.;.}.>.t.t.;.;.;.F.>.F.>.}.;.;.;.;.;.}.;.;.;.;.;.;.c.c.c.c.c.c.c.F.v.c.c.c.c.c.c.c.c.H.v.c.c.H.G.v.v.c.v.c.v.v.G.v.v.v.v.v.v.v.v.G.G.G.v.G.G.v.v.v.v.n.n.n.b.n.v.F.i.E.(.T.g w > = = - : f I I I I E R W | | F B N M E N N E H G B B B B 9X9X6X7XB B B wX7XwXB B B B B B C C C C C C C C C C C C C C Z C C C C C N Z C V V V V V V ; w / ~.~.~.~.~.~.Q.Q.~.!.Q.Q.Q.!.Q.Q.Q.Q.!.Q.Q.Q.] ] ] ] v } ] ] ] ] ] ] !.Q.Q.Q.Q.W.s.v W.!.!.!.] ] ' ] } } |.] ] } } } ] v ] ] ] ] W.W.W.W.Q.Q.Q.Q.] ] ] ] ] ] ' v ] *X} b z z z x ] ] ] ] Q.!.!.s.s.s.*Xs.s.s.{ -X_.[ d u : : > - * * > : = - - w ).dXcXxX:X!.s.s.W.^./.k.a.a.j.k.y.y.y.y.y.y.y.0.8.f.f.g.g.x.g.g.g.l.(.(./.T.W.v x x z x ) ) ) / z / / / / / z z / h g g g g g g f f f f d - - u d u u u D ! ! Q ! Q Q O.~ Q Q Q Q Q Q Q E F F D D D F F M D D u : - - - u j p - j j j j j g h g j h T ( ' ' f - - d P ~ [ $.$.+.Y ; M D D W ^ W Y I M : : D P P I P I ",
"6 6 6 6 6 %.%.%.%.%.%.%.%.6 6 6 6 y 6 %.%.%.6 6 6 6 %.%.%.%.%.%.%.%.%.%.%.%.%.,.%.,.%.%.%.6 %.%.:.:.%.%.%.=.=.=.%.=.=.=.=.;.>.}.t.;.;.}.;.}.F.>.F.>.t.F.t.>.F.>.c.c.c.F.c.;.c.c.c.c.c.2.2.c.c.c.c.c.c.c.c.c.c.H.G.v.G.H.c.c.c.c.c.c.v.v.v.U.v.v.v.v.v.v.v.v.v.G.G.G.G.v.v.v.n.v.U.n.n.n.G.H.F.l././.) g - - = = : w d P C C M D M R | | | | C B C N B | ..| | H B B B B B B wXwXwX7X7X6X9XwXG B B B B Z C N V C C C C C C N N C C C V C V C C Z C N C V > N I [ #.~.~.~.~.~.~.~.~.~.~.~.~.~.~.~.Q.Q.Q.Q.Q.Q.} v ] ] ] v ] Q.Q.Q.] ] Q.Q.!.~.!.!.W.Q.Q.!.!.] ] ] ] ] } ] h z v ' ' ' ' } } ] ] ] ] Q.W.W.W.W.W.W.!.Q.Q.] ] ] ] v z s s s z _.-X} v v z v W.] !.^.*X!.s.s.+X!.x x ] _.-X[ Y : u : * > - * + # 0 / ~.dXvXnXxXxX;XW.x r.^.(.(./.a.k.w.w.y.y.y.d.j.d.8.8.8.8.8.g.g.g.g.l.(.(.(./.T.Y.W.x x z / / ) / ) ) ) / / / / / / / z h h h g g g g f d f u - - u u u u D Y ! ! Q Q ! Q Q ! Q Q Q Q R R ! Y F F F F E F E M I D - : - - - u u - - 0 0 0 j j j j g T T T _ [ T f - d T [ +.+.+.$. .~ u ; M D : I W W I I d : P Y Y I I P ",
"6 6 6 6 6 %.%.%.%.%.%.%.%.%.6 6 6 6 6 %.%.6 6 6 6 6 %.%.%.%.%.%.%.%.%.%.%.%.%.%.%.,.%.%.%.%.%.%.:.=.%.%.%.:.=.=.=.=.>.=.=.>.;.;.>.>.;.;.t.;.}.t.>.t.>.F.F.F.F.F.F.c.c.c.c.c.c.c.c.c.c.c.2.c.c.c.c.c.c.c.c.c.c.c.F.c.c.v.c.v.v.c.c.c.c.v.v.v.v.v.v.v.v.v.v.v.v.v.v.G.G.G.v.v.v.n.n.n.n.n.G.v.H.H./.E.Y.k 0 = - - > - : d I C C E C R F B B | | H B B H B H | | H B B B B B wXwXwXwX9X5X9X9X9XB B B B Z Z Z C C C C C C C C C V C C N C N N C V V V V V V % M T { ~.~.Q.Q.Q.Q.Q.~.Q.~.~.~.~.~.!.~.Q.Q.!.Q.Q.Q.] Q.Q.} Q.] ] !.Q.W.] ] ] Q.Q.~.!.!.Q.Q.!.~.Q.] ] ] ] ' v T h T ' } ' ] } } } } v ] ] W.W.] Q.W.W.W.] W.Q.Q.] ] ] v z s 4 s z -X>X:X-XQ.z c l l x s.!.*Xz.*X*X*Xr.z z { -X-X+.~ I d - ; > @ * f { `.hXgXbXbXMXbXxX(.z l q.T.!./.k.!.k.j.w.y.y.d.f.d.f.f.8.f.g.g.g.g.x.(.#X(.(.^.^.W.W.) z z / / / / / ) / / / / / / / / / T T T U g g h P f d u : - d D D I Q Q O.O.` O.O.` Q Q ! ! ! R R E ! ! F K ! ! F F M F D u ; * * - - - u $ - j j j f f j h h / ' T / / T d f T [ +.( _ +.$.+.I ; > ; : ; : I I I I P I I I P P I I ",
"6 6 6 6 6 %.%.%.%.%.%.%.%.%.%.%.6 6 6 %.%.%.6 6 6 %.%.%.%.%.%.%.%.%.%.%.%.%.=.=.%.%.%.%.%.%.%.%.%.%.%.%.%.=.>.=.=.>.>.}.;.-.-.;.;.;.;.2.;.;.;.;.}.;.;.t.>.F.F.F.F.F.c.F.c.c.c.c.c.c.c.c.c.c.c.c.c.c.c.c.c.c.c.c.c.c.c.c.F.v.G.v.c.c.c.c.c.v.c.v.c.v.v.v.v.v.v.v.v.v.G.G.G.v.v.v.n.n.n.n.G.v.G.G.H.u.T.l k 0 - : - * = : I I E E E | D B B H H | B Z | B B Z H H B B B B B wX7XwXwXwXwX7X6X6XG B B Z Z Z Z Z C C C C C C C V C N C Z V V C V N C V N V V M R ( _.Q.Q.Q.Q.Q.Q.Q.Q.Q.Q.~.!.Q.] ] Q.Q.!.!.] Q.Q.!.Q.!.Q.Q.Q.] !.] ] ] W.} Q.Q.Q.Q.!.!.!.!.Q.Q.} ] ] ] / h h ' ' ~.-X-X_.~.|.} } ] ] v ] ] ] ] Q.} ] ] ] ] ] ] ] ] } ] z s s s ] -XhXhX=X] b k p p k v !.*X*X*X*XW.z s T #.sX-X#.^ P : = = = f _.:XcXvXbXbXJXJXMXnX=Xe.a c q.q.a././.(./.d.y.y.y.d.f.y.d.f.f.g.g.g.x.x.z.(.(.(.^.^.Q.x ) z z / / ( / / / / / / / / / / / / T T T T h U T Y f f d u u P I I Y E K O.O.O...O.! Q Q ! ! R E R R Y ` F F K F F F F F D : * * @ - - - $ u j j 0 - j j f j g h ' / / T T f W [ #.@.^ ~ [ $.+.M * * ; : * - I P I d P Y I P P P P P ",
"6 6 6 6 6 6 %.%.%.%.%.%.%.%.%.%.6 6 6 6 %.%.%.%.6 6 %.%.%.%.:.%.%.=.%.%.%.=.=.=.=.=.=.%.%.%.6 6 %.%.%.%.%.>.=.=.=.>.>.>.>.;.-.=.;.;.>.c.;.;.;.t.;.;.;.t.F.F.F.F.F.F.F.F.}.c.c.c.c.c.t.c.c.c.c.c.c.c.c.c.c.c.c.}.c.c.c.c.c.F.G.G.v.c.v.c.c.c.c.c.c.v.v.v.v.v.v.v.v.v.v.G.G.v.v.v.v.v.n.G.J.G.G.G.G.H.E.r.x q q - > = = : : I C E E | B F N B H | | | | B B B G B B B B B wXwX7X6XwXwXwXwXwXG B B B B Z Z Z Z C C C C C C V V N N C C V C N M M N M C V Z W ( #.~.Q.W.W.W.Q.!.Q.Q.Q.Q.] ] } ] ] ] } Q.] ] ] Q.Q.Q.Q.Q.Q.!.*X!.] ] Q.!.Q.~.!.!.!.!.^.(.Q.Q.] ] ] ] ] T g g ' `.dXdXsX:XsX:X-X`.~.~.} W.Q.W.] ] } ] ] } ] ] ] ] } } ] v h j j j ' -X:X:X*X~.W.l p p p l s.=X:X*X^.] q f { sXdX-X{ T d = 0 ( _.dXGXHXJXHXSXJXJXmXMX2X(.s.Y.Y.W.s.a.^././.k.k.u.f.y.y.y.d.f.f.g.g.g.g.g./.(.(.(.].^.^.W.x z z / / / ( ) / / / / / / / / / / g U T / T T T Y U U d u u D Y Y Y ! ! O. XK ! O.F ! ! ! ! Q E E E | ! F F F F F F ` F D : - * @ * > @ @ u u j - - j j j 0 j g ' ' / T T U ) @.@.[ [ ~ ^ ^ W M * ; : > * - : I u u I I I P P P P d ",
"6 6 %.6 6 6 6 %.%.%.%.%.%.%.%.%.%.%.6 6 6 %.%.%.%.6 %.%.%.%.%.%.%.%.%.%.%.%.%.%.%.%.%.%.%.%.%.%.%.%.%.%.%.=.=.=.,.=.>.>.>.>.-.-.;.;.;.;.;.}.;.;.;.2.}.;.;.F.F.F.F.F.F.F.F.2.c.c.c.c.c.c.c.c.c.c.c.c.c.c.c.c.c.c.c.c.c.c.F.F.G.G.G.G.v.c.c.c.v.v.v.c.v.v.v.v.G.v.v.v.v.G.G.G.v.v.v.n.U.U.U.G.J.G.G.H.i.u.T.) g 9 = = = * * : M M F | H H B B B B | | | | B G G B B B B B B wX5X9XwXwXwXwXwXB B B B B B Z Z C C C C C C C C C V C V C N N V C V N N V V C W +.{ } s.s.s.!.Q.Q.Q.Q.!.] ] ] ] ] ] ] ] ] ] ] ] ] ] ] ] ] ] Q.] Q.] ] ~.~.~.~.!.^.!.!.!.!.!.] ] ' ] ' g g j h #.:XhXgXgXgXgXgX>X>X;X:X-X-X~.~.Q.] ] ] ] } ' ] ] ] ~.~.} ) k s s 4 0 h ] *X>X>X:X`.Q.] c p p W.:X:X*X] s w / sXkXlXsX[ w - / -XgXGXHXHXHXHXJXNXNXNXMXxX1X^.W.W.] s.r.r.a./.(.k.j.j.f.y.y.f.f.g.g.g.g.g.l.j.l.(.(.(.^.~.) x z z / / / / ) ) / / z U / / / / g g h h T T h g U P P d u u D I Y ` ` ` O.J O.O.J J ! ! ! ! Q ! F ! X...F F F F F K F F i * & * * * * * @ @ - u - 4 u j j j j j T ' ' / h g / ' [ [ ( [ ~ U W U I - > * ; : P R I d I I f d P P P I ",
"6 %.%.%.%.6 6 %.%.%.%.%.%.%.%.%.%.6 6 6 6 6 %.%.%.%.%.%.%.%.%.%.%.%.%.%.%.%.%.%.%.%.%.%.%.%.%.%.%.%.,.%.=.=.=.=.,.=.>.;.-.>.-.-.;.;.;.;.;.;.}.}.}.;.;.;.>.F.F.F.F.F.F.F.}.}.F.c.c.c.c.c.c.c.c.c.c.c.c.c.c.c.c.c.c.c.c.F.F.F.F.c.G.G.v.v.c.c.c.v.v.c.v.v.v.v.G.G.v.v.v.v.v.G.J.J.n.v.n.n.U.U.U.G.G.G.H.i.E.T.x w 9 # + O , * > V V N H H H G B B B H | | G G G G B B B B wXwXwXwXwX7XwXwXwXB B B B B V V N Z C C C C C C C C C N N N C V M N V > V > > M ^ { } ] s.s.s.s.Q.!.Q.Q.Q.] ] ] } v ] ] } Q.] ] ] ] ] ] ] ] ] ] ] } ] ] Q.~.~.~.~.!.!.!.~.~.Q.Q.} ] ' / h j h { _.dXhXgXVXVXVXVXVXcXcXcXnXhXfX;X-X^.] z z h z z ' Q.~.~.} / h / h 0 4 0 s W.*X>X:XfX:X-X*Xz 4 j ' _._.] f 0 ( sXkXkXlX_.T / -XBXFXHXJXHXHXHXNXSXNXnXnXNX2X=XY.x x x x r.r.a.a.l.l.l.j.f.d.f.f.f.f.g.g.g.f.d./.(.(.`.(.T.s.x / / h h T / ( ( / / / / / / U / g g h h T T g g U Y Y Y D D D D F F ` O.J O.O.O.O.O.O.! ! ! Q F F ! X.O.K K J ! K F ` F i & > > * * @ @ @ O . - - u p j $ 0 j g z ' ' ' / h T [ ( / [ #.#.+.+.^ I > , > P ~ ^ ~ P I P I f f d I I I ",
"6 6 %.%.6 6 6 %.%.%.%.%.%.%.%.%.%.%.%.6 6 6 6 %.%.%.%.%.%.%.%.%.%.%.%.%.%.%.=.=.%.%.%.%.%.%.%.>.:.:.=.%.%.=.=.=.=.=.=.=.=.;.-.-.>.>.;.}.;.t.;.>.>.F.F.>.}.;.t.t.c.F.c.c.F.c.c.c.c.c.c.c.c.c.c.c.c.c.c.c.c.c.c.c.c.c.c.H.F.F.c.c.v.v.v.c.c.c.c.v.v.v.v.v.v.v.G.G.G.G.G.v.v.G.J.U.v.v.c.n.n.n.U.J.G.G.H.H.l.(.^./ w # O = = * > ; N N N B G G B B B H | | G G G G B B B B B wXwXB wX7X7XwXwXB B B B B B Z C N V C C C C C C C Z V C V N C V V > > * > > C ( _._.^.!.s.s.!.Q.Q.Q.!.~.Q.Q.} } } } v !.!.!.!.] ] ] ] ] ] ] ] v v v ] } Q.Q.!.!.Q.Q.!.~.Q.~.!.!.} ' h h / ~.:XdXhXjXVXAXHXHXHXAXAXJXAXAXCXHXJXxX-X-XQ.' z h h T / { } ) U g g h g 0 $ 4 h } sXhXnXfXhXhXsX} s j h h g 0 0 / _.dXgXgXdX_.`.hXLXHXHXHXHXHXSXNXSXNXNXMXNX2X(.x k c c x z q.r.k.k./.l.l.j.j.f.f.d.d.0.g.g.d.k.k.(.(.(.^.~./ z z / g g g g h / / / / / / U g T g g g T T T g U Y Y Y Y Y I D F ! ` O.O.O.O.J O.J J J F ! ! Q ! ! X...O.O.J K F K ` F F i & * > > % . O % . . * - j j j j 0 s g g h h ' ' T T ' / { -XsXsX-X_.@.U w = : ( $.[ Y U P P f : d d d I I ",
"6 %.%.%.%.%.6 %.%.%.%.%.%.%.%.%.%.%.%.6 6 6 6 %.%.%.%.%.%.%.%.%.%.%.%.%.%.=.=.=.=.%.%.%.%.:.:.>.:.=.%.%.=.=.=.=.=.=.=.=.=.;.-.>.-.-.-.;.}.;.}.;.}.>.>.F.;.;.}.;.;.t.c.c.F.c.c.F.c.c.c.c.c.c.c.c.c.c.c.}.c.c.c.c.c.c.c.F.F.F.F.c.c.c.c.v.c.v.v.v.v.G.G.G.H.H.v.v.G.v.v.n.c.G.G.U.U.G.v.n.n.n.U.U.U.U.G.G.g.(.].^./ 9 = w : > > > N N N B B B G B B B | B B B B B B B B B wX7XwXB B 7XwXwXB B B G | B B B N C C C C C C C C C N N C N V V V > > V > % , C ( *X*X*X~.z.h.s.!.Q.Q.Q.~.~.~.~.~.} } ] Q.Q.Q.Q.Q.] ] ] ] ] ] ] v v ] ] ] ] Q.Q.Q.Q.Q.Q.Q.Q.} } ] ] T h ] -XhXgXBXCXGXJXHXAXJXHXAXAXAXAXMXbXAXJXbXvXgXhX:X-X#./ U f / T h w - w f g d - $ 0 h -XhXvXhXdXgXgX-X{ T f f 0 = - C ( `.sXdXdXhXgXZXKXPXHXHXHXHXHXNXNXNXNXNXNX2X(.Y.k k k l l l e.a.k.k.j.j.j.l.l.g.g.f.g.g.f.d.f.k.(.(.(.^.W.) / z h g g U g g T / / ) / / Y h h g h h h h h d h Y Y Y Y Y D D F O.O. XO.O.J J J J K K F ! ! ! ! ` F F K K K F F J O.F M & > * > > * . . . @ - : g Y h g j j j j s h h ' ' T T / ' { sXhXdX`.-X_.[ U U P +.+.( Y U U I d : d d f U U ",
"6 %.%.:.%.6 6 %.%.%.%.%.%.%.%.%.%.%.6 6 6 6 %.%.%.%.%.%.%.%.%.%.%.%.%.%.%.=.=.=.%.%.%.%.%.%.:.%.%.%.=.,.%.=.=.=.>.=.=.=.>.>.>.>.-.-.>.>.>.>.;.;.;.;.}.>.}.;.;.;.;.;.;.t.F.c.c.;.2.2.c.c.c.c.c.}.c.c.c.c.c.c.c.c.c.c.c.c.F.F.H.F.c.c.F.G.v.G.G.G.v.G.G.G.G.H.v.v.v.n.n.v.v.v.v.U.G.G.v.G.n.b.U.U.U.U.G.G.F.E.'.`.[.k 9 w , , , N N N N N B B H H B G B B B B B B B B B B 7X7XwXB B 7X7XwXwXwX7X9X9XZ B Z M V C C C C C C C C C V V C Z V > > > > > , , : T ~.*X*X*X*X!.s.Q.Q.Q.!.~.~.~.~.~.} } ] Q.Q.Q.] ] ] ] ] v ] ] ] ] ] } Q.Q.] ] !.Q.Q.Q.} ] W.] ] v h h v -XgXvXGXFXFXGXFXJXMXAXAXAXAXmXmXmXMXmXHXbXbXbXJXCXvXdX_.T g T ~ f = * - d h U f w = 0 ' sX-X@.( { [ { +._.$.( : - = w U [ _.sXdXjXDXKXHXHXHXHXHXHXHXSXNXNXNXNXmX1X(.x k s k c c r.e.e.a.u.j.j.l.l.l.l.l.f.g.f.f.f.j.k.(.(.`.(.W.c k h g g g g T / T / U h h h h g h f f Y f f f d f f Y d u u D D ! K J J O.O.J K K J K F F F ! ! ! ! F F F F F A S K G F m & % * > > * % . @ - U } #.[ ' z z s s j p s h ' ' z h z / { -XfXdX)._.dX-X{ U Y ^ _ ^ Y Y P P d d f P U U U ",
"6 6 6 6 6 6 6 6 %.%.%.%.%.%.%.%.%.6 y 6 6 6 %.%.%.%.%.%.%.%.%.=.=.%.=.%.%.%.%.=.%.%.%.%.%.%.:.%.%.%.%.=.%.%.%.%.,.=.=.=.=.>.>.>.-.>.>.>.>.>.;.>.>.;.;.}.;.;.}.;.}.;.}.F.F.c.F.F.2.c.c.c.c.c.c.F.c.c.c.c.c.c.c.c.c.c.c.c.F.F.F.H.G.v.H.G.G.v.v.G.G.G.G.G.G.H.v.v.v.n.n.n.v.v.v.v.v.G.J.G.n.n.U.U.U.J.J.v.F.E./.].^.) q 9 = = * > V N N N N B Z Z B B H G 7XB B B B B wX7X9X9XwXB B 7X7XwXwX6X6X9X..| Z B V Z N C V C V C C C V V V V N V V M V , % % , w z Q.^.*X*X!.!.~.*XQ.Q.Q.~.Q.} Q.!.Q.] ] ] W.] ] ] ] ] Q.} } ] ] ] Q.!.Q.!.} ] !.!.W.Q.Q.] ] ] v z z ] ~.gXJXFXGXJXFXJXbXMXmXmXMXmXMXmXAXmXMXAXHXAXVXVXJXJXvXhX_.{ / U h f - * * d U f d : = @ - ~ d : * O * : +.sXlXsX+.~ w : w w / _.gXAXPXPXHXHXHXHXHXHXSXSXNXNXNXNXmXzX;Xx j 4 j c x Y.r.r.a.e.e.k.l.l.l./.l.l.g.j.f.j.k.a.(.^.].^.^.z s g g U h T T / T U g f f g f P g f f f d f f d d d D u D u f Y ! O.O.O.O.J O.O.J K F i F ! ! Q Q ! F F F F N ; m D F F & & * & , > - % . * D [ -X-X-X_._.] z s j s s h z ' z z z z / W.dX:X-XsXhXdX~.T P Y Y P P u D w d f P U T / T ",
"6 6 6 6 6 6 y 6 y :.:.%.%.%.%.%.%.6 6 6 6 %.%.%.%.%.%.%.%.%.=.%.=.=.=.%.%.%.%.%.%.%.%.%.%.%.%.%.%.%.%.%.%.%.%.%.%.=.>.:.=.=.=.:.-.-.-.>.-.>.-.-.>.>.>.;.t.>.;.}.;.;.;.2.F.F.F.F.F.c.c.c.c.F.F.F.F.F.c.c.c.F.c.F.c.c.c.c.F.F.c.c.v.G.v.v.F.c.c.G.G.J.H.v.v.v.H.n.n.n.n.n.v.v.v.v.v.G.G.G.v.n.U.v.U.G.v.v.F.H.l./.E.r.r q w > > > & m N N N N V B B B B 6X5X7XwXB B 7X7X7X7XwXwXB wXwX7X7X9X6X6X6XG B B B B B B M N C V Z V C V V V V V V V N N V > > 9 z Q.a.*X*X^.!.!.Q.] Q.Q.Q.Q.W.W.Q.} } ] ] ] ] ] Q.] ] ] Q.~.!.W.v v Q.~.~.Q.Q.] Q.Q.} Q.~.Q.] v ] ] ] -XhXbXJXJXVXHXHXHXJXmXmXmXmXmXmXmXMXHXmXAXHXHXAXCXCXbXvX>X`._.{ T h f : - = : d : : * % . @ % . . % % > I $.pXsXlXlXsX@.P = @ w #.cXHXFXHXHXHXHXHXHXHXHXNXNXNXNXNXmXnX>X) $ $ p k x x r.s./.e.E.k.l.l.j.k./.(./.k.j.k.a.a./.^.(.`.^.] z g g U U T T T T U U f f d d P d f u d f d f d f u u D D D Y ` _ O.O.O.J O.` ` K ! K F ! F ! Q ! ! Q Y F D ; ; ; ; ; N ; & > * % ; ; % % ; Q |.#.sXsXdXdX-X] h s s s h h z z z z g g z ~.:XfXhXcXhX_./ : - u u : : - : d f g T T / T ",
"y 6 6 6 6 6 6 6 6 %.%.6 6 6 %.%.%.6 %.%.%.%.%.%.=.%.%.%.%.%.%.%.=.=.=.%.%.%.%.%.%.%.%.%.%.%.%.%.%.%.%.%.6 %.%.%.%.=.:.=.=.:.:.>.-.>.>.>.;.-.-.-.>.>.>.-.;.;.;.;.;.;.;.F.;.F.F.F.F.F.c.c.c.c.c.c.c.c.2.2.2.2.F.F.F.F.c.c.c.c.c.c.F.c.c.c.c.v.v.v.v.v.G.v.v.v.v.n.b.n.v.v.v.v.v.v.v.v.G.G.v.v.v.v.v.v.v.v.v.F.t.i.i.r.t t w w > > > & N N N N N B B B B 7X6X5X7X5X5XwXB B B B wXwXwXB B B wX7X5XwXB B B B B B B B C N V C N V V V V V V V B Z F M M w h ] !.^.a.s.Q.Q.Q.Q.Q.Q.Q.Q.Q.Q.Q.Q.!.Q.] ] ] ] ] ] ] ] ] Q.Q.!.Q.] ] Q.~.~.~.} v W.Q.~.} ] ] ] ] !.*X-XhXvXCXHXHXAXHXHXHXAXmXJXmXmXMXmXmXMXAXHXHXAXAXAXAXHXbXcXgX:X_.{ / g f : : - * * * * % % % % * % % ; F  .pXpXpX$.sXlXlXsX@.w * w -XJXFXHXHXHXPXDXHXHXSXHXSXNXSXSXSXHXbXzX] 0 $ 4 s c x x a.(.(./././.j.e.e.k./.(.(.j.j.e.a./.^.^.^.).{ / f 0 d f U T T T U U P f f d d d u : d f d d d f u u F D D Q ` +.` ` ` ` ` ` ` ` O.J O.K F ! Q Q ! Q I D D u > > > ; > % % % % % ; > * % ; ! |.|.sXjXgXhX:X*Xv h s s s s s h h z h k k x ^.].xXBXgX-X' * * ; - > - - - f h U T T T T ",
"y 6 y 6 6 6 6 6 6 %.%.6 %.%.%.%.%.%.%.%.%.%.%.%.%.%.%.%.%.%.%.%.=.%.%.%.%.%.%.%.%.%.6 %.%.%.%.%.%.%.%.%.6 6 %.%.,.%.%.%.%.%.:.:.:.=.=.&.=.=.-.-.;.-.-.-.,.;.=.;.>.}.;.;.}.;.}.F.F.F.}.c.c.c.2.c.c.c.c.c.2.c.c.H.F.}.c.2.c.c.c.c.c.c.c.c.F.H.H.c.c.v.v.v.v.v.H.n.v.v.v.v.v.v.v.v.v.G.G.U.J.U.v.v.v.v.v.v.v.F.t.t.>.:.:.x z w M > > V > * > N N N B B G G 5X5X5X7X6XwXB B B B B B B B B B B B wXwXB B B B B B N V V C V V N V V C V V C M N N C I U / ] Q.!.^.W.s.W.Q.W.W.s.] W.W.Q.Q.Q.!.Q.Q.] ] ] ] ] ] ] ] Q.Q.Q.] ] ] Q.!.Q.Q.Q.Q.!.Q.] ~.] ] ' ] } ~.:XxXbXJXHXCXHXHXHXFXHXAXJXJXMXmXmXmXmXmXNXHXHXHXHXAXCXJXJXVXgXdX_.' U w - = - ; * . X . * * * * % % > Q $.pXhXkXlXtX$.$.sXlXsXU 9 / jXPXDXPXHXHXHXSXHXHXHXHXSXNXNXHXSXHXAXbX~.g 0 0 s k x s.!.(.z.(./.j.e.e.e.w.p./.(.z.(.k.a.a.^.^.^.~.W./ g 0 - d f f U U U U T f f d u d u : u d f d f d u u u D Y _ _ O.` ` ! ! Y ! K O.O.O.O.F Y ! ! Q Q Q D D I D M ; ; ; ; & ; ; > * > * * % * D qXsXlXBXBXvXhX:X~.v k s s j j h h z z c k q x :XxXBXcXfX#.- ; : : : : : w d Y T T T ^ ( ",
"6 6 6 6 6 6 6 6 6 %.%.%.%.%.6 %.%.%.%.%.%.%.%.%.6 6 %.%.%.%.%.%.%.%.%.%.%.%.%.%.%.%.%.%.%.%.%.%.%.%.%.%.%.%.%.%.%.%.%.%.%.:.:.:.=.=.=.=.=.=.-.-.-.-.-.-.=.;.,.;.;.>.;.;.;.;.;.F.F.F.c.c.c.c.F.}.F.F.F.c.c.c.F.F.c.c.c.c.}.F.F.F.c.c.c.F.G.H.H.c.c.c.c.c.v.v.v.H.n.b.b.n.n.H.n.n.G.J.G.G.J.J.G.G.G.v.v.v.v.v.c.F.>.>.r.:.c w = > > % % > > ; N N B G H 6XG 7X7XwXwX9XwX7X7XB B B B wXB B B B wXwXwXB B B B B V N V V V V N > V C N B B Z C M I T [ ~.Q.!.s.W.!.!.W.W.W.W.W.W.W.] } !.Q.Q.Q.] ] ] ] ] ] ] !.} ~.Q.Q.] ] ] Q.!.Q.Q.Q.~.~.Q.] ' ' ' ' ] } ~.>XnXAXHXJXAXHXJXHXHXAXMXJXJXJXMXNXNXMXNXNXmXHXHXHXAXbXFXFXVXfX-X[ U w = * O % * % % % % * > > * % > I $.lXlXUXUXjXsX$.+.qXkXlX( g #.jXIXHXHXHXDXHXHXHXHXSXHXNXNXNXNXNXHXAXbX-XT g s s k x r.^./.j.k.j.a.e.e.e.e.r.r.e.z.(.(.(.^./.`.W.Y.{ { / U f d : - f f f P Y d f d d f u u u d f f f f f u u u Y _ +.O.` ` ` ` ` ` K O.O.J O.F ! ! Q Q Q Y D D : ; ; ; ; > ; D Q ~ U M ; % * % , : $.sXhXBXBXBXVXgXhX*Xz j s s s j s z ' ] c 0 c ~.:XhXgXhXsXQ ~ Y ~ ^ Q Y P d U ~ ^ ( [ [ ",
"6 6 6 6 6 6 6 6 y %.%.%.%.%.%.%.%.%.%.%.%.%.%.6 6 6 %.%.%.%.%.%.%.%.%.=.%.%.%.%.%.%.%.%.%.%.%.%.%.%.%.%.%.%.%.%.%.%.%.%.%.%.:.:.=.=.=.=.=.-.-.-.;.;.;.-.;.}.}.;.}.}.;.2.;.;.;.t.;.c.;.;.;.c.c.v.H.F.F.F.c.c.}.c.c.c.F.F.F.F.F.F.c.c.F.H.F.c.c.c.c.c.c.c.c.c.v.v.H.v.n.n.n.G.G.H.G.G.G.G.J.G.G.G.G.G.v.G.v.v.v.v.F.t.t.r.t e w = & % % > > V V B B H G G G G 7X7X5X5X7X9X7XwXB B B wXwX7X7XwXwXwXB B B V B B B V V V V V N > V N N Z Z  . .( [ { _.-X~.*X!.!.W.^.W.W.Q.Q.W.Q.Q.W.v Q.Q.Q.!.!.} v ] ] ] Q.*X~.~.Q.W.W.] Q.Q.Q.Q.Q.~.~.!.} ] z T ' ' ] ~.:XxXbXAXAXAXmXHXHXbXbXbXAXJXJXMXMXNXNXNXNXNXmXNXmXJXHXJXGXVXBXsX@.U - @ * . X . X % * > > % % % > > u +.sXkXkXjXLXUXlX$.+.$.hXdX_.{ sXGXPXHXPXHXPXHXHXHXHXHXSXNXNXNXNXSXHXHXbX:X' g g k x r.W.a.a.k.k.k.e.e./.E.u.r.e.e.e.a.(.(.=X^.T.W.W.) ) / T f : - - 0 : : d d f d f d f f d h u f f d f f d u d Y _ O._ O.` ` ` ` O.O.O.` O.K F F ! ! ! ! Q D D ; ; > ; > ; M ! +.+.+.~ D ; > % . d $.sXdXkXvXGXFXGXvX:XW.z j j s j j s x ] z k k ' W._.hXgXdX_.+.+.+.( ^ Q P d T ~ ( ( +.+.",
"y 6 6 y %.6 6 6 6 6 %.%.%.%.%.%.%.%.%.%.%.%.%.%.6 6 6 6 %.%.%.%.%.%.%.=.=.%.%.%.%.%.%.%.%.%.%.%.%.%.%.%.%.%.%.%.%.%.6 6 6 %.:.%.%.%.=.=.=.>.-.>.;.;.;.;.}.;.}.;.;.;.;.;.;.}.>.}.}.;.>.;.;.F.c.F.F.F.c.F.}.c.c.v.v.F.H.F.F.F.c.F.c.c.H.H.c.c.c.c.c.c.c.c.c.c.c.c.v.G.v.n.n.n.n.G.G.G.G.G.v.F.v.G.G.G.G.G.v.c.v.G.t.t.i.r.t q 9 > > * % > > V V F S H G G G 7X5X5X5X7X7XB G B G B B B B 7XB B wXwXB B B N B B V V V V V V N V M V M |  .o.+._.-X_._.~.!.*X*X^.Q.W.Q.W.Q.!.!.Q.Q.Q.Q.Q.Q.Q.Q.] ] ] ] ] ] ] ~.~.!.] ] ] ] !.Q.] ] Q.!.~.~.Q.] ' ' ' ' ~.-XfXCXAXAXAXAXSXHXAXbXbXCXAXbXNXmXmXmXNXNXNXNXSXmXmXCXHXJXGXvXdX{ d = . . * % @ * . % * > % % , = : I ^ $.lXlXjXjXLXUXlXpX[ +.$.dXdXdXjXFXIXIXHXHXHXHXSXJXHXHXSXNXNXSXSXSXSXHXBX-X/ h s k x W.W.s././././.a././././.e.j.k.e.e./.(.(.(.~.W.{ x z T h f d - - - - : u : d d f f d u u j : f f f u u u u d Y _ _ O.` ` ! ! _ O.O.O.` ! F F ! ! Q Q Q E D D M ; > * > D ~ +.$.+.^  .^ D : , . D $.lXgXjXBXBXJXJXnXxX>X} p p s s j s h ' x c k k z ] :XhXhXsX#._ ~ T T U I I U T ^ [ +.+.",
"6 y y y y %.6 6 6 %.%.6 %.%.6 6 %.%.%.%.%.%.%.%.6 6 6 %.%.%.%.%.%.%.%.%.=.%.%.%.%.%.%.>.%.%.%.%.%.%.%.%.%.%.%.%.%.%.%.6 %.%.%.%.%.%.=.=.>.>.=.-.;.;.;.,.;.}.;.;.t.;.}.;.t.;.;.;.t.;.}.;.t.}.c.F.F.F.c.c.F.F.F.H.F.F.F.F.c.c.c.c.c.c.F.c.c.c.c.c.c.c.c.c.c.c.c.c.c.F.c.n.n.n.v.G.G.G.G.G.c.c.c.v.H.G.G.G.G.}.c.c.t.t.i.:.c r e = > V V ; > > V N V B H G 7X5X5X5X5X7XB B B B 6X6XB B B B B B B wXwXB B B B B V V V V V V C N V : M R  .o.$._.-X_.Q.s.!.!.*X~.~.Q.Q.Q.Q.Q.Q.Q.Q.Q.Q.!.Q.Q.Q.] ] ] ] Q.] Q.Q.Q.Q.] ] ] } Q.W.] ] Q.} Q.Q.] ] ' ' { ~.*XfXVXAXmXmXMXAXSXAXMXMXCXHXAXbXbXmXmXmXNXNXNXNXSXmXmXCXJXbXjXdX[ f * @ X . * = * & * % * * % > M R U  .$.sXhXkXjXUXLXLXkX_.^ ~ +.sXgXBXFXPXHXHXHXHXHXHXHXSXHXSXHXSXSXSXSXHXHXHXvX`.T g s c x ^.^.^.T./.k././././././.a.(././.e.e.^.^.^.`.^.{ / g j g f d - w d u d : : : u f f d d u : : w f f : : u u u Y ` _ _ _ ~ ! ! O.O.J O.` F ! ` ! ~ Q ! Q D D ; M : > * : R [ $.$.@.~ ^  .E ; . . w $.kXjXBXBXVXCXCXbXnXxX:Xv h s s s s s c z z z s s x ).sXdXsX$.^ ~ Y U ~ U U U ~ ( ( [ +.",
"6 %.y 6 6 6 6 6 6 y y 6 6 6 6 6 %.:.%.%.%.%.%.%.%.%.%.%.%.%.%.%.%.%.%.%.%.%.%.%.%.%.=.=.=.%.%.%.%.%.=.:.:.%.%.%.,.%.%.%.6 %.%.%.&.&.=.=.>.-.=.;.;.;.;.;.;.}.;.;.}.;.;.t.}.>.;.t.;.;.;.;.F.F.}.F.F.F.c.c.F.F.F.H.F.F.}.c.c.c.c.c.c.c.c.c.c.c.c.c.c.c.c.c.c.c.c.c.c.c.v.v.v.n.G.G.v.v.H.c.F.c.F.v.G.F.F.H.v.c.c.2.>.*.r.r.t e 9 9 > % > > > > V N V B G G G 5X5X5X7XB B B B ..9X7XB B B B B B B wXwXwXB B B B V V V V V N V C M M C E W +.@._.~.!.W.s.s.W.Q.~.~.*XQ.Q.Q.Q.Q.Q.Q.!.!.Q.Q.!.] ] } !.!.Q.Q.~.Q.Q.] ] ] ] Q.Q.] ] ] ] ] ] ' v z h ' } -XxXVXCXAXmXmXSXSXmXmXmXMXHXHXAXbXbXmXmXNXNXNXNXNXSXmXmXAXVXcXdX{ f * @ @ . O * > > > > * % % ; R $.sXpXsXsXlXkXjXjXUXLXLXjXsX( _ +.sXgXHXFXPXHXHXHXHXHXHXHXHXHXHXHXSXNXSXSXHXSXHXhX_.T s g z ) T.^.(./.a.e./././.(.(./.(./././.k.T.T.^.~.~.~.] T g f d f : : u f d f u u u u u u f f u : : u d f u u : u u Q ` ` ` _ O.` O.O.J O.` ! Q ! ! ! Q ! Q F M ; ; : > : : P +.+.$.pX$.+.[ @.+.D * . D $.kXkXBXBXVXVXCXJXbXCXxX-Xv k s s s s k s z z s k z ) _.-X-X#.( T ' ( ( ) / / ( ( ( [ [ ",
"6 y 6 6 6 6 6 y 6 6 6 6 6 y 6 %.%.%.:.%.%.%.%.%.%.%.%.%.6 %.%.%.%.=.%.%.%.%.%.=.%.%.=.=.=.=.%.=.%.%.=.=.=.=.%.%.6 %.%.6 6 6 %.%.=.&.&.>.>.;.=.;.,.;.;.;.;.,.;.;.;.;.;.;.;.;.}.;.}.;.t.t.F.F.F.F.F.F.F.F.F.F.F.F.c.F.;.c.}.c.c.F.c.c.c.F.H.F.c.c.;.c.c.F.F.c.c.c.c.c.H.v.c.v.v.H.H.v.v.c.G.H.H.H.H.H.c.c.c.c.c.t.>.*.:.r.t 9 9 : > > > > > > ; V V B 5XG G G 5X7XB B B G 7X9X7XB B B B wXB wXB wXwXB B B B B V B V V V Z C N N C W ^ ( #.~.~.^.!.Q.Q.W.s.W.!.!.!.Q.Q.!.Q.Q.Q.Q.Q.~.Q.Q.Q.Q.] ] Q.Q.Q.!.Q.Q.] ] ] Q.Q.~.Q.] ] } ] ' ] ' z h g ' _.hXDXHXAXAXSXSXSXSXmXmXmXAXAXJXAXJXmXmXMXNXSXSXmXSXmXmXSXMXgX`.@.U - . % * * * > > > * * > % M Q $.lXlXkXlXlXlXlXUXUXkXkXgXlX$._ [ -XsXBXDXPXKXHXHXHXHXHXHXHXSXHXSXSXSXNXJXHXHXHXCXfX~.h g h z ) ~.^.^.(.s.r.e./.(.].^.(.^.a.a././.(.(.^.W.] { ' z h g f d d - - d d f f d u u - u j d f u u u f d u : : : u Y ~ ~ ` O._ O.O.O.O.O.` ` Q ! ` ! ! Q Q Q D M > > : : ~ ^ +.$.sXfXdXsXpX).@.W : * d $.kXjXZXBXZXVXCXJXJXJXvX>X-Xv k k s s s s z z z / z / ' _._.#.#.#._.#.@.#.{ { ( { { [ [ ",
"5 5 5 5 6 6 6 6 6 6 6 6 6 6 6 6 %.%.%.%.%.6 y y %.%.%.%.%.%.%.%.%.%.%.=.=.=.:.=.%.=.=.=.=.=.=.=.:.:.%.%.%.:.=.%.y 6 6 %.6 6 %.%.:.%.,.-.-.=.=.;.;.;.;.;.}.;.}.,.,.;.,.;.;.;.;.;.;.;.t.t.F.F.F.F.F.F.F.F.F.c.c.c.c.c.c.;.;.}.c.F.c.c.c.F.c.v.H.H.2.F.2.2.2.c.F.H.H.H.F.c.c.c.v.H.H.F.c.;.t.H.H.H.H.H.F.F.F.2.t.t.i.i.e.t e < + * * > N N N ; > V B B G G 6X6X6X7XG B B B B B B B B B B B B wX9X5XB B B B B B B B V V V C Z Z V C ~ [ { ~.*X^.!.!.Q.Q.Q.W.Q.Q.!.Q.Q.~.!.~.Q.Q.W.W.Q.Q.!.Q.Q.Q.] v ] ] ] Q.] ] ] } } v } } ] } ] z z ' ] x s h [ -XcXAXDXHXHXmXSXSXmXmXmXmXmXbXbXbXbXHXNXmXSXSXNXmXHXNXSXmXxX).z w - * * % X . ; : : > > V % >  .lXlXlXsXsXlXjXlXkXUXLXjXlXsX$.( ' _.`.fXVXFXHXHXPXHXHXHXHXHXSXHXHXHXSXNXNXSXHXHXJXbX:X[ h g g / ) W.^./.(.a.e.e././././.^.^./././.(.^.(.^.W.{ ] ' / / / T f : : : : - - - - : - - - d d f d u f f d - - - u u Y ~ Y Y _ O.O.O.O.! ! ! ! Q ! F ! ! D F ! Q F & > > D _ +.$.hXjXZXZXBXkXsX$.@.Y : T tXjXBXBXBXBXCXCXCXbXbXvXgX:X-XQ.c s s k s s z ] ' / / / ( / _.-XdXdXfXdX-X`._.{ { { { ( ",
"5 5 5 6 6 6 6 6 6 y 6 6 6 6 6 %.%.%.%.%.%.6 6 6 %.%.%.%.%.%.%.%.%.=.=.=.%.%.%.%.%.=.=.>.>.>.>.=.=.=.=.%.=.:.:.=.%.%.y %.6 6 6 %.%.,.=.=.,.=.,.-.;.;.;.;.,.,.;.;.;.;.;.;.;.;.>.}.;.;.}.t.F.F.F.F.}.c.c.F.c.c.c.c.c.c.;.;.;.;.F.F.c.c.c.;.;.F.F.F.c.c.2.;.;.2.c.F.F.F.c.c.c.v.H.H.H.G.H.F.H.H.F.F.F.;.2.t.2.t.i.i.u.r.t q 3 = = = > * > > ; M M N N B G G 7X5X5X7XB B B B B G G B B B B B B B 7X7XwXB B B B B V V V V V N V V V N ! } } *X*X*X!.!.Q.Q.W.W.Q.Q.s.W.Q.Q.!.Q.Q.Q.W.W.Q.Q.!.!.Q.Q.*X] ] ] ] ] ] ] !.!.Q.] } } ] } ] ] ' ' / g 0 g { :XcXCXAXDXSXSXSXSXSXNXNXmXmXNXMXbXMXHXSXNXmXmXmXNXNXHXbX;X^.z 0 = = > * * > * : : ; * % % & E sXjXjXkXlXsXsXsXsXkXkXkXsX$.~ Y ~ { -XfXgXbXKXHXHXHXHXHXHXHXHXHXHXSXSXNXNXNXJXSXHXHXCXsX{ T f z / ) W.^.^.^././././.(././.^.^.(.E.(.(.].:X`.~.Q.' T T T T f f u : : : - - - u u d d u d f u - u d f d : : u u u I Y Y Y ~ _ O.` ! ` ` ` ` ` ! ! ! Y I I ! Q D & * > I o.$.sXkXjXGXGXZXjXhXsX-X[ U ( sXjXZXZXVXVXCXCXCXbXbXbXnXcXdX:XQ.l c s s s s z z z / ' ' / { -XdXfXdXfX:X`.`._.~.W.{ ( ",
"5 5 5 5 y y 6 6 6 6 6 6 y 6 6 %.%.%.6 6 6 %.%.%.%.%.%.%.%.%.=.%.%.%.%.%.%.%.%.%.,.=.>.>.>.>.=.=.=.>.=.=.=.=.:.=.:.%.%.%.%.%.%.%.%.%.=.=.=.=.=.;.}.;.,.;.}.;.,.;.;.;.;.=.-.;.;.}.;.;.;.2.}.F.c.c.c.F.F.F.F.c.c.c.c.c.;.;.;.F.c.c.F.c.2.c.F.F.F.F.F.;.2.;.2.2.2.t.2.2.c.c.c.F.F.c.t.t.t.F.F.t.c.5.2.2.2.4.i.w.i.r.r.8 e 3 9 e : : M N > > M M N N B B G G 7X7X5X7XB B B B B B B B B B B B B B wXwXwXB B B B V V V V V V C N V V N Y [ } s.s.*X*X!.W.W.W.W.Q.s.s.s.W.Q.Q.Q.Q.W.W.Q.Q.] ] ] ] ] ] ] ] Q.] ] ] ] !.~.~.} } ] ] ] ' ' / z h j j h `.cXVXCXAXAXSXSXSXSXSXSXNXmXmXmXMXMXmXAXHXSXNXMXmXJXmXAXxX~.g 0 0 - - > * > ; : : ; ; % % % >  .lXkXjXkXlXsX$.$.pXlXsX|.` u - - T _.fXBXBXCXDXHXHXHXHXHXHXHXHXHXHXSXHXNXSXJXJXJXHXPXHX:X/ g j g / ] W.^.^.(.(./.^.(.].(.^.(.E.^.^.(.(.].-X~.~.~./ g d f f f d d d u u - - - d d P P d u : : - - : u : : d u u u u Y Y Y ` ~ ! Q ! ! ` ` O.! Q ! ! Q F I Q Q F & % ; ! O.$.sXkXGXFXGXZXGXBXkXfX_./ @.sXjXBXZXVXCXCXCXbXbXbXbXbXvXxXxX:X!.x c s 4 j h s s c z / z ] `.:XdXfXfX:X`.`.^.[.{ { / ",
"y 5 5 5 y 6 y 6 6 6 6 6 6 6 6 %.%.%.%.%.%.%.%.%.%.%.%.%.%.%.%.%.%.=.=.%.%.=.=.%.,.=.>.>.>.=.=.=.=.=.=.=.:.=.>.=.:.%.%.%.%.%.:.%.%.,.,.,.=.=.,.;.,.;.}.;.}.,.;.;.;.,.;.=.-.;.;.;.F.2.c.2.c.c.c.2.2.2.F.F.F.F.F.;.t.F.;.;.;.c.c.c.F.c.c.}.F.F.F.;.t.2.c.F.c.t.2.2.2.;.2.c.2.F.t.2.;.2.t.t.t.5.5.<.<.3.3.3.5.1.1.1.a 5 q r g P w M M N ; V M M N N G G G G 7X5X5X5X7XB B B B B G 7X6XB B B B B wXwXwXB B B B V V B V V V V C V V N Y [ } b s.s.!.!.Q.~.Q.^.!.z.!.s.Q.!.Q.Q.Q.Q.Q.Q.Q.W.] ] ] ] ] ] ] Q.Q.] ] ] } } Q.} ] ' ' ' z v z g 0 - 0 ] :XbXAXAXAXAXSXSXSXSXSXSXmXmXMXmXmXmXmXAXHXHXSXJXJXHXMXcX:X) h U U f ; * * > : : ; > % % % * . D $.sXsXsX-X$.+.T +.pX$.F - . . - @.hXBXFXBXCXHXHXHXHXHXHXJXHXHXHXSXSXSXSXSXSXNXJXHXHXCX-X/ j 0 j z ] W.^.^.^.(./.`.(.(.^.^.T.(.^.^.^.^.^.^.Q.) / h f : u u : d P I u : : : u d d I d d u : - - - - - - - d u u - u Y Y Y Q ! ` ` ` ` O.O.` ! ~ Q Q Q D F ! Q A m % > F +.sXsXkXGXFXVXBXCXVXBXgX-X@.#.dXjXBXBXFXGXCXCXbXbXbXbXbXbXbXxX;X:X^.x s j 4 s g s s h h k / Q.`.:X:X;X:X-X).W.{ { { / ",
"5 5 5 y y 6 6 6 6 6 6 6 6 6 6 %.%.%.%.%.%.%.%.%.%.%.%.%.%.%.%.%.=.>.=.%.%.=.=.=.,.=.>.>.=.=.,.=.=.=.=.=.=.=.=.=.=.=.=.=.%.%.:.=.%.,.,.,.,.-.;.;.,.;.;.;.;.;.,.}.;.;.,.;.;.;.;.}.c.F.F.c.c.c.2.2.2.2.F.F.F.F.t.2.2.2.2.;.2.c.c.c.F.c.F.F.F.F.;.;.;.;.c.c.F.t.2.;.;.;.;.>.t.t.t.>.>.>.3.i.u.5.1.1.1.5.5.<.1.<.<.q.l q.Y.] / f : : ; N > N F H N N G G G 5X6X5X5X5X5XB B B B B 6X5X5X7XB B B wXwXwXwXwXB B B V V B V N V V N V V > I ( } b b s.s.*XQ.~.~.^.^.^.*X!.Q.Q.Q.Q.Q.Q.Q.Q.Q.!.!.] ] ] ] ] ] Q.] ] ] Q.] } ] } ] ' ' z ' { ( h w 0 f ~.cXAXAXmXHXHXmXSXSXSXSXSXmXmXmXmXAXmXmXmXSXHXAXmXHXAXbX-X) U g / W d - * * * * ; ; > % % * %   & d ~ [ #.#.[ ( d T _ Y - @ O O P `.jXZXVXbXCXJXHXHXHXJXHXJXHXHXHXHXSXJXSXSXJXSXSXHXJXhX} T w 0 g z ) W.^.^.^.^.(.(.(.^.(.(.[.^.(.^.^.^.^.^.] z h h - - - - : u d : : : : : u u u d I d u u - : - - - : - u d : - d ~ Y Y Y ` _ _ +.O.O.O.O.` ` Q Q Q F F ! ! F & & > R #.sXlXkXZXZXZXVXCXFXGXBXsX_.-XhXBXZXFXFXFXVXbXbXbXbXbXbXbXnXnXxX1X:X^.z s 4 j h s h s s s c ] ^.`.:XfX:X:X[.] { { { / ",
"5 5 e 6 6 6 6 6 6 5 6 6 6 6 %.%.%.%.%.%.%.%.%.%.%.%.%.%.%.%.%.%.%.=.=.%.%.=.=.%.,.>.>.>.=.=.=.=.=.,.=.=.=.=.=.=.>.=.>.=.%.%.%.=.%.%.%.,.,.=.=.;.,.;.;.;.,.;.,.;.=.-.;.;.;.;.;.}.}.F.c.c.2.c.2.2.2.2.F.F.F.F.2.2.2.;.2.2.F.c.c.c.F.2.t.F.F.c.;.-.;.;.;.;.t.t.t.;.t.2.2.5.i.t.t.5.y.i.i.y.y.1.1.*.,.&.8 1.<.<.p.d.z.!.^.~./ f : : > > N N H | H N B G 6X6X5X5X5X5X5X7XB G B G 6X5X5X5X7XB wXwXwXwXwXB B B B B B B Z V V V V V V > d / } b b s.s.} W.^.~.^.(.!.(.s.Q.Q.!.Q.W.W.Q.Q.] Q.!.] ] ] ] v ] ] v Q.Q.!.] v ] } } ] ' T ' { { ' h T { ;XMXAXMXmXHXHXNXmXSXmXSXNXmXMXmXAXmXmXmXNXSXHXMXbXnXxXfX{ g w w P d > * * * * * * % @ % % * * . . @ u Y ( ' [ ~ : u u : * @ * w @.hXBXBXVXcXCXJXSXSXSXHXHXHXHXHXHXSXSXNXJXNXSXHXHXbXhX_.' h j j h / ] W.^.^.^.^.^.^.[.^.^.^.^.^.`.(.^.^.^.W.W.z g j j - = - - - - > - : : u : - : : - d u u - u u : : : u d d d : f _ _ ` ` _ O.+.+.O.` ~ ! O.O.Q Q Q F K ! ! Y A ; M Q $.sXlXkXBXZXBXAXHXHXGXBXhXsXhXjXBXZXCXFXCXCXCXVXbXbXbXbXbXMXbXnXzX;X`.z s 4 s h h h g s s s c x W.^.:X:X-X~.] ] { { / ",
"y y y 6 6 6 6 6 6 6 6 6 6 6 %.%.%.%.%.%.%.%.%.6 %.%.%.%.%.%.%.%.=.=.=.%.%.=.=.,.,.>.>.>.;.;.-.-.=.=.,.=.=.=.=.>.>.>.>.>.=.=.%.=.=.%.%.%.=.-.;.;.}.;.,.}.;.;.}.,.-.;.;.;.;.;.}.}.c.c.c.c.c.c.c.2.2.t.F.F.F.F.F.2.2.;.c.2.F.c.c.2.2.2.F.F.t.2.;.;.;.=.-.;.;.;.2.2.c.;.t.t.i.i.i.r.:.%.*.&.6 5 8 8 8 8 8 <.<.p.z.x.z.!.!.~.' U : : > V N H | H B N N H 6X6X5X7X7X5X5X5X5X5X6XG 6X5X7X5X7XwXwXwXwXwXwXB B B B B B B V V V V V , % > : T } b b b v s.W.W.W.^.!.!.(.!.Q.Q.Q.W.W.W.Q.W.] Q.!.] ] ] ] ] ] ] ] } Q.} ] ] !.} ] ' T h g T ( [ +.-XsXvXAXSXMXNXSXSXmXmXmXmXmXmXmXmXmXNXSXAXHXNXMXmXbXnX;X:X_./ g 0 = * O . % * & * * * % . % * % % @ @ . j T T ' { ' : * : ; @ = : +.sXgXBXBXcXvXCXHXHXHXHXHXHXJXHXSXHXHXSXNXNXJXJXHXAX2X~.' g j j j h ) ] W.^./.!.W.^.^.^.^.[.^.^.(.^.^./.^.^.~.Q.z s s g j u d - - ; * - * - - : - - - - - - - : u u u ; : u u f d u d T ` ~ ` ` _ O._ O.! ! ! ` _ ! ! ! ! ! ! O.F F & ; Q #.sXlXgXBXBXGXHXCXVXVXBXcXgXgXBXBXZXFXVXCXCXCXVXbXbXVXMXmXMXmXbXzX;X^.z j 4 j j f j s q s s s z x ] ~.`.-X@.] { { [ / ",
"5 y e 6 6 6 6 6 6 6 6 6 6 %.%.%.%.%.%.%.%.%.%.%.%.%.%.%.%.%.%.%.=.=.=.%.%.,.,.%.=.=.>.>.-.=.-.-.=.=.=.=.>.=.>.>.>.>.>.=.=.:.:.=.=.=.=.=.=.=.;.;.,.}.}.,.;.,.;.}.-.-.;.;.;.;.}.}.c.F.c.c.F.c.2.2.2.2.2.;.2.2.2.2.2.;.2.2.t.t.2.2.2.F.F.F.c.;.;.;.;.;.;.=.;.;.t.t.;.;.:.:.:.:.=.%.7 8 7 y < 4 8 8 a a <.0.@X#X#X@Xh.s.s.~.{ / M > & m N H H H H H G H 6X6X7X7XB 5X5X5X6X6X6X6X6X6X7X5X5XwXwXwXwXwXB B B B B B B B B V V N C > , , - f ' v v v v s.s.s.W.!.(.!.!.Q.Q.s.W.Q.Q.!.Q.Q.] ] ] } Q.!.Q.Q.!.!.] W.Q.} ] ] ~.} T s j - # - g ( $.dXBXAXmXmXmXNXNXNXMXmXmXMXMXmXmXMXSXSXNXmXNXmXmXmXMXzX`.) / g f : # * . % * @ % % * * * % * * @ . @ * - P ' [ [ } ' - * * * * : ( sXdXjXvXcXnXbXAXAXNXSXSXJXHXHXJXJXSXHXHXJXNXNXMXMXnX`.z s 4 0 j j h ' ] Q.^.^.s.W.^.(.T.^.(.^./.].^.^.^.^.^.~.Q.z 0 f f u f f u : : - - : ; ; : ; : : - * - - * * ; = - * : u d u u u Y Y Y Y ~ ` ` ` Q F F F ! ! ! ! F F ! F F F F N D ~ $.sXsXhXBXFXHXAXCXVXVXVXbXvXvXBXBXFXFXVXVXVXCXVXVXbXbXMXMXMXmXJXbX1X:Xv j 4 4 0 j j j 0 g g g h z z } W._.{ { { { ' / ",
"y 5 5 5 y 5 6 6 6 6 6 6 6 6 %.%.6 6 6 y y 6 %.%.%.%.%.%.%.%.%.%.%.=.>.%.%.%.=.=.;.,.;.}.=.,.;.;.=.;.;.>.>.>.=.=.=.=.>.=.=.=.>.>.=.=.=.=.;.>.}.,.,.}.;.,.,.;.;.;.;.;.-.;.;.F.F.F.F.}.c.c.F.}.2.2.2.2.F.2.2.;.;.c.;.;.;.;.2.t.2.2.F.H.H.F.F.t.t.t.;.;.-.-.-.-.t.t.t.*.:.:.:.6 7 8 8 8 8 3 8 a q.w.8.d.h.@X@X@X@Xx.h.s.*X-X~.U ; ; m m N B B L 5X5XG 5X6X6X5X7XB 5X5X5X5X7X5X5X6X6X5X7X5X9XwXB wXB B B B B B B B B B V M | | M > * @ - h z b v !.Q.Q.Q.W.W.W.W.W.W.Q.W.Q.Q.~.~.~.Q.!.] ] } Q.Q.Q.Q.!.Q.Q.Q.Q.] ] } } ' f - j w f U ( #.-XgXVXSXmXmXNXSXMXmXMXNXNXmXmXMXmXmXmXmXmXmXNXNXmXAXCXfX~.q 0 w d - - * * * * .   . * * * * * * @ @ @ - d T ' ' ' [ T - @ * = - ^ sXhXfXvXBXvXbXCXAXSXSXHXHXHXHXHXJXJXSXSXSXJXHXJXJXcX:Xz 4 0 g w u h / ] Q.^.!.a.!.^.^.].^.^.^.^.^.^./.^.^.^.^._.^.z 0 - - - u f : : : : u u : - : I P : : - : : - - = - > ; u u : : - ; u u I Y Y ` ` Y ! ! ! Q ! F Y D D F F F F F N m N Q $.sXsXgXBXBXFXAXAXVXVXVXVXCXCXFXBXFXFXVXVXbXbXCXCXnXnXbXbXnXnXmXbXnX;X~./ s j 4 4 j s s z g g h z z z ' { { { ' [ ( T ",
"5 5 5 5 5 5 5 y 5 6 6 6 6 6 6 6 6 6 6 y 6 6 6 6 6 6 6 6 %.%.%.%.%.%.%.%.%.%.=.=.,.;.,.,.;.;.;.;.;.;.;.>.>.=.%.%.=.=.=.=.=.=.=.>.>.>.-.=.=.;.,.;.}.,.;.;.}.}.;.;.-.;.;.;.;.t.F.F.F.F.F.F.c.F.F.F.;.;.2.;.;.;.t.;.>.;.;.t.F.F.F.F.F.F.F.t.t.t.F.t.;.;.>.-.=.*.*.*.*.*.:.:.:.:.:.8 4 3 4 8 8 1.8.x.&Xx.x.@X&X@X@X@XOXs.s.*X{ d ; & m m L L 7X7X5X5X5X5X5X5X7X7X7X7X5X5X5X5X5X5X5X6X5X7XwXB B B B wXB B B B B V S B H F R E  .E : > : u f h v ] v W.Q.Q.~.Q.Q.W.W.W.W.Q.Q.~.~.Q.Q.Q.Q.Q.Q.!.Q.!.Q.!.~.~.} ] ] ] } #.' g : d / #.$.-X-X;XcXAXAXAXSXNXNXSXSXmXmXSXSXSXSXAXMXmXMXmXmXSXNXNXNXJXJXfX~.z g P w > * * * @ @ O . @ - : : : - - * @ - d T / [ ' ( T d * % % : ( _.-XsXhXcXBXbXCXAXAXHXSXSXHXJXHXHXHXSXSXJXJXJXHXHXnX-X/ - = w h g j s h ] ^.!.W.W.s.^.^.^.(.(.^.^.(.^.W.^.^.^.^.~.~.] z j = = = - : - - * ; - - * ; : u u u : ; : u - & * - * - - u d d : : u d Y ` ` ` ` ` ` _ ` ` ! _ Y F F F F D m m D D F  .|.sXhXBXGXJXbXCXAXVXCXbXCXCXHXbXFXFXFXCXbXCXAXVXbXbXbXbXbXnXcXbXcXxX:X} z s j j 4 4 s s h h h h h h ' { { { ' / T T ",
"5 5 5 5 5 y r 5 e y y 6 6 6 6 6 6 6 6 6 6 6 6 y 6 6 %.%.%.%.:.=.=.%.%.%.%.=.=.=.-.;.=.;.,.;.;.}.}.>.>.>.,.,.,.%.=.=.>.>.=.=.=.=.>.>.=.,.=.,.}.;.,.}.,.}.,.;.;.;.;.;.>.F.t.t.F.F.F.F.F.F.;.F.}.;.2.2.;.;.;.;.2.;.;.;.;.F.F.F.F.F.c.2.2.>.-.>.>.>.>.*.*.*.&.&.&.&.%.%.:.:.:.t :.8 p a 1.6.w.8.@XV.&XXXM.9.&X@X@X@X#X(.s.~.T : ; m m m L L L 7X5X5X5X5X5X5X5X6X5X7X5X5X5X5X5X5X5X5X7XwXwXB B B B B B B B B N B B B |  .~ Y ~ U : : : f g h v v Q.Q.Q.~.~.~.~.W.s.W.] } } ~.!.!.!.Q.Q.Q.Q.Q.Q.Q.] Q.Q.!.Q.} } ] } { ' Y Y +.-XdXkXgXhXxXCXHXSXSXSXNXmXSXSXNXmXmXSXAXmXmXmXmXmXmXNXSXNXNXNXmXbXzX`.{ T g - - * - - = @ @ @ @ : u I u - - - d f h ' [ [ [ ^ P - * * ; Y $.sX-XdXgXcXcXcXCXAXHXHXHXSXHXHXHXHXSXSXSXHXSXJXJXbX-X' - @ @ - f h j j s ] Q.!.W.W.W.^.^.^.(.^.^.^.^.!.^.^.^.W.x ] ] v g j = # = - u u - : - - * * * - - : ; ; - u - ; - * > - ; : u - - : u u D Y Y ` Y ` ` Q ` ` ! Q Q Y I ! F F A m m F D D ` $.sXkXjXBXFXAXHXHXAXbXbXCXCXAXVXFXHXAXbXbXCXAXbXbXbXbXbXVXbXcXcXcXnX>X`.] l k p j j s s h h g h h / ' { ' [ ' / / T ",
"5 5 5 5 5 5 y 5 y y y e 6 6 6 6 6 6 6 6 6 6 6 6 6 6 %.%.%.%.%.%.=.%.%.%.%.%.=.=.=.;.;.;.}.;.}.}.>.}.>.>.,.,.=.=.,.=.>.>.>.>.=.=.=.>.;.;.;.,.;.,.,.;.;.;.;.;.;.;.;.F.F.F.t.t.t.F.F.F.F.;.;.;.;.;.;.c.2.2.F.;.2.2.t.}.;.;.t.F.F.H.2.2.2.;.-.*.*.-.>.&.=.&.%.%.6 %.7 t 6 %.*.a c l 1.s.z.<X@XL.&X&X&X&X&X&X9.x.x.@X*X*X!.' f ; m m m S S L L 8X8X8X8X7X5X5X5X5X7X7X5X5X5X5X5X5X5X5XwXwXwXwX9XB B B B B B B B B B G  .o.^ Y ~ T I : : w g h z ] Q.Q.~.~.~.~.~.s.s.v ] ] ] ] ] Q.Q.W.W.W.Q.W.W.Q.] } Q.Q.~.*X~.} } } { { $.-XlXvXBXVXbXAXAXSXmXSXNXNXNXmXNXmXMXmXMXAXMXmXMXmXmXmXmXmXNXSXNXmXCXbXhX`.' P d - - u u : - @ - - u P T P - u f ~ ' _ ' [ [ T U w @ * : Y @.-XsXdXfXcXcXcXbXMXAXAXSXHXHXHXSXSXHXJXSXHXHXHXHXJXhX' - @ @ @ - d j j j z v Q.Q.W.W.^./.^.^.^.^.W.^.^./.^.!.Q.x x x z s j j 0 - - - u u u : - - ; * * > > * - - : u u ; * * - ; - : - - - * : u P Y Y Y ! ! Q ! ! ! Q Q Q I I Y ! F D N m m D D ~ $.sXkXkXZXCXJXCXAXFXbXbXbXCXCXbXAXAXCXVXCXAXAXbXbXbXbXbXbXnXcXcXcXvXcX;X`.l k k k s s p s s j h T ' ' ] / { { ' ' T ",
"5 5 5 y 5 5 5 5 5 6 5 6 6 6 6 6 6 6 6 6 6 6 6 6 %.%.%.%.%.=.:.%.%.%.%.%.%.,.,.=.=.}.;.;.}.;.}.}.;.;.;.,.,.,.,.=.,.=.=.;.;.=.=.=.=.=.=.-.;.;.;.;.}.;.;.;.-.;.;.;.t.F.F.F.t.t.t.t.F.F.F.;.;.;.;.;.2.2.2.2.2.2.2.2.2.2.2.;.;.t.F.F.4.;.-.*.*.*.*.&.:.:.%.6 5 7 6 5 r 8 8 &.1.<.p.p.d.#X<X<X&XL.oX&XoX&XoX&X@Xx.z.*X*X!.v Y u ; m A m L L L 8X8X8X8X8X5X5X5X5X5X5X7X5X5X5X5X5X5X5X5XwXwX7X6X9X6XB B B wXwXB B B V | o.+.+.Y ( ~ T w : : f g h ' Q.Q.~.~.~.~.Q.W.s.] ] ] ] ] ] ] !.W.W.W.W.!.] ] ] ] } W.Q.} ~.} Q.~.-X-XsXhXBXBXVXFXHXAXAXmXNXSXNXNXNXmXNXMXmXMXmXMXmXmXmXmXmXmXmXNXNXSXSXmXAXCXVXfX_.( h d : d d u u d f d d P ^ T j j f ' { [ { [ T f - = * : U +.#.-XdXfXhXvXvXbXMXAXAXSXSXHXHXSXSXSXSXSXHXHXHXHXHXCX:Xj # @ @ @ - u j j j s v W.W.W.!.^.^.^.^.T.W.W.W.W.W.!.^.W.W.x x z g s j - - - - d u - - - - - * - ; - - ; u : : : - > - ; - * : - - * - : u Y P Y Y Q ~ Q ! _ ~ ! ! D P P Y F F A N m m ; ; D _ sXkXjXZXZXVXCXAXCXbXbXAXbXCXbXJXCXbXbXAXAXAXbXbXbXbXbXbXcXcXcXcXvXcXcX:XW.x c x c h p p j j s h ' ' ' / { { #.{ ) ",
"5 5 5 5 5 5 5 5 e 6 6 6 6 6 6 6 6 6 6 6 6 6 6 6 %.%.%.%.%.%.=.=.=.=.%.%.%.,.=.=.=.-.;.;.;.;.;.>.;.}.,.;.=.;.>.=.,.=.-.;.;.;.;.,.;.=.;.;.;.;.;.;.;.}.;.}.;.;.>.}.t.t.t.;.t.t.t.t.t.t.;.}.;.c.;.2.2.t.t.2.2.2.2.F.2.2.2.;.>.;.2.2.5.-.=.=.*.*.&.%.5 7 7 5 5 5 5 8 r t 8 a <.g.x.z.x.<X&X@X&XL.M.B.m.M.&X&X@Xx.!.*X!.v f u ; & m S L L L 8X8X8X8X8X8X5X5X5X5X5X5X5X5X5X5X5X5X5X5X5XwXwX7X7XwX7XB B wX9X7XB B N C C o.#.+.( ( ( T P : > w d h z } !.Q.~.~.~.~.Q.] ] ] ] ] ] ] Q.Q.Q.Q.Q.Q.Q.Q.] ] ] ] ] ] } } } ~.-XfXgXvXVXBXBXVXmXHXHXSXmXmXMXMXmXMXMXmXmXmXmXmXmXmXmXMXmXMXmXNXNXNXNXSXmXAXHXCXcX-X_.[ ^ U d d d P Y ` ~ f Y ~ ^ Y d U ' { ' [ T d = @ * : Q +.|.|.dXfXhXgXVXCXbXbXAXAXSXHXSXHXHXSXSXSXSXSXSXHXHXJXbX*Xj $ $ - * - - j j g b v W.W.W.s.T.^.(.^.W.Y.W.W.W.W.W.W.s.W.] ] x h s j j 0 j j j - = - * ; * u - - * - u u : : : : : u ; ; ; : - - - ; u d d P D D Y ~ _ ` ~ Q Q D D P P Y R F D M N m & & D ^ sXkXjXZXZXCXbXbXbXAXAXAXAXHXAXAXCXbXAXAXAXMXnXnXbXnXxXxXnXnXcXxXcXnXxXhX*X~.^.Q.] x s s 4 j g / ' ' ' [ @._._.#.{ ",
"e y 5 5 5 e 5 5 y 6 5 6 6 6 y 6 6 6 6 6 6 6 6 6 6 %.%.%.%.%.%.%.%.%.%.=.%.=.>.=.=.;.;.;.,.;.=.;.;.,.;.=.=.=.=.=.=.=.=.;.;.,.;.;.;.;.-.;.;.;.;.;.}.;.}.}.2.2.}.>.2.2.t.;.2.2.2.2.t.2.;.;.;.F.t.t.t.t.t.2.2.2.;.;.2.2.2.2.;.*.5.5.*.,.6 6 &.t 8 7 y 5 5 5 5 8 8 c q.w.p.0.x.&X@X&X&X&X&XoX&XoX&X&X&XoX&X@X@Xx.*X*XQ.h - & & m A S L L L 5X8X5X8X5X8X8X5X5X5X5X5X5X5X5X5X5X5X5X5X5X5X7X7X7XB B B 7X9X9XB B B Z C C [ @.{ { { / T f ; * : : d / } Q.Q.!.~.~.~.Q.Q.Q.] ] ] v W.!.Q.Q.Q.Q.Q.Q.Q.Q.] ] ] ] ] ] ] } -XdXcXGXGXCXCXCXVXAXAXAXmXmXSXmXmXmXmXmXmXmXmXAXMXMXMXmXMXmXMXNXNXNXmXMXMXAXAXAXAXVXvX-X`.{ ( f u u Y ` ^ T T T _ [ ^ T ^ [ [ T d j = @ $ u T +.|.|.sXsXgXgXcXbXbXbXAXAXSXSXSXSXHXSXSXSXSXSXSXSXSXMXHXbX-Xs $ $ : = - - j h h z v v x s.s.W.^.^.W.W.W.W.W.W.W.x x r.W.W.] v z s s j j 0 j w - - $ - * ; * - - ; * ; - * - - ; : u u : : : - - ; u d u u u : : D Q _ _ ~ Y I D I I P D D D N N m m & & u Q $.lXkXjXCXAXCXAXAXAXAXmXAXHXAXAXbXbXMXAXMXMXnXnXnXnXnXxXxXnXxXcXxXnXvXvX>X-X^.~.~.~.] z c s k ' } ~.' { #._.-X_.{ ",
"y y 5 6 y y 5 5 y 5 5 5 6 6 6 6 6 6 6 6 6 6 6 6 %.%.%.%.%.%.%.%.%.=.=.>.=.=.=.=.=.=.-.-.;.;.=.;.;.;.,.=.=.=.=.=.=.=.=.=.=.;.,.;.;.;.}.;.;.;.;.;.}.}.}.}.2.2.2.F.2.2.2.2.2.2.2.2.2.2.t.;.;.t.t.t.t.t.2.2.2.2.2.2.2.t.t.2.3.5.*.*.=.8 y 7 8 8 5 3 3 3 5 r c e.a.z.=X#X#X@X&X<X&X&XoX&XB.B.L.&XoX&XM.C.9.@X@X*X*X-X[ g > ; & m S L L L L 8X8X8X8X8X8X8X5X5X5X5X5X5X5X5X5X5X5X5X5X5X5X5XG B B B B 6X9XB B Z Z E W U ( ) ) ) { / / P - - : w Y ' ] ] ] Q.Q.!.~.~.~.Q.] ] ] ] ] ] ] Q.!.Q.Q.Q.!.Q.] v ] ] ~.} } *X:XhXvXAXMXbXHXAXMXMXmXmXmXmXNXmXMXmXMXmXMXmXAXAXAXAXmXmXmXmXNXNXNXMXmXmXmXSXAXAXAXMXVXfX:X`.@.T P D P Q Y U T [ [ [ ^ [ [ [ _ d @ @ # : d ~ @.$.sXsXhXgXgXvXcXcXbXCXAXAXSXSXSXSXHXHXSXSXSXHXHXNXmXmXMXbX*Xj $ $ = @ - d g h z z v v v v s.Y.W.^.W.W.W.W.W.W.W.W.x x x v v z h s h z h j j 0 - - u - - - - - - * @ * ; : * ; - - : u u d u u : : u P u : u u u I Q _ _ Y P P P Y Y I u ; ; ; ; & N M m N I  .sXlXZXCXHXAXAXAXAXmXmXNXAXMXmXMXbXbXmXMXAXzXnXnXnXnXnXxXxXnXnXnXxXxXvXxX;X(.~.~.(.`.~.W.W.] W.`.-X_._.`.-X-X@.( ",
"5 5 y 5 5 5 5 5 5 5 5 6 6 6 5 5 y 6 6 6 6 %.%.%.%.%.%.%.%.%.%.%.%.=.=.=.=.=.=.=.,.;.=.;.;.;.;.,.;.;.,.=.=.,.=.,.=.=.;.=.;.,.;.;.;.;.;.;.;.;.;.}.}.F.c.F.c.2.2.2.2.2.2.2.2.2.2.2.2.2.2.2.;.t.2.2.2.;.2.;.2.2.t.;.>.-.-.*.*.*.=.&.t 7 5 5 3 3 9 e r e r k a.z.h.@Xh.&X&XoXoX&X&XoXB.M.M.m.B.B.&XM.M.XXx.x.@X*X*X[ T u & & m m S L L L 8X8X8X5X5X5X8X8X5X5X5X5X5X5X5X5X5X5X5X5X5X7X7X5X7XB B B 7X0X..B B M Z W U / T ) ) x ) x z h w w : : U ' { ] W.s.!.!.!.~.~.~.] s.] W.] ] W.W.W.] Q.!.Q.Q.} ] ] } !.~._.-XgXvXbXMXmXMXMXmXmXmXmXmXmXMXmXmXmXmXmXmXmXAXAXAXHXAXMXmXmXmXNXNXNXNXMXAXMXmXmXmXMXMXAXbXhX:X#.[ ~ P P D I U ~ [ +.+._ ^ ^ ^ P w @ * d T +.$.$.sXsXsXhXkXBXvXcXBXCXAXSXSXSXSXSXHXSXHXSXSXHXHXHXNXNXmXMXvX:Xh + O @ @ u f T z z v v v s.s.x ] W.W.W.W.W.W.W.} s.W.v x x v v z h h z ' h h g j - - - - - - - - ; * - - - - * * * ; : : u d u u : : u d : : u P P I Q ^ ~ Y P I Y Y Y D u ; ; m N > M A D m : Y $.lXjXGXFXCXAXAXmXbXnXbXMXmXMXmXmXMXMXbXbXbXcXbXbXbXxXnXnXxXnXxXzXnXnXxXhX:X:X:X:X:X`.:X:X`.`.:XdX:X-X-XdX-X[ / ",
"5 5 5 5 5 5 5 y 5 5 5 5 6 6 6 y 6 6 6 6 6 %.%.%.%.%.6 %.%.%.%.%.=.=.=.=.%.=.=.=.=.,.=.;.;.,.;.}.;.=.,.=.-.;.=.;.;.-.;.;.;.;.}.;.;.;.}.;.;.F.F.F.c.c.;.;.c.c.F.;.2.;.;.2.;.2.2.c.2.2.F.2.F.F.2.2.;.;.2.;.t.t.t.2.;.*.*.*.&.8 8 8 e 3 3 9 3 1 9 r ) x l s.#X@X#X@XoX&X&X&X&XoXoXB.XXm.&X&XB.B.V.V.M.K.@X@X*X*X#.h : & & m m S L L L 7X8X5X8XiXiXiX5X8X8X8X8X5X5X5X5X5X5X5X5X5X7XB 7X5X7XB 7XG 0X0XB B V Z C C C U / ) W.v x s.x z g : * > P ' ] Q.Q.s.s.s.!.~.~.~.Q.Q.!.W.Q.Q.Q.W.W.] ] ] Q.!.] ] ] Q.} W.*X:XbXbXbXbXmXmXmXmXHXSXmXmXmXSXmXNXHXAXMXmXmXCXCXJXAXHXAXmXmXNXSXSXmXmXSXAXmXmXMXmXmXNXCXHXBX:X_.{ ^ ~ Q I I Y ~ [ +.+.^ Q I : - = - d [ $.).sXqXsXhXhXgXcXvXcXVXAXSXAXAXSXSXSXSXNXNXmXSXSXSXHXSXSXmXmXMXnXsXh $ $ @ - f g / / z z ] v r.W.r.x ] e.W.W.W.W.W.r.x ] x x x v x z h s h h h z h g j - - - i - - - - - u - - - & @ - - - - - : d u : : u : - : I Y I I I Q I D d I Y Y Y D ; ; ; F N & m D D M ; D O.sXkXZXCXCXAXAXmXnXnXbXNXmXmXmXNXMXbXnXbXMXbXbXbXnXnXnXxXnXnXxXxXxXxXnX2XxXzX>X2X:X>XzX>X;X].fXgX>XdXdXsX_.{ / ",
"y e 5 5 5 y 5 y 5 y 5 6 6 6 5 6 6 y 6 6 6 %.6 %.%.%.6 6 =.%.%.%.=.=.=.=.%.&.=.=.=.=.=.;.;.;.,.;.;.=.;.=.=.-.,.,.}.,.,.}.;.,.;.}.;.;.;.;.;.F.}.F.F.}.;.;.}.F.c.;.;.2.2.;.2.2.2.2.2.F.2.;.F.;.}.t.;.}.}.;.;.t.>.-.*.*.:.6 8 8 8 8 e 9 9 e e w k ) ^.(.!.@X@X@XXX&X&XoX&X&X&XoX&XB.M.B.Z.&XZ.B.N.C.M.x.x.#X+X_.[ d ; & m m m S L L 7XL 8X5XiXiXiXiXiX5X8X8X8X8X8X5X5X5X5X5X5X5X7XB 7X7X5X5X7X7X9X6XB B B Z R U U / ] W.s.r.s.r.x l z d - - P / } Q.Q.s.s.7.s.!.~.Q.Q.Q.Q.!.!.Q.Q.Q.Q.] ] ] ] v ] ~.W.Q.] ~.:XxXCXAXmXmXMXmXNXSXNXNXmXNXSXAXmXHXHXSXAXCXCXAXBXvXCXAXCXAXHXHXSXSXmXmXSXAXAXmXmXNXNXNXmXHXbXgX-X{ / _ ^ I D u I ~ _ ^ Q D : : : D ` #.|.sXsXsXdXdXhXhXgXcXbXcXCXSXAXAXSXSXSXSXSXNXmXmXSXSXSXSXSXSXmXmXmXnX:X/ j $ $ w P _ / ' / ' v v x s.] W.s.] x W.] W.W.s.] v v x v x x z h s s h h h ' T h j - $ $ - - - - - - $ - ; * * * - - - - : d d : : u : - : u I d P P Y Y I I P Y Y P D D ; ; D & & m M D ; ; M I $.lXZXCXvXAXAXAXMXbXSXNXmXmXmXmXbXbXbXMXMXMXvXnXbXnXvXxXnXnXnXxXnXcXnXnXnXxXnXxXzXxXxXzXxXxXgXcXfXfXgXgXsX#.( ",
"3 y e 5 5 5 5 y e 6 y 6 6 6 6 6 6 6 6 6 6 %.6 %.%.%.%.%.=.:.%.%.=.=.=.:.%.%.=.,.=.=.=.=.,.,.,.;.=.;.,.=.=.=.;.,.;.;.=.;.;.;.=.;.;.=.;.}.F.F.}.}.F.F.F.c.;.;.}.;.}.2.F.c.2.2.t.F.;.;.2.;.;.;.;.;.;.;.;.>.-.>.-.:.&.:.6 r 5 r r k e 9 9 e / { ] ^.,X=X@X@X@XM.oX&X&X&XoX&X&X&XoXM.B.B.m.N.A.N.V.V.@Xh.h.h.s.v Y i & & m m m S L L 5X5X8X8X5X8XiXiX5X8X8X8X8X8X8X5X5X5X5X5X5X5X7XB 7X5X5X5X5X5X6X7XB B N M W U U / x s.r.s.q.s.l l c g w = w / W.Q.s.s.s.s.z.!.Q.Q.Q.Q.Q.Q.Q.Q.Q.Q.Q.s.] ] W.] ] } ~.] ~.`.xXCXHXJXSXHXNXmXNXNXNXmXmXSXSXAXJXMXMXCXbXvXVXHXHXVXCXCXVXVXCXSXmXmXmXmXAXAXMXMXmXNXNXNXNXmXAXMXfX_.( @.+.~ : - - D Y ~ ~ R R Y ` +.|.sXsXsXsXlXkXhXgXgXcXvXBXVXAXAXAXSXSXSXSXSXSXSXNXNXNXHXHXSXSXNXmXmXMXcX>XW.j $ - : d / { ' ' ' v z c x v ] W.v x x x v W.W.] x v v v v z z z h h s h h ' ' T j j u - - $ u - - - - - u - * - ; > - - : : j d d u : - : : P d d P P U I I P P Y I u D ; ; ; & & m D m & & ; : Y sXjXVXBXVXHXAXSXHXHXSXmXmXNXbXbXbXbXMXMXbXnXbXbXbXbXxXxXnXxXnXnXcXxXxXnXxXxXxXnXxXnXnXnXbXcXcXhXgXBXvXhX-Xo.",
"3 3 e y y 5 5 5 e 6 y 5 6 6 6 6 6 6 6 6 6 6 6 6 %.%.:.%.>.:.=.%.=.=.=.%.%.=.=.>.=.=.=.=.=.=.>.>.=.,.,.=.=.=.>.;.;.;.=.=.;.=.;.=.,.}.>.F.F.F.F.}.c.c.c.c.c.c.c.}.c.c.c.F.t.2.2.t.t.2.2.2.2.;.;.t.;.;.-.-.=.:.:.:.:.5 5 3 3 e q g U 9 0 g ] ^.!.*X,X@X@X@XoXoX&XoXoX&X&XoX&X&Xm.M.M.B.B.B.V.V.V.C.L.#X#Xs.v d & & & & m m m L L L L 8X8X8X8XiXiX8X8X8X8XiX8X5X8X5X5X5X5X5X5X5X5XB 7X7X7X5X7X7X7XG B B N M R U g z x x s.p.q.p.w.l c z f - w T ] W.s.s.h.s.s.z.!.Q.W.W.W.W.!.Q.Q.Q.Q.Q.~.Q.~.Q.] ] ] } =XhXvXCXAXmXMXmXSXNXNXNXmXmXAXAXAXAXAXbXbXcXhXhXxXBXFXGXvXcXcXcXbXAXMXMXMXMXmXAXmXmXmXmXNXNXNXSXSXCXcXfX`.@.+._ d - = > P  .$.$.$.$.$.|.sXsXsXsXhXlXkXgXgXgXcXbXVXVXmXSXSXSXSXSXSXSXSXSXSXSXSXSXHXSXSXSXSXNXNXbX2X~.j @ - : f ' [ ' ' ' ] v v z v v v v ) v ] ] v ] ] l x x v v z z h h s s s h h z h h j u - u - - - - - - u u - - - u : - - : u : : ; : : : : : : P d P I P I I P Y P D : ; ; ; ; N A D F D m ; ; ; F +.kXFXCXCXAXAXAXHXSXNXmXMXNXbXbXbXbXbXbXbXbXbXbXbXnXxXnXxXnXcXcXnXnXxXnXcXcXnXnXnXxXcXcXbXcXcXgXcXcXBXgX-X[ ",
"3 3 5 5 5 5 5 y 5 5 y 6 6 6 6 6 5 6 6 6 6 6 6 6 %.:.:.:.R.:.=.&.%.%.%.%.=.=.=.,.=.=.=.>.>.=.=.=.=.,.,.,.>.>.>.>.=.-.;.;.;.;.;.;.}.}.F.F.F.F.F.F.c.c.c.c.c.c.c.c.c.c.c.c.;.;.;.F.t.t.t.2.2.;.;.2.>.>.-.=.:.:.r.Y.g e 9 9 0 w f P 9 # $ k W.^.*X@XK.XXoXoXoX&X&XoX&X&XoXB.&XoXM.M.M.B.B.B.V.V.M.L.@X#X=Xs.z - & & i A m m m S L L L 8X8X8X5XiXiX8X8X5X5X8XiXiX8X5X5X5X5X5X5X5X5XB B 7X5X5X5XG H H B B Z E I U z x r.s.s.p.p.p.q.l x x g w f h ) v s.a.h.s.s.!.!.Q.W.W.W.!.Q.Q.Q.Q.] Q.} } ~.Q.' z ] -XhXAXHXHXmXmXmXSXHXmXmXHXHXAXHXHXJXJXAXBXvXcXdX_.-XhXhXhXfXfXdXhXvXVXVXbXbXAXMXNXMXmXNXNXNXNXNXHXmXAXcXgXdX_._.{ T : - : U $.qXsXsXsXsXsXsXsXlXkXkXkXgXgXcXvXBXVXVXAXSXSXSXSXSXSXSXSXSXSXSXSXSXSXSXSXSXHXSXSXmXbXfX@.j $ = - d _ ' ' ' ' } b v v x x x v ] ] ' v v v v v v v x z k s h h h s j h h h h h h j d d u u u u - - $ - - - - j d u : u u : : - : P P u : I U P I I I I P P U D D ; ; ; ; N ; ; ; m M N N ; > ; E -XZXVXCXbXbXMXmXmXmXmXmXMXMXbXbXbXbXbXMXMXbXnXxXnXnXxXnXnXcXcXnXcXxXnXcXcXcXnXxXnXnXcXcXcXcXcXcXBXBXdX_.[ ",
"3 3 y 5 5 5 5 5 5 5 5 5 5 6 6 6 y 6 6 6 6 6 6 6 %.%.%.%.:.:.&.%.%.%.%.:.>.>.,.>.>.=.=.=.=.=.=.=.>.,.>.>.>.>.>.-.-.-.;.;.;.;.;.;.;.F.F.F.F.2.;.F.2.c.F.F.F.F.c.c.F.c.;.t.-.-.;.2.2.t.t.;.>.;.-.t.i.>.:.:.:.r.:.r e 9 0 w w w j 0 # + < 8 s.s..XoXXXoXoX&X&X&X&XB.&X&X&X&XoX&XoXM.M.B.B.V.&XV.L.x.@X#Xa.b j ; & i A A A m m L L L L 8X8X8XiXiXiXiX8X8X8XiXiXiX8X5X5X5X5X5X5X5X5XB 7X5X5X5X5X5XG G H | | R W / x x r.s.p.p.p.6.q.q.x v z g g z ] W.!.x.z.z.s.s.!.!.W.Q.Q.Q.Q.] ] ] ] } ] ] ] ] ] ] -XdXbXSXHXSXmXMXSXSXSXMXHXHXAXAXHXAXVXcXfXjXvXgX-X#.#.-XsX-X{ #.#.-XjXBXVXCXAXAXMXMXMXNXNXNXNXNXNXNXSXmXbXzX;XdXdX).( C w w ( +.qXsXsXlXsXsXhXhXgXkXkXkXgXBXvXBXCXCXDXAXHXHXSXSXSXSXSXSXHXHXHXHXSXSXSXSXSXHXHXSXmXnXvX`.s $ # - f _ [ z z z ' ' v v v v z x ] ] v v z z z v v v z z j s h b h h h h h h h j j g h u u j j u u - - u - - - u u u d f u u : : : d P I u : I I I I I I P P Q Q D : ; ; M M ; & & ; ; ; N m > ; u +.hXBXFXbXVXAXMXbXMXmXMXMXbXbXbXbXVXbXbXbXbXbXnXnXxXxXxXnXcXcXcXcXcXxXcXcXxXnXnXcXcXcXzXzXgXgXgXgXgXdX_.~ ",
"3 3 3 y 5 y 5 5 y 5 5 5 y 6 6 6 6 6 6 6 6 %.%.:.%.%.%.%.%.%.&.%.%.%.=.=.%.%.%.%.=.=.=.=.=.>.=.=.-.>.}.>.>.;.=.=.-.;.;.}.;.;.}.}.;.}.;.F.t.t.t.t.t.t.t.F.t.t.t.t.;.t.;.;.t.;.2.2.t.t.-.-.*.*.:.:.>.:.t t t t e w g / [ ( T d j $ 1 4 p n s.OXXXXXoXoXoXoXoX&X&XoXoX&X&XoX&XM.%XM.M.M.V.V.N.V.L.L.z.a.v h $ i i A A A A A S L L L 5X8X8X5X8XiXiXiX8X8X5X8X8XiXiX8X5X5X5X5X5X5X5X5X7X5X5X5X5XB G G H H F U W / ) x x r.p.p.<.w.<.w.s.v z j g T / W.!.(.z.z.s.+X!.Q.Q.Q.Q.Q.Q.W.W.W.} ~.~.} ] Q.~.:XhXvXCXMXmXmXSXSXSXSXAXAXAXAXAXCXGXVXdX~.) -X-X_.[ T ^ +.+.( U U ( _.fXvXVXCXCXCXNXMXNXMXMXNXNXNXNXmXNXmXMXxXxXbXbXgX`.{ ( / @.).tXsXhXkXkXkXgXhXgXjXBXBXVXVXVXVXCXAXHXSXHXHXSXSXSXSXSXHXHXHXHXSXNXSXSXSXSXHXSXSXmXMXnX-Xj $ @ - u ` ' ' z z z v v v ] x z x ] ] ] b z z z g z v v v h s s s h h h h h h h j j d j u u - u - $ - - $ - - - - - u u u u - : : : u d P P P I I I I P Y Y P I ! D i ; ; A m & & & & ; ; ; ; > V : Y _.jXFXCXCXAXMXmXSXmXbXbXbXbXVXVXCXAXbXbXbXbXxXxXnXcXcXcXcXcXcXvXcXcXcXcXcXcXcXcXcXcXgXfXfXhXgXgXhX-X@.T ",
"9 y 5 y 5 5 5 5 5 5 5 5 5 6 6 6 6 6 6 %.%.%.:.:.%.%.%.%.%.%.%.%.%.=.=.=.=.%.%.%.=.=.=.=.=.=.=.=.;.>.;.;.,.=.=.;.-.;.;.;.;.;.t.F.t.t.t.t.t.t.F.F.F.t.t.t.F.>.t.t.c.;.;.>.t.F.t.2.5.;.-.*.=.t t :.t t t r q 0 g [ _.sXdXsX+.Y u $ p a q.s.OX@XXXXXXXoXoXoX&X&X&X&XB.oXB.oX&X&X&XB.M.M.&XV.C.L.x.x.a.s.z d @ i A m m m A S L L S L 5X8X5X8XiXiXiXiXiX8X8X5XiXiXiX5X5X5X5X5X5X6X6X5X5X5X5X5X7XB G G G F C E U / ) x q.q.p.w.<.<.6.p.v b h j f / / W.!.!.x.s.OXs.W.Q.Q.Q.!.Q.!.} Q.Q.} ~.~.~.W.!.:XxXbXbXAXmXmXNXmXSXSXHXJXHXAXHXHXHXFXFXdX' 0 f g f - - : D u u > > f ( -XdXcXBXVXbXMXMXNXNXNXNXNXNXNXmXNXmXMXbXAXHXHXVXhX-X^.{ ).sXsXsXdXgXgXjXBXBXgXvXBXVXJXVXCXAXAXAXHXHXHXHXSXSXSXSXSXHXHXHXSXHXAXSXSXSXSXSXSXSXmXbXbX-Xs $ @ * - T ' ' z z z v b z v v z x ] ' z z z z z p h b x z z h s h h h h h h h h j f j j u - - - - $ - u u j u - - - u u : : : : : - ; : d f d I I I I Y Y Y d D Y D N m ; A A N ; ; D ; ; ; ; > % * : T dXBXVXCXCXAXSXAXbXbXbXbXVXVXCXCXCXVXnXnXnXnXnXcXcXcXcXcXcXcXcXcXcXcXcXcXcXcXcXcXgXhXfXdXhXhXgXdX-X@.^ ",
"3 e 5 5 r y y 5 5 5 y 5 5 5 6 6 6 6 6 6 6 %.:.:.:.%.%.%.%.%.&.=.=.:.=.=.%.%.%.=.=.=.>.=.=.=.=.>.=.=.>.=.,.,.=.;.-.;.F.>.t.t.t.t.t.t.t.t.t.t.F.F.F.t.t.;.t.t.t.t.t.t.;.>.t.t.5.*.-.*.*.*.6 t r e q r U q g U } lXjXLXUXkX-XT u $ b n OXOX@XoXXXXXXX&X&X&X&X&XoX&X&X&XoX&XoXB.oXM.M.M.V.V.M.M.x.h.a.l f : ; & & m m m A L L L L 8X8X8X8X8XiXiXiXiXiX8XiX8XiX8XiX8X5X5X5X5X5X6X6X5X5X5X5X5X5X7XG G H H R W U / ) r.q.q.q.<.<.<.w.s.s.b h j d T / ) W./.z.h.s.s.s.Q.Q.Q.!.Q.Q.Q.] } } } Q.Q.^.-XdXvXCXAXmXmXSXNXSXSXSXAXDXDXAXCXCXBXFXjXsXT # O @ * O * % > ; > * * - C +.`.fXcXvXbXMXNXNXNXNXNXNXNXNXNXNXmXAXSXAXAXMXbXcX;X`.).-XdXdXhXdXfXfXgXvXVXJXVXVXVXCXAXAXAXAXAXSXHXSXSXSXSXSXSXSXHXSXHXHXSXSXSXHXSXSXSXSXHXmXbXBX:Xh @ @ @ - f _ ' ' ' b h h z z z z z v / ' z z z h h h h h h h h h h h j h h h h h h h f j u u u u - u u u j f d u - - u : - - : : : : - : d d d I I I I Y U Y D D N A D M N F F F i N A D ; ; ; % % * * w _.gXVXCXCXCXAXAXbXbXbXbXbXCXCXCXCXVXnXxXnXnXcXcXcXcXcXcXcXcXcXcXcXcXcXcXcXcXvXcXcXhXhXhXgXhXdXdXsX_.[ ",
"3 y 5 r r 5 5 5 5 5 5 5 5 5 6 6 6 6 6 5 6 6 :.:.%.6 %.%.%.%.=.=.=.=.=.&.%.%.=.=.=.=.=.=.=.=.=.=.=.=.=.,.,.,.=.;.-.;.t.t.F.t.t.t.t.t.t.2.t.F.F.>.t.t.2.2.t.t.t.t.t.;.t.;.t.-.=.&.%.&.&.7 5 r e e e T W ^ +._.lXGXKXKXKXZXsX+.h s b 7.OX@XXXXXXXXXXXXXB.oXoXB.&XoXoX&X&X&XM.M.M.M.M.M.M.M.M.M.x.j.s.h u - i & A A A m A S L L L 8X8X8X8XiXiXiXiXiXiXiXiXiXiXiX5X8X8X6X5X5X0X5X5X5X7X7X7X5X5X6XG G H H W W U / ] x q.q.q.<.<.<.1.w.s.v b h g U T / ) W.s.s.s.s.s.^.Q.Q.!.~.Q.} } ] ] } ] Q.-X>XvXvXVXAXAXmXNXSXHXSXCXMXAXVXBXcXfXdXsX`.[ w O X   O * - * > > > % % % > P { `.gXcXvXMXMXNXNXNXNXNXmXmXSXmXSXmXSXAXmXMXbXcXfX;XfXfXgXcXgXjXgX>XgXbXMXJXAXVXCXCXAXJXJXDXSXSXSXSXSXSXSXSXSXSXSXHXHXHXSXSXHXHXSXSXSXSXNXMXbXbX:X/ # @ @ - d T _ ' ' h h h h z z z z z z z z z h h z h h h h h h h j h s s h h h h h g g d f f f u - - u j u j d u : d d : - : : w : : : d I u d P I P P I Y T Y D m N N N D F A A F m D D m > > % % , > - { hXFXHXCXAXMXMXMXMXbXbXbXCXCXVXCXbXnXnXnXcXcXcXcXcXcXcXcXcXhXhXhXgXcXcXcXgXvXcXgXhXgXgXhX>XdXsXsX`.$.",
"9 y r r 5 5 5 5 5 6 5 5 y 5 6 6 6 6 6 6 6 6 %.%.%.6 %.%.%.%.%.%.%.%.%.=.&.%.%.&.=.=.=.=.>.=.=.=.=.,.,.,.=.=.-.;.-.2.t.t.F.F.c.F.F.t.t.t.t.>.t.F.t.2.>.;.c.t.t.t.t.t.t.>.>.:.%.7 7 8 5 3 5 e e w U { @._.sXZXKXIXPXPXKXLXhX-X|.} n 7..X.X.XXXXXXXXXM.oX&X&XoX&XoXoXoXoX&X9.9.9.M.M.M.M.M.x.x.x.a.x j - * F A A A S S S L L L L 8X5X8X8XiXiXiXiXiX5XiXiXiXiXiX8X8XL 6X6X6X6X6X6X5XG L 7X5X7XG G G H | E W U ) s.q.q.q.p.p.<.<.1.1.q.v v z T T h h ) ] s.W.s.s.z.!.!.Q.Q.!.] } } ] ] } ] ~.-XvXCXCXbXJXSXmXNXSXHXmXCXbXVXgXdXdX_./ P w = O o     * * > ; > > & N % % . > U #.dXgXnXnXnXMXMXNXNXNXNXNXmXmXmXmXmXmXmXSXHXMXbXvXzXfXxXcXnXBXbXcXvXbXAXSXmXmXmXAXSXmXJXNXSXSXSXSXSXSXSXSXSXSXSXSXSXHXSXNXHXHXSXNXNXNXmXMXbXbXdX) - @ @ ; d T ' ' z h h h h h / z z z z z z z b h z h h h h h h h j h h s s h h h h h f d d d f - - - u f u - - u u f d d j : d f P : f P P d d P P P f I Y Y I u ; ; M N m A A A A & i N m ; N % % > > P @.gXFXHXAXAXCXbXMXMXbXbXbXVXVXCXbXbXnXcXcXcXcXcXBXBXcXcXcXhXdXfXhXgXcXcXhXhXhXhXgXhXhXhXhXdXdXsXsX).#.",
"y 5 5 5 5 5 5 5 y y 6 6 6 6 6 y 6 6 6 %.%.%.%.%.%.%.%.%.%.%.%.%.%.%.%.%.=.=.:.%.%.%.%.%.%.%.%.%.,.,.,.=.*.*.-.-.t.t.t.t.2.2.2.2.>.t.t.t.t.t.F.t.t.t.>.F.;.;.;.t.>.>.>.:.6 6 7 t r r 3 2 9 e U { |.-XsXGXFXPXIXPXPXKXKXPXKXGX:X|.6..X@X#XXXXX9.XXXXoX&XoX&X&X&XB.&X&X&XoXoX&XM.M.M.M.M.0.x.z.s.b j - & & A A A A m L L L L L 5X8X8X8XiXiXiXiXiXiXiXiXiXiX8XiXiXiX8XJ ..G 6X6X6XG 5X5X5X5X6X6XG G | E I U g c x r.q.q.q.q.p.<.1.q.q.l x z T T T U T / ^.Q.s.s.s.s.!.!.!.] ] ] ] ] ] ] } *XfXJXJXHXHXSXHXHXNXNXmXbXCXvXzXdX-X-X#.U * . . . O . O @ * * ; M ; % * * . . * - f #.hXBXcXnXbXVXbXNXNXNXNXNXNXNXNXNXMXMXmXmXMXmXMXnXnXnXxXcXvXbXbXbXMXNXSXHXHXSXJXSXJXNXNXmXJXJXSXNXNXJXNXSXSXSXSXSXHXSXNXSXSXSXSXHXNXMXbXbXVXxXQ.0 @ @ : d _ / h h h ' h h h h h h h h h h h b h h h h h h h h j j h h h h h h h h h h u u u u : : u f d u - - - u d j f d - d g Y d d d f d u d f P P Y Y d u : ; ; A D D & & A m D m ; & & > > > > f @.dXBXCXCXCXCXbXbXmXbXbXbXbXbXbXbXbXbXvXvXvXvXBXBXBXgXhXhXdXdXsXsXsXfXgXgXhXgXhXgXgXgXgXfXlXeXeX`.tX).).",
"5 5 5 5 5 y 5 5 e y 5 y y 6 6 6 6 6 6 %.%.%.%.%.%.%.%.%.%.%.%.%.%.%.%.%.&.:.:.%.%.%.%.6 %.%.%.%.,.=.=.>.;.t.t.t.t.t.t.2.2.2.2.2.F.;.2.t.t.t.>.F.t.t.>.;.-.-.;.;.:.:.:.:.6 y 3 e e e e e U ( _.-XsXhXBXFXPXPXPXPXIXPXPXPXKXGX*Xb s..X@XXXXXXXXXXXXXoXoX&X&XoX&XoXoXoX&XB.&XoXM.M.M.9.9.9.h.q.l s - & & & A A A S L L L L L L 5X8X8X8XiXiXiXiXiXiXiXiX8X8X8XiXiXuX8XqX0XG G 0X6X5X5X5X5X5X5X7XG G | | W U g c l q.q.q.1.1.q.1.1.1.q.q.r.z / T ~ W W ^ { W.^.^.s.+X!.!.Q.!.Q.] ] Q.Q.] ~.-XvXHXHXHXHXSXSXSXNXmXJXAXCXcXhXsX[ +.#.~ u * @ . @ * * * > : : : u ; > - > * * * * I _.gXvXbXbXbXbXMXmXmXNXNXNXNXNXNXNXNXNXNXmXmXmXMXnXnXnXbXbXbXMXMXmXSXHXHXHXSXSXJXNXJXmXNXJXJXNXJXSXSXSXSXSXSXSXSXSXSXSXSXSXSXSXSXSXMXbXbXVXgX@.- @ @ - d T [ / h T ' h h h h h h h h h h h h h h h h h h j j j j j h h h h h h h u h u f u : : u u u u d f d u u u u d d - u f g f f f d d h f f U P I I d u : u D D F A N ; F m A D ; ; & * % > > ( -XgXbXGXVXVXCXbXbXbXbXbXbXbXbXbXbXbXvXvXvXvXgXgXhXdX_.( ^ @.@.@.@.).`.-XfX-XsXsXdXfXfXfXfXyXtX'.).`.).).",
"3 5 5 y 5 5 5 5 5 5 5 y 6 6 6 6 6 6 6 6 %.%.%.6 6 6 6 %.%.%.%.%.%.%.%.%.=.=.:.%.%.%.%.6 %.%.%.%.=.:.>.}.>.F.t.t.t.t.F.t.t.2.2.c.t.2.2.t.t.t.t.F.t.F.}.>.-.-.-.=.=.%.%.6 t 5 3 3 9 q / { _.-XdXkXGXLXKXKXPXPXPXPXPXPXPXIXPXBX-Xb OX.X.XXXXXXXXXXX&XoX&X&X&X&X&X&X&X&XoXB.oXB.M.M.M.M.h.h.s.a 4 $ & & & A A A S L L L L L L 5X8X5X8X8XiXiXiXiXiXiXiXiXiX8XuXiXiX8X8XqXO.G G G 6X0X6X6X6X5X6XG G G | W W g c l l q.q.1.1.q.q.<.q.q.q.q.s.x / T P U ~ ( ( ) W.W.a.s.s.W.Q.] ] ] ] } } ] ~.>XbXHXHXmXSXSXSXNXNXNXHXAXVXzXdX#.P u I : ; * @ O * * * * - : M M D I / o.^ P > * @ * P -XgXnXVXbXbXbXbXmXNXNXNXNXNXNXNXNXNXmXmXmXMXbXMXMXMXMXbXbXMXMXNXAXHXHXSXHXHXSXJXNXMXmXmXmXJXNXSXHXHXSXSXSXSXSXSXSXSXSXSXSXSXSXSXNXMXbXVXzX).w @ @ * u [ @.[ ' T ' ' ' h h h h h h h h h h h h ` h h j h j h h h j h j h j h u f f f d u u : : u : u - d d j u - - - d d j f f f d f d f d f T Y P d u u u : F D D A D D & D F A D ; & % % * : Q _.gXBXFXJXCXVXCXCXbXMXbXbXbXbXbXbXCXbXvXvXvXgXgXgX-X#.g = O w T W ( ) ) ).`.).-X-XsXsXsXsXeXtXeX'.).).`.).",
"3 5 5 5 5 5 5 5 5 y 6 y y 6 6 6 6 6 6 6 6 6 %.6 6 6 %.%.%.%.%.%.%.%.%.=.:.:.:.%.%.%.%.%.%.&.&.>.>.>.t.>.t.t.t.t.2.2.t.t.t.t.4.4.t.2.2.2.t.t.>.;.>.;.;.>.>.-.=.&.%.%.6 t 5 3 e q U ) _.dXhXgXjXGXFXKXKXPXPXIXPXIXPXIXPXIXIXGX-X+XOX.X.X.XXXXXXXXXoXoXoXoXoXB.oX&X&X&X&X&X&XoXM.9.K.@Xh.s.s.k $ * & A A A A A L L L L L S 8X8X8X8X8XiXiXiXiXiXiXiXiXiXiXiXiXiXiX8XJ 6X..H ....G G 6XG 6X6X6XG G | | W T z x l q.p.p.q.q.q.q.6.q.q.q.q.W.] / ( Y I Y ^ ( ) x e.a.s.s.W.W.W.] ] ] ] } } Q.:XnXCXHXmXNXSXSXNXNXNXSXbXcX-X`.#.f > @ @ = ; - * * * * * > M I Q ~ +.pXsXsX$.Q u > % * T :XfXcXbXbXbXMXNXNXNXNXNXNXNXNXnXmXNXmXMXMXbXmXmXmXAXMXAXAXmXAXAXSXHXHXSXHXJXNXNXmXmXmXmXmXNXSXHXHXSXSXSXSXSXSXSXSXHXSXSXSXNXSXNXMXbXCXcX_.w @ @ * u [ -X|.[ _ ' ' ' ' ' h h h ` T ' T h h h h h h h h h h h h h h h h h h h f u d u u u : : : - - - u d d j u - u f d f d f d f d f d d f Y U P P u u u u I h F I D D D D D D ; & % % > > W $.dXBXZXVXVXVXVXCXCXbXMXbXbXbXbXVXVXVXCXvXgXcXgXfX-X_.h = O O e U U U C ( Y.).).`.).`.`.tX`.tX[.9X[.).).tXeX",
"3 5 5 5 5 5 5 5 5 5 y y 6 6 6 %.6 6 6 y 6 6 6 y 6 %.%.%.%.%.%.%.%.%.&.:.:.:.:.&.&.,.,.%.%.:.;.t.>.t.t.t.t.F.F.t.2.2.2.t.t.t.t.t.t.c.2.2.-.>.-.:.>.>.>.t.:.>.&.%.7 5 t r e r / { _.sXhXjXjXZXGXLXKXKXPXPXIXPXPXPXPXPXPXPXKXGX>X*X+X.X.XoX$XXXoXXXM.XXXXoXB.%XoX&X&XoX&XoX&XoX9.@X#Xh.s.b b 0 @ * m A A A m S S L L L L 7X5X8X8X5X8XiXiXiXiXiXiXiXiXiXiXiXiXiXiX8XJ H G ..O...H H G H G 0X9X0X..| W ( ) ] v q.p.p.p.p.1.q.q.p.w.q.q.s.s.] ( ( ~ I w ~ ( / z W.^.!.W.Q.Q.^.W.} } ] ] } Q.`.>XbXHXMXNXmXNXSXSXMXMXCXcX-X@._ P * . O > : ; & * * * : : I | O.$.sXsXlXkXlXpX( : , % - ( `.>XcXbXbXbXNXNX3XNXNXNXNXNXNXNXNXmXmXMXMXmXmXNXSXSXSXAXAXAXAXHXSXHXSXSXHXSXSXJXmXmXmXSXSXSXSXHXSXSXSXSXSXSXSXSXHXSXSXNXNXNXmXMXbXAXcX`.g # * - : _ _.-X#.[ } ] _ ' ' h h ` h ' T Y h h h h h h h h h h h h h h h h h h u u h d u u u u u u - - - : u f d u u d d Y d d f f f f d f d f Y f d f d u d f Y Y Y D D D Y I D D ; % . * > I @.sXjXVXVXVXVXVXCXAXMXbXbXbXbXbXbXCXVXVXVXBXcXgXfX`._.W e 1 # w U W ) U / ) W ) { @.).).).).).[.[.eX'.eXtXeXeX",
"5 5 5 5 5 5 5 5 5 5 5 5 y 6 6 %.%.6 6 6 6 6 6 6 6 %.%.%.%.:.:.%.%.%.&.:.:.:.%.,.,.,.&.%.=.>.>.i.i.t.t.t.F.>.>.t.2.2.2.t.t.t.t.t.t.2.2.2.-.-.-.r.i.t.>.:.%.:.%.7 5 5 r r h +.`.lXjXZXZXLXLXKXKXKXKXPXPXPXPXPXPXPXPXPXKXKXFXvXdX*XOX.XXX$X$X$XoXXXoXXXoXoXoXB.&X&XoXB.oX&X&XoXoX@Xh.7.l p - * % & m A A A S L L L L L L 8X8X8X8X8X8XiXiXiXiXiXiXiXiXiXiXiXiXiXiXL J K G ....X...H G G G G ..0XX.W ( [ ) s.a.p.p.p.p.w.<.q.q.q.<.1.l r.x ) ) ( T M > C W / ) r.!.^.Q.Q.~.~.~.~.Q.Q.} ~.W.Q.:XnXAXSXNXSXSXNXSXMXbXCXBX-X) w - . % % * - = @ * ; : : I Q +.qXsXsXsXsXlXkXkX$.I = * * w / `.fXcXbXbXNXmXNXNXNXNXNXNXNXmXNXNXmXmXmXmXmXNXSXHXHXSXHXAXAXSXHXHXSXSXSXSXSXJXNXmXmXHXSXHXHXSXSXSXSXSXSXSXSXSXHXHXSXSXSXSXMXMXbXAXVX-Xg # O & - ~ #.-X-X_.} } } [ _ ' h h ` h ` T h h Y h h h j h h h j h h h h h h h h h u j u u u u u u u - u : u u u u j d u T h d f f u d d d f f d f f f f f Y Y Y Y Y I D F Y Y Y u * @ % ; P [ sXjXBXVXVXVXVXCXAXAXAXMXMXbXbXbXbXVXVXCXbXBXcXgXeX)./ C C w C o.) ) [.o.[.) [.o.{ [.).).tX`.'.[.[.'.eXeXeXeXeX",
"5 5 5 5 5 5 5 5 5 5 5 5 6 6 6 6 6 6 6 6 6 6 6 6 6 6 %.%.%.:.:.%.%.%.&.:.:.%.,.y 6 =.=.:.>.i.i.i.t.t.t.t.>.F.t.F.2.2.t.t.t.t.>.t.2.2.-.-.*.:.r.i.i.i.:.6 6 t 6 6 t c / { -XsXkXGXLXKXKXKXKXKXPXPXPXPXPXPXPXPXPXPXPXPXKXFXGXjX>X*XOXXX$X%X%X%X&XoXXX&X&XoXoXoX&X&X&XXXM.oXoX@X#Xs.n p $ $ % & & m m A A S L L L L L L S L 8X8X8X8X8X8XiXiXiXiXiXiXiXiXiXiXuXuXuX8XJ F ....X.| | X.....G G H |  .o.@.Y.W.a.w.p.<.<.<.<.<.q.1.1.1.a c x x x / / W C > M W ^ ) ] Q.Q.W.Q.Q.Q.~.~.~.~.!.~.} ] *XxXAXHXNXSXSXmXSXmXHXHXVX-Xg @ X X * - ; * % X . ; M D U ~ O.pXpXsXsXsXsXlXkXsX .I ; * @ w / ~.-XcXbXMXmXNXNXNXNXNXNXNXmXmXmXmXAXSXmXMXmXHXHXSXHXHXHXHXHXSXJXSXSXHXHXHXHXHXHXSXHXHXHXSXHXSXSXSXSXSXHXSXSXHXHXSXSXSXSXmXmXCXHXVX-XT * * - : ~ #.sX-X-X$.|.#.#.} ' ' ` h h h Y h h ` h h h h h i h h h h h h h h h h ` Y u u u u u u j u u d u - - $ - - u u T f d d f f f f d f j f d d d U Y Y Y Y ` T Y Y Y Y h Y * % * - I [ -XkXZXFXVXVXVXVXAXAXbXMXmXmXbXbXbXCXCXVXvXbXVXvXfX`.{ U w C o.[.[.[.[.[.[.`.'.[.[.'.[.eX).`.eXeXeXeXeXeXeXeXeXeX",
"5 5 y y 5 5 y 5 5 y 5 6 6 6 6 6 6 6 6 6 6 y 6 6 6 %.%.%.%.%.%.%.%.%.&.=.=.,.,.,.,.*.-.>.>.t.i.i.t.t.t.t.F.>.F.>.2.2.t.t.t.t.c.2.2.-.-.*.*.:.r.r.:.%.%.7 6 r r ) [.).-XsXkXjXLXLXLXLXPXPXKXKXKXKXPXPXPXPXKXKXKXPXPXKXFXGXjXhX,X*X.XoX%X%X4X4X%X$XoX%X%XB.&XoXoXoXXXXXXX@X@X@Xs.a p 4 @ * & & m A A A A L S L L L L L L L L L S L 8X8XiXiXiXiXiXiXiXiXiXiXuXuXuX8XK K ` O.~ ! R Q | | H H | C W ( { ^.^.p.w.<.<.<.<.<.<.q.<.1.1.1.x x x z / ( ( W M M W ( ) W.Q.!.W.W.W.Q.~.~.~.~.] ~.!.W.^.>XbXAXmXSXSXHXSXAXPXHXfX/ = . . @ u u - * @ . - : D I Q ^ $.$.pXpXsXlXsXsXlXlXqX .: * * = : U { -XfXnXMXNXNXNXNXNXNXNXmXSXmXMXAXAXAXAXAXSXSXHXSXHXHXHXSXSXSXSXHXHXSXHXSXSXHXHXSXHXSXSXSXSXSXSXSXHXSXSXNXHXHXHXSXSXNXmXMXMXFXVX:XT # @ * : [ |.|.-X|.|.|.|.#.#.} [ ' T ` Y Y Y ` b b ` h p  Xn h h h h h j h h h h h h f f u u u u f f d d u u - - - - - - f Y d f Y h d f d j j j h f T T T h f T _ T g I Y d u u - - u T [ -XhXZXBXBXVXVXVXVXVXCXbXbXmXmXmXbXCXCXCXVXcXcXcXfXtX[.) o.Y.o.@.[.'.eXeXeXeXeXeX'.'.eXeXeXeXeXeXeXeXeXeX'.eXeXeXeX",
"5 5 5 5 5 y 5 5 5 7 7 5 6 6 6 6 6 6 6 6 6 6 6 %.%.%.%.%.%.%.%.%.%.%.%.%.=.&.&.:.:.r.t.t.t.t.t.t.t.t.t.t.t.2.2.t.t.t.t.t.F.>.F.>.>.*.%.:.:.:.r.:.&.6 5 t t ) Q.#.-XhXkXGXLXLXLXLXLXLXIXIXIXIXIXLXKXIXKXKXPXPXPXPXKXFXvX>XhX,X*Xs.9.%X%X4X4X4X%X%X%X%X%X&XoXoXXXXXXX9.@X#X#Xs.p p $ $ & ; & A A A A A A S m S L L L L L S L L L L 8X8XiXiXiXiXiXiXiXiXiXiXiXuXuX8XJ F O.O.+. .W R Q Q  .` Q I w / W.a.a.w.d.8.8.8.6.w.w.q.q.q.q.q.q.x c l / ( W W W  .o.W ) ) ).`.~.~.Q.~.*X*X*X~.] ] W.W.] :XnXmXHXSXJXHXHXHXFXBX_.= o O : : D ; * . X . * : d Y [ $.$.$.pXpXdXlXlXlXsXlXlX_.D > * * . = g _.:XnXbXnXmXNXNXNXNXmXNXSXmXmXmXmXAXSXSXSXmXmXAXSXHXHXSXSXSXSXHXSXSXSXHXHXSXHXSXSXSXSXSXSXSXSXSXSXHXSXSXHXHXHXSXSXSXNXmXbXHXVX-XT # @ * : [ |._.$.#.|.|.|.|.|.|.qX[ [ T Y Y Y T h h h h h h h h h h h h h h j h Y T h u f u u u u u h j u d d f f u u u - d f f h Y T d j f u j j h j h T h h f T _ ` f d d d u - f T { _.-XdXBXBXBXcXCXVXVXbXbXbXMXAXMXmXNXbXVXVXVXVXcXvXrXtX[.o.[.[.).).).'.eXeXeXeXeXeXeX'.'.eXeXeXeXeXeXeXeXeXeXeXeXeXeXeX",
"y y 5 5 5 5 5 y 5 y y 5 6 6 6 6 y 6 6 6 6 6 6 %.:.:.6 6 %.%.%.:.%.%.6 %.:.:.:.>.>.t.t.t.t.t.t.t.-.>.t.t.t.t.;.;.;.t.t.t.-.>.>.>.:.:.:.:.:.%.6 6 t t r.x ) { ).hXjXUXLXLXLXLXLXIXIXIXIXLXLXLXLXLXKXPXPXPXKXKXPXPXGXGXGX>X,X*X+XOX$X%X%X%X%X%X%X%X%X4X%X%X&XoXXXoXoXXX#X+Xv k $ $ @ * & A m & A A A A A A A L L L L L L L L L L L L 7X8XiXiXiXiXiXiXiXiXuX8XuXuXpXO.` ` +.+.+.^ U U ~ ^ ~ ~ U h c x e.p.d.d.d.8.<.<.<.<.q.q.q.w.a l l c x x { ( W W W W C P / _.`.~.Q.W.Q.~.~.~.~.~.] ] ] ] ^.>XbXJXMXbXSXHXHXDX:Xg O * w I u ; @ . . . * ; u u F _ |.sXsXsXlXsXsXlXlXlXlXlXqXQ M ; ; * @ = w ~.>XMXMXMXNXmXmXmXMXNXAXmXMXAXAXAXAXAXSXSXSXSXHXHXHXHXHXNXHXSXHXHXHXHXSXHXHXSXSXSXSXSXSXSXSXSXHXHXHXHXHXSXHXHXSXSXNXMXHXHXVX:X/ * @ @ : +.|.-X-X-X-X|.|.|.|.$._.[ _ _ _ ` T T h h h h h ' ` b h h h h h h h h h d f h f f u u u u u d d u u u u h D d f d u f T T d f u h h h j h h h Y h h h h ' ' T h j - 0 j { `.dXhXBXBXBXVXVXCXVXVXVXbXbXMXMXMXAXAXMXbXbXbXVXcXfX].).o.o.o.o.Y.[.).).eXeXeXeXeXeXeXeX'.'.eXeXeXeXeXeXeXeXeXeXeXeXeXeXeX",
"y 5 5 5 5 5 5 6 5 y y 7 6 7 6 y 6 6 6 6 6 6 6 :.:.:.%.%.%.%.%.=.=.%.%.&.:.:.>.>.r.t.t.>.t.F.F.>.-.-.-.t.t.t.>.>.t.t.>.>.>.>.>.:.:.:.:.:.t t 8 7 t x ) { )._.pXUXUXKXLXLXIXLXLXLXIXIXIXLXLXLXLXIXPXPXIXKXKXKXKXFXPXFXxX,X*XOXOX@X%X%X%X%X%X%X%X%X%X%X%X%XoXXXXXXX@X#Xs.v h - - * ; ; & & A A A A A A A A A S L L L L L S L L L L L L 8X8XiXiXiXiXuXiXiXiXuXuX8XqXO.! ~ +.[ [ ~ U U U ~ T T z x v q.w.w.8.f.8.8.8.<.<.<.q.<.q.l l c l r.x ) ) T W W I E C f ( _._.~.Q.Q.Q.~.~.~.~.~.Q.W.] ] W.:XgXbXAXAXAXHXHXcX@.9 O * : ; - @ . . . * - : : I Y _ $.pXlXsXlXsXsXsXlXlXlXlXsX_ I u ; * O O + k `.2XnXMXmXMXMXmXMXMXAXAXAXbXMXAXAXCXmXNXSXSXSXHXHXHXHXHXHXHXSXHXHXHXHXHXSXSXNXSXSXSXSXSXSXSXSXSXHXHXHXHXHXHXHXNXJXMXCXHXCX-X/ = - - Y #.-XsX|.+.@.+.#.|.#.#.#.+._ _ _ ` ` ` h h h h ' ' ' h h h h h h h h h d h u u f f f f u u u d d d u u u u h h Y f u P T ` h f f h h h j h h h u u h s j h h h h j j g ' -XhXcXBXVXBXBXCXCXCXVXCXbXbXbXbXMXSXAXAXbXbXbXBXvXgX-X[.) o.o.o.o.) o.[.[.eXeXeXeXeXeXeXeXeXeXeXeXeXeXeXeXeXeXeX[.eXeXeXeXeX",
"y y 5 5 5 5 5 6 5 y y y 6 6 6 y y 6 6 6 6 6 6 6 %.:.:.%.&.%.%.%.%.%.%.:.>.>.>.>.i.t.>.>.>.>.t.F.>.>.-.t.t.t.i.t.t.5.>.>.>.>.>.:.%.:.:.t r t t c c Y.#.`.sXkXUXUXLXLXLXLXLXLXLXIXIXIXIXIXIXLXLXIXPXIXPXPXPXPXKXGXJXvX,X*XOXOX.X$X%X%X%X%X%X%X%X%X%X%X%X&XoXXX@X@Xh.s.b h f - - i & D A i A A A A m m A m A S S L L L S A A L L L L L 8X8XiXiXiXiXuXiXiXiXuXuX8X$.J O.! ^ [ / T U U T T h / z x e.p.w.w.<.8.<.8.<.<.w.q.q.1.1.l a l x r.x x / T U W C : - P T { ~.~.Q.Q.Q.W.} Q.} } W.Q.Q.] W.^.:XcXJXAXCXCXcX-X/ # # = * . % . X . * * > - ; I ~ _ $.qXsXsXlXsXsXdXlXsXlXhXqX+.^ D ; * = @ + $ q Y.>XnXMXbXbXMXHXHXAXAXMXAXCXMXCXbXMXHXHXSXAXSXHXSXHXHXHXHXSXHXAXSXSXSXHXSXJXSXSXSXSXSXSXSXSXSXSXSXHXHXSXSXHXNXNXMXbXAXHXdXT * - > Y _.sXsX|. X+.#._._.#.#.@.+._ _ ` ` ` ` _ h h h h ' ' b h h ` h h h h h h u h d f f u h f f u f f f d d u u u u u f f f T _ ^ h h f h j j h h h h j h h j h h h h g h ] ~.hXcXbXvXbXVXbXCXCXVXbXbXbXbXbXbXbXMXMXCXCXbXBXBXgXfX`.[.) [.[.o.) ) [.[.'.eX'.eXeXeXeXeXeXeXeXeXeXeXeXeXeXeXeXeXeXeXeXeXeXeX",
"y y 5 5 5 5 6 5 y 5 7 6 7 6 6 5 6 6 %.%.%.6 6 6 6 %.%.%.%.%.%.%.&.&.=.>.i.i.i.t.>.>.>.>.;.F.t.>.>.t.>.i.t.i.w.u.i.r.:.r.r.-.:.t 7 r r 5 5 r r ) Y.).sXhXUXLXLXLXLXLXLXLXKXLXLXIXIXIXLXIXLXLXIXIXIXPXPXIXPXPXFXvX>X>X,XOX.X.XoX$X%X%X%X%X%X%X%X%X%X%X%X%X&XXX#XOX7.b z j d u - i F F i i A A A A m m m m A A A S L S A A A S L L L L 7X8X8XiXiXiXuXiXiXiXuXuX8XqXO.O.~ T T / / z U / z z z x s.p.p.w.<.3.<.<.8.<.<.w.q.q.1.1.a a a q.s.s.x z / T W C > ; P ( [ { ~.Q.W.W.] ] ] ] } Q.~.~.~.] Q.^.>XbXbXvXfX:X~.w - = * % . . . % % * * . @ . : Q +.$.$.sXsX$.sXsXlXlXsX).sX+.^  .! u > w w = + + 0 ^.fXbXMXbXbXAXSXAXAXAXAXAXbXbXbXAXAXSXAXSXNXHXHXHXSXHXJXHXSXSXSXSXSXHXSXSXSXSXSXSXSXSXSXSXSXSXSXSXHXHXHXSXSXNXMXMXHXCX-Xf @ * - Y $.-X-X-X|.pXsX-X|.@.#.#.[ _ ` ` ` ` ` T h T h h ' ' b h h h h h h h h h u u d f f f f f f d d f f f f f f u u f u f Y ~ ` [ T ' h h h h h h h h h h h h g h h h z ] `.>XxXbXcXbXcXcXvXCXbXbXbXbXbXbXbXbXbXbXbXVXVXVXBXcXgXdX).) [.[.[.[.[.o.[.[.[.'.'.'.eXeXeXeXeXeXeXeXeXeXeXeXeXeXeXeXeXeXeXeXeXeX",
"6 y 5 y 5 5 6 6 6 y 7 6 6 6 5 5 5 6 6 :.%.%.6 y y 6 %.%.%.%.%.%.=.:.:.>.i.i.i.t.>.>.>.>.>.t.>.>.t.i.t.r.r.>.:.:.r.:.e.:.:.t 5 5 5 r e 9 e e / { ).sXkXjXLXLXLXLXKXLXLXKXLXLXLXIXLXLXLXIXIXLXIXIXIXPXPXKXFXGXGXgX>X,X,X.X.X$X%X%X%X%X%X%X%X%X%X%X%X%X%X%XXX.X.Xq.n n s - u u f F ! F i i A A A A m A m A A A A A A A A A S S L L L L L 5X8XiXiXiXiXuXiXiXiXuX8XqXpXO._ ( / / / z z z z z x x q.w.<.<.<.6.1.<.<.<.<.w.w.p.q.a a a a a q.s.x z / ( W d - * d / [ [ { W.~.Q.} ] ] ' ] ] } ~.~.~.W.W.:XfXvXfX:X_.{ f - - = @ . % % * * * * X . X = Y _ $.+.$.+.$.$.sXsXlXsX$.+._ +.#.$.~ u d P w @ + + g ^.xXVXVXbXbXCXAXAXAXAXCXVXCXAXSXAXmXAXSXSXHXHXSXHXHXSXHXAXAXHXSXJXHXSXSXHXSXSXSXSXSXSXSXSXSXSXHXSXSXSXHXNXNXAXAXHXFX-X: . * ; P O.$. X|.-XhXgX|.#.@.#.#.[ +._ ` _ ` ` T T / ' ` ' ' h h h h h h h j h u f f h F d f u f f d d d f F d f f d f f u Y T ~ I h [ ' h j h h h z b h h h h h h h h b ~.*X:XcXbXnXcXcXcXvXbXbXvXvXbXbXbXbXbXbXbXbXbXbXVXBXBXcXdXsX_.o.+.).).[.[.`.).'.[.[.'.eXeXeXeXeXeXeX'.eX[.eXeXeXeXeXeXeXeXeXeXeXeXeX",
"6 6 6 5 5 6 6 6 7 6 7 7 6 6 y y 6 6 6 %.%.%.%.6 6 y 6 %.%.%.&.=.=.:.>.i.i.i.>.>.>.-.-.>.F.t.>.>.t.i.i.r.:.:.:.:.:.r.:.:.:.r 5 r x t r r g T [ -XhXjXjXKXLXLXLXLXLXLXLXLXLXLXLXLXLXLXIXLXLXIXIXIXIXKXKXFXFXBX>X,X2X,X.X.XoX$X%X%X%X%X%X%X%X%X%X%X4X%X%X&XXX.X6.a p j j $ - g _ ` f i i i A A A A A A A A A A A A A A A A S S S L L L L 8X8X8XiXiXiX8X8XuXpXpXpXpXpX$.[ ( z / / z g c c l q.q.q.<.<.<.6.8.<.<.w.w.q.q.w.w.q.q.q.q.a a x r.r.z z / ( T : - P ( ( / ' ] Q.~.Q.] ] ] ] ] ] Q.~.~.!.W.^.:XhXdX-X_.{ T f u - . X % > > * * , O @ @ > f ( +.+.O.O.+.+.+.$.sXsX$.@._.-XhXdX@.U : w w - = = w { dXvXCXCXbXcXCXGXbXcXnXCXHXHXHXAXAXAXAXSXHXHXHXSXSXSXSXAXAXSXJXHXHXHXSXHXSXSXSXSXSXSXSXSXSXSXSXHXSXSXSXHXSXAXAXHXGX-X0 @ - * u ~ ^ _ _ $.sX-X#.#._.-X-X$.#.#.+._ _ ` T ' ' ` b  Xp h h h h h h h h h h h u f f f f f f d d f d d h Y h u f d Y u d Y Y d d _ ' h h ' h z z h z b h h h s s c ] `.:X>XxXbXbXnXnXbXbXCXbXbXbXcXbXbXbXbXbXbXbXbXVXVXBXcXgXsXsX@.( @.[.[.`.).).tX).[.eX'.tXeXeXeXeXeXeX'.'.'.eXeX'.eXeXeXeXeXeXeXeXeXeX",
"6 6 5 5 6 6 6 6 6 7 5 5 6 6 5 6 6 6 6 6 6 %.%.%.%.%.%.%.6 %.:.:.:.:.r.u.>.>.i.=.-.-.>.>.t.t.F.t.i.:.r.r.:.r.r.r.:.t t 5 5 e r x ).~.{ { @.).sXkXLXLXLXLXIXLXLXLXKXLXLXLXIXLXLXLXLXLXLXLXIXIXIXLXKXKXKXKXFXxX>X,X,X$X.X.X$X%X%X%X%X%X%X%X%X%X%X%X4X%X%XoX7.n p 4 $ 4 $ $ d ' |.|.Y & & i & A A A A A A S A A A A A A A A A A S L L L 7X5X5X8X8XiXiXuX8X8X8XuX8XO.O.O.+./ / ) / k s k c q.q.q.<.1.<.<.<.3.d.d.w.w.q.q.q.<.1.q.s.q.l a a x e.v ) / [ Y : > u ^ / / / ' { Q.Q.Q.} } } ] ] W.Q.~.~.Q.~.`.dXxX-X_.{ ( U u * % X % * * * . . O @ - j T _ [ +.^ ^ +.~ P +.sX-X_.`.dXgXBXhX-X( f - = = - w = w @.-XBXFXCXbXCXvXzX:XzXDXFXHXAXHXSXAXSXNXHXSXSXSXSXNXHXSXAXJXHXSXHXHXHXSXHXSXSXSXNXSXSXSXSXSXSXSXSXHXHXSXSXHXAXJXJX`.w @ > * : : : d f / [ +.[ @.|.sX-X-X|.|.|.#.[ _ [ [ ' b ` n  Xh b h h h h h j h d f f f f f u Y Y f d d f f d f u f d P Y Y Y Y P f d d T / ' ' ' ' z b z ' v z s s s x ^.`.>XxXxXbXnXnXnXbXbXbXcXcXcXbXbXbXbXbXbXbXbXbXVXBXcXgXfXdXtX@.o.@.) ( o.[.).'.eX'.eXeXeXeXeXeXeXeXeX9X'.'.'.'.'.'.eXeXeXeXeXeXeXeXeX",
"6 6 6 7 y 7 6 5 5 5 5 5 6 6 6 y 6 6 6 6 6 6 6 %.%.%.%.%.,.%.>.>.:.:.>.r.>.i.i.>.-.;.>.>.>.>.>.t.i.*.:.:.:.:.:.r.6 8 5 5 r r / ).dX-XtX-XsXkXkXUXLXLXLXLXLXLXIXLXLXLXIXLXLXLXLXLXIXLXKXIXIXKXPXIXPXKXKXFXGX>X>X,XOX7.oX%X%X%X%X%X%X%X%X%X%X%X%X%X%X%XoX7.n p 4 4 $ $ 4 j `  X-X|.h i & i & & A A S A A A A A A A A A A L L S A S L L L L L 8X8X8XiXiXuX8X8X8X8XO.O.O.+./ / { ) k k k l q.<.<.6.6.<.<.<.<.y.f.w.w.w.q.q.1.1.q.p.q.a a a l r.v / ( ( T w : d ~ ( / / ] ] ] } } ] ] } } ] ] ] ] } Q.~.~.dXgXdX_.W U f - = * * % > > % X X . O : I ` [ [ +.^ Y ~ u w [ _.`._.sXdXgXBXhXdX_.{ f 0 = * * * = f [ :XvXVXcXvXvXgXfXfXHXHXHXAXHXHXSXHXSXSXSXSXSXAXAXAXAXSXJXJXSXSXHXHXHXHXHXSXNXNXSXSXSXSXSXSXHXSXHXSXHXHXHXHXHXJX_.- @ * = I : - - - w u w d T [ -X#.|.|.|.$.#.#.#.[ [ ' ' ' ' ' h b h h h h h h u h d u u h u f Y Y h Y d d d d d f f Y P Y ~ ~ ` ` T Y h T ' } ] ] ] ] ] ' ] v v s s z Q.`.:XgXxXxXnXnXxXnXVXbXcXnXcXcXcXbXbXbXbXbXbXbXVXcXcXcXgXgXdXtX@.( [.o.o.) o.).).'.eXeXeXeXeXeXeXeXeXeXeXeXeXeX'.'.eX[.eXeXeXeXeX'.eX[.",
"6 y 6 y y y 6 7 5 5 5 y 6 6 6 y y %.%.%.6 6 6 6 %.%.%.6 %.%.R.>.>.=.>.>.>.i.t.>.>.:.>.>.>.>.:.>.:.:.r.r.:.:.6 7 3 3 3 r z ) ] -XfXsXlXkXjXLXLXLXLXUXLXLXLXLXLXLXLXLXLXLXKXKXLXLXKXIXKXIXIXKXKXIXPXFXFXVXgX>X+X.X.XXX%X%X%X%X%X%X%X%X%X%X%X4X4X%XoXXX6.n p 4 4 4 4 $ p b +X*X*X' h $ @ ; & & & i A A A A A A A A A A A L L S A A m S L L L L L 8X8X8XuXuXuXuXuX$.qXO._ [ { } ] c k c q.q.<.<.6.6.<.<.<.<.<.p.w.w.q.w.p.q.q.q.p.p.q.a a a l x x ) ^ T w d Y ^ [ ' ' ] ' ' ' ] ' ' ' ] ] ] ] ] ] ] Q.} :XfX-X{ 0 0 : = * * * > * * * * % . O : Y [ [ ^ ^ ~ U d P T @.sX`.-XgXvXvXBXcXcXdX`.( C > @ @ * * - P #.;XcXfX;XzXcXcXcXDXHXHXSXAXmXHXHXHXHXSXSXAXAXAXAXDXDXHXSXAXAXAXSXHXHXHXSXSXNXNXSXSXSXSXSXSXSXSXHXSXSXHXSXJXbX-X0 @ : d ^ ' T P - @ - - - d d Y T _ |.@.+.+.#.|.@.[ [ [ ' ' z ' h ' ' h h h h j h h h f f f d Y T Y Y h Y Y d d f Y T P Y ~ [ +.+._ T / ] } Q.] ] *X~.] ] ] ] v k k ] ~.*X:X:XxXnXnXxXnXnXbXbXbXcXnXvXcXbXbXbXVXCXCXVXBXcXcXcXgXgXhXsX@.^ ) ) ) ( Y.).`.'.'.eXeXeX'.'.[.eXeXeXeXeX[.eX[.'.eXeXeXeXeXeXeX[.'.'.",
"5 7 y 6 6 7 7 6 6 5 y 6 6 6 6 6 6 %.6 6 6 6 y 6 %.%.%.%.&.:.>.>.>.-.>.-.>.t.i.-.-.:.>.:.-.>.:.:.:.r.c :.t 8 3 3 e e q z / o.`.dXhXjXUXUXLXLXLXLXIXLXLXLXLXLXLXLXLXLXLXLXLXLXKXKXIXIXIXIXPXKXKXIXKXFXnX>X*XOX7.7.XX%X%X%X%X%X%X%X%X%X%X%X%X4X4X%XXX7.n p p p 4 4 p n n +XOX+X+Xv n p p h j ; * & & i & A A A A A A A A S S A A A A A S S S S S L J 8XuXuXuX8XuXqXqXqXO.+.' ' ' z c l r.q.w.q.6.<.6.w.<.<.q.w.<.q.w.p.p.w.p.q.l q.q.l a a a l z / / T P P ~ ( +.[ ' ] ' ' ' ' ] ] ] ] ] ] ] ] ] ] ] Q.^.`.`.[ - @ - - > * * * * * * @ O , = f ~ ( ( ^ ^ ~ T T [ _._.-XdXfXBXBXVXbXCXbXxXdX`.) f - O * * * w U ( ).:X>XcXVXCXAXHXAXSXSXSXHXHXSXSXHXAXAXAXAXDXDXHXFXAXAXAXHXSXSXSXHXSXSXSXSXmXSXSXSXSXSXSXJXJXJXNXJXAXAXHXJX-X0 * > E _.dXdX_.( w = = # - - - - u P Y T [ $.|.@.[ [ } ' ' ' ' b ' '  Xh h h d h h h u f f u Y Y h Y F Y Y h d Y Y T T / [ #.#.} ' ' ] !.!.Q.Q.!.*X~.} ] v / z x x s.^.=X>X2XxXnXnXxXnXxXcXbXvXcXcXcXcXvXVXCXVXbXBXVXBXcXjXkXlXdXsXqX+.^ o.) ) ) ~.'.eXeX'.tX'.eXeXeX'.eXeXeXeXeXeX'.eXeX'.'.eXeX'.'.eX'.'.eX",
"5 y y 6 6 6 5 5 7 6 6 6 %.6 6 6 6 6 6 y 6 6 6 6 6 %.%.:.>.>.>.-.-.>.>.-.>.>.>.-.>.:.:.:.:.:.:.:.r.:.t r 5 3 3 e q U / / @._.dXUXUXLXLXLXLXLXLXLXLXLXLXLXLXIXLXLXLXIXLXLXLXKXKXPXIXKXKXIXPXIXKXLXGXhX,Xs.n n 7..X$X%X%X%X%X%X%X4X%X%X%X%X4X4X%XoX7.n p p p p a n n n .X.XOX#XOXOXOXb +Xb b g = & & A m m A A A A A A A A A A A A A A A A A A A L L J uX8X8XuXuX8X8XpXO.O.^ T z z z l l a.q.q.q.w.p.w.w.1.q.q.1.<.w.p.p.p.p.p.l a a n 1.a k l l z / / I I ~  .[ [ { ] ' z z v } } ] ] ] ] ] ] } s.] Q.} [.~.{ w = : : * * % * * * * O = 0 U T ^ ( ( ( ( / / _.`.`.-XdXfXcXbXVXbXbXCXAXCXgX:X-X#./ - @ @ = - w T @.-XgXBXCXAXHXHXSXSXSXSXSXSXNXNXmXAXHXCXDXHXHXGXGXGXCXFXFXHXSXSXSXSXSXSXSXmXSXSXSXSXSXSXJXJXJXJXNXmXAXHXVX_.: @ * M $.gXBXgX:X{ U 0 1 = - * * - - : d T _ { [ [ [ [ _ ' ' ' ' ' } ' h h h ` ` h j h h f Y Y Y F ` ! Y D Y F h Y T ' ' } |.} ] ] W.^.!.!.!.!.*X*X~.Q.v z z z x Q.a.=X:X2XcXnXxXnXnXnXnXcXcXcXcXcXvXvXvXbXCXVXcXcXBXcXgXkXkXsXsXsXo.W ( ) o.) o.[.'.eXeX'.'.'.'.eXeXeXeXeXeXeX[.'.'.[.eX'.'.'.eX'.eX'.'.eX[.",
"5 5 5 6 7 6 5 5 5 6 6 6 6 6 6 7 6 6 6 y 6 6 6 6 %.=.=.:.>.>.>.>.-.5.*.=.*.-.;.-.*.r.r.:.:.r.r.r.r.r r e 9 9 w W o.[ +.@.pXlXUXLXIXLXLXLXLXLXLXKXLXLXLXLXLXLXLXLXLXLXLXLXLXKXKXKXLXKXKXIXIXPXFXjX-X|.b n n 7.XX%X$X%X%X%X%X%X%X%X%X%X%X%X%X$XXX7.n p p p p n n 7..XoXXXXXXX@X@X@XOXOXOX+X*XQ.h i & & i A A A A A A A A A A A A A A A A A A A A S L J 8XuXuXuXpX8X8XqXO.O._ / z z l c l q.q.q.q.q.w.q.q.q.q.q.<.q.1.<.<.<.p.q.q.l a a a a c q.v x ) / P C I W ~ T ' ' ' b ' ' ] } } ] ] ] } Q.Q.Q.Q.~.~.^.~.( U f : - > * % % * * * * - P ( ( ( / ( ( @._.#.`.:XfXfXfXfXcXbXbXbXbXbXHXCXbXgX:X-X-X@.- @ O = U #.hXgXBXHXJXHXHXHXSXSXSXSXSXSXSXSXAXAXCXCXDXFXcXdXgXBXGXFXHXHXHXSXSXSXSXmXNXMXNXSXSXSXSXHXSXJXJXJXNXmXAXJXgX{ # @ = 9 / fXMXMXnXfX:XW.U = # # * - - - u d P P ( [ [ _ ' ' ' ' } |.} #.} ' ' h h h f h h Y Y Y h Y F F K D u u f h T ' ' |.*X] ] ] *X(.^.!.*X*X*X*XQ.v z h h k x !.(.(.>X2XxXnXnXnXxXnXcXvXcXcXcXvXvXvXvXbXCXbXbXvXBXcXhXkXlXlXsX$.o.W ( ( ) ( [.[.eXeXeX'.'.eXeXeXeXeXeXeXeX'.eX'.eXeXeX'.'.eXeXeX[.eXeXeXeX",
"5 5 6 7 y 5 6 5 6 6 6 6 6 6 7 6 6 6 6 6 6 6 6 %.%.&.:.>.:.>.>.>.-.-.*.*.=.5.2.-.>.-.:.:.r.:.:.r.r e 9 = = w ( #.tXsXsXlXUXLXLXLXLXLXLXLXLXLXLXLXLXUXUXLXLXIXLXLXLXIXIXIXKXIXPXKXKXKXIXPXLXLXgX-X' b n n .XoX%X%X%X%X%X%X4X4X4X%X%X%X%X%X%XXX7.a p p p a n n 7..XXX$XoXoXoX$X$X#X@XOX+X*X*X*X} h i & & i A A i i A A i i i A A A A A A m m A A A A L J J pXpXpX8XO.O.O.+.' ' z z z r.q.w.p.p.w.q.<.w.p.p.q.q.l q.1.1.1.1.q.q.q.q.q.n a a a v r.) / / f w P R ^ ( ' ' ' ' ' ' ' } } ] ] ] ] ] Q.Q.Q.~.-X`.{ { ) T d : : > % % * * * * - T @.( ( ( { ~.`.sXsXdXfXgXbXvXcXcXbXCXCXbXbXHXHXCXvXgXgXgXdXw @ O - ' -XZXFXFXHXHXHXHXHXSXNXSXSXSXNXSXSXAXCXVXCXVXcX-X)._.sXcXFXHXHXHXSXSXSXSXmXmXmXSXSXSXSXSXHXJXJXJXJXNXMXHXAXdXT = = f g ) (.1X1XnXnXxX>X^./ w 0 : - - - - 0 : w Y h T ' ' ' v } #.[ +.#.|.|.} |.` ` T T Y Y Y Y F ` ! ! F F ! Y Y Q / ' ' ~.Q.] } ~.*X*X*X(.*X*X!.} v l k s s h r./.(.=X>X2XnXxXxXxXnXnXbXcXcXcXcXcXvXvXcXcXbXbXVXVXBXgXlXlXsXsX|.[ P C ( o.) ).`.'.rXeXeXeXeXeXeXeXeXeXeXeXeXeXeXeXeXeXeXeXeXeXeXeXeXeX[.eXeX",
"5 5 5 7 6 y 5 6 y y 6 6 6 y 7 6 6 6 6 6 6 6 %.%.:.:.>.>.=.>.>.>.*.*.&.=.r.5.2.-.-.-.:.:.r.r.:.r e 9 9 9 f ( _.kXlXkXUXLXLXLXLXLXLXIXLXLXLXLXLXKXLXLXLXLXLXLXLXLXLXIXIXIXFXKXKXPXIXPXPXLXUX|.|.b p n 7..X4X4X4X%X%X%X%X%X%X%X%X%X%X%X$XoX9.n p p 4 a n n n 7..XXXoXoXoXoXoXoX$XoXXX.X+XOXs.|.] Q.` u i i & & & & i i i i i i i A A A A A A A A A A A L L J iXpXqXO.O.O.+.{ ] v x x x e.a.p.p.q.1.1.q.w.p.q.q.q.q.q.1.1.<.<.q.q.q.q.1.n a a l x v ] / f w P U _ ' ' ' ' ' ' ' ' ] ] ] ] ] v v ] W.Q.~._.-XY.] { [ T I I : % % % * @ * : T [ ( o.#.`.-XfXhXfXdXgXgXvXCXVXvXCXCXAXMXbXHXHXHXCXvXvXBXdXh 0 j ^ -XBXHXHXHXSXHXSXHXHXHXSXSXSXSXSXSXAXAXDXHXFXfX`.W.z ) `.2XVXHXmXSXSXSXSXSXNXmXMXSXSXSXSXSXHXSXJXJXJXJXAXHXFXdXh + - / ).].{.<X1X1X1XnXbXxXfX`.' T d : * * - w d - - j f h h h ' ' ' ' } } #.#.} [ ` ` h ` Y Y ! ! ! ! ! ` ` ` Y T T ' ' ' ] ] } !.*X*X^.^.!.^.!.s.v z l k s k x a.z.=X;X2X2XvX2XxXnXxXnXbXcXcXcXcXvXCXbXvXcXbXbXCXBXBXhXsXlXsX|.$.Y w C ^ o.[.tXtXeXeX'.'.eXeXeXeXeXeXeXeXeXeX'.eXeXeXeXeXeXeXeXeXeXeXeXeXeXeX",
"5 5 5 7 y y y y 6 6 6 6 6 y 6 7 6 6 6 6 6 %.%.:.:.:.>.>.-.:.>.-.*.=.*.=.r.-.*.=.=.>.r.:.t t q e 9 = : : I o.qXlXlXkXUXLXKXLXLXLXIXIXIXIXLXLXLXIXIXLXLXLXLXIXIXLXLXLXLXLXGXGXLXKXFXUXZXlX-Xh p p a 6.$X%X4X4X4X%X%X%X%X%X%X%X%X%X$XXX7.7.n n p p 4 a n n 7.XXXXoX$X$X$X%X%X%X%X$X.X.XOXOXOX] ] |.|._ ` i i ; ; & & & & & & & i i A i i A A A A A A A A L L O.O.O.O.O.O.} } ] v x s.r.q.a.p.w.q.w.p.p.q.q.1.q.q.q.w.p.q.q.1.q.q.q.q.q.q.n n a l x ] / g 0 - d ~ _ ' ' ' ' ' ' ' ' ] } ] ' v v v ] Q.Q.~.~.{ ] _._.@.^ M * . % * * * * C U ( @._.dXdXhXhXdXfXcXhXzXvXCXAXAXAXAXAXAXHXHXHXFXHXHXFXGXcX~.{ ).:XcXFXHXFXHXHXSXSXSXSXSXHXSXSXSXmXSXAXAXAXAXvX-X) g q z v -XBXFXAXSXSXSXSXSXmXmXmXmXSXSXSXSXSXSXSXSXSXSXHXFXFX-Xg @ $ ) ].;X<X1X3X{.{.1XMXDXDXBXdX-X@.T w = = = - $ - - u j j j u h ' ' ' [ [ #.[ ' _ ` ` ` Y Y ! ` ` ` ` ` ` ` ` ` ` ' ' ' / v Q.!.*X*X*X^.(.^.s.x c v x c s c s.a.(.].>X2X2X2X2XxXnXnXnXbXcXcXcXbXCXVXbXxXcXcXVXVXBXcXhXsXsXdXpX+.P : C ^  .[.[.).'.eX'.'.[.tXeXeXeXeXeXeXeXeX'.eXeXeXeXeXeXeXeX'.eXeXeXeXeXeX",
"5 5 6 5 y y y y 6 6 6 6 y 6 6 6 6 y 6 6 6 %.%.:.:.>.>.=.t.u.:.*.-.i.i.%.:.*.-.-.-.:.r.t r q 9 9 : : M M F ! $.pXlXkXUXUXLXKXLXIXPXKXKXLXLXKXLXKXLXLXIXLXLXKXKXLXLXLXLXIXLXLXjXkXhXsX|.[ j a n n n OX4X4X%X%X%X%X%X%X%X%X%X%X%X%XoX.X7.n n n p p p n n 7..XXX$X$X$XoX$X%X$X$X%X$XoX.X.XOXOX*X} } } |. Xh D u u i & & i * & & & i i i i A A A A A A A A A K J O.O._ _ [ { ] v v x q.q.q.<.w.p.w.p.k.a.w.w.1.q.q.q.q.p.p.q.1.q.l l a n q.s.q.l c z x ) z f w d U T / / / ' ' ' ' ' ] ] ] v v z v ] ] ~.~.`._.~._._.-X#.U * . % * * - : U ( { _.dXgXcXcXfXfXdXcXcXcXbXAXAXAXAXAXMXmXmXHXHXHXHXHXHXFXVXhXfXxXVXJXCXJXHXHXmXmXNXmXJXHXSXSXAXMXbXDXAXbXcXnXfXY.k r k k z } hXHXHXSXSXSXHXNXmXNXSXSXSXSXNXSXSXSXSXSXHXHXHXHXjX_.j @ r ^.yX{.{.{.{.{.{.{.nXAXDXFXZXcXsX-X+.U w 9 # $ $ = $ u p u j h b ' ' ' ' [ ' [ _ ` ` ` Y Y ! ! ! ! ` ` ` _ _ _ ' ' ' ' b v Q.!.!.*X*X~.Q.s.z s k z l s p l s.^.=X;X1X2X2X2X2XnXnXxXnXvXbXvXbXbXbXbXbXbXcXbXVXBXBXcXdXsXsXsXsX_ I : M W ( @.).).`.'.eXeX'.'.eXeXeXeXeXeXeXeXeXeXeXeXeXeXeXeXeX'.eXeXeXeXeXeX",
"5 5 y 5 5 5 7 6 y 6 6 6 6 y 6 6 6 6 6 6 6 %.:.:.:.:.-.>.t.>.:.=.-.i.i.:.=.*.>.:.:.r.t r e 9 = > M E F O.qXqXpXlXkXjXUXLXKXLXLXPXKXLXLXGXLXLXKXLXLXLXLXLXLXLXLXLXLXIXKXKXLXkX-X_.v h h p $ n .XXX%X4X4X%X%X%X%X%X%X%X%X%X%X%XoX9..Xn n n n n p n n n .XXXoXoX$XoX$XoX%X%XoXoXoXoXXX.XOXOXs.+X*Xv b v |.|.' Y f u u - u i & * - i i i i i A S A A A A A F F J O.O._ { { ] v v q.x q.q.1.<.p.p.d.j.k.p.p.w.q.q.w.q.w.w.w.q.1.q.q.a a a 1.s.s.s.l k z z / g f f T ( ' ' ' ' ' ' ' ' ' ' ] ' v z z z ] ~.~.`.-X_._.-XdXsX$.I * * > - w T ( @._.-XgXcXcXfXfXfXzXcXvXbXVXAXAXAXAXAXAXmXHXHXmXHXHXJXAXHXVXCXJXHXHXHXAXbXAXSXHXmXmXmXNXHXSXAXAXMXzXMXbXcX].].].T.r.) ) c k z -XFXHXHXSXSXSXNXNXJXSXSXHXSXNXNXSXSXHXSXSXHXHXFXgX@.- 4 ) (.].{.{.P.P.{.3X3XxXMXAXDXGXGXZXgXdX_.{ g j u - $ $ - $ $ $ d Y h T ' ' ` _ _ +.[ ` ` Y Y Y ` ` Y ! ` _ [ +.} } ' ' ' b v ] Q.Q.*X*X!.v x k s s z c k k x ^.=X=X1X1X2X2X2X2XnXcXbXnXnXbXbXbXbXbXvXbXbXbXCXBXBXvXgXsXsXsXsX$._ D : D R W o.).).).).tXeXeXeXtXeXeXeXeXeXeXeXeXeXeXeXeXeXeXeX'.'.'.'.eXeXeX'.",
"5 5 y 5 5 6 5 6 7 7 7 6 6 6 6 7 6 6 6 6 %.%.:.:.:.>.>.>.>.>.>.>.i.i.i.:.*.:.:.:.:.r.r 9 9 w : M K O.qXpXpXlXlXkXkXUXUXKXKXKXKXKXGXGXLXGXLXKXLXLXIXLXLXLXLXKXKXPXLXLXUXjXdX|.' h p p p a n OX$X4X4X4X4X%X%X%X%X%X%X%X%X%XoXXX7.n n p p n n n 7.n n .XXXoX$X$X$X$X$X$X%X%X$XoXoXoX.X.X.X+X+XOX+X!.v *X*Xb |.' ' _ h u u i i - - ; i i i i & A i & A A A A F K ` [ { { ] v s.r.q.w.q.q.q.<.p.p.p.d.w.6.w.p.<.6.y.q.w.w.q.q.q.q.q.q.a a a 1.l q.l a l z z h T T ' #.#.@.' ' ' ' ' ' ' z ' ' } v z v } ~.-X-X-X`._.-XhXlXsX_ : : : w U [ _.-XtXdXhXgXfXfXgXzXcXbXbXMXbXmXAXAXAXSXAXNXmXHXmXSXAXbXmXHXmXHXHXJXJXHXHXNXMXmXHXHXJXAXSXSXSXAXAXbXVXbXzX].(./././././.T.x q g -XCXmXHXHXSXSXSXNXSXSXSXHXHXNXNXSXSXSXSXHXHXFXFXgX} j q Y.].3X{.{.P.I.{.{.NX3XMXAXHXVXFXFXGXBXhX-X`.{ z f 0 $ $ $ $ $ u j g f T ' ` Y _ { #.} _ ` ` Y ` ! Y ! ` _ +.#.#.} ' ' ] ' v ] !.!.!.v x c s s h s c k k z s.=X=X1X1X1X2X2X2X2XbXMXbXbXnXcXbXVXbXcXcXbXbXCXCXVXBXgXhXsXsXsXsX$.Q : : P P E ( ).).).).tXtXeXeXtXeXeXeXeXeXeXeXeXeXeXeXeXeXeXeX'.'.'.'.[.eX'.'.",
"5 5 5 5 5 5 6 6 7 6 6 6 6 6 6 6 6 6 6 %.%.%.%.:.:.=.:.-.=.>.>.R.i.>.i.:.:.t :.:.t e 9 9 w I |  .O.pXpXpXpXlXlXlXlXUXLXKXKXKXKXKXGXGXLXKXLXLXLXLXLXLXLXLXLXLXKXFXLXUXlX|.[ h $ $ p p n .XXX$X%X%X%X%X%X%X%X%X%X%X%X%X%X%X7.n n n p p p n n n .XXXoXoXoXoX$X$X$X%X%X%X%X%X%XoXoX$X@X#XOXOX*X+Xs.+X*X*X*Xb b ] } ] ' h h f u j u i - - ; & & & & & A A A A A u ` [ } } ] v s.q.q.p.w.w.w.<.p.p.1.1.1.1.1.q.w.p.p.w.1.1.<.q.p.q.q.q.1.a a n n b v v z z z h h T ' } `.#.#.{ @.} ' ' ' ' ] ] } ] } ] ~.-X:X;XfX-X~._.$._.[ U Y U P ( ( #.-XsXdX:X;XfX;XzXnXAXMXAXAXmXAXmXmXAXHXSXHXSXmXMXmXHXDXAXJXHXHXHXHXCXNXSXHXSXMXMXSXHXAXAXSXSXAXCXVXVXbXzX:X^.T./.R.(.{.].(.r.p s _.cXAXHXHXSXSXSXSXSXSXSXHXNXNXNXSXSXSXSXHXHXFXFXgX} s k /.{.NX{.I.P.P.{.{.3X3XMXHXFXDXFXFXFXCXbXcX>X:X-X} { h h j $ $ j u u f h h h h g _ #.#.[ _ +._ _ ` Y Y ` [ @.|.} } } } } v ] s.W.W.] l h s s z z v z c z r.=X=X=X1X1X;X1X2X2XnXbXMXbXcXnXvXbXbXbXbXcXvXbXCXCXBXBXjXhXsXsXsXpXO.D : : I d C W $.).).).).tX).).'.tXeXeXeXeXeXeXeXeXeXeXeXeXeX[.'.'.'.'.eX'.'.'.",
"6 5 6 y y 5 5 6 5 6 6 6 6 %.6 6 6 y %.:.%.%.&.:.:.:.>.=.=.>.>.>.>.:.i.t.:.t t r e 9 e w W  .qXqXqXpXpXpXaXpXpXlXkXGXKXKXIXPXKXFXLXGXLXPXIXLXLXLXLXLXLXLXUXUXkXlXsX|.' j p 4 4 p a 7..X$XoX%X%X%X%X%X%X%X%X%X%X%X%X$XoX7.p p p p p $ p p n 7..X$X$X$X$XoXoXoXoX%X%X%X%X%X%XoX$X@X@X#XOXOXOXs.s.!.*X*X*Xs.v Q.} } |.} } v b h h h u i @ & ; & & * i i i i i u D [ #.] v s.a.a.w.q.q.p.q.<.<.p.w.<.1.1.<.<.1.1.q.1.q.q.q.p.p.q.s.p.n n a a a v l l v ] ' h j g T [ #.#.#.#.#.#.#.' ' ' z z } Q.} ~.-X-XdXgXhX*X{ / U U w P ( ( [ _.-X-X-X-XfX:X;X;XxXnXbXAXSXAXSXAXmXMXmXmXNXmXSXHXMXmXmXmXSXHXHXHXHXHXHXSXSXNXNXNXmXAXHXAXAXHXHXDXCXbXbXnX1X;X].].(.L.{.{.{.{./.E.l x ).hXFXHXHXHXSXSXNXNXmXmXmXHXSXJXNXNXNXHXHXHXHXFXgX} s c (.<X{.{.I.P.{.{.{.3XNXNXNXAXAXFXGXHXHXCXbXnXxXhX:X-X-X} h j : 0 u j j f h f d f Y T ' ' _ #.#.+.[ T Y _ } #.} } } } *X*X*XQ.] b c k z z z v v v v v s.s.^.].:X3X1X1X;X>XxXnXnXxXxXnXcXbXbXbXcXcXcXbXbXCXCXFXGXgXlX-XsXlXsX$._ I : ; ; > C W o.$.`.).).).).eX'.eXeXeXeXeXeXeXeXeXeXeXeX[.'.eX'.'.eXeXeXeXeXeX",
"5 5 y y y 5 5 5 5 y 6 6 6 6 6 6 6 6 6 :.%.%.%.:.:.%.=.=.=.>.>.>.>.i.u.>.:.t r w w U P  ...qXpXsXpXpXpXpXpXkXlXUXLXPXPXIXPXKXKXKXLXIXIXPXIXLXLXLXLXUXjXjXlX|.+.[ T g $ 4 a n 7.7.XX%X%X%X%X%X%X%X%X%X%X%X%X%X%XoX$X.Xn p p $ $ $ $ p p p n .X.XoXoX$X$X$X$XoXoX%X%X%X%XoXoXoXXXXXoX#XOXOXOXs.s.*X!.*X*Xs.s.*X!.Q.!.*X*X*X*X}  Xb z h u - & & i i & & & & ; ; u f h ] ] v b q.1.1.<.<.<.<.p.p.p.<.<.<.q.6.1.1.q.w.w.q.q.q.p.q.q.w.q.a a n n b l a l b z h h j T / [ +.$.#.#.#.#.} { { { } ] ' Q._.-X-XdXgXhX-Xh 0 g T / [ @.@.)._.-X-X`.-X:X>XzXzXnXnXMXAXAXAXSXSXmXmXmXMXNXSXHXSXmXmXmXmXmXNXNXmXSXHXHXHXSXSXSXSXSXHXJXHXHXFXDXVXbXzXzX;X].(./.{.{.{.P.P.P.{.(./.x c _.gXHXFXHXHXNXNXNXNXmXmXmXmXJXJXSXSXSXSXSXHXHXGX-Xz 3 t l.{.I.P.P.P.I.{.{.NXNXNXSXSXAXVXVXAXHXHXmXMXbXxXgX:X:X:X-X' h 0 - - u u j f d d h h h j h ' |.} ' [ _ T } -X*X} } Q.*X*X*Xs.v b l l x x v v Q.Q.Q.W.!.^.(.=X1X2X1X1X1X1X2XnXxXnXcXcXbXbXbXbXcXcXcXcXbXbXCXBXgXgXsXsXsXsXsX$.~ : ; - - * 9 U o.$.`.).).).`.).).eXeXeXeXeXeXeXeXeXeXeXeXeX'.eX'.'.eXeX'.'.[.eX",
"5 5 y 6 y 5 6 6 6 6 %.6 6 6 6 6 6 6 6 6 %.6 %.%.=.=.=.=.:.:.:.>.i.R.u.:.t r C f U W  .+.pXpXlXlXlXpXpXpXlXkXUXLXPXIXIXPXKXKXPXPXLXKXLXUXUXlXkXlXUXlXpX$.O.` h f s p p n 6.+X#X,X4X4X4X%X%X%X%X%X%X%X%X%X%X$XoXXX7.p p $ $ $ $ p $ p n 7..X.XoXoX$X$XoXoXoX$XoX$XoX%XoXoX$X$XXX@X#XOX+Xs.*Xz.*X(.!.*X*X*Xs.OX+Xs.+X+XOXOX*X*X*X*X|.' j u @ * i i i & & ; ; ; - u : z z v q.q.q.p.w.<.<.<.p.p.p.p.<.w.p.w.<.<.w.p.q.q.q.q.q.q.q.q.q.a n l l l a a k c h b h h ` ^ ^ +.$.$.#.-X-X-X-X} -X_.] ' ] ~._.-X-X-X-X/ $ = w U ' { @.+._.`.`._.~.:X:XxXxXbXMXMXmXmXAXmXSXHXSXmXMXmXmXNXSXSXmXmXmXmXmXmXmXNXSXHXSXHXSXNXHXSXHXHXHXAXDXDXVXVXcXfX].^.e./.{.{.I.P.P.P.P.{.{./.l c ~.hXHXHXHXHXNXNXNXNXmXmXNXSXJXJXHXHXHXSXHXHXHXBX_.q r Y.{.{.{.I.P.P.P.{.3X3XNXNXNXmXAXVXbXmXmXmXmXmXMXbXcXcXxXcX>X`.{ / j - $ - - - d d f f h j f T [ [ ' ' ' ' } -X-X} ~.*X*X*X~.v l a z v x ] Q.!.~.*X^.!.!.=X=X;X1X2X2X1X1X2XnXbXnXnXcXcXcXbXbXvXcXcXcXbXbXCXbXcXgXhXsXsXsXsX$.+.~ : : > * > - C ( $.).).).@.).).).tXeXeXeXeXeXeXeXeXeXeXeX'.'.[.'.'.'.'.'.'.eXeX",
"5 5 y y 7 y 6 6 6 6 6 y 6 6 6 6 6 6 6 6 6 %.%.%.%.&.=.%.:.%.&.:.r.T.T.t r C I P R ^  .$.pXsXlXlXlXlXlXpXpXkXjXLXKXLXKXLXLXKXKXUXjXjXlXsXsXqX$.|.qX$.[ Y f f p p n b s.OXXX%X4X4X%X%X%XoX%X%X%X%X%X%X%X%XoX.X9.6.a p p p $ p p p n n n .X.XoXoX$X$X$X$X$XoXoX$XoXoXoXoXoX$XoXXX@XOX+X+Xs.*X*Xs.!.!.*X*X!.s.s.s.s.s.OXOXOX+XOX*X*X+X} b h u ; $ - i & ; ; ; & - - - 0 k s.s.e.p.p.p.w.<.<.<.p.w.<.<.<.p.p.1.<.6.w.p.q.1.q.q.q.q.q.q.q.q.n l a a n a p h h h z ' _ +.+.$.$.|.-XhX-XdXdXdX:X*X`.|.*X} -X-X{ / 0 0 d f U T { _.-X_.-X`.-X:XfXxXbXMXmXSXmXmXmXmXmXHXHXHXSXSXmXmXmXSXNXmXAXHXNXmXMXNXSXHXSXNXNXNXNXHXHXHXNXHXDXVXbXVXzX>X:X^.a.E.{.{.{.I.P.J.P.I.{.{.R.t q { fXFXHXSXHXNXNXNXNXmXNXSXSXSXSXSXHXHXHXSXHXFXvX] r :.].{.{.{.I.P.P.P.{.3X3XMXNXNXmXMXMXMXbXMXmXmXMXmXbXbXnXvXbXnXhX-X_.] T f j j - 0 w j j j j h f h / +.} { ' } } Q.} ~.!.~.*X] b p p l v W.W.!.*X*X*Xz.^.(.=X;X1X1X2X2X2X2XnXnXbXvXnXcXvXbXbXbXbXVXcXbXbXbXCXBXgXhXsXsXsXsXsX$.+.R d > - - - : C W +.).tX$.o.).`.).).'.eXeXeXeXeXeXeXeX[.'.'.'.'.'.eXeX[.eXeX[.[.",
"y y y y 6 5 6 6 6 6 6 6 6 6 7 6 6 6 6 6 6 :.:.%.%.%.%.%.:.%.6 :.:.Y.r e w C I E ! ! O.pXpXpXkXlXlXlXlXsXlXlXkXjXLXUXUXUXLXUXUXpX|.sXpX+.^ Y Y ' h h j j p a l n h.OX$X4X%X4X%X%X%X%X%X%X%X%X%X%X%X$XoXoX.Xn n a p p p p n n n n 7.7..XXXoXoX$X$X%X$XoXoXoXoXoX$XoX%X$X$XoXXX#X#X#XOXOXs.+X!.!.!.!.(.*X(.s.s.OXs.OXOXOX+XOXOX+X*X+X~.|.b h u i u ; ; ; - ; ; * - j $ 4 l q.a.p.p.p.<.<.<.<.6.<.<.<.<.<.q.1.6.p.p.q.q.<.1.q.1.q.q.q.q.q.n l a a a p p p j j h T ' [ +.@._.sXhXkXgXgXgXgXgX>XhX:X-X} @._._.T h T #.{ ( ) _.dXdXdXdXfXzXxXCXMXmXmXmXSXmXmXNXSXSXHXHXHXHXSXNXSXSXSXSXSXAXHXHXSXNXSXSXSXSXSXNXNXNXHXHXHXJXCXCXVXcX;X].T.T./.l.{.L.I.I.P.P.P.P.I.{.{.u.t 4 ) dXGXHXAXHXSXNXNXNXNXNXSXHXHXJXSXSXSXSXHXHXHXdXc t u.{.{.I.P.P.P.P.P.{.NX3XNXSXNXNXNXNXmXMXMXmXmXmXmXmXbXbXbXbXbXbXgXhX:X_.{ T h d d 0 0 - j h h f j T +.#.} #.} } } ] } } ] ' v s p s v Q.^.!.*X*X*X=X^.!.=X:X1X2X1X1X2X2XxXbXbXbXbXvXvXvXvXvXvXbXvXbXbXbXCXVXVXgXhXdXsXsXsXsX$.o.I - * * ; : - : C ^ #.#.@.o.o.).).).).tXeXeXeXeXeXeX'.'.'.'.[.eX'.'.'.'.'.'.eXeX",
"y 6 y 6 y 6 6 y 6 6 6 6 6 6 6 7 6 7 6 %.%.:.:.%.%.%.%.%.:.t r r e e e C C R R R O.O.O.pXpXlXlXlXlXlXlXsXlXlXkXjXUXUXUXkXUXlXlXpXO. X[ T d f u h h p n n s.7.OXXX@X%X4X4X4X%X%X%X%X%X%X%X%X%X%XoXoXXX.X.Xn n p $ p p n n n n n n 6.9.oX$X$X$X$X%X%X$XoXoX$X$XoXoX$XoX$X%XXXXX#X#X@X#XOXs.s.!.Q.Q.*Xs.s.!.*X+XOXOXOXOXOXOXOXOXOXOXOX*X*X+Xb h u $ ; * * i ; ; - u d 0 j p k a q.p.<.<.<.<.<.<.<.<.<.<.<.<.1.w.p.p.q.1.1.q.q.1.q.q.q.q.q.q.n n a a p n p j j u h ` ~ +.$.-XdXhXkXBXvXvXbXvXgXgXgX-X} ] @.} { _.-XdXdX-X-XdXvXcXgXcXcXCXMXJXAXmXmXSXSXSXNXNXSXSXSXSXHXSXSXSXSXSXSXSXHXHXHXHXSXSXSXSXSXSXHXNXNXNXHXHXHXHXHXJXCX;XW.l :.R.{.{.I.I.P.P.P.P.P.P.P.I.{.u.t q / dXFXHXHXAXNXNXNXNXJXNXSXHXHXJXSXSXSXHXHXHXCX_.q t /.{.{.P.{.P.P.P.P.I.3X3X3XNXNXNXnXMXmXmXmXmXmXMXMXmXMXbXbXbXbXVXBXVXBXgXsX_.{ ' g j j j h T T Y d h ' { +.#.-X#.*X} ] ' z g h h z x s.!.(.=X*X(.(.=X(.(.=X>X2X2X1X1X1X2XxXnXbXbXbXbXvXvXvXcXvXvXbXbXbXbXCXbXVXgXkXsXsXsXsXpX$.W : ; * * * * * > : P +.+.+.( ( o.[.[.).[.'.[.eXeXeXeX[.eX'.eXeX'.'.'.[.eX'.'.[.eX",
"5 5 y y y 5 6 5 5 6 6 y 6 6 6 y 6 6 %.%.%.:.%.%.%.%.6 %.:.r r e e 9 9 w M R ! ! O.uXpXpXlXlXlXlXlXlXlXlXlXlXjXUXkXlXlXlXlXpXpX` ` Y Y Y h j b b b OXs.@X@X$X%X%X%X4X4X4X%X%X%X%X%X%X%X%X%X%X$X.X7.n n p p 4 $ p n n n n n n .X.XoXoXoX%X%X%X%X%X%X%XoX%XoXoXoXoXoX$XoXoXXX.X.XOX#XOXOXs.s.s.*XQ.Q.Q.!.(.*Xz.OXOXOXOX@XOXOXOXOXOXOXOXOX*XQ.b s p ; - - ; - ; - u u h h p p p a q.<.<.<.<.<.<.<.<.<.w.q.<.<.q.<.q.1.1.1.q.q.1.q.1.q.1.q.q.n a a a n h h j u u u u P _ $.sXdXhXgXjXvXvXGXGXvXgXnXgXdX} / / { -XhXBXZXBXjXcXvXBXcXbXAXAXAXAXbXNXmXNXSXSXNXSXSXSXSXSXSXSXSXSXSXSXSXSXAXAXSXSXSXSXSXSXSXSXSXSXHXHXHXHXHXHXHXFXnX`.c t >.{.{.I.I.P.P.P.P.P.P.P.J.P.I.R.r.r ( dXLXHXHXHXNXNXNXNXmXNXHXSXAXAXSXSXSXHXHXHXxXx q r.{.{.{.P.P.P.P.P.P.P.3X3X3X3X3X3X2XNXNXmXMXMXMXmXmXmXmXmXMXAXCXVXCXFXFXFXvXfX-X-X{ / / / ` ~ T T d d f ~ [ #._.-X-X-X' T s j h z } ~.!./.=X=X*X(.!.z.(.(.:X>X2X2X1X1X1XxXxXnXbXbXbXvXvXvXVXBXcXvXvXbXbXbXCXGXBXgXlXsXsXsXsXpX .: > * * * * * * * > d W +.( ( W W o.[.[.[.[.eX'.eXeX[.eXeXeXeXeXeX'.'.eXeX'.'.eX[.",
"5 5 y 6 y 5 5 6 5 6 6 6 6 6 6 6 6 6 6 %.%.%.%.%.%.6 6 7 r r e 9 9 = = : M F ` O.qXpXpXlXlXkXkXlXlXlXlXlXlXlXkXkXlXsXpXpX|.+.` ` ` Y j h b b b s.OXOX$X$X%X%X%X%X%X%X$X$X%X%X%X%X%X%X%X%X$XoX7.7.n p p 4 $ $ p a n .X.Xn .X.XXXXXoXoXoXoX$X%X%X%X%X%X%X%XoXoXXXXXoXXX#X@XXX.X.XOXOXOXOXs.OXOX!.!.Q.!.!.*X*Xs.^.+X+XOXOXOXOXOXOXOXOXOXs.OXOXb b h u * - ; & ; ; ; u Y h s p p a p.p.<.<.<.<.<.<.3.<.<.<.<.<.1.q.q.q.p.p.q.6.q.1.1.1.1.q.q.b a a n n b b j j j u u u ~ #.-XhXhXgXgXgXvXCXFXGXvXvXFXvXdX#.T ( #.sXgXGXFXGXBXBXVXVXAXAXSXSXSXmXSXNXNXNXNXNXSXSXNXNXSXSXSXSXSXSXSXSXSXAXmXNXNXSXSXSXSXNXSXSXSXHXHXHXHXAXJXFXcX:Xx q.r.{.{.{.P.I.I.P.P.P.P.P.I.P.P.{.{.e.c ] dXFXFXHXAXNXNXNXNXJXSXHXJXAXHXHXSXHXHXHXCXxXc r E.{.{.{.{.P.P.P.P.P.P.P.{.<X3X3X3X3XSXmXmXbXbXbXSXAXmXmXmXSXAXAXHXHXFXHXFXGXZXVXgXsX-X-X-X} ' T g f f f d Y ' +.-X-X#.' h j h h ' *X-X*X^.*X*X=X(.(.z.=X=X=X2X2X3X2X2XnXxXbXbXbXbXCXCXBXBXBXBXvXvXvXVXCXCXbXbXvXgXsXsXsXsXpX+.R > * * > * * * * * > w U ^ W U C C U W ) [.[.[.eXeXeXeX[.eX[.eXeXeX'.eXeX[.'.'.eX'.",
"5 5 5 5 5 5 5 6 6 6 6 6 6 6 6 6 %.%.%.%.%.%.%.%.%.%.6 r 3 e 9 9 , > > M D F O.O. XpXlXUXUXUXUXUXUXUXkXkXlXlXlXlXsX|.|. X$.` ' h h b h h v b .X.XoX%X4X%X%X%X%X%X%X%X%X%X%X%X%X%X%XoX$XoX.X7.n n 4 4 $ $ $ p p n n .X7..X.XoX$XoXoXoX%XoXoXoXoX%X%X%X%X%XoXoXoXXXXX@X@X@X.X.X.XOXOXOXOXOXOXOX*X!.!.!.!.*X*X*X*X*X*X+XOXOXOXOXOXOXOXOXOXOXOXOXb b j u - * ; ; ; * - u g z l k a p.p.p.<.1.1.1.<.<.<.<.<.1.<.1.1.q.p.p.p.1.1.<.<.1.<.1.q.q.v n n a p p h h h u u d : ^ |.sXkXkXjXhXgXgXgXjXvXvXgXvXGXvXhX|.[ ' #.hXBXBXGXFXZXFXCXCXbXbXAXAXAXSXSXNXNXmXSXSXNXNXNXSXSXSXSXSXSXSXSXSXmXmXmXMXNXSXHXNXNXSXSXHXHXHXAXCXbXFXgX`.z c a.{.{.J.J.{.P.P.P.P.P.J.J.P.P.P.{.{.a.c ) fXFXHXHXHXSXNXNXNXNXSXSXSXHXHXHXHXSXHXHXbX:Xc 1.l.{.{.P.P.J.P.n.n.U.n.P.I.{.3X3X3XNXmXmXmXbXbXbXAXAXmXmXmXmXMXAXHXFXHXCXVXGXFXHXGXBXjXBXgXdXsX@.U u w d d u I Y ~ T T T g j j h ' -X-X:X`.!.(.=X=X=X=X=X;X2XxXnXxXxXnXxXbXbXVXVXVXVXvXvXBXvXvXvXvXbXbXCXVXbXvXhXsXsXsXdXpXpX+.I > * > : : * & * * > d P U U w w w C U ) ) [.[.'.eXeX[.eX'.eX[.'.'.[.'.'.'.'.'.'.'.",
"5 5 5 5 5 5 5 5 7 6 y 6 6 6 6 :.&.%.%.%.%.6 %.%.6 6 7 5 9 9 = > > > & N ; F pXpXlXkXUXLXLXLXLXLXLXjXkXkXlXsX|.$.` h ' ` T h h n n n .X.X.X$X$X%X%X%X%X%X%X%X%X%X%X%X%X%X%X%X$X$X$XXXXXn n n p p $ + $ $ 4 n n 7..X.X.X.XoXXXoXoXoXoXoXoX%XoXoX%X%X%X%X%X$XoXXXXXXXoX@X@X@X#XOXs.s.OXs.OXs.OXs.s.s.*X!.(.!.*X*X*X*X*X*XOXOXOXOXOXOX+XOXOXOXOXOXOXb h - * - u u ; * - u h l l l q.q.<.1.1.1.q.w.w.w.<.<.<.p.<.1.<.1.<.<.1.1.1.6.6.1.1.<.p.<.a a l h j p u f u u i u I Y O.|.sXlXkXsXsXhXgXvXvXvXgXgXvXBXBX-X] ' ' -XhXgXjXjXZXZXVXCXCXAXAXAXmXmXmXmXmXmXNXNXNXNXNXSXSXSXSXSXSXSXSXmXmXmXMXmXNXSXHXSXNXNXSXHXAXVXFXCXdXW.s c s./.{.{.P.J.J.P.P.P.P.P.P.P.J.J.J.3X3X=X^.{ sXDXFXHXHXSXNXNXJXmXSXSXSXHXHXHXHXHXHXHXxXY.r.i.{.{.P.I.P.G.v.n.c.c.G.J.L.<X<X3XSXNXmXbXmXmXmXmXAXAXmXSXmXmXmXAXAXAXHXHXJXHXHXFXFXFXFXFXGXjXgXsX[ f d P u - d : : U ~ h 0 j f z ] ~.-X-X~.~.*X*X*X=X].:X1XxXnXnXnXnXbXbXbXbXJXCXvXvXvXbXbXbXbXbXbXbXbXbXbXvXcXhXdXsXsXsXsXpX^ ; * * : : - * * * * - - f f P w U U U w C ) wXR.[.'.eX[.'.'.eXeX'.'.eXeX'.'.'.'.'.'.",
"5 5 5 y 5 5 5 y 7 7 6 6 6 6 %.%.%.%.%.%.%.%.%.%.%.6 y 1 # , * & & & & > ; F O.lXUXLXUXUXUXGXjXkXlX-XsX$.|.[ Y Y h h b b b +XOX.X.X.XXX$X$X%X%X%X%X%X%X%X%X%X%X%X%X%X%X%X%X$XXX.XOX7.n p p $ + + + + 4 4 a n 7..X.XXXXXXXXXXXoXoXoXoXoXoXoXoXoX%X%X&XoX%X%XoXXXXXXXXX@X@X@XOXOX7.s.s.s.s.s.s.OX+X*X*X*X!.*X*X!.*X*X*X*X*X+XOXOXOXOXOXOXOXOXOXOXb |.b j - * ; - ; ; - j s h c l l q.q.<.1.q.q.7.q.q.w.w.<.p.<.<.<.<.<.6.<.6.<.<.8.<.<.<.6.<.1.n l n p u j u u D i D u I ! O.$.pXpXsXsXdX-XhXvXGXgXgXgXvXvXvX>X`.} ] -XdXlXjXjXZXZXVXVXCXCXCXAXAXmXmXmXmXmXmXmXNXNXSXSXSXSXSXSXSXSXmXNXNXNXNXNXSXHXSXSXHXSXSXHXAXVXcX~.z s c T.(.{.{.I.P.P.I.P.P.J.P.P.P.P.J.P.3X3X].^.~.hXKXHXDXSXNXNXNXmXSXSXSXSXSXSXHXHXFXHXbX:Xe.y.L.I.P.P.J.J.G.c.c.c.c.v.P.<X3X3XNXSXSXAXbXbXbXMXMXMXmXmXmXmXmXMXAXAXAXHXHXHXJXHXJXJXHXHXHXKXFXVXhX#.(  .[ ^ M : - : u Y f d j g / ' _.-X-X-X`.-X*X:X:X:X>XxXnXnXcXcXnXbXbXbXCXCXVXvXvXcXbXbXbXbXbXbXbXbXbXvXvXgXhXfXsXsXsXsX$.` ; % & - ; * * * : 0 w w U P f f / / U g U ( o.o.[.'.[.eX'.eX[.eXeXeX'.'.'.'.eXeX'.eX",
"5 5 5 5 5 5 5 5 7 6 6 6 6 %.%.%.%.%.%.%.%.%.6 %.6 y < + + * > > & & > * ; M J pXUXlXlXsXpX-X_.+.} ` ' T h b h n b b b OXOX.X.X.X.X$X$X%X%X%X%X%X%X%X%X%X%X%X%X%X%X%X%X%XXX.X7..Xn p p p $ $ $ + + < a n 7.7..X.XXXoXoXoXoXoXoXoXoX%XoXoXoXoXoXoXoXoX%X%X%X%XoXoX$X@X#X@X#XOXOX+Xs.s.7.p.OXOXOX*X*X*X*X*X!.~.^.!.!.*X*X*XOXOXOXOXOXOXOXOXOX.X.X+X+X+Xb b j u ; - - - $ 0 p p k l l q.q.q.q.q.q.q.1.w.<.w.p.p.<.6.1.1.6.6.6.<.8.8.8.<.<.6.w.6.a a p h j f u u F F D i M D F O.[ $.|.lXsX-X-XgXCXvXxXvXnXnXvXbXgX-X} -X`.sXlXdXgXBXBXBXVXVXCXAXAXAXmXMXmXmXmXSXSXNXSXSXSXSXSXSXSXSXNXNXmXNXNXNXNXNXNXHXHXSXHXFXHXBX:X] z c Y.^.(.{.{.I.P.I.P.I.P.P.P.P.P.P.P.P.3X1X].^.`.BXDXHXSXSXNXNXNXmXSXSXSXSXSXHXHXHXHXHXnX:XE./.L.P.P.J.U.J.P.G.c.c.n.P.&X<X3X3X3XSXSXbXbXbXbXMXMXMXSXmXmXmXmXmXmXMXmXAXAXHXFXHXHXHXHXFXHXHXHXFXvXdX-X-X-X@.d - : : u : - w d g h / } -X_._.-X-X:X:X:XhXxXcXbXnXnXbXVXbXVXCXVXCXVXvXvXvXvXbXbXbXbXbXbXbXbXbXxXgXgXfXsXsXsXpXO.D V , > ; ; * @ * d d w f U U f g h U g g / ) [.[.[.[.'.eX'.eX[.eX[.'.'.eXeX[.[.'.'.'.",
"5 y 5 5 5 5 6 6 6 6 6 6 %.%.%.%.%.%.%.%.%.6 5 6 y 2 < + X , > > * & @ * ; M F $.|.#.T Y T h h j h n h n b b b OXn .X.X.X$X$X$X$X$X$X%X%X%X%X%X%X%X$X%X%X%X%X%X%X$X$XoXoX.Xn n n p $ $ @ O + $ 4 p p n +XOXOXXXoXXXoXoXoXoXoXoXoXoX%XoXoX%XoXoX%XoXoXoX%X%X%X$X$X$X@X@X@X#XOXOXOX+Xs.+Xs.+XOXOX*X*X*X+X!.!.!.!.!.!.!.!.OXOXOXs.OX+XOXOXOXOXOX.Xb OXOX|.+Xb h f - $ - $ $ $ p k l z q.q.b 1.n q.q.<.<.<.1.6.w.<.<.<.1.<.6.8.<.8.3.6.<.<.6.<.p.q.a a j h f u u F ! D i ; u D Y ` +.|.pX-X-X-XhXvXvXvXvXvXxXvXGXvXvX>X>X-X-X-X-X>XsXjXcXjXVXVXbXCXHXAXAXMXMXmXmXNXNXNXNXSXSXSXSXSXSXNXNXmXNXmXNXNXmXNXSXHXMXCXHXVXdXQ.z x W.(.(.(.L.I.I.P.J.P.P.P.P.P.P.I.P.I.<X3X1X(.Q.-XBXHXHXDXSXSXSXNXNXSXSXSXSXSXHXHXHXSXbXzX=X(.{.L.I.I.P.P.P.P.P.c.v.D.D.&X3X3X3XnXNXMXbXbXbXbXmXJXAXSXmXmXmXmXmXmXmXmXMXAXAXAXHXHXAXHXHXHXHXHXFXFXVXvXgXhX_.U w : f d : - : d u f h { #.#._.-X-X:X:X>XcXCXbXVXnXnXCXCXbXvXVXCXCXbXvXvXcXvXbXbXbXbXbXbXbXbXbXgXgXhXhXsXsXsXO.^ ; > > ; ; * * * - d d f f U P f f T U U k ) o.[.[.[.`.eXeXeX'.eX'.'.eXeX[.'.[.tX'.'.eX",
"5 5 5 y 5 6 6 6 6 6 6 6 %.%.%.%.%.%.%.6 6 7 t e 3 + + O O O * * - @ @ - - u D Y ~ j $ p j n p p p n n n OX.XOX.X.XoX%X$X$X$X$X$X%X%X%X%X%X%X$X$X$X$X$X%X%X%X%XoXoXXX.Xn n n p p $ $ . @ @ $ p p n n 7..X#X.XXXXXXXXXoXoXoXoXoXoXoXoXoXoX%X%X%X%X%XoXoX%X%X%X%X$X$XXX@X@X#X#XOXOXOX+X*X*Xs.OXOXOX*Xs.s.!.!.!.Q.~.!.(.!.z.s.s.s.OXOXOXOXOXOX.XOXOXOXOXOX+X*X*Xb p j $ $ $ $ p j s z z v b n n n q.1.1.1.6.<.<.<.<.<.1.1.<.<.<.<.<.<.<.1.<.<.p.p.q.k p s j u u u ! F i ; i A F ` +.#.|.|.-X-X-XhXvXvXvXvXvXvXvXvXGXGXjXhX-X-X|.-X-XdXhXgXBXBXgXbXCXAXAXAXmXmXMXMXmXmXNXNXNXSXNXSXSXmXNXmXNXNXNXNXmXNXNXHXMXCXVXhX~./ z W.^.(.(.(.L.L.I.J.J.J.P.P.P.P.P.P.P.P.3X3X=XW.~.dXVXDXDXDXSXSXSXNXNXSXSXSXSXSXHXHXNXAXMX2X=X{.{.L.L.P.P.P.P.P.P.P.J.P.I.&X&X<X<XxXnXnXbXbXbXJXMXAXAXSXNXmXmXmXmXMXmXmXmXmXAXMXAXHXAXAXJXHXCXHXHXHXHXDXZXBXdX#.( T f P Y P d : - d P ( { #._.-X:X:X>XhXvXCXbXcXbXbXbXbXbXvXVXVXbXbXvXbXvXcXcXvXbXbXbXbXbXbXcXgXgXhXsXsXsXpX_ I ; > > > > ; - : : u d d f U d f f U T U C ) ) W ) ).).eX[.'.'.eX[.eX[.eXeXeXtXeX'.'.eX",
"6 6 6 6 6 6 6 %.%.%.%.%.%.%.%.,.%.%.%.6 t r 5 9 # + O @ @ @ = $ $ $ $ 0 j - u j h h p p n n n n n OX.X.X.XoX$X$X$X%X%X%X%X%X%X%X%X%X%X%X$X$X$X$X$X$X$X%X%XoXXXXX6.7.n n p p $ $ $ @ $ - $ p a n n 7..X.X#XXXXXXXoXXXXXXXoXoXoXoXoXoXoXoXoX%X%X%X%X%XoXoXM.%XoXoXXXXX.X.X#XOXOXOXOX+X*X*X*XOX*X*X*Xa.*X} Q.Q.Q.!.*X*X*X*Xs.7.+XOXOXOX+XOXOXOXOXOXOXOXOXOXOX+X*Xb b p p $ $ $ j j g h z l l n n q.1.1.1.1.1.<.<.<.1.<.<.<.<.<.<.<.<.<.1.<.p.p.p.v k p s j u u u i A F i ; D F _ $.$.$.-X-X-X:XgXcXvXvXvXvXvXvXvXvXvXjXgXhXhX-X|.-X:XhXhXjXgXgXvXVXVXVXAXHXHXCXMXAXmXmXMXNXNXNXNXmXmXNXNXNXNXNXNXmXmXmXJXHXDXcX;X) g ] ~./.(.(.L.L.{.I.P.J.P.P.P.P.I.I.I.I.P.3X<X^.W.^.fXBXDXDXSXSXSXSXNXNXSXSXSXSXHXHXHXmXAXMX2X=X{.{.L.L.P.P.P.P.I.P.P.P.P.P.&X<X<X1X1XvXcXcXnXbXnXbXAXAXAXSXSXSXSXmXmXmXMXmXMXmXmXAXAXAXAXAXAXAXSXAXAXHXHXHXFXFXBXsX-X+._ ^ @.+.R C I U _ #._.-X-XdXgXgXgXbXCXbXvXbXbXnXvXCXVXVXVXbXbXbXbXbXvXvXbXbXbXbXbXbXvXgXgXhXhXsXsXpX|.` M > > * * * ; : : u u d f d d d d U T T U / o.) ) Y.[.).'.[.'.'.'.'.'.'.'.eX[.[.[.'.'.eX",
"6 6 6 6 6 %.%.%.%.%.%.%.%.%.%.6 %.%.%.6 r t 9 1 + O O = = - 0 s p s p s s j j z b v n n 7.7..XOX.X$X$X$XoX$X$X$X%X%X%X%X%X%X%X%X%X%X%X%X%X%X%X%X$X$X$X$XXXoX6.n n p p p $ O . . @ $ $ u j n n .X.XXX.X.XXXXXXXXXXXXXXXoXoXoX%XoXoXoX%XoXoX%X%X%X%XoXoXoXoX$XXXXXoXoXoX.X#XOXOX+XOX*X*X*X*X*X*X*X*X*X*Xz.!.s.s.+X*X*X*X*X|.s.s.OXOXOXOXOXOXOXOX.X.XOXOXOXOXOX+X+Xs.l p p p p p $ 0 j s c b b b n n q.1.1.<.<.6.6.6.6.<.<.<.<.<.<.<.<.<.<.p.p.w.q.a p j j f u i i F D i & i F ! K ~ +.$.-X-XhXBXvXgXhXgXgXhXhXgXvXvXvXvXvXgX:X-X_.-X-XsXsXgXgXgXjXvXvXBXHXHXDXAXAXMXmXmXmXmXNXmXNXmXmXNXmXNXNXSXSXSXmXHXHXFXxX:X) / ~.^.^.(.(.(.{.{.{.{.P.P.P.I.P.I.I.I.&X<X3X{.r.x -XgXVXDXHXSXSXSXSXSXNXNXSXSXSXHXJXHXHXHXnX<X<X{.{.I.P.P.P.P.P.P.P.P.P.P.P.P.L.<X<X1XzXfXfX;X>XhXcXCXCXAXAXSXSXSXSXSXmXmXmXmXmXAXAXAXAXAXAXAXAXAXSXAXSXHXHXHXHXFXVXBXhXsX-X-XsXqXO._ [ +.$.sXsXdXhXgXvXBXbXCXbXVXVXVXbXvXCXVXVXvXvXbXbXbXbXcXcXcXvXbXbXbXvXcXcXgXhXlXsXsX|.$.F ; > * % * * : : : d f f P I P P P T T T T U ) ) o.[.[.[.[.[.[.[.'.'.'.'.[.eX[.tXtXeXeXeX",
"6 6 6 %.%.%.%.%.%.%.%.%.%.%.%.%.%.%.6 r r 9 1 , . @ * = 0 u j h b s.b b b b b OX+X+X+X.X.XXXoX$X$X$X$X$X$X%X%X%X%X%X%X%X%X%X%X%X%X%X%X%X%X%X%X%X$XoXXX.X7.n n p 4 4 $ $ . @ @ $ $ p p p n 7..XXX$XoXXXXXXXXXXXXXXXXXXXoXoXoXoXoXoXoX%X%X%XXXoX%X%XoXoX%XoXXXoX@X#X@X@X@X#XOXOXOXOX#X#Xs.*X*X*X*X*X*X*X(.!.s.+X+X*X*X*X*XQ.s.+XOXOXOXOX+XOXOX.X.X.X.XOXOXOXOXOX+X+Xs.b l n j 0 $ $ - j j s b b b n n n 7.6.6.6.<.3.6.<.3.<.<.<.<.<.<.<.<.<.6.w.x l k s j j u u i i i i & i D F F F O.+.$.`.lXjXkXhXhXhXgXhXhXgXvXvXvXhXgXhX>X-X_.[ @.$.-XsXsXhXkXkXgXcXBXHXHXHXHXAXAXmXmXmXMXmXmXmXNXMXNXNXNXSXSXSXmXmXAXAXxX]._.} W.^.(.(.z.(.{.{.{.L.L.I.P.P.P.K.K.L.{.{./.e.Y.~.:XcXCXHXHXSXSXNXNXNXNXmXSXAXSXJXVXHXHXmXMXzX{.{.L.I.P.P.J.J.P.P.P.P.P.P.P.L.L.{.<X:X`.).[ ( ] ~.:XgXBXCXCXAXDXAXAXSXAXAXmXmXmXmXmXmXSXSXSXSXbXbXMXAXSXAXAXNXAXCXHXHXGXBXgXdXsXlXsX+.O.|.sXsXlXhXgXjXjXBXFXFXbXVXVXCXbXvXVXVXVXvXvXvXvXbXbXcXnXcXcXvXvXvXcXcXcXgXhXsXsXsX-X_ : % % % . * > : : - d f d P Y P P Y T T T ^ / / ( ( ).).[.[.[.'.eX'.[.eX'.'.'.[.tX[.'.eXeX",
"%.%.%.%.%.%.%.%.%.%.%.%.%.%.%.6 %.6 r r e 1 + O @ * * $ j p a n s.OX*XOXs.b n OX.X7..XXXoX$X$X$X%X$X%X%X%X%X%X%X%X%X%X%X%X%X%X%X%X%X%X%X%X%X%X$XoXoXXX6.n a p $ 4 $ O + $ $ $ $ p p p n n 7..XXXoXoXoXoXoXXXXXXXXXM.XXoXoXoXoXoXXXoX%X%X%XXXXXXX%XoXoXoXoXoX@X@X@X#X#X#X@XOXOX+XOX*Xa.s.+X*X!.*X*X(.!.!.!.s.OX+X*X*X*X*XQ.Q.s.+X+XOXOXOXOXOXOX.X.X.X.XOXOXOXOXOXOXOXs.s.b b j 4 $ $ - $ j h z l l b s.p.<.1.1.1.1.<.1.1.1.<.<.1.<.<.<.<.<.<.q.q.v x s j j u u & & & & & A A i F ! ` O.+.#.pXhXkXgXgXhXhXhXvXgXvXgXhX>XgXgX>XdX_.[ U _ #._.sXlXkXjXgXgXgXBXVXFXHXHXAXAXmXmXmXmXmXMXMXMXMXmXmXSXSXSXHXSXAXAXbXcXcXdX`.^.W.(.(.{.(.{.l.l.K.I.{.L.{.{.{.{.l.j.q.c ~.:XgXBXVXHXHXSXSXSXSXNXNXmXNXAXHXHXbXCXbXzX].{.{.{.I.P.I.P.J.J.D.P.P.J.P.P.P.I.L.{.=X=X_.g w - - f } dXBXVXBXCXAXAXAXAXAXAXAXMXmXMXAXSXSXmXmXmXmXAXAXAXNXMXMXSXmXAXHXCXFXCXVXBXlXlXlXsXsXsXsXlXlXhXgXkXjXZXFXFXFXVXVXbXbXbXVXVXvXvXvXvXvXbXbXbXcXcXcXcXcXcXcXcXgXhXsXsXsXpXqX` ; . % % % - : w : - P P Y Y Y P P Y Y T ^ T T / ) [.).tX[.[.tX'.'.eXeXeX'.'.'.tX[.'.'.eXeX",
"%.%.%.%.:.=.%.%.%.:.%.%.%.%.%.%.6 6 r r 9 1 , O @ * - $ p p n OXs.s.7.+Xs.7.7..X.XXXoX$XoX$XoX%X%X$X%X%X%X%X%X%X%X%X%X%X%X%X%X%X%X%X$X$X%X$X$X$XXX6.6.n p $ $ $ $ @ O $ $ $ $ p p n .Xn XXXXoXoXXXoXoX$XoXXXoXoXoXoXXXXXoXoXoXoXoXoX$X%X%XoXXXoXoXoX&X$X$X.X@X@X@X@X#X#X@X@X#X+X(.a.s.*X*Xs.^.*X*X!.!.!.!.!.+X*X*X*X*X*XQ.*Xs.7.+XOXOXOX+XOX.X.X.X.X.XOX+XOXOXOXOXOXOXOXs.b b h 0 $ $ $ 0 j g s c l l b q.q.1.1.1.1.1.1.1.<.<.1.1.<.1.<.6.<.1.q.v v h j j u ; ; & & & i & & ; A F ! ` +.$.sXsXsXgXgXgXhXhXgXvXvXxXxXgXgXhXhXhX-X[ I u R O.$.sXsXhXlXkXgXvXjXVXCXFXAXAXAXMXmXmXmXmXSXNXNXMXNXNXmXmXSXNXSXAXHXAXAXvXzX:X^.!.z.=X=Xz.j.l.l.l.l.{.{.{.L.l.e.q.8 x `.gXGXCXJXDXHXSXSXNXSXmXNXSXCXAXHXGXCXVXzX;X].{.{.{.P.J.J.J.J.J.J.P.n.G.n.D.D.K.L.=X(.^./ - * * @ : ~ |.lXkXcXBXVXCXCXAXDXAXAXAXMXAXSXSXSXSXmXmXmXAXCXAXMXAXAXSXAXAXHXAXbXbXCXZXZXkXkXsXsXlXsXlXlXhXgXjXBXVXFXFXFXVXbXbXbXbXVXvXvXvXbXbXvXbXbXcXcXcXcXcXvXcXcXcXgXhXlXsXpXpX+.D > % % % * > : d d d d d I I Y I Y Y Y ^ ~ ~ U / ) { ).eX'.[.eX'.'.eX[.eX'.'.'.[.'.'.eXeXeX",
"%.,.%.%.=.=.,.,.%.&.%.%.%.6 %.%.6 5 y e 9 + , + - $ $ p p n +XOX.X7.7.s.7.6.6.7..XXX$X$X$XoX%X%X$X$X%X%X%X%X%X%X%X%X%X%X%X%X%X%X%X%X$X$XoXoX.X.X7.n a p p + $ $ . @ $ $ p p n n .X.X.X$XoXoXoX$X$XoXoXoXXXXXXXoXoXoXXXXXXXoXoXoXoXoX$X$XoXoXoXoXoXoXoXoX$X@X@X@X@X#X#X#X@X@X#X+X!.*X(.*Xs.s.h.*X*X!.!.!.*X*X*X*X*X*X*X*XQ.*X*Xs.OXOXOXOXOXOX.X.X.X.X.XOXOXOXOXOXOXs.OXOXOXs.s.b h p u - - 4 j p s k l b n q.q.1.1.<.1.1.1.1.<.<.1.1.1.<.<.<.1.q.b b b h h u u i & & A & & & m A A K ` O.-XsXsX-X-XgXgXkXgXgXhXvXvXvXgXhXkXhXhX-X[ u > ; Q ^  .$.sXsXhXkXgXgXgXcXvXVXAXAXAXAXmXMXmXSXNXmXmXNXNXmXmXNXNXmXAXAXDXAXDXHXcX>X=X*X=X=Xk.a.d.j./.(.{./.(.(./.a.l c ~.:XGXFXHXHXDXHXSXSXNXNXSXSXSXHXHXHXHXGXgX;X1X<X{.{.P.J.J.P.J.J.J.G.n.n.n.b.2.b.C.L.(.(.] w * > ; ; u F ..qXsXhXhXBXVXVXBXCXDXAXCXAXCXMXAXMXSXmXMXAXAXCXAXAXAXAXAXAXAXAXmXMXCXbXAXFXZXBXkXkXlXkXlXhXhXjXZXGXFXFXFXGXVXCXbXbXVXVXvXvXbXGXCXbXcXvXcXcXcXvXvXvXvXcXcXcXgXgXsXpX$.+.: * * % % * * ; u d d d u I P Y I Y Y ~ _ ~ W T ( { Y.~.[.eXeX[.eX'.'.eX[.'.'.'.'.'.'.'.eXeX",
":.%.,.&.=.=.=.%.%.%.%.%.6 6 6 y 6 6 e 1 # # # $ $ $ p p n n OX.X.X7.n n 7.6.7.XXXXoX$X$X$XoX%X%XoXoX%X%X$X$X%X%X%X%X%X%X%X%X%X%X$X$X$X.X.X.Xn n p p $ @ @ O @ $ $ $ p p p n n .XXXoX$X$X$XoXoXoXoXoXoXoXoXXXXXXXXXXXXXXXXXXXoXoXoX$X%XoXoXoXoXoXM.oXoXoX@X@X@X@X@X#X@X@X@X@X#X+X!.(.*X!.s.s.7.*X*X!.!.!.*X*X*X*X*X*X*X} } +X} +XOXOXOXOXOXOX.X.X.X.X.XOXOXOXOXOXOXOXOXOXOX+Xs.v v v j u u u $ $ p k z b b l q.q.1.1.1.<.1.1.1.<.<.1.1.<.<.1.1.q.l v z h f u u u i i A & & & & A A A S F $.sXsX|.-X-XkXkXkXhXhXgXgXvXvXgXkXdX-X$.^ u ; > D M D ~ +.+.sXsXsXhXdXdXgXcXCXAXHXCXAXMXmXSXmXMXMXMXNXmXNXNXNXSXSXAXAXMXHXHXHXJXnX2X;X=X(.p.q.s./.(.z.(./.(.^.=X^.~.-XgXHXHXHXSXSXHXHXNXHXSXSXSXSXDXHXHXDXkXhX;X;X{.{.{.P.P.P.P.J.J.J.G.n.c.b.2.5.4.L.<X=X*X' : % A F F i D F ~ $.sXsXhXjXjXBXBXVXVXVXVXbXbXbXbXMXMXAXAXDXDXAXAXAXAXMXMXMXAXAXSXAXAXAXHXFXGXZXZXjXjXgXhXgXBXZXGXZXFXCXCXVXbXbXbXbXVXvXvXvXVXCXbXcXcXcXcXvXvXcXvXcXgXvXgXlXlXsX|.$.O.D * % * * * * : u I I d I P I Y Y Q Y ~ _ _ ~ U ( @._.).).eX'.eX[.eX'.eX'.'.'.'.eX'.'.'.eXeX",
":.%.%.=.=.=.>.=.%.%.%.%.%.6 6 y 5 3 1 1 # @ $ $ $ 4 p n b OXOX.X6.7.6.7.6.7..XXXoXoXoX$XoXoXoXoX$X%X%X$XoX%X%X%X%X%X%X%X%X%X$XoX$X.X.Xn n n n p $ $ $ $ @ $ $ p p p p n 7..X.X$X$XoX$X$XoXoXoXoXoXoXoXoXXXXXXXXXXXoXoXoXoXoXoXoX$XoXoXoXoXoX%XoXoXoXXXoX@X@X@X@X@X@X@X@X@Xz.z.*X*X!.s.!.(.s.s.s.!.Q.Q.Q.Q.*X*X*X*X*X] b b b OX+XOXOXOXOXOX.X.X.XOXOXOXOXOXOXOXOXOXOXOXOXOXs.s.OXs.] z h s j $ $ $ j p k l c b v q.1.1.1.1.n 1.1.1.1.1.1.1.<.1.q.b v v h h u u u A A i & & & & & A m m F J pXsX$.+._.sXlXhXhXgXgXhXhXgXjXdX-X#._ P M ; ; N ; : : M I Q @.-XsXsXdXfXgXVXFXHXVXbXcXMXNXmXnXnXnXmXNXNXNXNXNXSXSXmXmXSXSXHXHXJXJXbXxX>X].(.^.^././.(.(.:X>X>X>X:XvXVXFXHXHXSXSXSXmXHXHXHXSXSXDXDXAXBXhXsX-X:X1X].{.{.P.P.J.J.J.J.G.v.c.;.;.;.2.H.L.<X<X*X^ u m F K K F F F K O.O.sXsXlXlXlXgXBXGXVXVXVXCXbXbXbXbXbXDXDXDXDXAXAXAXAXMXMXmXSXSXSXAXAXAXAXHXHXKXGXZXjXjXBXZXGXGXVXVXCXCXCXVXbXbXbXVXvXvXbXbXCXbXCXbXcXcXcXvXvXcXgXhXgXkXlXlX-X|.$._ : % * * * > : : I I P d I Y Y Q ^ ^ ~ ^ ^ ^ ~ U ( @.).).'.'.'.'.eX'.[.eX'.'.'.'.'.'.'.eXeXeX",
":.%.%.&.=.=.=.=.%.%.%.%.%.6 5 5 5 5 3 1 $ $ $ 4 p a b b OX.X7.7.6.6.6..XXX7.6.7..XoXoXoXoXoXoXoXoX%X%X%X%X%X%X%X%X%X%X%X$X$X$X.X.X.Xn n p p $ $ $ $ $ j p p p p n n n .X.X$X$X$XoX%XoXoXoXoXoXoXoXoXoXXXXXXXXXoXoXoXoXoXoX%XoXoXoXoXoXoX%X%X%XoX$XoXXX@X#X@X@X@X@X#X@X@X#Xz.z.^.!.*X!.!.!.z.*X(.!.Q.!.!.Q.*X*X*X*X*Xv b b OXOXOXOXOXOXOXOXOX.X.XOXOXOXOXOXOXOXOXOXOXOXOXOXOXOXb OXv v } z h j $ $ 4 4 p k l l b b n n n a a q.1.<.1.1.1.1.1.q.q.s.v ] z f u u u D A i & & & A m m A & & F O.sXpX+.+.$.$.|.sXlXsX-X-X-X-X#._ ! Y I I D N N ; ; ; : ; ; : Q _ #._.-XhXBXVXCXbXvXcXCXAXMXbXnXnXmXmXSXNXNXNXSXSXmXmXmXmXmXmXHXHXHXJXbXnXxX2X(.(.(.(.].>XvXbXbXVXVXAXAXHXHXSXNXNXJXJXHXHXSXDXDXDXgXeX).).`.fX].{.{.{.P.P.P.P.J.J.J.G.n.c.;.2.b.C.L.<X(.Q./ ! F K K K K K J J O.F O.pXlXlXkXkXjXgXBXVXCXCXVXVXCXbXbXVXCXCXVXVXAXAXAXAXAXmXAXAXAXAXmXMXAXHXFXFXFXFXFXFXFXBXZXGXZXVXVXCXVXbXbXbXbXVXvXvXbXbXCXbXbXcXcXcXbXvXvXcXgXgXhXhXhXsXsX_.+.Q ; * > > > > - u u I P P P P Y ~ ~ ~ Q Q Q Q T T ( @.).).).'.[.'.'.'.'.'.'.'.'.'.'.'.eX[.eXeX",
"=.%.%.=.=.=.=.=.=.=.%.%.%.6 5 y 3 3 2 9 4 $ p p n b b OXn 7.n n n 6..X@X.XXX7.6.6.XXoXoXoXoX$X%X%X%XoX$X%X%X%X$X%X%X%X$XXXXX7.n n p p p $ $ $ $ $ $ j p n n n n .X.XoX$X$X$X$X$XoXoXoXoXXXXXXXXXXXXXXXXXXXXXXXXXXXoXoXoXoXoXoXoXoXoXXXoXoXoXoX%XoXoXXXXX#X@X#X@X@X@X@X@X@X#X#X(.(.a.!.(.!.!.*X!.!.Q.Q.!.*X*X*X*X*Xs.b b b +XOXOXOXOXOXOXOX.X.X.XOXOXOXOXOXOXOXOXOXOXOXOXOXOXOX+Xs.7.s.s.b b z f j 4 4 j s s c b b n n a a a n n 1.1.1.<.1.1.q.q.v v ] z h u u u i i & & & A A A & A m m i ` pXpX$.O.+.$.|.|.sX|.|.+.O.+.+._ ! Y R E F D : ; ; M D M ; > ; : R [ #.`.sXgXgXBXBXVXCXCXCXVXbXMXmXmXmXSXNXNXNXNXNXNXMXmXmXmXNXmXbXnXMXAXJXbXfXxXxXxXnXcXbXVXCXCXHXSXSXSXNXHXmXmXJXHXHXSXSXDXVXcX-X#.( @.;XxX1X<X{.{.{.P.P.J.U.J.G.G.c.n.c.b.G.I.&X(.^.W.Y D K K K K J 8X8X8XJ H F F O.qXpXkXkXlXgXgXcXvXBXVXCXCXbXbXbXbXbXbXAXAXAXAXAXAXAXMXmXMXbXMXAXAXDXCXFXHXHXFXHXGXCXCXCXCXVXVXCXVXCXbXbXCXVXVXVXbXbXcXbXcXbXVXCXVXVXvXvXgXhXhXlXsXsXqX+.D > % * * > : : : P I I D P P Y ! ! ~ Q Q Q Y W W [ @.).).).[.[.'.'.'.'.eX[.eX'.'.'.'.eXeXeXeX",
"&.%.=.=.=.=.=.>.%.%.%.%.6 y 5 e 3 e 4 $ 4 p k l v s.s.q.n n n 7.6.7..XXX7.XX.X.XXXXXXXoX$X$X$X$XoXoX$X%X%X%X%X$X$XoXXXXX7.n n a p p $ $ $ $ $ $ $ p n n .XOX7..XoXoX$XoXoX$XoXoX%XoXoX9.XXoXoXoXXXXXXXXXXXXXoXoXoXoX%XoXoXoXoX%XoXoXoXoXoXoXoXoXoXoXXX@X@X@X@X@X@X@X@X@X@X@X(.z.z.(.!.z.!./.!.!.Q.Q.*X*X*X*X*X*X+Xs.b s.OXOXOXOXOXOXOXOXOXOX.X.XOX+XOXOXOXOXOX+XOXOXOXOXOXOXOXOXOX+XOXs.v b z b z j j 4 j 4 p k l b b n n a a n 1.q.1.1.<.1.q.q.q.] v h u u - i & & & & i i A A m A A & & D O.O.O._ +.$.+.O.$.+.O._ ~ Q O.O. .Q E E F M M N ; ; ; ; ; > > > N : d T @.-XsXkXZXFXCXCXCXVXCXMXmXmXmXHXSXMXmXmXSXHXHXNXNXNXNXmXMXnXbXMXSXmXJXAXNXSXAXHXAXAXVXHXDXSXSXNXNXSXJXJXJXJXAXDXDXDXcXfX).+.o.-XhXxX1X{.{.{.3XI.P.J.U.U.U.U.U.U.U.U.P.P.I.<Xa.z d i F J 8XJ J J 8X8XJ qXK F S F O.pXsXlXjXkXgXcXvXBXVXVXCXbXbXbXbXbXMXAXAXAXAXAXCXCXAXCXMXAXAXAXHXCXAXHXHXHXHXCXVXCXCXCXCXCXbXCXbXbXbXbXCXCXVXbXvXvXcXcXCXVXCXCXVXBXvXgXhXgXsXsXsX$.Q : * % * * & > : I I I P P I Y Q ! ~ ^ ^ Q Y ~ W W ( { ).).).).[.eX'.eX'.'.eX'.eX[.'.[.[.eXeXeX",
"%.%.=.=.=.=.=.=.=.%.%.%.6 y y y q q 0 $ p p x s.s.s.6.n n n b 7.6.7..X7.6.7..XXXXXoXoXoXoX$XoXoXoXoX$X%X$X$X$X$X.X7..Xn n p p $ $ $ $ $ $ p $ $ p n n .X.XoXoXoX$X$XoX%XoXoX$XoXoXoXoXoXoXoXoXoXXXXXoXXXXXXXoXoX%XoXoXoXoXoXoXoX$X%X$XoX%XoXoXoX%X$X$XoX@X@X@X@X@X#X@X#X@X=X*X(.!.^.!.*X!.*X*X*X} *X*X*X*X*X*X*X*X+X+XOXOXOXOXOXOXOXOXOXOXOX.X.XOX#XOX+XOXOXOXOXOXOXOXOXOXOXOXOXOXOXOXOX+X+X+Xb b z s j 4 $ $ p p a x b n l a n n q.1.1.1.q.q.q.l v b h d - - i & & & & & & & A & & A A & & F Y ` O.O.+. . ._ +.+. ._ O._ ~ ! ! F M M M M I M ; ; ; ; M ; ; * * * : U ( #.-XgXBXBXbXVXbXCXAXmXmXmXNXmXmXmXmXmXHXHXHXNXNXNXSXNXbXMXMXmXmXSXNXSXSXHXSXAXDXDXFXDXDXNXNXNXNXJXJXJXHXAXDXDXVXyX'.).#.sXdXcXnX1X{.{.{.I.I.P.P.P.P.J.D.U.D.P.P.P.I.&X<X!.h - F J J uXuXJ J J J J O.8XJ K F F ~ @.pXsXgXkXgXBXBXbXBXVXCXbXMXMXMXMXAXAXAXAXAXCXVXCXCXAXCXbXAXmXmXMXMXMXAXDXVXVXVXCXCXCXbXbXbXbXbXbXbXVXCXCXbXcXvXcXcXVXbXbXvXBXvXcXhXhXdXsXsX|.+.D ; ; * * * > : M I I I I P Q Q Q ! Q ^ ^ Q Q Y ( W ( ) W.).'.).[.'.'.eXeXeX[.eX'.eX'.'.'.eXeXeX",
",.%.=.=.,.,.=.=.=.=.%.%.y y 5 r r s q p s b s.s.7.7.6.n n n s.7.7.6.6.7.6.6..XXXoXoXoX$XoXoXoXoX$X$XoXoXoXoXXX7.n n p p p 4 $ + . $ $ p p n n n n 7..X$XoX$X$X$XoXoXoXoXoXoXoXoXoXoX%XoXoXoXoXoXXXXXXXXXXXXXoXoXXXoXoXoXoXoX%XoX%X$X%X%XoXoXoX%X%X&XoXoX@X@X@X@X@X@X@X@X@X=X*Xz.!.*X*X*X*X*X*X!.] !.!.*X*X*X*XQ.!.*X*X+XOXOXOXOXOXOXOXOX.X.X.X.X.X@X+XOXOXOXOXOXOXOXOXOXOXOXOXOXOXOXOX+XOXOXOX+Xb v ] h j j $ p p p k b b b n a n q.q.<.1.7.l l l l h h u ; i i & & & & & & & & & A m m m & ; D R ! ^  . .+. . . .O.O.O.X.! F F D F F N M M D : D D D M ; ; ; > > - : w U [ -XhXcXgXcXnXCXCXCXMXMXMXMXMXmXmXmXJXSXNXSXNXmXNXSXJXMXmXmXNXSXSXSXSXSXSXSXSXDXDXAXSXSXSXNXNXJXJXHXHXAXDXAXzXeX).@.`.hXgXvXbX3X1X{.I.P.P.P.P.P.P.P.P.P.P.P.P.P.D.<X<Xa.s - u O.8X8XuXJ J J J J J J 8XuXO.! F F O.|.|.sXgXBXBXcXBXBXCXMXMXMXmXMXmXAXAXAXAXCXVXCXCXbXbXbXAXbXMXMXmXMXbXVXVXVXCXCXVXbXbXbXbXVXbXbXvXVXZXVXbXcXbXcXcXVXVXcXcXvXvXvXgXdXdXsXsX@.Q u ; ; > * * > : u I P P I Y Q Q ! ! Q ^ ~ Q I R W W ( o.[.'.'.'.[.'.'.eXeX'.'.'.eX'.'.'.eXeXeXeX",
",.,.=.=.=.,.%.=.%.%.%.%.r r r ) k s k a b s.7.6.6.7.6.1.7.6.7.7.6.6.6.6.XX.XXXoXoX$X$X$X$XoXoXXXoXXXXX.X.X7.n n p 4 p 4 $ $ + + $ p p n n OX.X$X.X$X$X$XoX%XoXoXoX$XoXoXoXoXoX$XoXoXoXoXoXoXoXoXXXXXXXXXXXoXoXoXXXoXoXoXoXoXoXoXoXoXXXoXoXoXoX%X%XoX%XM.oXoX@XXX@X@X@X#X@X=X=X*X(.*X*X*X*X*X*X!.*XQ.!.Q.Q.Q.} s.s.Q.*XOXOXOXOXOXOXOXOXOX.X.X.X.X.X@X$XOXOXOXOXOX.XOXOXOX+XOXOXOXOXOXOXs.OXOXOXOX+Xs.Q.] b s p 4 p p p k k x l a a q.q.q.n n n c c z h h u u ; i ; ; & & & & & & & A & & & m & & D Y F I  ._ O.! | ..O...G F F N N B D D M M M I F Q R D : > ; u : : - > > d ^ _.dXsXhXgXcXCXVXBXCXbXMXMXMXmXmXmXNXNXNXSXNXNXNXmXmXmXmXSXHXSXSXSXSXSXSXSXHXSXSXSXSXSXSXSXJXmXJXHXHXDXBXdX`.).`.sXgXgXbXAX3X3X{.I.P.P.P.P.P.P.I.P.P.P.P.P.P.I.<X<Xl s u F O.J 8XJ J J J J J J J J J J J F F F ..` qXsXgXgXhXkXBXbXMXMXMXMXMXAXAXAXAXAXVXCXCXCXbXcXbXAXnXbXbXMXCXbXCXCXCXAXAXAXbXbXbXCXbXbXbXvXVXVXVXbXvXvXbXcXvXbXvXvXvXBXBXgXhXdXsX-X+.P u ; ; > % = > > D I I P Y Y Q Q Q Q Q ^ Q Q Y ~ W ( ( ) [.[.'.[.[.eXeXeXeX'.'.'.'.eXeX'.eXeXeXeX",
"&.%.%.&.%.%.%.:.:.&.6 7 8 r k l k k a p n n 7.7.6.6.6.6.7.6.7.6.7.6.6.7.6.XXXXXX$X$X$X$X$X.X.X.X.X.Xn n n n n p p $ $ $ $ $ p p p n .X.X.X.X$X$X$X$X$XoXoXoXoXoX%XoXoXoX%XoXoXoXoXoXoXoXoXoXoXoXXXXXXXXXXXXXoXoXoXoXoXoXoXoXoXoXoXoXoXoXoXoXoXoXoX%X%XoXoX%XoXXX@X@X#X,X=X=X=X=X*X*X*X*X*X*X*X*X*X*X*X+X~.*X~.} ] v s.OXOXOXOXOXOX@X@X.X.X.X.XOX@X@X@X@X$XOX.X.X.X.XOXOXOXOXOXOXOXOXOXs.OXOXOX*X*X+Xs.b b b p p p p 4 p s k n n n n q.q.q.n n b k j p u i ; ; ; & & & & & & & & i i & & & & & & i A i : M F F F H H H H H H N m m B F F N N M D N D D D : ; > : u D ; ; - : : : g o.-XsXfXgXBXBXBXFXCXbXbXAXSXSXNXNXNXmXmXMXmXMXMXmXNXNXSXSXSXSXSXSXSXSXSXSXSXSXSXSXSXSXmXNXmXJXHXFXvX-X_._.sXfXcXcXCXAX3X{.{.{.P.P.P.P.P.P.P.P.P.P.P.P.I.I.<Xl.a 4 4 u ` O.8XJ J J J J K J J J J J J J J J K ` qXpXlXlXsXlXhXjXBXvXbXCXFXHXHXAXAXVXVXAXVXVXVXVXbXbXbXbXbXVXAXAXAXAXAXHXAXAXAXbXbXbXbXbXbXcXvXbXbXbXbXbXcXcXcXcXBXBXBXhXgXhXhXhXsX#._ d u : * - * > - ; : Q Q P I I Q Q R Q ^ ^ Q Y Y ^ ( ) ( Y.[.[.'.R.eXR.eX[.'.'.eXeXeX'.eXeXrXrXrXeX",
",.%.%.%.%.%.%.%.:.%.7 8 8 l 8 3 a q.n n n n n 7.6.6.6.6.6.6.6.6.6.6.6.6.6..XXXXX.XoXoX$X.X.X.Xn n n p p p p p $ $ $ $ j p p n .X.X.XXX$X$X$X$X$X$XoXoXoXoX%XoXoXoXoXoXoXoXoXoXoXoXoXXXXXoXoXoXoXXXXXXXXXXXXXoXoXoXoXoXoXXXoX9.XXoX%XoXoXoX%XoXoXoXoXoXoXoXoXoXXX$X@X#X#X=X=X=X=X=X!.!.*X*X*X*X*X*X*X!.!.~.!.} ] v s.s.OXOXOXOXOXOX,X@X@X.X.X.X@X@X@X@X@X.X.X.X.X.X.XOXOXOXOXOXOXOXOXOXOXOXOX+XOX+XOXOXOXs.+Xv b b z j 4 4 q a n n b q.q.v l z k s j u u i i i i & & % & & & & & i i i & & & & & & & & & ; N D F N F B G H G G H N N F A N & & & N ; ; > ; : : : u u - - > : : - @ $ w T [ _.:XgXvXBXBXbXbXbXbXmXNXNXNXMXmXmXmXmXmXmXNXNXNXNXNXSXSXSXSXSXSXSXmXNXmXmXHXmXmXmXbXVXvXcXfX_.).-XhXvXVXVXAXNXNX{.{.{.P.P.P.P.P.P.P.P.P.P.P.P.I.{.{.j.t 3 = d K O.8XJ J J J O.O.O.J J K J K J J J K K J O.8XqXpXlXkXkXgXgXBXFXHXHXAXCXbXAXAXAXAXAXAXVXVXVXVXVXCXVXVXCXCXVXCXCXAXAXbXbXbXbXbXbXbXcXvXcXvXbXbXbXcXfXcXcXvXBXBXgXhXgXhXsX-X{ U u d : ; - * : : M I Q R R E Q ! Q Q Q Q Q Q Y ~ ^ ( ( ) ).[.[.[.'.eX'.'.eX'.'.eXeXeX'.eXeXeXrXrXyX",
",.%.%.%.%.%.%.%.:.:.%.8 a l a 3 8 n s.7.7.n 7.7.7.s.9.7.0.7.6.6.7.6.6.6..X.X.X.X.X$X.X.X.Xn n p p p $ $ $ $ $ $ i p p n b OXOXOX#X.XXX$X$XoX$XoX$X$X$XoXoXoXoXoXoXoX%XoXoXoXoXoXoX9.XXXXXXoXXXXXXXXXXXXXXXXXoXoXoX%XXXXXXXXXXXoXoXoXoXoXoXoXoXoXoXoX%XoXoX$XXXXXXX@X@X#X=X=X=X=X(.(.!.*X*X*X*X*X*X*X*X^.!.!.Q.] v s.OXOXOXOXOXOXOXOXOXOX.X$X#X#XOXOXOXOX.X.X.X.X.X.XOXOXOXOXOXOX#XOXOXOXOXOXOXOXOXOX+X*XOXOXOXs.s.b b k s p p a l l b l l l k s j u u i i i i A & & & & & & & & & i i i & & & & & & & & & & N S F F N F F G G F N m m m m m & & ; ; ; > N I I P I Y f g f : d w w 0 - f / ) { -X;XvXCXCXCXbXnXbXMXNXNXMXbXNXmXmXmXMXmXmXNXNXNXNXNXNXSXSXSXSXSXSXSXSXHXJXHXHXHXCXgX-X_.{ sXhXjXBXCXCXMXNX3X3X{.{.P.P.P.P.P.J.P.P.P.P.P.P.I.L.L.w.8 4 # - F J J J J J J J J O.J J K K J J J K J K J O.O.O.+.#.pXsXdXgXBXBXVXCXCXCXVXAXAXAXCXAXAXVXAXAXAXAXAXVXVXVXVXCXbXCXCXCXbXbXbXbXbXbXbXbXcXcXvXbXCXbXcXfXcXcXBXBXBXgXgXgXhXsX-X_ f d P d ; * * D M D D I R R Q ! Q Y Y Y Y Q Y Y ~ ^ ( ( ( W.[.[.'.'.'.R.'.'.'.[.eXeXeX'.'.eXeXeXrXeX",
",.%.%.&.%.%.%.%.&.r.r.a 1.a a a l s.7.n n 7.s.h.OXs.s.6.6.6.6.6.6.6.7.7..X.X.Xn n n .Xn n p p p p $ $ $ $ $ j $ $ n n .XOXOX.X$X.XXXXXoXoXoXoXoX$X$X$XoXoXoXoX%XoXoXoXoXoXoXXXXXXXXXXXXXXXXXXXXXoXXXXXXXoXoXoXoXXXXXXXXXXXXXXXXXoXoXoX%XoXoXoX%XoXoXoXoXoXoXoXoXXX@X@X#X=X=X=X=X(.(.=X=X=X=X=X=X=X=X=X=X*X*X*X*X!.OXOXOXOXOXOXOXOXOXOXOXOXOXOXOXOXOXOX.X.X.X.X.X.XOX#XOXOXOXOXOXOX.X.X.XOXOXOXOXOXOXOX+XOXOXOX+Xs.s.s.v l p p p p a l k l z s j u i u i i i & A & & & & & & & & & i i A i i & & & & & & & & m m A F F F m N F N m m m m m m & & m N m M Y ! _  ._ @.#.#.( / z / ) h f g / g q / ] :XfXvXbXCXVXbXMXnXMXbXbXbXMXmXNXMXmXmXmXNXmXNXNXSXSXSXSXSXSXHXHXSXSXHXHXHXHXCXdX~.{ _.dXjXZXBXbXnXMXzX1X3X{.L.I.I.I.P.J.P.P.P.G.P.J.J.I.L.u.e.4 $ $ > F J J J J J J J J J ! K K J J K J J K K J O.O.! ! ` ` O.$.-XgXjXjXBXZXVXDXAXSXCXVXVXAXCXCXVXAXAXCXVXVXbXVXbXbXbXVXCXCXbXbXbXbXbXVXCXVXbXbXCXCXbXxXxXnXbXCXbXcXhXhXsXsX-X#.' Y T P : = > > : : D I I R I R Q Q Q Y Y Y Y Y ~ ~ ( ( ( ) [.[.[.[.'.'.eX'.eXeXeX'.eXeXeX'.eXeXeXeXeX",
"%.&.%.&.%.%.&.&.:.:.r.1.1.a a q.7.7.7.7.7.6.7.+XOX7.7.7.n 7.n 7.7.7.n n n n n n n p p n p p $ 4 $ $ $ $ $ j h h n n .XOXOX.X.X.XXXXXXXoXoXoX$XoXoX$X$XoXoXoXoXoXoXoXoXoXoXXXXXXXXXXXXXXXXXoXXXXX9.XXXXoXoXoXoXoXoXoXXXXXXXoXXXXXoXoXoXoXoXoXoXoXoXoXoXoXoXoX&XoXoX@X&X=X=X=X=X=X=X=X:X=X=X=X=X=X=X=X=X=X=X*X*X*X+XOXOXOXOXOXOXOXOXOXOXOXOXOXOXOXOXOXOXOX$X.X.X.X.X.X#XOXOXOXOX.X.X.X7..XOXOXOXOXOXOX+XOXOXOXOX+XOXs.s.s.v k p p p p s z l h h u u i i i i m m m & & & & & & & & & & i A A A A A & & & A & & m m F A F m m & m N m m m m m m & & ; M D | +.+.@.+.$.-XdXdX-X^.W.W.~.) ) ] ) k e 3 q x `.fXVXVXCXVXBXnXbXVXCXMXmXHXmXMXAXmXAXSXmXmXNXNXmXNXSXSXSXSXSXAXAXHXFXFXFXgX-X} _.dXgXBXZXbXMXnXnX1X{.{.{.L.L.G.P.G.J.J.P.G.}.c.v.v.b.4.<.t 3 $ = u F J J J K K ` K K K F F K K K K K K K ` K ! K ! F F F u Y [ -XlXgXBXBXVXDXFXAXCXVXVXVXVXVXVXAXAXAXbXCXMXCXVXVXVXVXVXVXCXVXbXVXVXCXVXCXbXbXCXCXnXcXbXbXCXCXGXgXgXhXhXsX-X@._ Y T I ; * * - ; : D I I R Y E Q ! Y Y Y ! Y Y Y Y ~ ( ( ( Y.[.[.'.'.R.eXeX[.'.'.'.'.eX'.eXeXeXrXrXrX",
"&.&.&.%.%.%.%.1.:.r.<.1.a l 6.6.7.6.7.6.7.6.7.s.7.s.n n n n n n s.s.n n n a p p p $ p $ p $ $ $ $ $ $ $ j n h b n .X.X.X.X.X.X.XXXXXoXXXoXoXoXoXoXoXoXoX$XoXoXoXoXoXoXoXXXXXXXXXXXXXXXoXXXXXXXXXoXXXXXXXoXoXoX%XoXoXXXXXXXXXXXXXXXoXoXoX%XoXoXoX%XoXoXoXoX%X&X%X$X&X&X@X#X=X=X=X=X:X:X:X=X=X=X=X=X=X=X=X,X*X+X+XOXOX+XOXOXOXOXOX+XOXOXOXOXOXOXOXOXOXOX.X.X.X.X.X.X.X.X.X.X$X.X.X.X.X.X.X.XOXOXOXOXOXOXs.OXOXOXOXOXs.s.b b v z p p p j k h h h u u i i i A m m & & & & & & i A & & & & & m A A A m m m A m m & m & D N ; & & & & m m m m m & m D N ; F O.$.qX$.pXpXdXhXfX;X].(.(.(.(.].(.e.x k q q q x ~.-XdXgXcXvXBXBXVXCXAXJXCXAXHXAXAXAXAXHXAXmXmXmXNXmXSXSXSXAXAXAXHXHXFXhX-X#._.-XfXjXBXVXGXDXNXbX1X{.{.L.L.K.n.n.c.v.F.F.F.;.;.;.;.5.5.1.8 4 < = : F J J J K K i F F F F K J K i F i i F K F A F F ! ! ! u ; u T $.-XhXBXZXBXVXVXVXVXVXVXVXVXVXCXAXAXMXMXMXAXCXCXCXVXVXCXCXAXVXVXVXVXVXbXbXbXbXnXxXxXbXvXCXvXgXgXhXhXhXlX-X+.T d D u - * * * ; : I R R R ! ! E Q Q Y ! ! ! Y Y Y ~ ( ( ) { [.[.R.'.eXeXeXeX'.'.'.'.eXeXeXeXrXrXrXrX",
"-.=.&.%.%.&.=.r.r.w.w.1.6.h.x.6.7.7.7.6.6.6.6.s.n a a a n b b b b b p p p $ p $ $ @ $ $ $ $ $ $ p p p n n n OXOX7..X.X.X.X.X.X$XXXXXoXoXoXoXoXoXoXoXoXoXoXoXoXoXoXXXXXXXXXXXXXXXXXXXXXXXXXXXXXXXXXXXXXXXoXoX%XoXoXoXXXXXXXXXXXXXoXoX%XoXoXoXoX%XoXoXoX%XoXoXoXoX%XoX&X#X@X@X=X=X=X;X;X:X=X=X=X=X=X#X=X=X=X@X#XOXOXOXOXOXOXOXOX@XOXOXOX+XOXOXOXOXOXOXOXOX.X.X.X.X.X.XOX.XOX@X#X@X.X.X.X.X.X.XOXOXOXOXOXOXOXOXOX+XOXs.7.s.v v b k p $ 4 j j h j j i i i A A A & & & & & & & A & & i & & A A A A A A A A S A m & & & ; ; ; ; & & & & m m m m & A F A D ! $.pXqXsXsXdXfXfXfXrX1X].{.{.1X1X(.(./.e.x l k r g / / @._.sXBXZXBXBXbXBXVXCXHXHXHXJXHXHXAXAXAXmXAXAXAXAXAXAXHXHXFXGXjX-X[ _.dXhXcXgXvXGXHXAXmXxX1X1X{.H.H.G.b.b.4.;.;.;.;.;.;.=.;.;.3.=.8 4 2 $ ; i J O.J ` F F K K i F J K F K i F F F F F F F A F F Q Q F ; : I [ -XhXkXBXBXVXVXVXCXVXVXVXVXVXAXMXmXmXAXAXmXAXAXVXVXCXVXAXVXVXVXbXbXbXcXbXbXxXzXxXcXcXcXvXxXhXhXgXhXsX|.[ d - & * * * * ; : D E ! ! Q ! ! ! Q Q Q Q ! Q Y Q ~ ( ( ( { ).[.[.[.'.'.R.'.eX'.'.'.'.eXeXeXeXeXrXrXrX",
">.:.&.,.,.*.-.3.w.y.w.f.h.@X#X6.6.h.h.6.6.6.s.n n a a a n h h s j p p $ $ $ $ $ $ $ $ $ $ $ p z b b n n n OXOXOX@X.X.X.XoXoX.XoXXXXXXXXXXXoXXXoX$XoXXXXXoXXXXXXXXXXXXXXXXXXXXXoXXXXXoXXXXXXXXXXXXXXXXXXXoXoXoXoXoXoXoXoXXXXXXXoXoXoXoXoXoXoXoXoXoXoXoXoXoX%XoXoX$X&X&X&X@X@X=X<X1X1X1X:X=X=X=X#X@X@X#X@X@X@X@X@X,XOXOXOX#XOX#X#XOXOXOXOXOXOX+XOXOXOXOXOXOXOX#X@X.X.X#X#X$X@X@X#XXX.XOXOXOX+XOXOXOXOXOXOXOX#XOX+Xn 7.s.s.s.b b b j 4 4 4 u u u i i i i i A A & & & & & & A A A A A i i A A A A A A A A A A A m & & & ; ; > * & & & & & & m & i i F D ! qXsXsXsXsXdXfXfXfX1X1X{.{.{.{.{.L.{.{.(.(./.r.t q 2 # = w [ dXhXgXgXhXgXvXvXFXFXFXHXDXJXHXAXAXAXAXAXAXHXJXHXHXFXBXhX-X{ } -XgXgXvXcXcXbXJXAXMXnX1X{.{.H.H.F.b.4.2.2.-.-.-.=.;.;.;.2.3.1.8 4 2 - : i K O.J K F F ! F ` F K K ` F F Y K F K F ! ! F F F ! ! ` D ; ; D ^ #.sXhXkXBXBXBXVXVXVXVXVXVXVXCXAXAXAXAXMXMXMXnXbXCXVXVXVXVXVXbXbXcXcXvXnXzXfXfXcXcXcXvXgXgXhXhXhX|.[ d u - * * - > - ; D R Q Q Q ! Q Q Q ! Q Q Q Q Q Q ~ ^ ( ( ( { W.[.[.'.'.'.'.'.eX'.'.'.'.'.'.eXeXeXeXeXeX",
">.=.,.,.,.*.<.3.y.p.d.f.8.7.7..X7.6.6.6.7.s.s.n n p h b h j j $ $ $ $ $ $ $ @ $ $ $ u j h x b b s.OXOXOX+X#X@X@X@X@X.XXXh..XoXXXXXXXoXXXXXXXoXoXoXoXXXXXXXXXXXXXXXXXoX9.XXXXXXXXXXXXXXXXXXXXXXXXoXXXXXXXXXoXoXoXoXXXoXXXXXXXXXXXoXoXoXoXoX%XoXoXoX%XoXoXoXoXoXXXoX&X&X&X@X&X<X<X1X1X;X=X<X=X#X#X@X@X@X#X@X@X@X@X@X@X@X@X@X@X#XOXOXOXOXOXOXOXOXOX+XOXOXOXOX#X@X@X@X.X@X@X#X#XXX.X.X.X.XOXOXOXOXOXOXOXOXOXOX#X,XOXOX+Xv b n b b z z j 4 4 j j u u i & & i i D ; & & & & & & i i A i A A A A A A A A A A A A A A & ; ; ; ; * & & & & & & & A & & & m M F O.pXlXsXdXhXgXcX1XzX{.{.{.{.I.I.{.L.L.{.{.(.E.r.x c r 9 = g [ sXdXdXfXdXgXgXBXZXFXGXCXFXFXHXHXHXJXHXCXJXHXZXBXBXhX-X/ ( _.dXgXvXvXbXbXbXbXbXCXbXxX{.{.K.H.H.4.4.2.2.5.-.;.-.;.;.;.t.i.1.5 3 = : ; i F O.K F F ` i F K F i K F K Y Y F F i F F F ` F F K F F ` i u i u ! #.sXhXgXkXjXVXCXCXCXVXVXVXCXVXCXAXbXbXbXbXbXbXVXVXVXVXVXbXbXbXcXcXbXvXzXfX:X;XcXnXvXhXgXhXhX:X#.Y - - - = * - > ; : P Q ^ ! R R ! ! Q Q ! R I ! ! ! ~ _ ' ( ( ) ~.[.[.R.'.].'.'.'.'.'.'.eXeXeXeXeXeXeXeXeX",
";.-.;.=.,.*.<.d.d.z.h.d.6.6.6.7.6.7.7.6.n 7.n a p p j p $ $ - $ O @ $ u $ $ $ p p p b b W.s.s.s.s.OX=X#X#X@X@X@X@X@Xh.h.h.@X@XXXXXXXXXXXXXXXXXXXoXXXXXXXXXXXXXXXXXXXXXoXXXXXXXXXXXXXXXoXXXXXXXoXXXXXXXXXXXoXXXoXXXoXXXXXXXXXXXXXXXXXoXoXoXoXoXoXoXoXoXoX%XoX%XoXoXoX&X&X&X<X<X<X<X<X=X=X#X<X<X&X@X@X#X#X@X@X@X.X@X@X@X@X@X@X#XOXOXOXOXOXOX+XOXOXOXOXOXOXOXOXOX@X.X@X$X$X$X$X$X.XoX.XOXOXOXOXOXOX+X*XOXOXOXOXOXOX+X*XOXb a a c s k h j 0 $ - u u u i * ; i ; ; ; & & & & & & & & & i i i & i A A A A A A A A i & ; ; ; ; - * @ & & & * & & & & & N F O.sXlXkXkXjXvXvXbXxX3X{.{.{.{.I.I.G.F.t.i.t.i.i.u.E./.].^.Y.) / { _.$.`.sXfXsXsXdXhXvXZXGXVXZXVXGXFXBXFXGXcXjXBXhX#.^ ( _.sXgXBXGXbXbXbXbXbXCXVXbX1X].(.K.H.F.b.c.c.c.2.;.;.;.;.;.;.i.j.r.5 s g : * i F J J K F ` K ` F F ` ` F F F K Y F F F F F Y ` F ` F F K K F ! Y D D Y |.sXgXjXgXBXBXFXFXFXDXDXVXVXCXAXAXCXbXAXAXAXAXVXVXbXbXbXbXcXnXcXnXcXfX:X:XxXgXgXgXgXsX-X|.T u * - & * & * ; : D E Q ! ! ! Q R Q Q Q Q Y Y Y Y Q Q ~ +.+.@.{ [.[.[.[.'.'.'.'.'.'.'.eX[.'.'.'.eXeXeXeXeX",
"-.;.=.;.*.<.<.d.f.j.d.6.p.p.s.p.7.n n a a a p s $ $ $ $ - $ ; - - - u u f h ' ] v v v *X!.*X+X+X+X*X=X=X=X=X=X@X(.#Xz.x.#X@X@XXXXXXXXXXXXXoXXXXXXXXXXXXXXXXXXXXXXXXXXXXXoXXXXXXXXXXXXXXXXXXXXXXXXXXXXXXXXXXXXXXXXXXXXXXXXXoXXXXXXXXXoXoXoXoXoXoXoXoXoXoXoXoXoXoX&XoX&XL.&X&X<X<X<X<X<X<X<X<XL.<X<X&X#X#X@X@X@X,X@X@X@X@X@X#XOXOXOXOXOXOXOX+XOXOXOX+XOXOXOXOXOXXX.X.X.X$X.XoXoXoX.X.X.XOXOXb v OX+X+X*X+XOXOXOXOXOX+X*Xv b c k s s s s p 4 - - - u - * - ; ; ; ; ; & & & & & & & & i & & & & A A A A A A A A & & & ; ; - - > * * & & & & & i & & ; Q $.lXkXjXjXZXZXVXAXMXnX3X{.{.{.P.L.H.F.c.2.2.;.i.g.{.].1X3XfX^.x g g h / @.@.{ [ ( { $.dXjXZXvXBXGXBXBXFXBXhXhXsX_.{ _.-XdXgXBXBXbXMXAXMXAXCXCXCXbX1X(.(./.G.F.4.F.F.}.;.;.;.c.}.F.G.L./.r.3 k / P * & F F J K Y F F Y F F F F K K Y F i ` S K F ` K F ` i K F F F ` K ` ! D M Y $.sXhXjXkXjXjXZXCXCXVXCXDXDXDXCXbXMXAXAXAXDXAXCXVXVXbXbXbXcXbXnXxXhXfXdXcXgXhXgXhXsX|._ u * * & * - - : D I I E ! Q Q Q Q E ! ! ! Q ! Y Y Y Y Q ^ _ [ { { { [.[.].'.'.'.'.'.'.'.[.'.'.'.'.'.eXeXeXeX",
"=.;.;.;.i.d.j.l./.a.w.q.q.v s.l a p p a p s j 0 - @ @ @ i - & * ; u u ` [ } ~.*X*X*X!.*X*X*X=X*X=X=X=X=X=X=X;X=X(.L.(.(.#X#X@XXX9.XXXXXXXXXXXXXXXXXXXXXXXXoXXXXXXXXXoXXXXXXXXXXXXXXXXXXXXXXXoXXXXXXXXXoXXXXXXXXXXXXXXXXXXXXXXXXXXXXXXXoXM.XX%XoXoXoX%XoXoXoXoX&XoXoX&X@X@X<X<X<X<X<X<X<X<X<X<X&X<X&X$X@X@X@X@X@X@X@X@X@XOXOXOXOXOXOXOXOXOXOX+XOXOXOXOXOXOXOXOX.X.X.X.XOX.X.X@XXX@X.XOXs.v b b v b *X*X*Xs.+X+X+X+Xv *XQ.Q.v z s s s s p p p u $ - - - - - - ; ; ; * & & & ; & ; & i & & & & A A A A A A A i & ; ; - * - - - - = * & & & & i ; ; : I $.lXjXGXLXFXGXCXAXmXSX3X3X3X3X{.L.H.H.t.2.2.;.H.L.{.{.3X3X3X1X(.r.r / / ( / P w w w h { dXgXgXgXjXBXZXkXsX-X~.[ T { -XhXjXvXvXvXVXJXAXSXSXAXCXBXbX1X].{.L.G.H.H.G.G.v.v.c.v.G.G.J.{.{.{.1.3 s ( U > % i F K F F F K K ` K ! i i F F ` ` F ` F F F F K F F ` F F K F ` K O.K I M F +.sXlXkXkXkXjXBXBXBXVXDXCXAXDXCXAXAXAXAXCXCXCXVXAXCXbXbXbXbXbXxXcXcXgXcXgXgXhXsX-X|.T - @ @ * - - u P I Y I R Q ! Q ! Q E Q E Q Q Y ! Y Y Y ~ ^ ( ( ( { ).[.).`.].].'.'.'.'.eXeX'.rXeXeX'.eXeXeXeX",
"-.2.i.i.l.(.l.l./.l a q p s l s p p p $ p j - - @ * & * ; i & & - u u ` #.|.*X*X*X*X^.=X*X=X=X=X=X=X=X=X(.{.].=X(.=X{.=X=X@X#X#X@XXXXXXXoXXXXXXXXXXXXXXXXXXXXXXXXXXXXXXX9.XXoXoXXXXXXXXXXXXXXXXXXXXXXXXXXXXXXXXXXXXXXXXXXXXXXXXXXXXXXXXXXXoXoXoXoX%XoXoXoXoX&X&XoXoX$X@X@X&X<X<X<X<X<X<X<X<X<X&X&X&X@X@X@X@X@X#X@X@XOX,XOXOXOXOXOXOXOXOXOXOXOXOXOXOXOXOXOXOXOXOX.X.X.X.X.X$X@X@X@XOX+Xb b v b v b v ] *Xv v b b b ] } ] ] } v h s s s s s s p $ $ - - - - - - * * ; ; ; ; ; ; ; & ; & & & & & i A A i A i & & ; ; ; - = * = * ; * ; & & & & ; - ; D +.lXBXLXLXKXFXFXHXSXNXNX3XnX].{.{.H.F.t.t.F.G.J.P.{.{.{.3X3X3XnX1X].`.`.`.{ / U w w : f ' `.sXgXgXlXkX$.[ f f f T _.gXGXVXBXvXcXbXmXSXSXmXAXCXBXcX1X{.{.{.{.I.I.P.P.J.P.P.J.P.P.I.I.{.{.1.3 0 U P > & ; F F K K S K ` K K ! ` F F F ` Y F F ` F F ` i K u K K Y F F F F O.O.! F D Q O.pXsXsXlXkXkXgXjXvXVXBXVXCXDXAXAXCXCXVXCXCXCXAXAXbXbXbXbXbXcXcXvXvXgXhXgXhX-X-X_.~ ; @ @ - ; : I I Q I I ! ! ! ! Q Q E E I Y Y ! Q Y I Y Q ~ ^ ( [ { W.[.`.'.'.'.].'.'.eX'.'.eXeXeXeXeXeXeXeXeX",
"-.i.l.l.u.j.T.q.p p 4 $ 4 p j j u $ $ $ @ - * * & & & i i i i & - i u f +.*X*X*X:X*X*X=X=X:X:X=X=X=X(.(.(.(.(.(.(.=X=X<X<X&X@X@X@XXXXXXXXXXXXXXXXXXXoXXXXXXXXXXXXXXXXXXX9.9.9.XXXXXXXXXXXXXXXXXXXXXXXXXXXXXX9.oXXXXXXXXXoXXXXXXXoXXXXXXXXXXXoXoXoXoXoXoX&X&XoXoX&X%X@X@X@X<X<X<X<X<X<X=X<X&X&X{.&X<X&X@X@X@X@X@X@X@XOXOXOXOXOXOXOXOXOXOX+XOXOXOXOX+XOXOXOXOXOXOX.XoX.X.XOX#X@X@X@XOXv b b v v ] ] ' b v v b v v ] ] ] ' z ' z h h s k k k s p p j 4 j - - - - - - - - * - * > & * ; ; ; & & ; i i i i i i ; ; ; * > - - # * * - - > - * - ; ; * * : _ -XBXLXGXZXGXJXAXSXNXNXNXNXNXnX(.K.t.t.t.G.P.P.P.P.I.{.{.I.3X3XnXzXzXfXhXdX-X`.sX_.U d d / _.sXsX-X#.U - * = T } dXvXbXVXVXbXnXbXmXNXNXmXAXCXBXcX1X{.{.{.{.P.P.I.I.I.P.P.P.P.P.P.I.{./.r.3 0 f w > ; A F F K K K K K  X` F F K K ` F ` ` F F K F i i F F i F F ` ` F F K J O.O.O.K O.O.$.pXlXpXlXlXhXkXBXBXVXVXCXAXVXVXVXVXCXCXVXVXBXbXCXbXbXcXcXcXvXBXfXgXgXsX-X+.+.~ : * - - u u d I I P I ! Q Q Q ! Q E E I Y Y ! Y Y Y Y Q ~ ^ ^ ( @.W.[.[.[.'.'.R.'.eXeXeXeX'.eXeXeXeXeXeXeXeX",
"r.e.u.r.8 a r 4 $ $ $ $ $ $ - - - - * * * & & & i i A F A A i & & - * u } -X:X:X:X:X:X:X:X:X:X=X(.(.(.(.z.(.(.(.<X=X=X@X@X@X@X#X@XXXXXXXXXXXXXXXXXXXXXXXXX9.9.XXXXXXXXXX9.9.XXXXXXXXXXXXXXXXXXXXXXXXXXXXXXXXoXoXXXXXXXXXXXXXXXXXXXXXXXXXXXoXoXoXoXoXoXoXoX&XoX&XoX@X@X@X#X,X<X<X<X<X,X=X<X&X<X&X<X&X#X#X@X@X@X#X@X@XOXOXOX+X+XOXOXOXOXb +XOXOXOX+XOXOXOXOXOXOX,X#X.X.X.X.X@X@X,XOXOXs.b v ] } ' ' ' ' ' ' ' ' |.] ' ' h h h h j s s s k c p s k s s j j - - - - - - - - - - * - - ; * ; - ; ; & ; ; ; ; ; ; ; - - - - = # = # * * - - * - ; ; * O - ~ -XgXZXVXCXCXCXAXSXNXmXNXNXNXzX{.R.>.5.t.G.P.P.P.P.P.P.P.P.I.<X1X1XzXnXbXCXCXVXFXBXsX[ T ( { `.~.T - - - 9 g { -XgXvXVXVXbXMXmXmXmXNXNXmXAXDXCXCX1X1X{.{.P.P.I.P.P.P.P.P.P.P.P.I.I.I.{.r.4 # - : : u F F F K K K  XK F ` F ` ` F i F F Y Y ` F K F F A F F F F ! ` K D F F O.qXO.O.K K O.J pXpXlXlXlXlXjXjXBXBXBXVXCXVXCXCXCXVXVXVXVXCXCXVXVXbXcXvXBXBXdXhXgXhX-X+._ Y u : - u f d d D I I R ! ! Q ! Q ! Q Q Y Y Q ! Q I Y Q ~ ~ ^ ( [ @.[.[.[.'.'.'.'.'.'.eXeXeX'.'.eXeXeXeXrXrXyX",
"=.r.t 8 5 < < $ + $ @ * - & ; ; ; ; & & & & A A A A A A A A A i i ; ; Y +.-X:X:X:X].:X:X].].(.:X].].(.(.=X<X<X=Xz.x.z.x.x.x.@X@XXXXXXXXXXXXXXXXXXXoX9.9.9.0.9.XXXXoXXXXXXXXXXXXXXXoXXXXXXXXXXXXXXXXXXXXXXXXXXXXXXXXXXXXXXXXXXXXXXXXXXXXXXXXXXXoXoXoX%XoXoX&X&XoXXX@X@X@X@X=X<X<X<X<X<X=X<X@X&X@X@X@X@X#X@X@X@X@X#X#XOXOXOX+X*XOXs.s.+X+X+XOXOXOXOXOXOXOXOXOX.X@X#X.X.X.X.X@X@X#XOXs.s.v ] ' ' ' / ' ' ' ' ' ' ' ' ' T T T f j j j j s c l k k l k j j 0 0 0 - - - - - - $ * - - = - = * - * * * - ; ; * - * * * * & - - - = # @ = = * * = : - * = = / -XBXVXVXVXCXCXAXAXAXSXSXSXNXyXyXH.t.2.2.H.G.J.P.P.J.G.G.J.L.L.{.1X2XSXSXAXAXDXFXFXBXhX-X-XdXdX_.] f g +._._.dXvXCXbXbXbXbXbXmXmXmXmXmXMXmXAXCXAX1X{.{.I.P.I.P.I.P.P.P.P.P.P.P.P.I.L.g.1.4 1 - - : i u K F K K K K K F F K F F F K F K F K F ` F ` F F F ` F K F ! ` F F K F J K pXqXqXO.O.O.O.pXpXpXsXjXZXZXBXBXBXVXVXVXVXCXCXVXVXVXCXAXCXVXVXVXVXBXBXhXhXlXsX|._ Y I ; ; u u d d u u d I Q Q Q ! Q Q Q Q Q F I Q ! ! ! ! ^ ^ ^ ^ ( +.@.~.[.[.'.'.R.].'.rXeXeX'.'.'.'.eXeXrXrXeXrX",
"5 t t e 3 + # - = # * - & i i & & & & & m A A A A A A A A & A A D ; u _ #.-X:X:X:X;X;X1XfX{.].1X].{.].(.=X=X=Xz.z.x.@Xx.9.0.9.9.XX9.XXXXXXXXXXXXXXXXXX9.9.0.0.XXoXXXXXXXXXXXXXXXXXoXXXXXXXXXXXXXXXXXoXXXXXXXXXXXXXXXXXXXXXXXXXXXoXXXXXXXXXXXXXoXXXoXoXXXoXXX$X@X@X@X@X@X@X=X=X<X<X<X<X<X=X@X@X&X&X@X@X@X@X@X@X#X@X#XOXOXOX*X+Xs.s.s.s.s.OXOXOXOXOX+XOXOXOXOXOX@X#X@X$X.X.X@X#X#XOXs.s.] ' ' ' [ / ' [ [ [ ' ' [ _ h Y Y T d d j j s s l b l c l c s j 0 0 w w 0 - - - - = = = = = = = * * > * * * ; - * - - * * * * = = = = = # # = = - - - : - - w ~.dXBXVXVXVXVXVXCXVXAXAXSXAXNXNX1X(.l.L.K.H.F.t.v.H.b.3.;.;.3.g.].3X3XNXNXNXmXbXbXVXVXBXBXgXBXjXhXhXsX_.-XdXgXcXVXVXCXmXnXnXbXmXNXbXbXbXbXbXnXnXnX1X{.{.L.P.P.P.P.P.P.P.P.P.P.I.P.P.I.l.l 3 $ # - ; i D F K K J J K J F i ` ` ` K F K i F F F ` F F F F ` ` ` F u K F F F K K i K J  XpXqXJ J K O. XqXpXjXUXjXjXjXBXBXBXVXVXDXDXVXVXCXCXCXCXVXVXVXVXBXjXhXhXhX-X[ Y Y u ; u u u f P P P I I ! Q Y Q Q Q Q Q Q Y P Q ! ! ! ! ~ ~ _ [ @.@.@.{ T.[.[.'.'.R.rX'.'.'.'.'.'.'.'.'.'.'.].eX",
"3 3 r e 9 # = = * > * & & & & & A A & A A A m m A A A A A & A A A ; I +.-X`.:X:X;X;X;X].].].].].].].(.=X=Xz.x.z.x.@X@X@X@X9.9.9.9.9.9.XXXXXXXXXXXXXXXXXXXXXXXXXXXXXXXXXXXXXXXXXXXXXXXXXXXXXXXXoXXXXXXXXXXXXXXXXXoXXXXXXXXXXXXXXXXXXXXXXXXXXXXXXXXXoXXXXXXXXX$XXXXX9.#XOX@X=X=X=X=X<X<X<X=X=X=X=X=X@X@X@X@X@X@X,X#X#XOXOXOXOXOXs.s.s.s.OXOXOXOXOXOX.XOXOXOXOX+XOX.X#X#X.X.X.XOXOXOX!.Q.} [ ' ' [ ^ ( [ [ [ [ ' [ [ ` Y P f u u d j j j c l c c l c s s 0 0 0 w w 0 0 0 - w = = = = 0 0 0 0 - > * * - - u - - = * = = = - - = = # # # = = = * ; d w / ).hXVXVXVXVXCXVXVXVXVXVXAXSXSXSX3X{.{.{.<XJ.F.F.}.;.5.4.;.=.*.i.{.{.3XMXNXNXmXAXHXAXCXBXVXBXBXgXgXvXBXgXdXhXcXAXCXVXAXAXmXMXmXmXMXMXmXMXAXbXxXxX3X1X{.L.P.P.I.D.A.P.P.P.P.I.P.P.I.P.I./.q.4 4 $ @ @ ; F O.O. XK J K K ` K F F ` i ` F ` F i ` Y ! ` K F F F F F ` K F ` ` i i K ` F O.uXO.O.J pXpXO.pXpXkXjXjXkXlXkXjXcXBXVXZXVXVXVXCXBXCXCXVXVXVXVXBXgXgXhXsX#.Y P d u u u u d d Y I Y I Y Y Q Q I Q ! Q ! Q Q I I Q ! ! ~ _ _ [ +.@.@.@.( Y.[.[.[.].'.'.].'.'.].'.].'.{.'.'.'.].eX",
"9 e w w - = - * & & & & & & & A A A A A & A A A A A A A A m A A & i Y +._.-X;X;X1X;X1X].].].].].].].(.{.=X(.(.#X@X@X@X@Xx.x.9.9.0.0.9.9.XXXXXXXXXXXX9.XXXXXXXXXXXXXXXXXXXXXXXXoXXXXXoX@X@X@X@XXXXXXXXXXXXXoXXXXXXXXXXXXXXXXXXXXXXXXXXXXXoXXXXXXXXXXXXXXXXXoXoXoXXX9.h.#X@X=X=X=X=X<X<X1X<X=X<X=X@X<X@X@X@X@X@X#X*X#XOXs.+X+X+X!.+Xs.s.OXOXOXOXOX7..XOXOXOXOXOX.X#X$X#X.X.XOXOX+Xs.v } } ' ' ' ' T ~ [ _ _ ^ [ T T ~ Y d P Y f f d j j g z z l c k s s s j j w 0 - 0 0 - 0 0 = 9 9 9 0 9 = - - - - - - - - = = = = = = - - = = = = = - = = = : w f / `.cXBXAXHXCXVXVXVXVXVXVXVXAXNXNXNX{.{.{.{.J.G.H.>.-.*.5.*.*.*.i.H.<X3X3XNXmXmXAXAXAXbXMXCXVXcXcXcXnXvXbXcXcXbXAXMXAXNXMXbXMXNXmXMXmXMXbXbXbXnXnX2X<XL.P.P.P.P.P.P.P.S.P.P.P.P.P.P.P.I.l.e.r 4 0 @ * u F K K J J K K ` K F K K Y i F F ` F K F ! ! ! ! F F F F ` ` ` F F F K ` K F F K K ` J O.pXpXqX XpXpXpXsXlXlXkXhXlXvXBXBXBXbXvXvXBXVXBXBXVXZXBXvXdXhXhX-X_ d u D u u u d P P Y Y Y ! Y Q R E Q ~ Q Q Q Q ! Y Y Y Q ~ ~ _ _ [ [ ( o.@.{ T.[.[.[.].'.R.'.'.'.'.'.'.'.eX'.'.'.'.'.",
": = C M ; & ; ; & & & & m A A A A A & & & A m A A m A A A A A A A i F +.).;X].1X1X1X1X1X].].{.].(.].{.=X<X=X=X=X=X@X@Xx.x.0.9.9.XX9.9.9.9.XXXXXX9.9.9.9.XXXXXXXXXXXXXXXXXXoXXX@X@XXXXX@X@X@X@X@XXX@XXXXX@XXXXXXXXXXXXXXXXXXXXXXXXXXXXXXXXXXXXXXXoXXXXXXXXXXXXX@X@XXX0.h.@X,X=X=X=X:X>X;X1X3X<X=X=X<X<X=X@X@X=X*X*XOXOXs.OX+X*X*X*Xs.+XOXs.OXOXOX7..XOXOXOXOX.X.X#X$XoX.X.X+X+Xb v ] } } ' } ' ' ' [ [ [ ~ ~ _ _ T T Y Y P Y u d d d h g h h h h s s s g j j - - - - - - - 0 0 9 9 9 9 9 = - : : ; u ; - - = = - - = = = = = = = = = - - = = - 9 w [ sXBXVXCXHXAXAXVXVXVXVXVXVXCXbXMXnX{.L.G.H.F.F.>.;.=.*.*.*.*.5.t.g.<X3XNXNXMXmXAXAXAXNXmXmXMXnXnXxXbXvXcXnXbXbXMXMXmXmXNXMXMXmXMXNXMXbXCXVXVXnXzX1X{.{.P.P.P.P.P.P.S.A.S.S.I.P.P.J.P.{.{.e.k 0 = * * i ! K J J J K K  XS F K K F K F F F F ` F F ! ! Y Y K F K i K i K ` F F K i ` F F F F K K uXqXO.O.pXpXpXpXqXpXsXlXkXgXjXgXcXcXcXBXBXBXBXBXBXZXBXhXsXhX-X[ f u ; d Y P f Y I P P Y Y ! ! Q Q Q Q Q ! Q Q Q Q Q Q Y ~ ^ ~ _ _ [ [ ( ( @.T.[.[.[.[.'.].'.].'.].R.].'.'.R.'.'.'.'.'.",
"* > ; ; > & ; ; & & & & m m A A A A A & & i & & m m m S A A A A A i I +.`.fX1X1X1X1X].].{.1X].].].1X1X<X<X(.{.(.=X@Xh.h.0.9.9.h.9.XX9.9.oXXXoX9.0.0.9.9.XXXXXXXXXXXXXX@XXX@X@X#X@X@X#X@X#X@X@X#X@X@X@X@X@X@X@XXX.X.XXXXXXXXXXXXXXXXXXXXXXX@XXXXXXXXX@XoXXX@XoX#X@X@X.Xh.@X@X=X=X=X=X:X;X<X;X1X:X<X<X<X=X#X=X*X*X*XOXOXOXOX+X+X+X*X*XOXb b b b OXOXOXOXOXOXOX.X.XOXXX.X.XOXOXOXb ' } } [ } } _ [ [ [ [ / _ _ _ _ ^ Y Y P P u u u f Y g g g g g g g s s f 0 0 - - - - - w 0 0 0 0 9 9 9 0 0 e w : : - - - - = - - 0 - - = = = = = = = - = = - * 9 g ~.dXBXVXVXCXHXVXVXVXVXVXVXCXbXnXnX3X<X{.K.H.F.;.t.-.*.*.-.*.-.t.F.{.{.3X3XAXCXAXCXAXmXmXmXmXmXmXbXbXbXbXbXbXbXMXmXMXmXMXNXmXNXmXMXmXbXCXCXCXbXyX1X<X{.I.I.P.P.J.P.D.m.V.C.J.P.U.D.v.b.L.l.e.k 4 # * > u F J J J J J K F F F F F F F F i ` K F K Y ` Y F ` ! ! ` F K ` F K i ` F K i K ` i F ` F K K K K O.pXpXpXqXqXpXsXsXsX$.tXfXBXZXBXBXjXBXgXgXBXBXhXsXsX@.f : - u u d P Y I I Y Y Y Q Q Q Q Q Q Q Q Q Q Q ! Q Q ! ~ ^ ^ _ _ _ [ ( ( ( @.).[.T.[.[.'.'.].'.'.{.].'.'.{.'.'.'.'.eX'.",
"> > ; ; ; ; ; ; A & & & & & m A A A A A & & & & m m A A A A A A i i F +.eXfXfX1X1X].].].].].].].].1X1X<X<X(.z.(.=X=X=Xx.x.h.h.x.x.XXXXXXXXXXXX9.9.9.XXXXXXXXXXXXXXXXXX@X@X@X@X@X@X#X#X@X@X#X#X#Xh.x.@X@X#X#X@X@X#Xh.h.h..XXXXXXXXXXXoX@X@X@X#X@X#X#X#X@X@X@X@X@X@X#X@X@X@X@X=X=X=X=X:X=X=X:X1X1X1X<X<X=X=X=X*X*XOXOX+XOX+XOX+Xs.OX*XOXb n n +XOXOXOXOXOXOXOXOX.X.X.X.X.X.XOXOXb } } } ' [ [ [ [ [ [ ' ~ [ [ [ [ _ Q Y P P Y Y ` Y Y T T h T g g g j q 0 0 0 0 0 - - w w w 0 0 0 0 9 9 w w w w w u - - - - - - w : - - = = = = = = = = - - * * = g ).fXCXCXCXAXAXVXVXVXVXCXVXCXVXAXMXbX1X{.L.K.F.c.c.-.*.*.*.-.2.H.J.I.3X3X3XxXxXnXnXbXbXmXMXmXmXmXmXAXAXAXbXbXMXNXmXmXmXMXNXMXMXmXmXmXbXAXCXCXnXzX1X{.L.I.P.P.P.J.U.b.4.b.4.b.4.}.;.;.c.H.u.e.r $ # = - u K J J J J K K K F K Y K K ` F K F Y F F F Y ` ! ! ` F F F F i F Y i K F ` ` F K K F F F F K K J J O.` O.J O.Q ! ` I u U -XjXjXhXhXhXhXhXhXhXkXhXsX#.T u - - f u Y P Y Y Y Y Y Q ^ ^ ^ ~ ~ ^ Q Q Q Q Q ^ ~ ! Q ! ^ _ _ _ _ ~ _ [ ( @.[.[.[.T.[.[.].'.'.'.'.'.'.].'.'.yX'.eXeXeX",
"; ; ; ; M ; ; & A ; & & & & m A A A A A A i & & & m A A m A A A A A ~ _.fX1X].].].].].].].].{.].].1X1X(.l.(.(.(.=X=X<X<X<X@X@X@Xx.@X@X9.9.XXXX9.9.9.XXXXXXXXXX#X#X#X@X@X@X@X@X,X=X=X=X=X=X=X=X#X@X@X@X@X#Xz.@X@X@Xh.h.h.h.x.x.h.@X@X@X@X@X@X@X@X#X@X@X@X@X@X@X@X#X@X@X@X@X@X=X=X=X=X=X=X=X=X1X1X1X<X<X=X=X=X*X*X*X*X*X*X+XOXOXOXs.b b v OXOXOXOX.X.XOXOXOXOXOX.X.XXX.X.X.XOXOXs.] ' ' ' ' [ [ [ [ [ [ [ [ [ [ _ ^ ^ ~ Y I Y Y f f d P T T T h f 0 0 0 q f j w 0 0 w 0 w w 0 0 0 0 9 9 0 w w w w w w : : - = = - - - - = = = - = = = = - - = O - / -XgXCXVXDXDXCXVXVXVXAXAXAXAXCXDXSXNX1X<X{.G.G.H.4.2.2.;.-.3.G.I.P.{.<X1X1X1X2XxXnXbXMXmXMXmXMXJXAXAXDXAXmXMXmXmXmXMXmXMXMXmXMXmXmXmXAXAXbXvXxX].].{.L.I.I.P.J.J.v.3.;.;.;.-.;.;.;.;.5.i.g.e.q $ @ - u u F J J J K K J K K K K K K F K F ` ` ` K ! F F F ` ! ` F K F K F F ` K F F i K F F K i ! F F K J K ` K O.O.O.Q : D : * P _.kXhXsX-XsXsX-X-X-XsXsX#.' d = = : d P Y T Y P Y Y ~ ^ ^ ^ ^ ~ ^ Q Q ! Q  . .~ Q Q ~ ~ ~ ^ _ ^ ~ ~ ^ ( ( ( Y.^.[.[.[.[.'.'.].'.'.'.'.'.].rXrXeXeXeXeX",
"N ; ; ; & & & & & A A A m & & m A A A A A A & & m A A A m A A A A F +.sXfXzX].].].].1XzX].].].].].1X].{././.z.<X1X1X1X1X1X<X=Xz.z.@Xx.9.x.x.XXXXXXXXXXXXXXoXXX@X#X@X&X<X<X<X<X=X=X<X=X<X=X=X=X<X<X<X<X=X=X(.(.=Xl.z.x.z.z.z.z.x.@X#X@X@X@X@X@X@Xz.=X#X@X@X@X@X@X@X@X@X#X@X@X@X=X=X=X=X=X=X=X1X1X1X1X=X=X=X=X,X=X*X*X*X+XOXOXs.OXOXv b +XOXOXOXOXOX.XOXOXOXOX@X.X.X.X.X@X@X#X*X*XQ.' ' _ [ [ [ [ [ [ +.[ _ _ _ _ _ _ ^ Y Y Y I Y d f f f f d j j 0 0 0 0 w w w w 0 0 w w w w 0 0 0 0 - - - w w w w w w w - - = = - - : = = = - = = = = - - = = w ( dXBXCXCXHXAXCXVXVXVXVXVXAXAXAXAXSXNXxX{.{.L.J.K.K.K.H.4.4.b.C.P.P.L.L.{.<X1X2XcXbXCXAXMXmXmXMXAXAXDXDXDXNXmXmXmXMXmXmXNXmXmXmXmXmXMXAXSXCXzXfX].{.L.L.J.J.U.U.G.c.c.;.,.=.=.=.=.-.;.c.g.z.a.k 4 @ @ i F J J J J J J K J J K ` i K ` i F F ` F i Y K F ! F F F F F ` ` ` Y K u K F ` F F ` Y F F K ! K K F F K J O.O.` Y R D : E @.qX$.[ / [ $.#._.#.#.#.T Y - * * - d T T T T Y Y ~ ^ ^ Q Q Q Q Q Q ! ! ~  . .! Q Y Q ~ ^ ~ ^ ~ ~ ~ ( ( o.) { ^.[.[.[.[.'.'.R.'.'.'.'.'.].eXrXrXrXrXrX",
"; & & ; & & & & & & A A m & & & A A A i A A A A A A A A A A A A D ` sXdX;XfX].].].1X1X1X].].].].].].].(././.(.(.1X1X1X=X=X<X=X=X=Xx.x.h.x.x.@XXX@X@XXXoXXXoX@X@X@X<X<X<X1X1X1X<X1X1X<X1X1X=X=X:X1X1X1X<X=X=X(.=X=X(.(.=X=Xz.z.{.z.=X#X=X=X#X<Xz.{.=X=X=X=X=X@X@X#X#X@X@X@X@X@X=X=X=X=X=X=X=X1X1X1X:X:X:X=X=X=X=X=X*X*X*XOXOXOXOXOXb OXOXOXOXOXOXOXOXOXOX+X#X$XOX.X.X.X@X@X#X*X*XQ.v [ [ [ [ [ [ [ [ +.[ _ _ _ [ _ _ _ _ ~ ~ T ~ [ _ ^ _ T d d d w 0 0 0 w q q q e 0 w 0 w 0 0 0 0 w 0 - - - - : w w f w w w - - 0 0 w w = = - = = = = - = = = g ).hXBXVXVXHXAXAXAXVXVXVXCXAXAXVXCXAXSXMX3X{.{.{.{.{.{.{.L.K.P.P.I.P.P.I.{.1X1XnXcXbXbXbXMXbXMXMXAXDXDXDXDXNXNXNXmXmXMXNXMXMXNXMXmXMXCXAXCXvXzX;X].(.L.L.J.J.U.U.G.c.2.5.;.-.=.;.>.t.F.F.H./.w.k $ $ @ u K J J J J J J J J K K i F K i K F Y ` ` F F F K ! F F F ` Y ` ` ! ` F F i ` K ` F F K F F K F K K F F ! O.O.O.! O.O.` Y D D D : > w T ( [ [ +.#._ d u : - - - u Y T T Y Y ~ ~ ~ ^ Q Q Q Q Q ! ! Q  . .^ ! I Y Y Y ~ Q ^ Q ^ ^ ^ ^ ( ( { [.[.[.[.'.'.'.'.'.'.'.'.eXeXeXyXrXrXfXyX",
"; ; m & & m ; A A A A A A & & & & & A A A A A A A A A A A A A A F +.sXhX].;XzX].].yXzX].].].1X].{.].(.(.(.(.].1X1X1X1X1X;X(.=X(.=X@Xx.x.h.x.x.@X@X#X@X@XXX@X@X@X#X=X<X<X1X1X1X1X1X1X1X].1X].=X{.1X=X1X<X=X{.(.=X=X(.(.=X=X=X(.=Xl.{.].{.(.(.(.(.(.@X(.=X=X=Xz.z.z.=X@X@X@X@X=X=X=X=X=X=X=X:X;X;X:X:X:X:X=X:X=X=X=X=X*X*XOXOXOXOXOXOXOXOXOX+Xs.OXOX+XOXOXOXOX+XOX.X.X.X.X@X@X*X*X|.] ' [ [ [ [ [ [ ^ [ ^ _ _ _ _ _ _ _ _ _ +.+.+.-XpX-X+._ T U f f w 0 w w w w e e e e 0 0 0 0 0 0 w w 0 - 0 - 0 w w w w 0 0 0 0 0 w w - = - - = = = = = = = - T `.gXVXVXVXCXAXAXAXAXAXCXCXAXVXVXCXCXmXSX3X3X{.{.I.{.I.L.L.L.P.P.P.P.P.{.3XzX1XnXcXvXvXbXbXbXMXAXNXMXmXAXSXNXNXnXmXmXNXMXNXMXNXMXmXMXCXAXAXvXgXfX1X(.L.L.P.J.U.U.G.c.2.2.5.5.;.;.F.F.F.v.H.y.q.4 $ @ = i F O. XJ J J K J K J K K ` i ` F K F ` F F u Y F ! ! K ! F ` ! ` ! F Y K K ` F F K F ` i u u F ! F F K F Q K F O.O.O. .O.Q D ; > * : f T _ [ [ { T u - - - ; : d Y T T Y ~ ^ ~ ~ ~ Y Q ! ! ! ! ~ ^  .~ Q Q I Y Y Y ^ Q Q ! ^ o.( ( ( ) ] ).[.'.'.'.'.'.eXeXeXeXeXeXeXeXeXrXrXrXrX",
"& N A i & m F A A A A A A A & & & & & A A A A A A A A A A A A A ! $.-X-X].].].].].].zX].1X].].].].].].].].{.1X1X1X1X1XyX1X=X].(.=X(.(.x.x.x.x.x.@X@X#X#X#X@X@X@X=X=X=X(.].1X;X1X1X1X1X].].].].].(.(.<X=X=X1X{.(.=X=X=X=X<X=X=X=X(.(.{.].].(.].(.(.(.{.z.z.<X(.z.(.=X@X@X@X@X=X=X=X=X].:X=X:X;X;X:X:X:X:X;X:X:X=X=X=X*X*X*X+X+X+XOXOXOXOXOXOXb b OXOX+XOXOXOXOX.X.X.XOX@X@X+X*X*X} ' _ [ [ [ [ O._ _ _ _ [ _ _ _ _ [ _ _ _ [ O.+.|.sXsX X+._ _ ~ T P w f w w w e e q e 9 0 0 0 0 0 0 w w 0 0 0 w w 0 0 - = 0 0 w w w - - : - = = = = = = = = : ( sXvXCXCXVXVXCXAXAXAXAXAXAXVXVXCXCXDXAXNXNX3X{.{.H.H.H.g.H.H.J.D.P.I.{.3X3X3XMXnXcXcXcXBXbXAXAXAXMXNXNXAXSXNXNXNXMXNXNXMXmXMXMXmXAXCXbXVXVXvXcXzX1X{.K.K.P.P.J.U.v.c.c.2.4.4.v.G.J.L.J.J.g.r.8 3 $ = - ; F O. XJ J K J J K J K K ` K K F i K Y ` F Y Y ! ! F F Y ` ` Y ! ` F F F K i K F F F ` K F u F F Y F F ! Q Q F ! O.` O.O.O.Q Y i : I u D d T ~ ~ Y u - - ; u d d P T T ~ ~ ~ ~ ~ Y Y I Q Q Q ~ ~ ~ ! Q I P P Y Y Q ~ ~ ! ! ^ +.+.( o.).[.).'.'.'.'.rXeXrXyXeXeXeXeX'.eXeXrXrXrXrX",
"& A S & & m F A & & A A A A & & & A & & A A A A A A A A A A & A ! $.-X-X].;X].1X].].1X1XzX1XzX;XyX1X;X1X].].].1X1XfXzX1X1X1X;X<X(.{.@Xx.x.x.9.x.x.x.@X@X@X@X@X=X=X=X(.(.(.(.].;X1X1X1X1X].{.1X].].1X=X1X1X1X1X].{.:X<X<X<X<X<X=X].(.].].].{.{.(.(.(.(.(.l.(.{.z.(.=X(.z.z.z.z.x.(.(.^.:X:X;X;X;X;X:X;X:X;X:X:X:X:X=X*X*X*X*X*X*XOX+XOXOXOX+Xs.b OXOXOXOXOXOXOXOX.XXX@X@X#XOX*X*X} } [ [ [ [ +.+.+.[ _ _ +._ _ _ _ _ _ _ _ _ O.+.+.|.sX$.+._ _ [ ^ T g U f e e e q q q e 9 9 0 0 0 0 0 0 0 0 w w w w - 9 = : w w : - = - : - - = = - - = = @ - { dXVXVXVXVXVXAXAXAXAXAXAXAXAXVXDXDXAXAXNXNXNX3XL.G.i.t.3.2.t.;.c.G.H.{.{.<X3XcXCXcXcXVXVXbXAXAXMXMXmXmXNXSXNXNXNXNXNXNXNXmXMXmXAXCXVXbXCXBXcXcXfX{.(./.K.P.P.P.J.J.G.n.v.n.n.J.P.P.P.I.I.K.i.8 3 # = ; D F O.O.J J J J K J K K K K K K K ` F ` F F F ! Y ! ` F D F Y F ` F F K F F Y F F ` Y Y F ` F F F F ` F Q Q Q Q Q Q Q ! ~ ` O.` ! F I d : : : d P I u : - - u I f Y T ~ ~ ~ ~ ~ Q Y I R Q Q ! ^ ^ Q ! Q R I R Y Y ~ ~ ~ Q ~ ( +.@.).@._.).).'.'.'.'.eXeXrXeXeXeXeXeXyXeXeXrXrXrXrX",
"& A A & & & A A & & A A A A & m A A m & A A A A A A A A A & & D _ $.-X:X;X;X;XfXzXzXzXzXzX;X].1X].].;X1X1X1X1X1XzXfX;X1X1X1X1X{.<X=X(.(.x.x.x.x.9.@X@Xx.x.@X=X=X=X=X{.].].].{.].1X1X1X1X1X1X1X<X1X1X1X1X1X1X1X1X1X1X1X<X<X<X=X].].{.].].].{.(.(.(.(.(.(.{.(.z.(.=X=X=X=X=Xz./.(.(.(.!.(.:X:X;X:X;X;X;X;X:X:X;X:X:X*X*X*X*X*X*X*XOXs.OXOXOXOXOXb OXOXOXOXOXOXOXOX.X#X@X@XOXOX+X*X} } ' _ _ [ +.+.+.+.+.+.+.O._ _ _ O.O._ _ +.+._ +.+.$.$.O._ _ +.[ ~ T U g w w q q q q q e 0 0 e 9 0 0 0 0 w w w w w w e 0 w 0 - - - - - * - w - - > : - * . w #.jXFXFXCXVXVXAXAXAXAXAXAXAXDXDXAXCXDXCXMXNXNX3X{.{.L.i.>.;.}.;.;.F.F.J.{.{.1X].cXgXBXVXCXCXbXbXmXMXmXmXmXNXNXNXNXNXNXNXNXmXmXmXMXCXVXVXVXBXgXhX;X].(.L.L.P.P.P.P.P.I.I.P.P.P.P.P.P.J.P.P.P.(.w.4 $ # : I ` J O.J K J J J J K K  XK K K F F i S ` ` K F ` ` ! Y ` F F F ! ` ` F K F ` i F F ` ` Y ! ! ! ! Q Q ! Q ! Q ! ! Q Q ! Q ! ! F ` O.! Y u : - - u D : - - u f P T T ~ ~ Q Q ~ ~ Y I Q Q ~ ~ Q ~  .` ! Q Q ! ! ~ ~ Q Y Y W W _ $.$.).).).).).'.'.'.'.eXeXeX'.'.'.eXeXrXrXrXrXrXrXrX",
"& A A A & & m A & i F A A A & & & & & A A A A A A A A A A & A Q +.`.sX;X;X;X;X1X1XzXzXzXzXzXzX1X1X;X1XzXzXzXzXzXzXzXzXzX1X1X1X].(.(.(.z.z.z.x.x.x.@X#Xx.@Xz.=X=X=X=X=X].1X].].].].;X(.=X<X=X<X<X{.{.].1X1X1X1X1X1X1X<X<X{.(.].(.].].].1X].].].(.{.].(.(.(.(.{.(.(.(.(.#Xz.(.z.=X!.^.^.=X:X;X;X;X;X;X;X:X:X:X:X:X:X-X*X*X*X*X*X+XOX+XOXOXOXOXOX+XOXOXOXOXOXOXOXOXOX#X@X@X@XOXOXv ] ' ' [ [ [ +.+.+._ O.+.+.+.+.+.+._ _ _ _ _ ^ _ _ _ +.+.+._ _ _ ~ ~ U U U w q q q q q q e q q e e q q q q q q w w w w w w w 0 0 - - - - = - - > - - w w : @ / sXBXFXFXCXVXVXCXAXAXAXAXAXDXDXDXDXFXHXAXMXNX3X3X{.{.H.F.;.;.;.;.}.}.>.{.{.{.'.T.`.fXkXjXVXCXCXVXbXMXmXmXNXNXNXNXNXNXNXNXNXmXMXMXmXAXCXVXBXgXdXeXT.r.u.K.L.P.P.P.P.P.P.P.I.P.P.P.P.P.J.P.P.I.{.r.5 2 0 w I ` O.O.J J J K K J K J J K K Y F K F ` F ! F F ` ` ! ! F Y F F ! Y F ` i F K K ` F F F ` Y Y Y ! ! Y Q Q R R F F F Q ! Q ! F F ! Q Q ! I u : : u : - - ; : u Y T T ~ ~ ~ ~ ~ ~ Q ! ! ~ ~ Q ! ~  .Q Q Q ! Q I Y Y U U U W W +.).).).).tX).'.eX'.'.'.'.'.'.R.'.'.'.'.eXeXeXeXeXeXeX",
"m D F A & & m A F F F A A m & & A & m A A A m A A A S A & m F  ._.sXfXfXfX].fXfXzXfXzXzXzXfXfXyX].1XzXzXzXzXzXzXzXzXzX1X1X1X1X].{.(.(.z.z.(.z.x.(.@Xz.z.=X=X=X<X1X1X].1X1X].1X].=X=X=X=X=X=X=X=X{.(.(.].=X=X<X].<X1X].{.{.].].(.{.].].1X].].].;X=X;X1X(.(.=X(.(.{.z.(.!.(.=X=X(.^.=X].:X:X:X;X:X:X;X:X].`.`.:X`.-X-X-X*X*X*X*X*X+XOXOXOXOXs.+X+XOXOXOX+XOXOXOXOXOX.X@X@XOXOX+Xb v ' ' +.O._ +.+.+.O.+.+.+.+.+.+.+.O._ _ O.[ _ _ O._ _ O.O.+._ _ _ ~ T U U P f g q q q q q q q q e k s g g g g e w w w w w w 0 0 0 - - - - = = - * - - - : : _.BXFXFXHXDXVXVXAXSXMXCXAXDXAXDXAXAXAXAXbXbXzXzX1X/.E.i.2.-.;.=.-.;.>.F.{.{.{.T.r g ).dXjXVXCXVXbXbXnXnXnXNXNXNXNXNXNXNXNXNXMXmXmXmXCXVXBXcXgX].).x r.E.{.I.P.P.P.P.P.P.I.P.P.P.P.P.P.P.P.P.I.(.r.3 2 9 f U K O.K K J J J J J K J K F K K F ! F ` Y ` F F ` ! ! ! ` Y F ` ! ` F K F F F F F K i F F F Y ! ! ! Y Y I I I D F R Q Q Q F K F ! F Y Q Q I D D u u : : : d I Y ~ ^ ~ ^ ~ ~ ^ ~ ! ~ ~ ~ ~ ! ~ ~ ~ ~ Q Q Q Q Y I P U W ^ o. .$.tXtXtXtXtX[.eX[.eXeXrX'.'.].'.'.'.'.'.'.'.eX'.'.eX'.",
"A A F F A A A F F A A S A & & A A m & A A A & m A A A & ; A ! @.sXdXfXfXfXfXzXzXzXfXzXzXzX].zXzXzX1XzXzXyXzXfXfXfXfX1X1X1X1X1X].(.z.(.{.(.x.z.z.z.z.#X=X=X=X=X1X1X1X1XfX1X1X1X;X;X(.].=X=X=X=X=X=X(.(.{.=X=X].(.<X].].].].].].{.].].].{.].].].{.].;X;X;X;X;X=X=X(.(.z.(.(.*X(.(.(.(.(.:X].:X:X:X:X].`.]._.~._.#.} #.|.*X*X*X*X*X*X*X*X+Xb b +X+XOXOXOXOXOXOXOXOXOXOX#XOXOXOX*Xb b v [ [ +.O.O._ _ _ _ O.^ [ _ +.O._ _ +._ _ O._ +._ ^ ^ _ O._ +.[ ( ~ ~ T U / z s s k k q r r r r r k g k k g g q q w w w w 0 0 - - - - - = * : ; > * * - / dXHXFXCXCXVXbXCXCXbXbXbXCXHXHXDXDXVXCXAXAXmXNXNXzX(.{.i.-.;.;.=.-.}.F.{.{.{.{.e.3 0 P ).gXZXZXVXCXCXnXnXnXNXNXNXNXNXNXNXNXNXmXmXmXAXAXVXcXgXlX_.[ q t {.{.L.P.P.P.P.P.P.P.P.P.P.P.I.P.P.P.P.{.{.q.3 1 = w Q ` O.O.K J J J J J K K K K K J K ` F F ` F F F ` ! ! F F ! ` F ! ! ` F u F F u F K ` F K F Y Y Y Y Y Y I Y I I I ! ! ! Q ! ! ! F F Y Q ! ! Y I Y I I I Y Q ~ ~ ^ ~ ^ ~ ^ ^ ~ ^ ~ ~ ~  .^ Q Q ~ ~ ~ Q Q Y Q Q U R ^ o.+.$.$.).).tXtXtXtXeXeXeXeXeXyXR.'.'.'.].'.'.'.'.'.'.'.'.'.'.",
"i F F F A A A F A F m & & & A S A m & & m A m m m A & & & A _ $.sXfXfXfXfXfXzXzXzXfXzXzXzXfXfXzXzXzXzXzXfXfXrXfXfXfX1X1X].zX].].{.(.(.{.(.K.(.z.z.z.(.<X(.=X=X<X1X1X;X1X1X;X;X:X=X].].=X=X=X=X=X=X=X=X=X=X=X:X(.=X].].].=X].;X;X;X].;X].:X;X].{.].;X;X;X:X:X=X:X].(.(.(././.^.(.(.(.`.:X`.].:X:X].'.'.`._._.@.{ [ [ } } ~.*X|.*X|.+X*Xb b b b b +XOXOXOXOX+Xb n OXOXOXOXOXOX*X*X] s.' [ +._ O._ _ ^ +.O.~ ~ ! _ O._ +.O.+.` _ ^ _ Q Q ~ _ ^ +.+.+.[ ^ [ ~ T T / z k k k k r r r t r r r r s g g q q e w w 0 w 0 - - - - = = = - > * > : U `.BXDXCXVXAXVXVXCXCXbXbXMXAXAXFXHXAXVXVXCXCXAXAXAXnX{.{.i.t.5.;.-.-.2.H.{.{.3X<XT.q + = ( sXjXZXGXFXbXbXnXbXmXNXNXNXmXmXNXNXNXmXmXMXCXCXCXcXhX-X_.U r :.{.L.L.L.I.P.P.P.P.P.P.P.I.P.P.P.P.P.I.{.R.r.3 + + - I O.O.O.J J J J J J K J J J J K K Y F ` ` ! K F ! ! F ! ! ! F ! ! ` F F F F u D F Y ` F Y ! ! F P Y Y Y Y Y Y Y Y Y Y Y Y ! ! Y F Y D Y Q ! Q Q Q T Q Q ~ ^ ^ ^ ^ ^ ~ ^ ^ _ ~ Q ^  . .^ ^ ! Q ^ ^ Q Q F I Q _ ^ [ +.$.@.).tXtX).tXtXtXtXtXeXeXeXeX'.'.'.].'.'.'.'.'.].'.'.'.R.'.'.",
"; ; u A D A i D D m & & & & m m & & & m m F A A m A & & & F $.sXdXfXfXfXrXfXzXzXzXzXzXzXzXzXfXfXyXzXzXzXfXrXrX].fX].].].].1X1X].].(.(.(.(.(.(.x.z.(.(.(.(.<X=X;X1X1X;X;X1X].;X=X(.(.(.=X=X=X=X=X=X=X(.=X=X=X=X<X=X].].{.=X1X;X:X1X;X1X1X:X;X:X].;X;X;X;X;X;X;X;X1X(.].(.(.^.(.(.(.`.^.^.`.-X:X-X-X-X-X'.`._._.+.[ [ [ [ [ ' b } ] |.*Xv b b +Xb b +XOXOXOX+Xb n .XOX.X.XOX+X*X*X|.|.} [ _ _ _ _ _ ^ _ _ ^ ! ~ ~ _ O.O. . .! Q ~ ~ Q ~ Q ^ ^ O.+.+.+.[ [ _ ~ T / z z z c k r t r r r r t r r g q q q w w w 0 0 0 - - - = = * * = = = : W #.fXBXVXVXAXAXVXbXAXMXbXbXmXAXHXHXHXCXVXVXCXVXVXAXAXbX1X{.u.g.F.2.;.2.F.L.{.{.{.3X[.q + @ P -XhXBXZXFXHXCXbXMXmXNXNXNXNXmXmXMXMXmXAXCXbXVXCXBXgX-X@.q e i.{.K.K.I.P.P.P.P.I.P.P.I.P.P.P.P.P.P.{.{.{.:.< + O * I O.O.O.J J J J J J J J K J K K F F K O.J O.F F ` ` F F ! F K F ! F ! ! ` ! F D Y Y Y Y Y F ! Y P Y Y Y Y Y Q Q Y Y T Y ~ ~ Q Y Y P F Q Q Q ! Q Q ~ ^ _ ~ ~ Q ~ ^ ~ ^ ~ _ _ Q Q ^ ^  .^ ~ ! Q Q ^ ! Y D D Q _ +.#.$.$.$.).tXtXtX).tXtXtXeXeXeXeXeX'.'.'.'.].R.'.].'.'.'.].'.].'.'.",
"; ; i i i i & & & & & & & m m m & & m m A A A m A A A & m ! |.fXfXdXfXfXfXrXzXfXfXfXzXzXzXfXfXfXzXzXzXfXfXfXfXrX].rXrX;XfXyX;X].].{.(.(.(.{.l.(.{.(.{.(.].<X1X1X1X1X1X;X;X;X;X].].`.].].=X=X=X(.=X(.].;X=X=X=X=X=X].].].;X;X;X:X1X1X;X;X;X;X;X;X;X;X:X].].].;X:X].].].(.(.^.(.].*X].`.^.(.-X-X-XsXsXsX-X`.`.#.#.+.[ [ [ [ ' ' h ' } |.v +X+XOXOXn b OXOXOX+Xb .X.XOXOX.X.X+X*X*X|.} [ _ _ _ _ _ ^ ^ ~ _ _ O. .~ _  ._  .! ! Q ~ ^ ^ ~ _  ._ +.+.+.+.[ _ _ _ T T / z z z k k r r r r r t r r r q q 0 w 0 0 0 0 - = - = = = * O , , = w @.sXZXVXVXCXCXDXCXbXMXVXbXCXAXAXAXAXCXVXCXCXFXCXVXDXNXnX].(.{.L.L.K.G.H.H.{.{.{.3X<X(.k + # d ( `.hXBXGXGXVXbXCXmXMXmXNXNXNXNXMXNXmXAXbXbXCXVXBXhX`.^ w r y.K.L.K.I.P.P.P.P.P.P.P.I.P.J.P.P.P.P.I.{.d.8 2 + + - D ! O.J J J J J J J J K K J K i A F O.O. XK F F ! ! F ` F K F F ` ! ! ! Y ! Y Y Y Y ! ! ! F ! Y Y Y Y Y Y ! ~ ^ ^ ~ T T ~ ~ Y Y Y I Q Q Q Q ! ! Q Q ~ ~ Q Q Q ! ~ ^ ~ ~ ^ ~ ! Q Q ~ ^ ^ ~ Q Q Q ~ Q Q I I Q _ $.$.$.$.$.tXtXsXtXtXtXtXtXeXeXeXeXeX[.'.'.].'.'.].'.R.].[.].].].'.].",
"; ; ; ; - ; & & ; m ; & m m m & m A A A A m m m m A A i F  .pXkXfXfXfXfX1XfXfXfXfX].fXzXzXfXfXfXzXzXzXfXfXfXfXfXfXfX1X].].1X;X].].].].(.(.(.(.(.{.<X{.].{.{.<X1X1X;X;X].].].].].(.(.].`.:X;X`.(.].].].{.].=X=X:X1X=X].{.].:X:X:X:X:X:X:X;X;X1X1X1X1X;X;X;X:X:X;X].].:X:X(.`.].:X:X].].].`.-X-X-X-XsXsXsXsX-X#.$.#.+.+.[ _ T T T ] |.b s.+XOXOX+Xs.b b OXOXOXOXOXOXOXOXOXOX+X*X*X+X[ [ _ _ _ _ _ ^ ^ _ O.O.O.~ ~ ~ ~ ~ Q Q ! ` ` _ _ _ _ ` +._ _ _ _ _ _ _ ` ` / / z z c c k r r r t r r r q r q s 0 0 0 0 0 0 - = = = = = * O * = w ( tXjXLXDXDXVXCXVXCXbXbXbXbXAXAXAXCXCXCXCXHXFXHXHXHXMXMXMXNX{.{.{.L.K.K.L.L.{.{.{.{.<X/.l $ @ : W @.sXkXZXBXVXCXCXAXMXMXMXmXMXMXmXMXmXmXbXbXvXBXgXsX+.P w r u.K.L.C.4.c.c.c.c.v.H.v.c.F.H.n.H.H.F.F.t.1.5 4 # # : Y ! O.J J J J J J K J J K J K ` F F F K J O.! ! ! ! Y ! ! F F F ! ! ! Y Y F ` Y Y Y Y ! ! Q ! ! ! F d P Y Y Y Q ^ ~ T T T T T T U I Q Q ! Q Q Q Q Q ! Q ! Q ! ! ~ ~ ~ ^ ^ ~ ! Y Q ~ ~ ~ ~ ~ Q Q Q Q Q Q Q Y _ +.$.$.$.$.tXsXsXsXtXtXtXeXeXeXeXeXeX'.'.'.R.].].R.'.'.'.].].'.'.R.'.",
"u ; & & & & ; ; ; ; & & m m m & m A A F A & & & & A A & F +.sXlXfXdXfXfXfXrXfXfX].1XrXfXdXfXfXfXzXzXfXrXrXrXfXrXzXzXzX1X1X1XfX{.].].].(.(.(.{.{.{.<X1X].{.{.1X1X;X;X:X;X(.].].].`.`.`.:X:X(.(.].].(.(.(.(.{.;X;X;X:X].].:X:X:X:X].=X:X:X:X;X;X1X1XzX1X;X1X;X;X;X;X;X].(.].`.].].].].`.:X`.`.`.`.-X-XsXsXsX_.$.#.#.#.#.[ ' ' ' ` } } b s.OXOXOXOXOXOXb b +X*X*XOXOXOXOXOXOX+XOX*X} ' ' ` _ _ ^ ~ Q ~ _  .Q Q Q Q Q Q ! Q ~ ` ~ ~ ^ ^ ^ ^ ^ ^ ^ ^ ~ _ _ _ _ _ _ ( / z z z k k k r r x c r r e q q q q e q 0 0 9 - = = = * * * * - C ( `.jXVXFXHXDXBXVXVXCXVXnXnXCXAXDXAXVXVXVXJXFXVXDXVXVXcXcXzXzX1X{.L.L.K.C.L.L.{.{.<X{.{.(.W.4 @ @ f #.sXgXGXBXVXVXCXAXbXbXMXmXNXMXmXmXmXCXVXVXcXhXdX_.T f 0 c i.H.L.g.;.;.=.;.;.-.;.-.=.;.2.2.i.2.2.2.3.a 3 2 $ - I Q ! O.O.J J J J J J J K K J J J F K F K O.! F F ! ! Q ! F ! F F F ` Y Y ` Q ! Y Y F ` Y ! Q Q ! Q I P P P P Y Y Y ^ ~ T ^ ~ T T T Y ! ! ! Q Q ~ ^ Q Q Q Q ~ _ _ ^ ~ ! Q ~ ~ Q I Q ~ Q Q  .O.~ Q Y Y _ _ ~ ^ ^ [ +.).).`.tXsXtXtX).tXtXeXeXeXeX'.'.'.'.'.'.'.'.'.'.'.'.'.'.'.'.'.'.",
"; ; ; ; & & & & N ; m m m m & & A A F A A & A A A A & F ~ _.dXhXfXdXfXfXfXfXfXfXfXfXfXfXdXfXfX;XfXfXfXfXfXzXzXyXyXzXzXzXzX1X1X].].{.{.(./.].].{.].1X1X{.:X].1X;X:X].].:X].`.].^.^.^.^.].:X].(.].(.(.`.].].].].].].].:X:X].].].].].(.:X:X:X;X;X;X;X;XfX;XfX;X:X:X;X:X:X:X:X:X:X:X:X].(.].`.].eX`.-X:XsXsXsX-X_.#.} } } } } ' h b b } +X+XOXOXOXOXOXOXOXOX+X*X+XOXb s.OXOXOX+X+Xb } } [ _ _ _ ~ ~ ! ! ! ! Q Q ! Q Q Q Q ^ _ _ ! Q ~ ~ O.+.~ ^ _ _ _ _ _ ^ _ _ _ _ T / / z / z c k q r r q q q e q q q w w 0 9 = @ * * * O X O = w @.hXZXFXDXVXDXDXDXbXcXcXVXMXAXAXDXHXHXAXCXVXCXbXFXZXZXcXcXcXcXzX].(.{.L.H.H.L.L.J.J.H.t.i.p.q.k $ $ $ d #.-XgXBXVXCXVXCXbXMXnXnXnXNXNXNXAXbXgXBXBXkX`./ 0 q 4 :.l.L.L.4.;.=.;.-.;.=.-.*.=.=.*.*.-.-.-.-.<.1.8 4 j u ; D F K O.O.J J J J O.K K F K J K F F ! K  XO.! ! ! ~ ~ ~ Q ! ` K F F F F ! ! ! ! ! Y Y Y Y Y Q Q Y Y Y Y ~ ~ T Y Y U T _ ^ ~ T T T T ` T Y Y Q ^ ^ ! ! Q ! Q ^ ~ ~ Q ! Q Q Q W R W E ! Q Q Q ~ Y Y ~ ^ ~ ^ ~ +.+.@.$.tXtXtXtXtXtXtXtXtXeXeX'.'.'.'.'.'.].^.E.{.(.].(.(.].'.(.].].(.",
"; ; ; ; > & & & A m M N N m m m A A A A m m m A A A ; F +.-XdXfXfXfXdXfXdXfXfXfXfXfXfXfXfXfX].fXfXzXzXfXzXzXzXrXyXzXzXzX1X1X1X].].].{.].].<X1X].1X1X1X1X1X1X].;X:X:X=X].].`.).^.^.`.(.`.^.(.^.`.`.].].].].:X:X(.`.].].:X`.`.-X;X`.`.`.=X`.`.].].:X:X;X;X;X;X:X:X:X:X:X:X:X:X:X:X:X:X:X].].'.:X:X:XsX-X-X-X-X-X~.} } } } } b b b b +XOXOXOXOXOXOXOXOXOX+Xn |.*X*X+XQ.+XOXOXOXQ.b b } ` _ _ O._ ! ! Q ! Q ! ! Q ! Q Q ^ _ _ _ ^ ^ ~ _ O.O._ _ ^ ^ ^ _ _ _ ^ ~ ~ T ^ ( T T U U U k q q q q q q q q q q w w w = = = * * * @ , w ^ $.dXBXZXDXDXCXVXCXCXVXbXvXVXAXCXDXDXHXDXAXCXVXCXFXFXGXZXkXhXfXfXtX[.(.{.L.K.H.K.G.J.H.;.>.i.r.r.r j $ $ $ h } -XhXgXvXvXvXbXSXMXbXNXmXNXNXCXCXBXBXjXsX@.g q q c 5.i.G.n.;.;.=.-.-.;.,.=.=.*.=.,.*.-.-.-.5.5.a 8 4 4 u ; M F F O.K O.J J J J K K K K K K F F K O.O.O.Y Q ! ! Q ! Q ! ! F ! ` F ! Y Q Q ` Y F Y Y Y ! ! ~ Y Y Y Y Q ~ ~ Y I Y T T T T T T T T ~ T T T ~ ~ ^ ~ Q Q ! ~ ^ ^ ^ Q ! ! Q ~ W Q Q Q Q Q Y ~ T I Y T ~ ~ Y ^ ( ( +.$.).qX).tXtXtXtX).eX'.'.'.'.R.'.(.].(.^.^.(.`./.(.].(.].(.(.(.].",
"D u u ; & & & & & m m m & m F A A A A A m m A A A i A ! _.sXdXfXfXfXfXfXdXfXfXfXfXfXfXfX].'.].fXfXzXzXzXzXzXzXyXzXzXzXzXyX1X1XyX].].1X].{.1X=X1X;X1X1X].1X1X:X].:X:X:X].`.~._.Y.`.`.`.`.`.~.).^.`.`.:X`.].;X:X].].fX:X`.].`.`.`._._.`.`.`._._.`.`.].:X:X;X;X:X;X:X:X:X;X:X;X;X;X:X:X:X:X:X:X:X:X:X-X-X`.-X-X-X-X*X*X} } } } } v OXOXOXOXOXOXOX+XOXOXOXs.b b *X*X*X} } +X+X|.|.v ' ' ' ` _ O._ _ ~ ~ Q  .Q  .~ ^ Q ~ ^ ^  ._ O._ _  ._ _ O._ _ _ _ _ _ _ _ _ ^ T ~ ~ ^ U U U U f w e e q g q q q q q e w = = = * @ * * - d ( ).hXBXZXVXCXVXCXVXVXCXCXbXbXVXCXVXDXDXDXDXCXVXVXGXFXJXFXZXkXfXtX).[.r.T.(.{.K.c.F.v.F.>.;.-.*.r.1.c 4 $ $ u $ h -XsXhXgXgXcXbXCXAXmXmXMXbXbXCXVXBXjXhX_.T s s c r.u.K.b.n.5.;.;.2.;.;.;.;.5.5.;.5.-.;.;.;.2.t.1.8 4 0 u ; u F F O.O.J J J J uXK K J J J K ! F F ` K O.Q ! Q ! Q Q Q ! ! ! Y ! ` ` ! ! Q Y Y Y Y Y ` ~ ~ ~ Y Y Y ! ~ ~ ~ ^ Y Y T T T T T T / T T T T T ~ ^ Y ~ ` ~ ~ ~ _ ~ ~ ^ ! Q ^ ~ W ~ Q Q ! ~ ~ ~ Y P Y ~ ^ ~ Y Q ~ ^ +.+.+.$.$.).tXtXtX).).'.'.'.'.].'.].].].`.^.^.^./.(././././.^./.{.",
": u u i ; & & & & & & & & m A F A A m m A A A A & & F ` -XdXfXdXfXzXfXfXfXfXfXfXfXfXfXfXdXeXfXfXfXzXzXzXzXzXyXyXzXzXzXzX1X1X1X{.].].1X].].1X<X=X=X;X].;X1X;X(.^.].:X:X`.^._._.~.^.-X-X`._._.~.).-X-X;X;X'.:XfXfX;XdXeX`.).).).)._.@.#.).)._._._.-X-XdX:X`.:X:X:X;X:X:X;X;X;X;X;X;X;X:X;X:X:X;X:X:X:X-X`.`.-X*X*X*X~.~.~.} *X|.+XOXOX+X+XOXOXOX+XOXOXOXb b v *X*X*XQ.v s.|.} } v } ' _ _ [ O._ O. ._  . . . . .^  .^ ^ ^ ^ O.+._ O.+.^ _ _ O.O._ _ _ _ ~ _ _ _  .~ ~ Q Y U P P w w C e w g w w e e e e - = = * O O * w U #.-XhXBXBXZXCXVXCXCXVXVXbXVXCXAXAXCXCXCXDXCXDXCXCXCXDXFXGXGXZXlXtX@.( C r Y.E.L.K.3.4.2.;.=.;.=.*.w.e.q.p 4 j 0 $ j ' -XhXhXhXhXvXBXVXCXCXAXVXVXVXcXhXkXsX@.f q r c y.K.L.n.C.4.4.b.4.2.2.4.t.b.b.2.2.b.2.c.c.H.i.w.5 < 9 - : : F F O.O.J J J J uXJ J J J K K F F ` `  XK Q Q Q ! Q Q ! Y ` F F Q ` ` Q Y ! Q Y Y Y ! Q ^ ^ ^ ~ Y Y Y ~ ^ ~ ~ ^ Y T T T T T / T h T T T T T T Y Q ` ^ ^ _ _ _ ^ ^ ~ ~ ^ ^ ~ ~ Q ! Q ~ ~ ~ Y Y Y T ~ ~ Q Q ~ ^ +.+.+.$.$.).tXtXtX).).eX'.'.].(.'.`.].].(./.^././.(./././././.^.E.",
": : u : ; & & & & & & & & m A A A m m A A A A A A & F +.sXdXfXdXfXzXyXfXfXfXfXfXfXfXfXfXfXfXfXzXfXzXzXzXzXzXyXyXzXzXzX1X1X1X].].{.].].{.(.].].=X:X;X;X:X].(.^.^.^.].-X^.^._._.)._.`.`.)._._.).).).dXdXdX;XdXdXhXfX-X'.`.).)._.+.+.+.( @.#.).tX`.sXfXfXdX-XsX:X:X:X:X:X:X;X;X;X;X;X;X:X:X:X:X;X;X:X:X:X:X`.*X*X*X*X~.~.~.*X*X*X+X+XOXOXOXOXOXOXOXOXOXOX+Xb b v *X*Xv b v b } } } } } ' _ _ _ O.+.O. . . . . . .+.O. . .^ ^ _  .O.O.O. .~ +.O.+.O.~ ~ ^ ~ ~ ^ O._ ~ ~ Y P C I d w w w w w w w w e e w 0 = * O O O O w ^ _.dXjXZXBXBXVXCXVXVXCXVXbXbXVXCXAXAXCXDXDXCXVXVXCXVXAXFXFXFXGXkXsX$.Q I e e ) E.l.H.t.F.t.;.-.;.;.;.3.k.e.l p p j j j T ~.sXhXhXhXhXvXBXBXVXBXbXVXBXgXlXlXtXU e q r r.i.L.K.n.b.n.b.b.4.c.2.b.4.b.b.n.C.n.n.n.G.L.K.y.7 3 1 - - ; F ! O.J J J J J uXJ J J K K F F K i u K O.` ! Q ! Q Q Q ! F F F ! ! ! Q Y ! ! Y Y Q ~ ~ ^ ^ ~ Y Y Y Y ` ~ ~ ^ T T T T T T ' ' / T h h T T T Y Y T ~ ~ ~ ^ _ _ ~ ~ ~ ^ ~ ~ ^ ^ Q ~ T T ~ ~ Y Y T ~ ^ ~ ^ ^ ~ ( ( +.@.@.$.).tXtX).).).'.).'.].'.(.].(.(.^././././././././././././.",
"= w : : ; & & & i i & & & A A A A S A A A A A A & ; F $.sXdXfXfXfXzXzXfXfXfXfXfXlXfXfXfXfXfXfXyXzXyXzXzXzX1X].].zXzXzX1X1X].].].].].]./.(.].(.:X:X;X:X:X]./.`.^.`.)._._._._.).).).).).).+.( P P U +.sXsXfXdXhXhXsXsX`.).).).( ( ` E M Y +.$.tXsXdXfXdXfXfXfXfX:X:X:X:X:XfX;X;X].;X:X:X:X:X:X:X:X:X:X:X:X:X*X*X*X*X*X!.Q.*X*X*X*X|..XOXOXOX+XOXOXs.OXOXv b b ] } *Xv v b ] } } } } } [ _ _ _ _ O.+. . . . . . .O.O.O._ ^ _ O.O.+._  . .^  .O. .~ Q ~ ~ ! ~ ^ ^  .Q Q I D M ; : : > w = = 9 w w 0 - = = * O . + = w ( sXhXBXZXCXCXGXFXFXVXbXCXbXbXbXbXAXAXAXCXDXDXDXVXCXCXFXFXFXFXGXZXsX+.E M : 0 e Y.E.l.l.H.L.H.}.c.}.t.2.g.(.l.q.s s j j - d [ -X-XhXhXhXBXBXBXcXcXgXcXBXjXkXsX[ w 3 3 r.j.L.L.L.n.J.J.n.n.n.n.n.n.G.n.n.C.D.J.J.J.J.P.I.u.%.3 2 - * : D ! O.O.J J J K K K J J K K F ` F F F K O.J ! ! Q ! Q Q ! F D F ! ! Q Q ! Q Q ! Q Q ^ ~ ~ ^ ! Q Y Y Y ~ Q ~ T T T T U T T ' ' T T h h T T T T T T ~ ~ ~ ^ ^ _ ~ ^ ~ ~ ~ ~ ^ ^ ^ ` T T T T T Y T ~ ~ ^ ^ ~ ^ +.+.o.+.@.$.).).).).).).).`.].`.].`.(.(.^.^././././././.k.k.k.(./.j.",
"U T U f - * & ; i i i i F A m m m A A A A A A S A i ` |.dXfX;XfXfXzXzXfXfXfXzXfXfXfXfXfXfXfXfXzXzXzXzXzXyX].yXyXfXzXzX1X1X].].].{.].(.{.].].].:X:X:X:X:X`.`.`.`.^.{ { { )._._.#.@.@.@./ w * , . , - U W ^ ( +.$.#.$.).).$.+.W C ; > > M  .+.$.$.#.#.@.`.sXdXfXfXfX:XfXfXfXfXdXfXfX;X;X:X:X:X:X:X:X:X:X:X:X:X:X*X*X*X*X!.!.!.} s.s.OXOXOXOXOXOXOXv v v } } ] ] } } } v b } } } } } } { [ _ ^ _ _ O.O.+.O.+.O._ O._ +.O.O._  . .O.+.O.O.+._ O.` W  .O.O.+. .Q Q Q E D D D : : > > > * = = : w w = O O , = O O = U ).fXkXZXZXKXHXFXCXVXVXVXCXbXbXbXVXCXAXAXAXCXCXDXAXVXJXFXFXCXBXZXjXlX$.W > > = = 9 Y.e.u.K.K.L.G.c.c.F.F.H.L.{.(.s.x k s j $ - f } -XdXhXhXgXjXBXgXdX-XfXBXZXjXqXU 9 3 a y.{.<XI.P.P.J.P.P.P.P.P.P.I.P.P.P.P.P.P.P.P.P.P.L.H.r.5 4 $ * > A K O.J J J J K K K K J J K F F ! F K ` O.` ` F Q Q Q ! ! ! Y ! ! Q Q ! Q Q ! Q ! Q ^ ^ ^ ~ Q Y Y Y Y Q ~ T T T T T T T T T / / / / T / / / T T T [ ~ ~ ^ ~ ~ ~ ~ ~ ~ ~ ^ ^ ^ ^ T Y Y T T Y Y Y Y Y ^ ~ Q ~ +.+.( o.@.$.).).).tX).).'.'.].`.(.(././././././././.f.j.k.k.a.a.a.a.",
"`.~.) U - - : u u i i i F i & & m A A A A A A A A F +.sXfXfX;XfXfXzXzXfXfXzXzXyXrXfXfXfXkXyXfXzXzXfXzXyXfXfXzXzXzX1X1X].].].].{.].].(.(.].].;X:X].].].`.`.`.`._._.{ { @.#.#.+.+.( W U w > * * . X . @ > - > : : U W $.)._.@. .E P D M D R o.+.^ T ~ [ @.).`.eX-XsXdXdXsXsXsXdXdXfXfXfXfXfX:X-X-X:X:X:X;X:X:X*X*X*X*X*X*X*X} ] Q.s.+Xs.OXOXOXOXOXb ] v } } } } } } } } } } } } } } #.#.[ +.~ ~ O._ O.+.O._ O.+. .O.+.O._ O. ._ O.+.+.+.+._ O.+._ O.O. .! ! ! Q E D M M M ; > > * * - * * > : - * , , : U C z [.sXgXVXFXDXDXDXHXFXbXcXvXbXCXbXbXbXbXCXAXAXAXCXAXAXVXVXVXFXFXVXZXZXkXtXW M , % , > = c e.j.K.L.L.G.U.v.G.J.I.{.{.{./.a.l k s j j j ' #.-X-X-X-XsXlXsXsXsXlXjXkXsX( w 2 8 e.L.I.I.I.P.P.P.I.I.P.P.P.P.P.P.I.P.P.P.P.P.P.I.I.{.{.w.8 q 0 - & ; F J J J J J J J J J K K K F ` F ` F K O.O.O.K ! ! ! ` ` ! ! Q Y Q Q ! ! Q Q ! Q ~ ^ ~ ~ ! ~ Q Q Y Y Y ~ ~ T T T T T T T / / / / / z z / / ' T ' [ / ^ ~ ^ ^ T T T ~ ~ ~ ^ ^ ~ T T T T T Y T T Y Y Y Y Q ~ ~ ~ ( +.@._.`.).`.).).).`.].`.(.(.(.(./././././.k.a.a.p.p.d.d.d.d.p.",
"].T.c 9 # = d P u u u i ; ; & & & & m A A m & & M Y @.sX`.fX;X;XzXzXzXzXzXfXzXzXzXfXzXzXzXzXzXzXfXfXzXzXzXzXzXzX1X1X].yX].].].].].(.].(.(.].:X].(.].).~.^._._.~.( { @._.+.( ( / U w : > . . % * * * * u I T ^ ( { _.`.sXsXsXsX).$._. .~ ~ ^ +._ ( U ( +.@.#.)._.).sXsXsXsXsXsXsXsXsXsXdXfXsX-X-X-X`.-X-X:X*X~.~.Q.*X*X*X*X*X*X*XQ.v v s.OXOXOXv } } ] ] } } } } } } } } } } #.} } +.#.+.+.` ~  .O.+.O.O.+.+.O.O.+.O. .+.+. . .O.O.+.$.$.+.O.O.O. .Q E D N D M F F D M M M N > * * * * * * * - * > I { ).sXdXgXjXVXDXDXDXDXDXHXDXCXbXvXvXvXbXbXbXCXVXCXCXCXVXCXCXVXVXVXFXZXBXZXjXhX$.R > % % % , + k e./.L.L.L.P.D.P.P.P.I.<X{.{.(.k.l k s j j j s z ' } } -X-XsXlXlXlXlXsX$.U e q 3 r.{.<XL.P.P.I.P.I.P.P.P.P.P.P.P.I.P.P.P.P.P.P.P.P.I.{.{.y.t q 0 * * & F O.J J  XK J J J K K K K K F K i F K J O.J ! ! ` ! ` O.! ! F F F ! ! Q Q Q ! ! Q ^ ~ ^ Q ~ ~ Y Y Y Y T T T T / ( / T / / / / / / z z z z / ' / ' / T T T T T T T ~ ~ ^ ~ T T T T T T T T T T Y I P Y ~ ~ ^ ~ ( ( @.).).).).).`.eX`.].].'.(.].(./././././.d.p.p.<.p.p.d.f.8.f.",
"/.T.t 9 1 e T T f u - - ; ; & ; & & & A A A A & D ! -XsX-X;XfX;XzXfXzXzXfXfXfXzXzXzXfXfXzXzXzXyXzXzXzXzXzXzXzXzXyX1X1X].].].].zX].(.(.].:X].=X`.].`.[.Q.~.#.{ ) ( { @.{ T T W P : * . . . , - Y ^ [ #.-XsXsXdXdXhXgXgXgXhXhXkXkXkXkXdX-X#.@.+.+.o.^ T / ~ ( ^ o.o.).sX).`.sXsXsXsXsXsXdXsXsX-X-X-X-X-X-X-X-X*X*X*X*X*X*X*X*X*X*X*X] *Xs.*X+Xs.s.} } } } } } } } } } } } } #.#.@.} +.+.+.+.+.+. .^ O._ +.O._ +.+._ O.+.+.+.+.+.+.+.+.+.+.+.+.O._ E C M M N M E R M M N > > % % % * O * * u I W ( $.tXhXkXBXZXZXVXDXDXVXVXDXDXAXCXCXCXbXbXbXbXbXbXbXCXVXCXAXAXCXCXFXVXBXZXZXBXjXdX).W > % % % % , 9 k a./.l.L.L.P.P.P.P.P.I.{.{.{.{.l.a.x k s p 0 j g h h h ' { _._.sX`.tX_.T e 4 q t y.L.&XP.I.&XP.P.P.P.I.P.P.P.P.I.P.P.P.P.P.D.P.P.P.P.{.L.e.c q - @ * & F O.J J O.K K K ` K J K K K F ` i F ` K O.O.! F ! ! ` ! ! ! ! D Y ! Q Q ^ ~ Q Q ~ ^ ^ ^ ~ ~ ~ Q Y ~ Q T U T T / / / T T / / / / / z z z / / / / ' / T T / / T T T ^ ^ T T T T T T T T T _ T T T P Y T ~ ^ ~ ^ ( o.$.).).).).`.).'.`.(.(.(.(.].(././.k.k.l.k.p.p.p.f.p.8.8.8.6.",
"E.Y.c r q z / h j - - - - ; ; ; & & m m A A A & D [ -XfX:X].fX;XrXfXzXzXfXfXzXzXzXzXfXfXzXzXzXkXzXzXzXfXzXzXzXzX1X1X1X].{.].].{.].(.].1X].`.(.(.].`.).~._.) h / ( { ( ( W P : * @ @ * : w U +.$.sXdXlXgXjXBXZXBXBXBXBXBXBXZXBXZXBXGXBXkXdXsX-X_.#.{ [ ( T W U U W ^ ^ @.).).tX$.sX_.sX-X-XsXsX-X-XdXdX-X`.-X*X*X*X*X*X*X*X-X*X*X*X*X*X*X*X*X*Xv !.} v } } } ] } } } } #.#.#.#.#.{ { +.[ +.+.+. .^  . .+.+.+.$.+.+.O.+.+.+.+.+.+.+.+.O.+.+. .^ R D : M M M M D F > & % % % % , > ; : P ^ $.tXsXfXhXZXZXZXBXZXZXVXBXVXVXVXDXAXbXbXbXCXCXbXbXbXbXCXbXCXCXCXDXAXCXGXFXGXBXVXZXjXhX).U * . % % , % , 9 k e.j.l.K.I.P.P.P.P.P.I.I.<X{.<X(.(.W.l k s p j j h h h g f T / [ ' ( U g s k r r.{.{.P.P.I.I.I.I.I.P.I.P.J.P.P.J.P.P.P.P.P.U.P.P.P.P.G.g.r.c r # @ * i F O.O.J K K  XK K K K K K F K F K F F K O.! F F ! O.` ! ~ ! Q Y Y Y Q Y ^ ^ Q ^ ^ ^ ^ ^ ^ ~ ! Y Y ~ T T U U / / / / h T / / / / z z z / z / z / ' ' T / ' ' T T T / / / T T T T T T T T ~ ~ T Y Y T T T ^ T / ( { @.).`.).).).).`.`.].'.(.(./.(././.k.k.k.k.p.p.h.8.f.8.8.6.6.",
"R.r.t r t ) Y.g e - w f u u : ; & A A A A A & ; D #.-XfX;X;X1X1X;X1XzXzXfXfXzXzXzXzXzXzXzXzXzXzXzXzXzXzXzXzXzXzX1X1X1X].].].].].]./.(.`.(.^.`.=X`.`.^.~.( / h T ( ( ^ U Y : @ . * : ~ $.sX-XdXhXjXgXjXBXVXZXBXZXVXBXVXZXZXZXBXZXVXGXFXJXvXBXgXgXhX-X`.-X$.@.@.^ ^ T U U W ^ ( +.( @.@.@._.sXsXsXsXsX-X-X-X-X-X*X*X-X-X*X-X-X-X*X*X~.*X*X-X*X*X|.~.} } } } } } } } } [ #.#.#.#.#.@.@.@.+.+.+.+. .^ ^  . .+.+.+.+.+.+.+.+.+.+.+.+.(  .Q R D D M M > > > ; > % > & % % % % > > D Q ^ $.-XsXlXkXcXjXZXDXZXZXZXBXZXVXCXCXCXCXAXAXCXVXbXVXVXVXbXbXCXCXAXCXCXAXHXCXCXFXZXZXZXBXZXkXtX/ O O . * > > % X < r r.k.l.K.L.P.P.P.P.I.I.{.<X<X<X{.k.k.l l k k k s h c z 0 0 0 w g s s g q c x r.k.{.<XL.P.D.U.P.G.D.J.K.H.F.n.c.v.v.H.v.F.c.}.b.c.c.b.4.3.w.c s 9 = > i K O.J O. XJ O.J J J J J J J ! K F ! F ` K K ! F ` ` K Y ` ! ! Y Y Q Q Q ^ ^ ^ ~ ^ ~ ^ ^ ^ ~ ~ Q Y Y U U U / / / / / / / / / / / z z z x z z z z / ] / / ' ' / T / T / / / / T T T T T T T T T Y Y T T T T / ( ) { )._.).).).~.`.`.].(.(.R.(.(././.k.j.k.l.z.f.f.h.8.8.8.8.8.6.",
"E.:.6 5 c Y.Y.k s q f T T d : ; & & A A A A m M ~ $.sXdX:X;X1X;X;XrXzXzXfXzXzXzXzXzXzXzXzXzXzXzXzXzXyXzXzXzXzXzXzX1X1X;X].].(.(.(.(.(.].].].].:X:X`.`.~./ g / { { ( P : - - : Y _ -XsXlXkXjXgXjXBXjXgXBXZXZXBXZXVXVXVXZXCXCXCXVXVXFXFXBXVXFXFXFXZXBXjXcXgXsXsXsX$.@.( f P g f w P U ^ +.[ $.@.).#._.).sXsX_._.-X-X_._.-X-X-X-X-X-X-X-X-X-X*X*X*X} ~.#.} } #.#.} { #.#.#.#.$.#.@.@.+.+.+.+.+.+.+.O.O.+.O.O. .O.+.$.$.@.+.+. .~ I D : : * * % * % . % % % % % % % . , : I W +.$.tXsXkXkXkXBXZXZXZXZXZXZXZXVXCXCXVXVXCXCXCXAXAXCXVXCXVXCXCXVXVXAXAXAXAXAXAXHXAXGXFXVXBXZXZXjXtXo.w O . % % * % % , 1 r r./.l.K.L.L.I.P.L.K.C.C.H.g.l.j.e.q.q.k k k k k k 8 k r q q q q q 4 e q c r.w.j.y.K.b.4.b.5.;.5.;.2.;.;.*.-.-.2.5.2.2.;.-.*.=.=.-.;.3.5.1.l k j 0 u F K O.O.J J J O. XJ J J J J J O.K F F K K J K F F F F ` ` Y ! Y Y Q ~ ~ ~ ~ ~ ^ ^ ~ ^ ~ ~ ^ O. .^ ~ / U T ( [ ) T / / / / x ) ) / z z z x x z z z z v ' / / ' ' / / T T / / / T T T T T h h h h T T T T T T [ { { { W.).).).`.`.`.].].(.(.].(.E./.j.j.k.l.l.z.h.h.h.8.8.8.8.8.6.",
"e.:.6 t :.[.T.x c / ' { T d ; ; & & & A A A ; D +.-XfXfX;X;X;X;X;X1XyXzXzXzXzXzXzXzXzXDXzXzXzXzXzXzXzXzXzXzXzXzX1X1X;X].].{.(.(.(.(.:X:X:X:X:X:X].~.~._./ / ( @.[ T T P P ^ sXsXlXjXkXkXjXkXBXBXBXBXBXGXFXVXCXCXVXVXVXVXCXCXVXVXCXCXCXvXBXBXCXFXFXFXFXFXGXBXBXkXgXsX-X#.@.Y f - = : : w P U [ +.[ @.+.@.+.#.#.#.#.@.} #.~._._.-X-X-X-X-X-X-X*X-X_.-X-X_.#.#.#.#.{ #.$.$.$.$.$.$.@.@.+.+.+.+.+.+.@.+.+.+.O._  . . .+. .~ Q ~ U : * * . . . * . X     X   X * > : P T o.tXsXsXgXkXjXkXjXBXBXZXZXZXZXVXVXVXVXVXVXVXCXVXVXCXbXVXVXVXVXCXVXVXVXCXAXAXAXAXDXHXHXAXVXBXZXZXZXjXsXtXC * > * % % % % > w 9 r r./.L.L.L.L.L.L.b.3.5.*.*.*.*.&.8 8 r 8 q 4 5 8 8 8 8 5 r r r q q 4 e 8 8 a 1.1.*.*.-.;.;.;.;.=.*.*.*.*.*.-.-.*.*.-.-.;.,.=.=.;.-.-.-.-.1.r.t r g ` _ O.O.O.J J J J O.O.J J J J J J J F F F F F ` F K F ` ` ! Y ! ! Q Q ~ ^ ~ _ ^ ^ ~ ^ ~ ^ ^ ~ ^ ^ ~ ^ ( ( / { { / / ) ) ) ' ) ) ) / z z x x x x x x ] ) x z / / ' / / / / / / ' T h h T ' ' h h T T T T T T T { { { { ).).`.].'.].`.].(.^.(././././.j.j.j.j.l.h.h.h.h.8.8.8.0.8.8.",
"r.r.:.:.r.Y.T.T.x x ) { / - > ; & & & S A m m I $.dXfX;X;X;X1X;X;X;XzXzXzXzXzXzXzXzXzXyXzXzXzXzXzXzXzXfXfXfXzXzX].].{.].].].].=X{.].(.(.(.].:X].`.).T.{ ( ( ( / U Y [ -XsXsXsXlXlXsXsXsXgXBXBXBXBXZXFXFXCXVXBXBXBXZXBXVXCXCXVXVXVXCXCXCXVXVXVXBXBXBXVXBXZXGXFXGXGXGXZXjXhXsX_.T d = = O O > : w U U ~ W T ^ ^ ^ _ T T T T ( [ @.#._._._.#._.#.#.-X-X-X-X-X-X-X-X_.$.#.$.qX).#.$.$.+.$.$.$.$.+.+.+.+.+.+.$.$.+.+. .~ P : : > * * . . . . X X . X X * > M I ~ +.@.sXdXdXkXjXBXBXBXBXBXBXBXBXBXBXVXVXVXCXVXCXVXVXVXCXVXVXbXbXVXVXVXCXVXVXVXVXDXAXAXCXCXDXFXHXFXZXBXZXZXgXtX@.W > % % % % % , > > = 9 r e.j.l.g.H.H.4.i.3.5.*.*.,.,.,.&.&.8 8 5 8 8 8 8 8 8 8 5 8 8 r r r r r a :.r.1.<.=.=.=.;.5.3.3.<.<.1.5.-.-.-.5.-.-.-.-.=.;.-.5.5.c.2.5.t.y.e.t s T $.$.O.O.K J J J J O.O.J J J J J J J K K ` K F F F F F F ` ! ` F ! ! ~ ^ ~ ^ ( ( ( ~ ~ ^ ~ ^ ^ T U U / ( / / / { { { ] ) ) ) ) x ) ) x z x x x x ) ] W.x z z z x ] ] / z z h T h h h h z z ' / z z h h h g h T ] ] { ~.W.~.`.`.-X`.`.`.(.].(././././.j.l.l.l.l.z.h.h.h.8.8.8.8.8.6.",
":.r.u.e.e.T.Y.r.x x ) ) g = * ; & & & A A & M Q _.sXzX].;X;X1X;X1XfXfXzXzXzXzXzXzXzXzXDXyXzXzXzXzXfXfXfXfXfX].].].].].].].].(.].(.(.^.(.`.(.:X:X`.^._.~.( ( / / T T @.-X-XsXsXsXsXsXsXkXBXZXBXBXBXBXZXZXBXBXBXBXBXBXBXBXBXBXVXVXVXBXVXBXBXBXBXVXVXBXVXVXCXCXCXCXGXCXCXVXGXBXjXsX-X+./ P = * O . * > : w M P U P u : d d w u I T ~ [ @.+.{ +.+.#.#._.#.#._.-X_.`.-X$.$.$.$.qX).$.@.$.+.$.+.@.+.[ +.+.+.+.o.$.$.).+.( R C > * O . . . @ * * @ - I R ( o._.`.sXdXhXgXcXZXZXBXBXBXBXBXVXBXvXvXvXcXbXVXVXVXVXCXVXVXVXVXVXbXbXbXbXVXVXVXCXVXVXBXDXDXCXVXCXVXHXDXCXVXVXZXgX'.o.I > , % X % % > > > V w q Y.T.l.g.3.2.2.t.-.*.*.*.*.=.=.*.&.*.8 :.8 r t 8 8 8 &.:.t :.%.:.t r r.r.q.1.1.y.i.5.5.2.2.2.2.5.1.1.*.*.*.-.;.-.2.2.2.;.t.}.F.b.c.D.G.F.K.{.T.t q / +.O.O.J J J J J 8XO.J J J J K J J J J K i ! F F K K ! ! ! ! ! Q Q ~ ~ ^ ~ ^ ^ ^ ( ^ ^ ^ ~ ~ ( T U T T ( ( / ' ) { W.{ W.) ) ) x v ) z x v x ) x ) ] W.] x x x ] ] ) / z h h h h h h T h z z / z z h z h g h / ] W.[.~.Y.~.`.`.`.`.^.].(./././.E././.j./.K.l.l.x.g.8.8.8.8.8.8.6.6.",
"r.e.e.e.e.T.Y.c c x x g 0 = - ; & & i A A & N O.sXdX;XfX;X;X1X;X].;XfXzXzXzXfXfXzXyXzXzXzXyXzXzXzXfXfXfXfXrX].yXzX1X;X{.].].(.(.(.^.(.(.].:X:X:X:X:X`._.' / / ' ' T [ #.@.#.-XsXlXlXgXZXGXZXBXBXVXFXGXZXZXBXvXvXBXvXBXBXBXBXcXvXBXvXgXBXBXBXBXBXVXHXCXVXCXCXCXVXVXbXbXvXBXJXFXDXZXgXdXsX@.( C > * > > - ; : D : - ; > > > * > : u P P T T ~ ~ _ ( / z ' ' { { { _.$.+.@.$.o.$.+.{ +.( W  . .+.+.+.+.$.+.qXqXqXqX-XqX .^ Y P u : : I Y T [ #.#.$.sXdXhXkXjXvXcXjXBXBXBXBXBXBXBXBXVXVXVXCXCXVXVXbXCXDXAXVXVXVXVXVXVXVXbXbXCXbXVXVXVXVXVXDXDXDXDXDXCXVXVXHXAXVXBXBXhX'.( M > % % % % > V > % % > C W Y././.3.*.5.*.*.*.*.*.,.*.-.*.*.*.*.:.:.8 %.t 6 *.:.1.:.:.:.:.:.:.%.:.:.:.&.*.*.5.-.*.*.-.*.-.*.5.5.=.*.-.;.;.;.F.F.F.F.H.F.G.U.J.I.P.P.L.{.E.l r g  .O.J J J J J J qXO.J J J J J J J J J K K F K K  XF F F ! ! ~ ! Q Q ~ ~ ^ T ~ T ( ^ ~ T ~ ~ ^ ( T ~ ^ ( { ( { { ).~.[.~.Y.Y.x ) ) ) x ) ) ) x x ) ) W.] x x ] ] ] v z z z z T T h h h z z z / z z z ' h z z ) { ^.^._.`.^.(.`.`.(.].(.(.^.(.(.(././.j.l.l.l.g.g.f.f.8.8.8.8.8.8.8.",
":.e.r.e.e.Y.r.c k x x g 0 - - ; & i i A A & D $.sXsX].1X;X1XrX;XyXfXfXfXzXfXfXfXzXzXzXzXzXzXzXzXzXzXzXzXzX1XzX].zX1X].].`.(.(.`.(.[.^.].:X:X:X].:X`.`._.@.{ [ ~ g f U ( @.|.sXlXkXjXjXZXGXZXZXZXZXVXGXBXjXcXcXcXcXgXcXBXcXgXgXcXjXgXgXBXBXBXBXBXBXCXVXvXbXBXCXbXCXmXCXbXvXVXVXCXVXVXZXBXhXdX-X$.@.^ I - - : ; * * > > ; > * , , * > > : u u d P Y P g T ' ' z g / ( ( W W W Q ^ ( ( ^ ( @.$.$.#.$.tXpXsXqXsXqXsXsXsXpXsX$.$.$.#._.-XsXsXlXgXkXkXkXjXBXVXZXZXBXBXBXVXVXBXBXVXVXDXGXVXVXCXJXCXCXCXVXAXAXCXVXCXVXCXCXVXbXbXCXCXCXVXVXVXAXDXHXDXDXDXAXFXVXHXBXvXcXfXsXo.C * % % % > N > , % , V M C ) T./.l.r.,.*.*.*.*.*.*.*.*.-.*.:.:.:.:.*.:.&.:.&.:.:.:.i.:.*.=.&.:.:.:.*.*.=.&.*.*.-.*.*.-.-.-.-.-.-.-.;.;.;.2.t.F.H.G.G.J.J.J.J.P.P.P.P.I.{.R.Y.s g I ! O.J J J J K O.J J J J J K J J J K K K F F K K ! F F ` Y ~ ~ ! Y Y ~ T T T T T ( T T T ~ ~ ( ^ ~ T / [ { { { T.[.~.Y.T.) ) Y.) ) x ) x x x x x x ] x l ) v ] ] x x z x z T / / z h h z z z z z ' ] ] ' ' { W.[.^.`.`.`.~.`.`.].].].(.].(.R./././.j./.z.z.l.g.x.f.8.8.8.8.8.8.8.",
"r.r.:.r.w.r.r.t c x x c j - u & & & i A A u ^ -XdXfXfX].1X1X;X1XfXfXfXfXzXfXrXfXzXzXzXzXzXzXzXzXzXyXzXzXzXzXyXzX].].].].].].(.(.(.(.(.].:X:X:X`.`.`.~.)._.@.[ f - : T #.qXsXsXhXjXjXjXjXBXZXVXZXBXBXBXgXcXgXkXkXkXgXgXhXhXgXgXhXgXgXjXjXBXBXBXBXcXvXvXvXvXvXVXVXCXHXHXFXVXvXvXvXvXBXBXBXZXBXBXvXjXsX`.( T P u : * > * > * . % % % * * * * * * - : - - d U g g f U U U U R W ^ { #.#._.-XsXdXlXhXhXlXkXhXkXkXlXdXlXkXkXdXhXlXhXgXgXjXjXjXjXjXBXZXZXZXBXBXBXBXZXBXBXVXVXVXVXBXVXVXVXvXVXVXVXCXCXCXbXbXMXCXCXCXCXbXVXbXbXVXCXCXbXVXVXVXHXHXHXDXDXHXHXHXGXBXBXdXdX`.( P 0 , % % > V N > % % , > M C ) Y.T.i.5.*.*.-.;.*.1.*.1.,.*.*.*.*.*.*.=.*.&.&.&.&.=.:.*.*.=.*.:.:.:.*.*.*.*.*.*.;.2.F.2.2.t.;.;.;.-.;.;.;.;.c.H.J.J.J.J.J.P.P.P.P.P.J.P.P.{.u.Y.z d D F J uXuXJ J J J J J J J J J J K J J J ` K F ` J K F ! ! ! ^ ~ Q Q ~ _ T T U U / ( T T T ~ ~ ( ~ T U ~ ( { { ~.~.{ ~.@.Y.) ) v x ) ) ) ) x x z x x x l x x x ] ] x x ) / z / z / z h z h h z z ' ] ] ' [ ] ~.W.^.^.).(.^.^.].].`.(.^.(.(.(./.(./.(.k./.(./.l.l.x.h.8.8.8.8.8.6.8.",
"r.:.:.r.e.r.*.a r.r.l s j d : & & & i u d / +.tXdXfXfX1X].1X1XzXzXzXfXfXfXrXrXzXzXzXzXfXfXzXzXzXzXzXzXfXfXyX].].].].].].].(.].(.`.`.(.].:X:X^._.).^.).)._.( d > : Q $.sXsXsXhXkXjXBXBXBXZXBXZXZXZXBXkXBXBXkXkXkXjXkXgXsXdXhXdXsXhXgXkXjXgXgXgXgXhXBXBXBXBXvXBXBXVXVXVXVXVXVXCXVXVXVXCXCXVXVXVXVXCXVXcXfX-X_.+.T : > = = O @ * * @ * * @ . X   . . . @ * : w U U U W T ( @._.-XdXgXgXcXBXBXBXBXBXBXBXBXBXBXZXZXZXBXBXBXBXBXBXBXBXZXZXZXBXZXBXBXBXBXBXBXVXVXBXBXBXVXVXVXVXVXVXVXVXVXDXCXVXVXVXVXVXVXbXVXVXVXVXbXbXbXVXVXCXVXbXbXbXVXVXVXAXJXVXFXHXHXFXFXBXdX`.@.W V > > * , V N N N > % % % , M C ( t r.5.2.t.-.-.-.;.*.1.1.*.*.*.&.*.*.,.*.*.*.,.*.*.&.&.1.,.=.*.:.*.:.-.i.i.t.;.-.;.;.c.c.;.;.c.}.;.;.}.v.v.G.U.J.P.P.P.P.I.P.P.I.P.P.P.P.I.{.l.c q C D F J 8XpXJ J J J K J J J K J J J J K J J J J K O.J K ! !  .~ ! Q ` ` _ ` T T U U U T ~ ~ ~ ^ ^ ^ ~ ( ( ( ( ) _.).[.Y.~.) ) ) ) x ) x z z x x ) x x l x x x x W.] x z z z h z z z z z z z / ] x z z v ' { { ~.^.^.^.^.(.^.^.(.`././.(.(./././.(.(.R.(.(.R././.j.j.d.h.d.f.6.6.6.8.",
"r.r.r.r.r.:.:.r.r.r.r.c j j - - & & D _ [ #._.fXdXrX;XzXzXzXzXzXzX;X].;X;XfXfXfXzXzXzXfXfXfXzXzXzXfXyX].].].].yXyX].yX].].].(.(.(.(.(.:X:X`.~.[.~._._._.@.U I ~ +.$.|.|.sXsXlXhXgXgXBXBXBXVXZXBXZXjXkXhXsXsXsXsXlXkXlXsXsXsXsXsXlXlXlXlXgXgXgXhXhXjXBXBXvXcXvXBXBXBXBXBXBXVXVXCXVXVXVXCXVXVXVXVXCXHXHXVXZXvXdXdX).@.( T U U = , . X     . % O * ; - - f U ( [ #.@.`.`.tXsXfXvXBXBXBXBXBXBXBXBXBXBXBXBXBXCXCXCXCXVXVXCXCXVXVXBXVXVXVXVXVXVXCXBXBXVXCXVXVXVXVXCXCXVXVXDXbXVXVXVXVXVXVXVXVXVXVXCXVXVXVXCXVXVXVXbXbXCXVXCXVXVXVXCXVXVXVXVXVXVXHXDXVXBXBXZXkXsX$.U * , % % > C | X.| E N > % > N Z ) ) e.y.i.i.2.2.2.;.3.2.4.3.5.1.*.*.,.*.*.*.*.*.*.,.*.*.*.*.*.*.=.=.&.*.*.-.;.;.-.-.-.;.c.F.F.c.v.U.n.U.U.J.J.J.J.P.P.P.P.P.P.P.P.I.P.S.S.P.I.L.u.r w : N F 8X8XpXuXJ J J K K J J K J J J J J J J J J J J J F F ! | Q ! ` Y Y h Y T ~ T T U U T ~ ~ _ _ _ ^ ( ( ( ( { W.) W Y.{ ) [.] / x ) ) / z z ) ) ) x x x x x ) ] ] x x x x z / / / / z z z ) ] v x ' ] ] { [.~.[.^.^.^.^.^.^.(.(.(./././././././.(.(.].(././.j.j.j.d.f.d.8.8.8.6.8.",
"u.r.:.>.>.r.r.r.r.r.x c k j - * - & I $.-X-X-X:X].].;X1X1X1X1X1X1X;X].].fXfXfXfXzXzXzXrXrXfXzXzXzXfXzXrXyXyXzXzXrX].1X].].].(.].].^.^.`.`.~.Y.] ~.^.{ ( ( T ~ +.$.$.$.$.sXkXkXkXBXZXBXBXgXgXdX-X_.#.@.~ Y U ~ @.sXlXlXsXsXsXsXsXsXsXsXdXgXhXgXgXhXgXgXcXgXgXcXcXvXvXBXBXBXVXVXVXVXVXVXCXDXVXVXVXCXCXHXHXFXZXBXBXgXhXhX:XsX_.( = @ O . O * d T [ _._.-X-XsX-XdXhXhXcXBXBXBXVXFXVXVXVXVXVXVXVXVXVXVXVXBXVXCXVXCXCXJXFXGXFXFXCXCXVXVXVXVXCXCXVXVXBXBXCXCXCXVXCXCXCXVXVXVXVXVXVXVXVXVXVXVXVXVXVXVXVXVXCXCXCXVXVXVXbXVXCXVXCXVXCXAXAXHXDXCXVXVXHXFXGXBXcXgXsX#.U - % % % % V o.$... .| N M > > M o.T.T.u.i.2.2.2.2.2.2.3.5.;.;.-.,.*.5.*.*.=.*.,.*.&.*.=.*.*.*.*.*.*.*.,.*.*.-.;.>.t.c.v.v.D.P.P.P.P.P.P.P.P.P.P.P.P.P.I.P.P.I.P.P.I.P.P.P.P.P.I.{.u.t q : i K J 8XpXuX8XJ J J  XJ J J J J J K K J J J J J J J K K K ..O.O.F Y Y D Y ^ ~ ^ T U ~ ^ ^ ^ _ [ [ [ [ [ [ o.) o.{ ) [.o.) W.) ) z z / / z x x x ) ] ) x x x x ] ] v x x v v ] ' / z z / / ] ] ] ] ] ] W.Q.{ W.).^.(.[.^.^.^.(.(.(.(././././././.(.(.(././.j.j.j.f.d.f.8.8.8.6.6.8.",
"e.r.r.r.r.r.:.r.q.e.q.x c j - - - : Y _.-X-X-X:X].].].1X].].1XzXzXzXzXfXzXfXfXfXzXzXzXrXrXfXzXzXzXzXzXyXzXzXzXzX].1XrX].].(.(.(.(./.^.^.~.Q.] ' ( ' / P U ~ U Y ~ ^ O.+.$.sXlXhXsX-X-X`.@.( f : : w d : d Y ~ { `.lXhXlXsXsXlXlXdXdXhXhXgXgXgXgXgXgXgXgXgXcXcXvXvXvXvXBXVXVXVXVXCXCXAXCXDXVXCXVXCXCXCXCXVXVXZXZXZXGXGXVXcXhX-X{ ) U P ~ { -XsXhXjXjXgXkXjXjXcXZXZXZXZXGXGXFXCXVXBXVXVXVXCXVXVXVXVXVXCXCXVXCXCXVXJXFXFXFXFXbXVXCXVXVXVXCXCXVXvXBXBXCXCXVXCXVXVXCXVXVXVXVXVXVXVXVXVXVXVXVXVXCXVXVXVXCXbXVXVXCXCXbXVXCXVXCXVXVXDXHXHXHXHXVXVXFXFXFXGXkXsX#.P * * * * > ; E 0XqX..| M M > > > E [.[.^./.K.K.b.H.K.F.b.2.;.-.-.-.;.;.*.-.*.*.*.*.5.*.=.=.*.=.*.*.*.*.;.-.*.-.;.;.F.H.K.J.P.P.P.P.P.P.P.P.P.P.P.P.P.P.I.P.P.P.P.P.P.P.P.P.P.P.P.I.{./.c w : D F J 8XpXpXuXuXJ J J J L J K J K J J K J J J J J J J J K O.O.O.O.` ` ` ` ~ ~ ~ ~ W W Q ^ ^ _ [ [ [ [ [ @.) ) ( ) ) W ) ) { ] ) / z / / z z z ' r.v ) x x x x ] ] ] x v v v ' / / z z z / ' ] ] ] ] W.W.[.Y.~.^.^.^.^.^.(.(.].^.].`.]././././././.R.(./.l.k.a.p.p.d.d.d.8.8.8.8.3.",
"r.:.r.:.r.r.r.r.e.r.e.r.c s 0 0 d T [ `.:X-X;X;X;X].].1X1X].zXzXzXzXfXfXzXzXrXfXzXzXzXrXyXyXzXzXzXyXzXrX].yX;X1X;X;X].].].].(.].].^.(.^.^.~.] ) / / h f U U I w : u D D Y ^ ^ ~ U P U d - = * * = w Q Q +.$.sXsXhXkXkXkXkXlXkXkXhXfXcXBXBXBXcXjXcXjXvXBXBXvXBXvXBXBXBXVXVXCXVXVXVXCXAXAXVXVXVXVXCXGXGXVXVXZXBXZXGXFXFXFXZXBXgXgXhXsX-XdXgXBXGXFXBXVXVXGXVXVXbXVXFXVXZXFXCXCXBXVXBXVXCXCXCXCXVXCXCXVXVXCXVXCXVXFXDXZXDXVXVXCXCXVXCXCXVXbXCXvXbXBXbXVXVXVXVXVXCXVXVXbXVXVXVXVXVXVXVXVXVXVXVXVXVXVXVXVXVXVXCXVXVXVXCXVXVXCXVXGXCXGXFXJXFXCXFXZXFXFXGXdX$.P > @ > : N M N E X.X.| N > > > > * C o.`.(./.K.L.L.L.I.P.n.n.2.;.;.=.,.,.=.;.-.-.*.;.-.=.-.=.=.*.=.-.*.;.;.}.}.H.H.K.G.I.P.P.I.P.I.P.P.I.P.P.P.P.P.P.P.P.P.P.P.P.P.P.P.P.P.P.P.P.P.L.{./.l g : D K J J pXpXuXuXuXJ J J J J J J J K J J J J J J J J J J J J J J O.O.O.` ` ! ~ ~ ~ ~ Q U ^ ^ _ [ ( ( [ { @.@.) o.) ) ( o.) ) o.) U ) ) z z z z x x x x x x x ] ] ] x x v z z / z z z z / ] ] v v ] ] W.W.W.~.[.^.^.^.].(.`.(.].`.(.(.`././././././././.k.k.k.k.e.d.f.h.d.8.8.8.8.8.",
"r.r.r.r.1.5.w.w.:.r.r.r.x k s g T { ~.:X:X:X;X1X1X1X;X1X1X1XzXzX1XzX].1XfXrXrXzXzXzXzXrX].rXrXzXyXyXrX].1X;X1X;X;X1X].].(.`.(.`.].(.^.^.~.~.} ' / h g g f f : : : : ; * & M > * % * * * * : u I ^ +.#.sXlXhXlXlXjXjXkXkXjXZXjXBXBXjXBXZXBXBXZXBXBXBXBXBXBXBXBXVXVXBXCXCXCXVXCXCXVXDXAXCXVXVXVXVXCXCXCXVXVXVXVXVXVXVXGXCXZXVXVXGXVXcXBXVXFXFXFXFXBXCXCXFXFXGXGXCXFXCXVXVXVXVXBXVXBXVXCXCXCXCXVXCXVXVXCXVXCXVXCXVXVXVXVXVXCXVXVXVXVXVXCXbXbXvXbXbXCXVXVXVXVXCXCXVXVXbXVXbXbXVXVXVXVXVXVXVXVXVXVXbXVXbXMXCXVXVXVXVXVXCXVXCXJXHXCXJXFXFXFXHXFXZXZXjXkX_.I * * > : : : M F E | F N ; % V > * > M ( [.].(./.K.G.K.G.P.G.n.n.n.2.-.=.=.;.=.-.-.;.5.;.;.;.5.;.2.}.;.c.t.n.n.{.L.{.L.I.P.P.P.I.I.P.P.P.P.P.P.P.P.P.P.P.P.P.I.P.P.P.I.P.P.P.P.P.I.L.L.{./.r.w > ; F J J pXpXpXpXuXuXJ J J J J J L J J J J J J J J J J J J J J J J J O.O.O.!  .^ ~ Q Q Q ^ ^ [ [ [ ( o.) @.{ { ) ) o.) ) ) ) ) ) / z ) ) ' ) / x x x x x x x x ] x x z z z z z z z z z z v ] v v v r.W.W.W.W.~.^.^.^.(.(.(.^.(.(.(.(.(././././././././.l.k.k.j.j.k.h.h.f.f.8.8.8.8.",
"r.5.r.5.1.<.<.w.r.1.r.1.q.k k x { _.:X:X:X:X;X1XzX;X;X;X1X1X1X1X1X1X].1X].].rX].rXzXzXyXrX].].yXyX;XyXzX1X1X1X1X;X].].].].^.(.(.^.^.W.Q.~.~.} ' / z f f f f w I D ; ; > > > * % % * : D M P [ +.$._.-XhXkXjXjXkXjXjXjXjXBXZXZXZXZXZXZXZXBXZXVXBXBXZXVXBXVXBXBXVXVXVXVXVXVXVXVXVXVXVXVXVXVXVXVXVXbXbXbXVXGXVXVXVXCXCXCXCXCXCXGXCXVXVXFXFXGXFXCXJXCXCXCXGXFXFXCXFXHXDXVXVXVXVXZXCXCXCXCXCXCXCXVXVXVXCXCXVXVXCXVXVXVXVXVXVXCXCXVXCXCXCXbXbXbXvXbXbXVXCXVXVXCXVXVXbXbXbXbXbXbXbXMXVXVXVXVXVXVXVXbXVXVXbXCXVXVXVXVXCXCXVXCXCXHXFXFXFXGXFXGXGXGXZXkXlXqX^ - O * - : M : M E E M N N ; % > * * * : ) [.^./.g.K.n.n.H.G.G.J.D.C.n.2.2.;.;.;.3.F.H.b.n.n.H.G.G.G.n.J.G.I.I.I.{.{.{.P.L.{.P.D.K.J.P.D.J.P.P.P.P.D.P.P.D.D.P.P.J.P.P.L.P.D.P.P.P.L.{.L.{./.x s = u K K J pXpXpXiXiXuXJ J J J J J J J L J J J J J 8XJ J J J 8XJ J J K O.J O.K _ O. .Q Q Q ^ ^ [ o.) ) ) ( { [.{ ~.~.[.) o.o.) ( / / / ) ) ) ) ) x x x x x x x v ] v z z z z z z z h z z z z x v v v s.W.W.W.!.^.^.(.(.].(.].(.(.(.].(./././././././././.k.k.k.k.j.k.f.h.f.f.8.6.8.8.",
"r.r.w.<.1.1.<.<.1.5.r.r.r.c c W.^.].:X:X;X;X:X;X1X;X;X1X].].].yXrX1X1X1XzXzX].].yXzXzXyXyXyXyXyXzXzXzXzXrXzX1X;X;X].(.`.].(.^.^.W.W.W.W.[.} { / T T f w f U I I I M M ; ; > > N D D I ! Q W ( $.$.sXsXgXjXjXjXjXgXgXjXBXZXZXFXFXZXGXVXVXFXCXCXFXCXFXZXZXVXCXVXCXVXVXVXVXVXCXCXVXCXCXVXCXVXVXVXVXcXcXcXvXBXVXVXVXCXCXCXCXCXFXVXVXVXVXbXVXbXbXbXbXCXbXbXbXbXCXCXCXCXCXVXVXVXVXCXFXFXGXGXbXVXVXCXVXVXCXVXCXVXVXVXCXVXVXVXVXCXCXVXVXbXbXbXbXbXbXbXbXbXVXCXVXVXVXCXbXbXbXbXbXbXbXbXbXVXVXbXbXbXbXbXbXbXVXVXVXCXCXVXVXCXCXCXCXGXFXFXFXVXBXBXBXBXjXsX@.U - * O * : M M : M E E E F N ; V > * , * w T W.^.{.L.L.K.G.G.J.P.P.P.P.P.D.S.V.m.S.I.I.L.P.P.D.I.I.I.P.I.P.D.P.K.K.K.K.K.K.i.t.5.4.3.>.5.3.3.3.b.b.3.2.b.4.4.2.4.4.3.5.-.5.;.-.-.t.t.i.K.K.{./.l g - i A K J pXiXpXiXiXuXuXJ J J J J J J uXJ J J J 8X8XJ J J J uX8X8XJ J J J J K ` O.` ! Q Q Q ^ [ ).) o.) ) { { W.[.{ W.~.) ) o.) / / / / x ) v ) ) x x ] ) x x v v v z z z z v z z z z z z x x ] v x s.s.s.^.^.^.(.(.^.(.(.^.(.(.(.`.(././././.^.^./././.a.j.j.k.k.j.d.f.d.8.6.6.6.8.",
"r.5.w.w.<.<.w.w.<.<.<.w.w.r.r.Y.(.].].1X1X].1X1X;X;X;X;X:X:X;X;X;X1X1XzXzX].].].yXyXzXzXyXzXyXyXyXyXzXzX].].].].].(.].].].(.^.^.x ] ] ) W.Q.] / T T U U U f f I R I M ; ; ; M M E Y R W Q +.+.tXdXkXkXZXZXjXjXBXjXBXZXGXVXZXBXBXCXBXZXCXCXCXCXCXFXJXGXVXbXVXVXVXVXVXCXFXFXCXVXVXVXVXVXVXVXCXVXVXVXBXBXBXCXBXVXCXVXCXVXVXCXVXVXCXbXbXbXbXbXbXVXDXCXcXcXcXbXbXVXVXVXVXVXCXVXCXDXVXCXVXCXCXVXVXVXVXCXVXVXVXVXVXVXVXVXVXCXVXVXVXCXVXCXVXbXbXbXVXCXCXCXVXCXVXVXCXVXbXbXbXbXbXbXbXbXbXbXbXbXbXbXbXbXbXbXCXVXCXCXCXVXVXVXVXCXVXZXDXZXFXGXBXBXgXgXkXpXW = O * - - : : : M M I R R E D & > % . . , - C ) ^.{.{.I.I.K.L.P.P.P.P.P.P.I.P.P.L.P.P.P.P.P.D.L.K.K.K.K.K.c.4.4.3.2.i.i.3.3.5.*.*.3.3.*.=.,.,.,.,.*.,.,.,.*.*.=.,.*.,.,.,.,.,.,.,.,.y ,.-.g./.E.c g d i S ! J iXaXiXiXuX8XpXJ J J J J J J J J J J J 8X8XJ J J J 8X8XqXJ K J J J O.O.O.O.K ` ! ` [ @._.) ) ( ) { [.) ( ) ) [.) ) ) / / T / z / ) ) ) ) x x v x z z z v v z z z v ] v z z z z z x v v v s.s.s.W.^.(.(.(.=X(.z.^.(.z.(././././././.^.(.^./././.k.k.k.k.j.d.p.p.d.8.6.6.8.8.",
"1.1.1.1.1.w.y.y.j.d.y.u.u.e.E.E.].yX].].].1X].fX].fX;X;X;X:X;X;X;X;X;XrXzXyX].yXrXzXyX].yX].].'.yXzX1X].yX].yX].].].].^.^.^.^.T.W.Q.r.x x ' / / / / / T U U Y P P D D D D D D N ; ; M  .+.|.sXhXkXkXkXkXBXBXBXBXZXBXVXFXFXFXGXCXFXBXBXBXBXBXFXGXGXBXGXBXGXbXVXVXVXBXBXCXCXVXBXVXVXVXCXbXbXCXVXCXCXBXvXCXBXVXCXCXVXCXCXVXCXBXbXbXbXbXbXbXbXbXbXMXCXbXVXVXVXVXVXVXVXVXCXVXVXVXVXVXVXCXCXVXVXVXVXVXVXVXCXVXVXVXVXVXVXVXCXCXCXbXbXVXVXVXCXCXbXbXVXCXCXVXCXVXVXVXVXVXVXVXVXVXVXVXVXVXVXVXVXVXbXbXbXVXVXCXCXCXDXAXVXVXVXVXVXVXZXZXBXVXgXjXjXjXdXsXU = * : w = = w w : w : C P F D N V % % X X * : ( T.T.(.L.L.L.V.K.L.P.P.I.I.I.I.P.I.I.I.K.K.b.4.4.3.4.5.;.*.5.*.=.,.=.*.<.y.w.*.7 =.*.*.*.*.*.,.8 y 7 8 *.*.,.y y 7 y *.*.%.&.7 y 7 %.=.1.1.*.r.u.T.k 0 : D F J 8XpXiXiXiXiXuX8XJ J J J J O.8XJ J K J J 8XuX8X8XJ J 8X8XJ J J J J K J O.O.J O.O._ +.@.@.( Y.T.T.[.Y.Y.T.T.Y.Y.T.) ) / / / / / / z z z x ] v ] x v x v v ] v x x x v v z h z x v v v v Q.s.s.s.s.a.^.!.*X!.z.(.^./././././.(.].(./.^././.E././.e.a.a.p.p.d.d.d.8.8.8.8.8.8.8.",
"<.<.<.<.<.3.y.d.l./.(./.E.l./.].].{.].1X1X1X1X1X;X;X;X:X:X:X:X;X;X;X;X;X1XfXyXrXrXzXzXzXyXyX].'.yX].yX].].].1X].(.`.].^.^.W.~.Q.~.^.] ' z / / T T / T T U U U P P D M M N > ; : : D ~ +.sXdXkXBXZXZXBXBXBXBXZXZXZXVXVXvXVXCXVXCXVXBXBXBXjXGXGXvXvXBXBXBXBXBXBXBXBXBXBXBXCXVXVXVXVXVXCXbXbXVXVXCXVXvXvXvXBXBXVXVXVXVXVXCXCXVXBXCXVXVXVXVXVXVXVXVXVXbXVXVXVXVXVXVXVXVXVXVXVXVXVXVXVXVXCXVXVXVXVXCXVXCXVXVXVXVXVXVXCXCXCXCXVXVXVXVXVXVXVXVXVXVXVXbXbXVXvXVXVXVXVXVXVXVXVXVXVXVXVXVXVXVXVXbXVXVXVXVXCXCXVXVXCXCXCXVXDXFXZXZXZXZXZXcXgXkXgXgXsXQ > > * - w w 9 0 9 w w w C C I I ; > % % % % * U ) ).^.(.l.g.4.4.4.b.C.D.b.4.K.H.L.L.C.b.3.*.-.*.5.*.*.*.=.,.,.,.7 7 7 &.5.*.8 7 7 7 8 8 8 7 8 8 8 8 8 7 7 8 8 8 8 7 &.6 6 :.:.&.:.:.:.*.*.*.=.1.e.r.s 0 D K O.J uXuXiXiXiXiXuX8XJ J J J J 8X8XJ J J J J 8X8X8XqX8X8XuX8X8XJ J J J J J K ` O.O. .O.@.+.{ { T.T.T.Y.Y.Y.Y.T.Y.Y.Y.Y.) ) ) x ) ) ) x z x x ) ] ] v v ] v ] ] v v x x x b b b b v v v v ] !.!.a.a.a.!.(.(.^.!.z.z.z.^././.(.^.(.^././.^././.(./.a.a.a.a.p.p.d.p.d.8.8.6.8.8.8.8.",
"<.<.<.<.<.<.y.y.y.l.K.(././.(.].1X].].3X1X].zX].;X;X;X:X:X:X:X;X;X;X;X;X].zXzX].].zXzXyX].yX].'.].].].].1XzXrX].].].].^.~.] Y._.~.~.~./ / / T T U / ( T U U U I I M M ; % * > I ~ +._.sXlXkXjXjXZXBXBXBXBXBXZXBXBXGXVXBXBXVXBXBXjXjXBXZXBXGXvXGXvXBXBXBXBXBXBXBXBXBXBXBXVXVXVXVXCXVXVXVXVXCXVXVXvXcXvXBXBXBXBXVXCXVXCXVXCXBXVXVXVXVXVXCXCXVXVXVXVXVXVXVXVXVXVXVXVXVXCXCXVXVXVXVXVXVXVXVXVXVXCXVXVXVXVXVXVXVXVXVXVXCXCXCXVXVXVXVXVXVXVXVXCXCXVXVXBXVXbXVXVXVXVXVXCXCXVXCXVXVXVXVXVXVXVXDXMXVXVXVXCXCXCXCXCXVXDXGXFXFXZXBXcXjXjXhXkXkXlX-X@.C M M M C w w e 9 9 9 e 9 - : C M M , % % % * > U @.)././.j.i.*.*.-.;.4.4.-.*.-.2.t.4.3.*.&.7 7 7 7 ,.=.*.=.,.,.7 7 7 7 7 ,.7 8 8 7 8 8 8 8 8 7 8 8 8 8 8 7 8 8 *.t %.1.8 %.:.:.:.*.6 t 6 *.*.=.:.w.x q - D O.qX8XuXiXiXiXiXiXuX8XJ J J J 8X8X8XJ J J J J O.8XuXuX8X8X8X8X8X8XJ K J J K ! K ` O.O.+.[ o.( ~.W.T.Y.Y.T.T.Y.T.^.Y.T.Y.Y.Y.) ) ) ) x x ) x x ) ) W.W.s.v v v ] ] v x x v v v v v v x x v s.^.(.z.z.z.!.z.(.(.(.(.(.(.=Xz./.(.`.(.(././././.a./.a.a.a.a.p.p.p.p.p.p.8.8.6.6.6.<.8.",
"<.<.<.<.<.<.y.y.y.j.u.j.j./.(.].3XyX].].].].].1X;X;XfX;X:X:X;X;X:X:X;X;X;XfXyX].].].yXyX].'.].].].yX].yX].;X'.].].`.^.^.^.W.W.Y.~.~.Q.{ ) ( T / T ( ( ~ T U P I : ; > > > ; I +._.lXlXBXjXjXjXBXBXBXBXZXBXBXBXBXZXZXVXbXBXBXBXgXgXgXgXjXjXcXgXBXBXjXgXgXcXjXvXjXBXBXvXBXBXVXVXBXVXVXVXVXVXVXVXVXvXvXvXBXVXBXBXVXVXCXVXVXCXVXBXVXVXVXVXCXVXVXVXVXVXVXVXVXVXVXVXVXVXVXVXVXVXVXVXDXVXVXVXVXCXVXVXVXVXVXVXVXVXVXVXVXVXVXVXVXVXVXCXVXVXCXVXVXVXVXVXVXVXVXVXVXVXVXVXVXVXCXVXVXVXCXVXVXVXbXVXVXCXVXVXVXCXCXDXDXVXCXFXFXGXZXBXjXkXgXlXkXkXlXqX[ T W ^  .W C w w e 9 9 e e 9 = - f C : > % % % % * w ( ).^./.y.5.,.%.*.*.5.*.*.*.&.&.*.*.*.=.,.7 6 7 7 ,.,.*.&.&.&.7 8 8 8 8 8 y 8 7 8 7 8 8 8 8 8 8 8 8 8 7 8 ,.*.*.:.1.:.:.:.r.:.*.&.8 %.8 *.w.e.e.r.k 0 w Y O.qXuXiXiXaXaXaXiXuXJ J J J uX8X8XuXJ J J J 8XJ 8XuXuXuX8XqX8X8X8XO.J K J K K J O.O.+.+.( ( ~.[.[.Y.T.Y.T.Y.Y.^.T.Y.T.Y.Y.Y.Y.Y.) Y.) x x x x x ) W.W.v v v x W.W.s.x x x b v v !.s.v v s.s.*Xz.(.(.#X(.(.(.!.(.(.(.(.(.^.(.(.(.].(./././.a.a.a.e.e.a.a.p.p.p.p.p.p.8.6.6.6.6.<.8.",
"<.<.<.<.1.5.y.y.u.u.u.j.E.E./.].].].].].].].fX].;XfXdXfX:X;X;X;X:X:XfX].;XfXfX].yX].rXyXyX].].'.].yX].].rX].`.].].`.`.^.T.Y.] ).[.{ ~.} { [ [ / ^ ^ ^ Y f I P : : : > : R +.$.sXkXjXjXBXBXcXcXvXvXBXBXZXVXBXBXBXBXBXBXjXBXcXcXkXgXhXhXhXdXdXhX-XdXdXfXfXdXgXgXgXgXgXcXcXBXVXBXBXVXVXVXVXCXVXVXVXBXvXBXVXVXBXVXCXVXVXVXCXVXCXCXCXVXVXCXVXVXVXVXVXVXVXVXVXVXVXVXVXVXZXBXVXVXVXVXZXVXVXVXVXCXCXCXCXVXZXVXBXVXBXVXVXVXBXBXVXVXVXCXVXVXCXCXVXVXVXVXVXVXVXVXVXVXCXVXVXCXCXVXVXCXVXVXVXVXVXVXVXVXVXVXVXCXCXVXGXCXCXFXFXBXZXBXBXjXgXlXkXkXsX^ M W +.+.o.W U w e e 9 e e 9 9 = - w C M * & % , . * w / [.T./.<.1.=.*.*.*.*.*.*.*.*.5.5.*.:.*.5.*.*.&.&.%.&.7 %.%.7 8 8 &.&.8 8 8 8 8 7 8 7 8 8 8 8 8 6 *.*.*.8 *.,.*.*.:.*.r.1.:.*.*.*.1.*.<.y.l.j.k.l r w I ! qXpXpXiXaXaXaXiXiXuXuX8XJ J J O.8XJ J J J J 8XJ uXuXuX8X8X8XJ 8XJ J O.K K O.J J J $.$.+.( ( [.W.Y.Y.Y.T.Y.T.T./.T.T.T.E.Y.T.T.Y.Y.T.Y.Y.x x x x x W.W.W.W.v v v W.W.s.] v s.s.s.(.!.s.s.s.p.(.z.z.z.z.h.(.z.(.=Xz.*Xz.(.(./.].(.R./././././.a.a.e.e.a.a.p.p.p.p.p.8.<.6.6.6.6.3.8.",
"<.<.<.<.<.<.y.y.l.l.E./.(.R.(.].].].].].].1XfXfXfXfXfXfXdXfXfX].;X;X;X1X].fXfXrXrXyX].].yX{.].'.].].].].].rX`.].(.`.`.^.~.[.Q.~.{ [.{ { { { [ ( ~ ~ Y P d : : : w U W ^ $.sXgXjXBXBXBXBXBXBXBXBXBXBXBXVXGXZXZXBXgXgXgXgXhXgXgXhXlXsXsX-X-X-X-X-X_.sXdXdXhXgXgXgXgXcXvXvXVXVXVXbXCXVXVXVXVXVXCXVXBXBXBXCXVXVXVXVXVXVXVXVXVXVXCXVXVXCXVXVXVXVXVXVXVXVXVXDXVXVXCXVXVXBXVXVXVXVXZXZXZXZXZXCXCXVXCXCXZXBXBXBXZXBXBXBXZXZXZXVXVXVXVXCXCXVXVXVXVXVXVXVXVXVXVXVXCXCXVXVXCXVXVXCXDXVXVXVXVXVXVXVXVXCXVXVXCXDXDXCXZXFXFXZXBXBXkXjXgXkXlXlXsX$.I E  .$.o.^ U e e e e w e e q 9 2 0 w w : > > % * > : C ( [.[.e.w.*.*.*.;.;.1.1.5.3.i.i.i.i.i.i.i.i.i.:.&.7 8 7 %.7 7 7 6 8 8 7 6 ,.6 6 7 8 8 8 &.*.*.:.:.=.*.*.*.*.*.*.*.*.*.=.=.*.*.*.*.4.g.i.K.l.l.r.c q 0 I 0XpXpXpXiXaXaXiXiXuXuXuX8XJ J J J 8X8XJ J J J 8X8X8XuXuXJ J J K J J O.J K K O.O.O.O.+.+.[ ( ) ).^.T.Y.Y.Y.T.T.T.E.E.u.R.E.T.u.T.Y.T.Y.T.Y.T.Y.x l x x W.^.!.W.v s.W.W.!.s.s.s.s.s.!.^.s.s.s.a.#Xz.z.z.z.z.^.!.(.z.(.z.(.(.z.(.]./.].(./.T././.a.e.e.a.a.p.p.p.p.w.8.8.6.8.8.8.8.8.8.",
"<.<.<.<.<.<.y.u.l.u./.R.(.(.(.{.].].yXzX].zX1XfXfXfXfXfXfXfX].fX;X;X;X;X;X].rX'.'.].'.'.'.'.'.'.'.'.].rX].].].].`.`.`.`.`.^.~.Y.^.~.{ { { { [ ( T U P w w : : I R o.qXsXlXkXBXBXgXgXgXcXcXBXBXBXBXBXBXBXBXgXcXBXgXgXkXkXkXdXsXsXsXsXsXsXsXsXsXsX-XsXdXdXgXgXgXvXBXBXBXvXBXVXBXbXCXVXVXCXVXCXVXBXBXBXBXVXVXVXVXVXVXVXVXVXVXVXCXCXVXVXVXCXVXVXVXVXVXVXVXbXVXZXVXZXVXVXVXZXVXVXZXZXBXZXZXVXZXZXZXZXBXBXBXBXBXBXBXBXBXZXVXVXVXVXVXVXBXZXZXBXVXFXZXBXBXVXVXVXVXZXZXVXVXVXVXVXVXVXVXVXZXDXDXVXVXCXCXCXCXCXBXZXZXFXZXBXZXZXjXkXgXlXsX$.+. . . .o._ W R I C w e e e q q 0 4 4 0 0 - : : > * > : C W ) ) Y.r.*.&.*.=.*.*.<.3.<.5.3.3.5.5.:.r.:.w.w.*.&.7 7 ,.%.7 6 &.7 7 7 6 6 %.&.,.8 8 8 ,.&.*.*.&.*.*.*.*.*.1.1.3.3.3.3.-.3.3.4.4.4.b.L.L.L.K.k.r.3 1 - Y O.pXpXpXiXaXaXaXiXuXuXiXuXJ J J J J K J J J J qX8X8X8X8XJ K J J J J J O.F ! K O.O.O.O. .( ( ) [.^.T.T.Y.r.Y.T.Y.E.E.E.E.E.E.T.T.T.Y.T.Y.T.Y.) x x x s.W.a.^.!.s.a.^.!.!.^.*Xs.s.OX!.!.(.z.s.s.z.z.x.z.z.(.=Xz.(.=X!.z.(.(.(.(.(.(.(.(././././.a.e.a.a.a.p.p.p.p.f.8.8.6.8.8.8.8.8.8.",
"<.w.y.y.y.y.y.u.u.u.u.E.E.R.(.].].yX].].].yX;X].].'.].rXrXfXeX].rX1X;X;X1X].'.].'.'.'.].R.].'.R.].'.].yX].'.].].].`.`.`.`.`.~.[.W.{ { { ( ( ( ( T f w f w I d P U #.sXlXkXjXBXvXgXgXvXcXvXvXcXgXgXgXgXhXgXgXhXgXhXkXkXlXlX-X-XsXsXtXsXsXkXjXkXkXhXsXsXdXfXhXhXgXgXgXvXBXBXBXBXVXVXVXVXbXCXCXCXVXBXBXBXBXVXBXBXBXBXvXBXvXGXBXVXVXVXVXCXCXCXVXBXBXZXBXBXZXVXBXZXBXBXBXBXBXBXVXZXBXZXBXBXBXBXBXBXBXBXBXBXBXBXBXBXBXBXBXZXBXBXBXBXBXBXBXBXZXZXVXBXBXBXBXBXBXBXZXZXVXVXZXVXVXVXVXZXVXVXFXVXVXVXDXZXDXVXBXBXBXBXBXjXjXZXjXhXsXsX$.$. . .o.$.+.W  . .U U U g q q e q 3 2 4 0 0 = - : : > > > M Z ( o.[.T.r.*.&.*.*.*.*.*.1.*.*.*.*.*.,.,.*.*.*.*.*.*.6 %.&.*.&.*.&.*.&.%.%.=.=.*.*.7 7 6 ,.=.*.*.,.=.*.3.3.b.C.4.4.4.b.b.C.C.D.P.P.P.P.P.P.P.g.q.a 3 2 = D O.pXaXaXiXaXaXaXiXiXiXaXuX8X8X8X8X8XqXJ J J O.8X8X8X8XuXuX8X8XJ J J J O.O.! F O.J O.O.( ( ) ~.[.^.T.Y.Y.T.E.E.E.E.u.E.E.E.Y.Y.T.E.Y.Y.Y.Y.T.Y.W.W.s.W.W.^.^.!.!./.s.*X(.!.a.h.s.s.s.!.+Xs.!.a.#Xz.z.z.(.(.#Xz.(.=X(.z.(.(.#X/.(.].(././.a./././.a.e.a.p.p.p.d.d.f.8.8.6.8.8.8.8.8.6.",
"<.w.y.i.j.l.i.i.u.l.E.(.(.(.{.].].].yXyX].rXrXrXrXfXrXrXrXrXrXeX].;XfX].;XfXrX'.'.].'.'.'.'.'.'.'.].].'.].].`.`.].`.).^.`.`.W.W.~.).~.{ { ( ( ( W w w : : : C : I o.-XdXkXkXjXkXgXBXVXBXcXcXjXgXgXhXdXdXfXhXhXlXsXsXsX$.+.+.$.sXsXlXlXlXlXlXlXkXjXkXlXkXkXjXvXBXjXBXBXVXVXBXBXBXVXVXCXbXcXbXBXBXBXBXBXBXBXBXBXvXcXvXvXcXvXvXvXvXBXcXvXbXBXvXvXcXcXgXgXgXgXgXgXcXgXcXkXcXcXcXcXcXvXgXgXjXcXgXgXgXvXgXgXcXcXgXjXgXcXgXgXgXcXBXBXBXBXBXBXBXBXZXZXZXZXBXZXBXBXBXZXBXZXZXZXZXZXZXZXZXZXZXZXZXZXZXFXZXVXgXjXjXjXgXdXhXkXkXsX$.@. . .+. . .W W W E W U g C w q e 3 3 3 2 4 q 0 = $ - : : * > : U @.[.'.'.e.y.>.*.*.*.*.*.*.*.-.*.5.*.*.&.&.*.,.,.&.*.&.*.&.,.*.,.*.&.&.*.&.,.,.,.*.*.=.*.5.5.5.3.3.4.4.4.M.P.D.P.K.K.P.I.V.P.P.P.P.D.D.S.P.<X{.w.a e 9 - F O.iXaXaXaXaXaXiXiXiXiXaXiX8X8XuXuXuX8XJ 8XJ 8X8XuX8XqXuXiXuXJ J J J O.K O.O.O.O.O.O.O.( ( [.[.T.^.T.Y.T.E.E.E.E.E./.E.E.u.e.e.e.E.T.Y.T.T.Y.Y.Y.] Q.!.!.z.!.!.*X*X*X!.!.*Xa.s.s.s.s.k.s.a.s.^.z.z.z.z.z.(.(.(.!.z.!.z.(.^././././././.e.e././.j.e.e.k.p.p.p.d.f.d.f.8.8.<.8.8.8.8.3.",
"f.l.u.l.K.j.l.i.i.i.l.(./.(.(.'.].yXyXyXrXrXrXrXrXfXrXrXfXrXrXrXrXrXfXfXfXzXyX].'.'.].'.'.'.'.].].'.'.].'.'.`.'.`.`.^.).`.`.).).).W.)._.{ +.( W f w w w : : : : : P +.pXlXgXkXgXjXcXBXcXgXgXkXjXkXsXsXsXfXdXlXsX$.+._ ^ ( +.$.sXsXfXlXkXkXkXkXBXZXjXBXZXjXBXBXBXBXBXBXCXVXBXBXBXBXBXBXbXvXVXBXBXBXBXvXBXBXBXBXBXBXvXvXvXvXgXgXcXcXgXgXgXgXgXgXcXgXhXgXgXgXgXgXgXgXkXgXgXcXgXgXgXgXhXgXgXhXhXgXgXgXhXhXhXgXhXgXhXgXgXgXgXkXjXcXgXgXjXvXgXjXjXBXZXBXjXBXZXZXZXjXZXZXZXZXZXZXZXZXjXZXBXjXjXjXjXjXjXjXkXlXlXdXlXsXqXqX_.o.~ W W W ^  .~ I P W I W W W U C e 0 0 q e e 0 9 9 9 0 - - : % * : U [.`.].].l.K.F.c.4.2.2.5.5.2.2.4.b.c.4.3.5.5.5.1.5.5.5.5.5.*.5.5.5.5.5.*.=.=.,.5.5.5.3.3.b.K.K.V.D.D.K.m.P.&XP.P.I.D.V.D.K.P.P.I.L.D.V.K.I.L.{.e.k q 0 u F pXpXaXaXiXaXaXaXiXiXiXiXiXiXiXiXiXuX8XJ J uXuXuX8X8X8XiXiXuXJ O.8XO.O.O.8XO.O.O.+.O.+.@.W.T.Y./.^.E.T.e.u.u.E.E.E.E.k.E.E.u.u.e.u.e.e.e.T.T.e.a.W./.!.a.!.(.(.z.#X*X=X!.(.z.z.!.z.s.a.a.p.z.z.=Xz.z.z.z.z.z.(.(.#X!.(.z.(.(.(.(.(././.e.T./.k.k.k.k.d.k.d.p.f.f.d.f.8.8.y.8.8.8.8.8.",
"l.l.l.K.l.l.i.i.i.i.i.l.l./.R.'.].].rXyXyXrXrXyXrXrXrXrXfXdXfXrXrXfXfXfXfXfX].].'.rXyXeX'.].].yX].].'.'.'.'.'.`.`.(.].`.`.).).).).{ ~.).)._.( U C w w : : - : : u P o.tXsXkXkXgXhXhXhXgXgXjXhXlXsX-XsXsXpX_.$.@.Q Y ~ +.$.$.sXsXlXhXgXjXjXBXZXZXZXZXBXZXVXBXBXVXVXCXBXBXVXVXBXBXBXBXVXVXBXBXBXBXBXBXBXBXBXvXBXZXGXBXcXvXBXBXgXgXgXhXhXgXgXgXgXkXgXkXgXgXgXjXgXgXBXBXcXgXgXgXgXgXgXjXhXgXgXgXhXhXhXhXhXgXhXhXhXgXfXgXhXkXgXgXkXgXgXhXhXhXdXhXdXgXkXkXjXBXZXjXjXjXZXBXZXjXkXBXkXkXkXlXlXsXlXpXsXsXsXsXsX|.qX_.$.O. .^ E I W W ~ W ~ P P I I I I W ~ P U w w 0 q e e 0 0 9 0 0 0 = : % * : / ) T.(.{.L.L.K.n.m.D.P.m.J.D.D.I.P.J.m.n.K.4.n.C.b.b.b.C.4.C.H.C.b.H.4.b.4.}.4.4.b.n.m.D.K.D.D.D.P.P.D.D.P.I.P.P.P.I.D.D.L.I.D.H.g.t.K.b.g.g.w.1.k 0 0 d O.qXaXaXaXiXaXaXaXaXaXiXaXaXaXaXaXaXiX8XJ 8XuXuXuXuXuXuXiXpXpXO.O.O.O.O.J O.O.O.O._ @.@.~.[.T.T.E././.E.e.e.u.u.E.E.u.u.u.E.E.E.u.u.e.e.e.T.a.a.e.k.(.(.!.z.!.!.^.(.(.z.(.z.(.*X(.!./.a.k.a.z.z.(.(.z.z.(.z.z.z.(.(.(.(.(.(././.(.(././././././.k.k.k.k.d.j.h.h.f.d.f.f.8.d.8.8.8.8.8.",
"l.l.l.l.l.t.i.i.i.i.i.l.l.E.(.'.rXrXrXrXyXyXrXrXyXrXrXrXfXfXrXrXrXrXfXfXfX].'.'.'.yXyXyX].].yXyX].].'.'.'.'.).`.].].].`.`.`.`.~.[.~.W.)._._.[ T P f w : > - : U T ( $.`.sXsXlXhXhXkXhXgXhXsXsX#.~ $.-X$._ ^ ^ W Y _ $.sXhXsXlXkXlXkXBXBXZXZXZXZXZXZXZXBXBXBXVXBXVXBXvXBXBXVXBXBXBXBXCXVXBXBXBXBXBXBXBXBXBXBXZXZXBXjXhXhXgXgXhXgXhXhXhXhXhXkXjXjXjXjXkXgXkXgXgXcXBXBXgXcXkXkXgXgXkXjXgXgXkXkXgXhXhXgXkXgXhXhXgXgXgXhXgXfXhXkXgXgXgXhXgXhXsXlXsXsXlXlXlXgXlXhXlXlXfXlXfXsXsXqXsXsXpXsXqX0XqXO.+.! Y ^ +. .Q F F I R R R Y W ~ W W W U U I I I I W W U U P w w w e e e w 9 0 0 0 w : * * : ( ) T.R.{.{.K.G.D.L.P.P.P.P.I.P.I.P.P.P.P.P.P.P.P.K.P.P.P.P.P.P.P.I.I.P.D.D.C.C.V.P.&XP.I.P.S.S.S.S.V.I.P.P.D.S.P.P.D.J.D.b.b.4.3.*.*.5.5.5.5.8 8 8 4 w Y O.qXaXaXaXiXaXaXaXaXaXaXaXaXaXaXaXaXiXuX8XuXuXiXiXuXuXuXiXiXpXuXO.J O.qXuXO.O.O.O.+.$.).T.W.T.E.e./.E.E.e.e.u.u.E.E.u.E.E.u.E.E.u.e.T.e.e././.a.a.a.z.=X!.^.!.!.(.(.!.*Xz.z.(.z.(.z.^.a.z.(.(.(.z.(.x.z.#X(.z.z.!.(.z.(./././.].(.R./././././././.u.u.j.d.f.f.d.d.d.f.d.8.d.8.8.8.8.8.",
"j.l.l.l.u.i.i.i.i.l.l.u.u.E.(.].yXrXrXrXrXrXrXyXyXrXyXrXrXrXfXfXfXfXfXrXyX'.].'.'.yX'.].].yXyX'.].'.].'.'.eX).`.`.].(.`.`.`.).~.{ _.Y.)._._.@.( U w w w : : I W o.+.@.@.@.sXsXdXhXhXlXsX-X[ Q ! ~ _ _ ~ I Q ^ +.$.-XsXkXjXjXjXkXBXZXZXZXBXZXZXZXZXZXBXBXBXBXvXvXvXvXvXvXvXBXBXBXBXVXVXVXBXBXCXBXBXVXBXBXBXBXBXZXgXdXdX:XtXsXsXhXhXhXhXhXhXgXkXkXkXkXkXkXkXjXZXBXBXkXgXkXkXjXjXjXjXkXjXkXkXjXjXjXjXkXkXjXgXgXkXjXkXgXdXsXsXgXgXfXdXkXgXgXlXlXlXsXlXlXsXlXsXsXsX-XqXo.o.W W W  .$.qXqXo. .| | D N > M D M M N M M E Q ~ ^ ~ Q W W W W W Q Y R Y I I I I U f w w w w w e e e e e w : , * w U Y.(.(.{.{.{.L.I.I.P.P.P.I.P.P.I.P.S.V.P.P.P.D.D.V.V.V.J.P.P.P.P.L.L.P.P.I.D.V.P.&X&X&XS.D.P.P.P.&X&XD.P.P.C.b.n.b.4.4.b.3.-.=.,.*.*.*.&.*.*.8 3 2 1 0 R qXpXiXaXaXiXaXaXaXaXaXaXaXaXaXaXaXaXiXaXiXuX8XuXiXiXuX8XiXpXpXpXO.8X XpXpXpXqXO.O.$.$.).W.T.E.E.T././.u.u.u.u.E.E.E.E.E.E.E.E.E.E.E.E.E.E./././.a.(.(.z.!.!.z.+X(.z.(.(.(.(.(.(././.k.a.z.(.(.=X{.(.(.{.(.(.z.z.(./.(./././././.(./././././././.u.u.u.d.j.d.d.f.f.f.f.f.d.d.8.8.8.8.8.",
"y.y.l.l.l.l.l.i.l.l.l.l.y.R.'.].rXrXrXrXrXrXrXrXfXrXrXrXrXrXfXfXfXrXrX'.'.].].].].].'.'.'.'.'.'.'.'.].'.'.'.`.`.`.`.].].`.`.`.`.`._.~.{ _.@.@.( U P w P w w W ( ( ^ U T [ #.-X).).).#.+.I u Y Y _ _ Q ~ _ $.|.sXlXkXkXZXZXBXZXjXBXZXZXZXZXBXjXjXkXgXgXvXBXBXBXBXBXBXBXBXvXBXBXBXBXBXBXBXBXBXVXVXVXVXBXVXCXBXZXvX:X_.{ { _._.sXsXsXsXsXsXsXsXsXsXsXsXlXgXgXjXBXkXkXkXjXkXkXjXjXkXjXkXjXjXjXjXjXjXkXjXjXkXjXkXkXjXgXhXsXsXsXkXkXhXlXlXkXlXlXsXsXsXsXtX$.$.$.+.+.( W W E C M M E  . .+. .D M M N > > > ; N M M M R R Q Q ~ W Q W R ~ W W W W ^ R E I I P P P w w 0 w w w w w 0 0 w - * * = z T.'.{.{.{.I.P.P.I.I.P.P.P.P.P.P.P.S.D.C.D.D.D.P.P.P.P.P.P.P.P.I.L.K.P.I.P.P.P.V.m.P.S.b.b.4.3.n.b.C.C.b.4.3.;.-.;.5.3.3.*.*.1.*.*.*.,.,.*.1.%.3 < $ 0 I O.qXpXpXaXiXaXaXaXaXaXaXaXaXaXaXaXaXaXaXaXiX8XuXiXuX8X8XuXpXuXuXuXuXpXpXpXqXqXO.pXsXtX).Y.T.E.E.E./.R.E.E.u.E.E.E.E.E.u.E.E.E.E.u.E.E.E./././.a.a.(.(.(.z.=X(.(.(.=X(.z.(.+X(.z././.z.z./.(.(.z.(.<Xl.{.(.(.z.(.z././././././././././././././././.E./.k.k.f.f.d.d.f.h.h.h.d.f.8.8.8.8.",
"y.y.i.l.l.l.l.l.l.l.l.l.u.R.].yXyXyXfXrXrXrXrXrXyXrXrXrXrXrXrXfXfXrX;X'.'.yXyXyX].'.'.'.].].].'.'.].'.eXfXeX:XeX].`.].'.].].].dXfX`._.).~.@.@.( ) U U U f w g g f w = 9 w T ( Y w 0 : E I ` ` Q Y Q ^ +.sXsXjXkXkXBXBXjXjXZXBXBXBXZXZXjXjXkXgXgXgXhXhXhXgXgXjXgXgXvXBXBXBXBXBXBXBXBXBXBXBXBXVXBXVXCXVXCXCXBXBXhX#.h j U [ ).`.-X-XsXsX-X-X#.$.$.sXsXtXsXlXlXlXlXlXkXjXkXjXkXkXjXjXjXBXkXjXkXkXjXjXkXjXjXjXkXgXkXhXhXsXsXsXkXkXsXsXsXsXtX$.$.+.^ ^ o.W  .^ ^ ^ ^ W  . .W R E | | | | D M m N m M m ; M M M F E R F F D I I R ~ ! Q R W W Q Q Q R I d P P P P C 0 0 w w w w w w : - * @ = q Y.{.{.{.I.P.P.I.P.P.P.I.P.P.P.P.P.P.P.P.P.P.P.C.K.L.I.P.P.L.L.L.K.C.0.g.4.b.4.4.4.b.c.;.;.;.-.;.;.2.c.b.F.4.5.-.-.*.-.5.*.=.,.,.*.*.7 8 &.r.t 3 2 # : E X.pXpXpXaXaXaXaXaXaXaXaXaXaXaXaXaXaXaXiXuXuXuXuXuXuXJ 8X8XuXpX8XuXpXpXpXpXqXqXqXsXsX).).T.T.E.R./.(./.E.E.E.E.E.E.u.u.u.e.E.E.E.E.E.E.E././././.a.a.z.*X(.^.z.z.^.z.z.(.!.(.(.^.(./.(.(.(.z.(.z.(.(.(.z.z.(.(.(.z.(.(.(././.(./././././././././././././.l.z.j.j.f.h.g.h.z.f.f.8.8.8.8.",
"l.l.l.j.y.y.j.l.l./.l.l.E./.{.rXzXzXrXrXrXrXrXrXrXfXfXfXeXfXfXfXfXeX].].'.rXfXeXeX'.'.'.'.'.yX'.'.'.eX'.;X'.].`.].eX-X].`.rXrXeX;X-X`._._._.@.{ ( / / U U w w q 0 0 - 0 $ - - = * > d W U ~ P D I [ qXlXlXkXjXgXgXvXBXjXBXVXBXZXkXBXkXjXkXgXgXgXgXhXhXgXhXgXjXkXhXkXjXjXBXBXBXZXVXBXZXBXBXVXVXVXVXVXVXVXVXBXBXdX/ # # w U [ _.#.|.$._._.#.@.+.$.$.$.#.+.$.pX`.-X-XsXlXsXhXlXlXkXkXBXjXjXjXjXjXkXgXgXjXhXsXlXdXsX-X-X#._.#.sXqX-X$.$.@.o.o. .^ W W ^ W W W ^ ^  .Q  . . . . .| F N M N N N D F N N : D D F D E F F D I D D R Q Q R I R R R R R Q Q I I I P P f w w w P P w w w w = * @ = r W.(.{.{.P.P.P.P.P.P.P.P.P.I.L.V.n.b.b.b.4.b.b.4.4.4.4.4.4.4.5.;.;.5.*.*.*.=.*.*.*.*.;.;.2.t.F.c.F.H.H.H.K.K.i.-.*.*.*.<.=.8 7 7 8 7 8 8 a l r e 9 = : D ! uXpXpXaXaXaXaXaXaXaXaXaXaXaXaXaXaXaXpXuXpXuXuXuXuXuXuXJ pXqX8X8X8XuX8XqXpXpXqXqX$.@.[.[.[.E.R.(./.E.E.E.E.E.E.E.u.u.u.u.u.E.u.E.E.E.E././././.a.a.a.=X(.z.(.=X(.z.(.(.z.(.z.(.#Xz.(.(.(.z.(.(.=Xz.(.z.{.(.z.(.(.(.z././.(.(././././././././././.(.(.(./.l.l.l.j.l.g.z.x.g.f.f.8.8.8.",
"l.l.l.y.y.y.y.l.l.l.K./.E./.].yXyXrXrXrXrXzXrXrXrXlXfXfXfXfXfXfXfXrX'.'.'.'.eXeXeXR.'.'.'.yX'.'.'.'.].'.'.eX'.rX'.eX'.'.`.'.`.`.`.'.`.)._._.#.{ ( { { ) / z g f s g g j j 0 j 0 f W ^ W R I u Y +.sXlXsXsXhXgXgXgXBXBXBXBXBXBXBXkXjXlXkXgXhXlXhXhXlXhXsXhXsXlXdXhXgXkXgXgXBXgXBXVXBXBXBXBXVXVXVXVXVXVXVXVXVXcX-XU O o # 0 h ( ( [ +._ +._ ( o._ ~ ~ ~ R ^ ( o.{ #.#.#.sXsXsXsXlXsXsXsXlXlXlXhXlXhX-X-X-X-X$.#.#.@.+.[ o.( ~ ^  .o.^ ^ W ^ W W W W W W W R U R Q ~  .^  . . .| H N M D F F | F N N F D D M H C E F E R I D R Q ! R R I I R R R R R R P P I P U P I w P P C w C w * * * 0 g /.{.{.{.I.P.J.J.K.K.G.H.b.4.4.5.5.5.5.5.*.*.*.*.-.*.5.*.1.*.*.-.*.=.&.=.&.=.*.=.-.2.2.t.4.F.i.F.t.t.t.5.5.i.*.*.7 8 6 &.1.:.1.r.c a 8 7 t k s 9 = - ; F O.pXpXpXaXaXaXaXaXaXaXaXiXaXaXaXaXaXpXpXiXpXpXiXiXuX XL uXuXpX8X8XJ 8X8XqXqXaXpX$.@.[ [.T.T.R.R.E.E.E.u.E.E.E.u.E.u.u.u.u.u.u.u.u.E.E.u./././.k.k.k.a.h.(.!.(.z.^.z.*X=Xz.!.(.(.(.*X(.z.(.=X(.z.{.{.(.z.(.{.(.(.L.{.(././.(.(././.(./././././././.R.(.(./.l.l.l.l.l.l.x.g.g.f.f.8.8.f.",
"j.g.k.k.u.g.i.l.l.u.j.l./.].].yXyXrXrXrXrXyXrXrXrXyXyXfXfXfXfXfXrXrX'.'.'.'.eXeXeXeXeX[.'.eX'.'.'.eX'.'.'.`.eX].-X].'.eX'.`.`.`.`.`.`._.)._._.@.~.{ ).{ ) z h z z z h h h T / ( ( ( ^ U I Y +.$.sXsXsXsXsXhXhXgXgXBXBXBXBXBXvXvXkXgXlXfXsXdXsX-X|.sX$.@.+.$.#.$.pX:XsXhXhXhXgXBXBXBXBXBXBXBXVXCXVXVXVXCXVXBXjX-Xz O o = 0 f f d P P U R U Y U ~ Y Q U T ~ ^ +.+.#.+.+.$.sX$._.$.)._.).$.|.tX-X$.#.#.{ { @.( [ [ [ +.( ( ( U E W W W W W W R W W ^ _  .^ Q W ^ ^  ._ ^ ^  ._ ^ | H I F | | | F F Q F M D E F E E R R F E R E R Q R R I I E E Q E E R R D I d I Y I w I U I C M M * * - w ) E.R.{.{.J.J.F.b.5.-.-.-.-.5.-.=.,.*.*.*.=.,.,.*.*.,.,.*.&.&.*.*.=.5.>.1.5.*.*.*.t.5.t.i.w.t.5.-.-.-.*.=.:.:.:.%.t t t t r.r.Y.Y.l c c c x / g : - * ; N X.qXpXaXaXiXiXiXiXaXaXaXiXaXaXaXaXpXpXaXpXpX|.pX X X X XuXpXuXpXuXpXuX8XqXqXpXpXqX$.).{ Y.T.E.R.E.E.E.E.E.E.E.E.u.u.u.u.u.u.u.e.e.u.E.E./././.k.k.d.a.z.!.(.(.(.!.(.(.(.!.z.(.^.=Xz.z.(./.z.z.(.(.(.{.(.z.(.(.=X(.(.l././.(.(.E./././.E./.E./.E././.(.(./.l.l.l.l.l.l.g.f.g.f.d.f.d.d.",
"y.f.f.k.j.u.i.l.l.l.u.E.R.(.].].rXrXrXrXrXrXrXrXrXrXeXrXyXyXfXfXrXrX].eX].'.eXeXeXeXeXeX'.'.'.'.'.'.'.`.).`.eXeX'.'.:X'.].rXrX'.`.).).).).~._.W.{ ) ) W.x c c z z z s k v ' / / U P I ^ [ _.sXhXsX-X-XsXhXhXgXgXgXgXBXBXBXcXgXgXhXsXqX).-X_.@.[ W I ; - : u T ^ +.-X-XdXfXfXgXgXBXBXBXBXBXVXVXCXVXVXVXVXVXZXBX:X/ + O = w w d : : w w d Y U T T [ _ [ @.+.$.$.#.`.#.#.#.+.^ [ [ +.{ +.+.( [ +.[ _ ^ T ^ [ +.( [ +.+.[ ( ( W W W ~ W W P Y Q W ( [ +.+.+. .+.+.+.+.O. .^ ^  . . .X.` O.O.E F E Y Q D D D E ! ! E E I D D ! Q Q I I R Q I Y Y Q R R R R D D D I Y d M Y W U C M : > > : P ) T.E.R.{.G.F.>.*.*.=.,.&.*.*.*.=.&.*.&.&.&.*.8 8 *.&.,.,.*.*.*.1.*.5.1.i.*.1.*.:.5.*.*.*.:.:.:.:.*.*.r.r.r.r.r.l r.l a r r.W.^.W.W.^.~.].-X_.( d : > > M K pXpXaXaXiXiXiXiXaXaXaXiXiXaXaXaXpXpXpX|.|.|.|. X X|. XJ pXpXpXqXpXpXpXqXqXO.).qX).~.Y.) T.E././.E.E.E.E.E.u.E.E.u.u.u.u.u.u.e.e.e.R.E.k././././.a.z.z.(.z.z.z.z.(.z.z.(.^.(.z.(.^.(././.z.l.K.(.z.z.{.(.{.#X(.L.(.(././.{.(.(./././.E.E./.E.E./.(.(./.u.l.l.l.l.l.j.f.f.d.d.f.d.d.f.",
"d.d.f.d.y.y.y.u./.l.E.E.R.{.].].rXeXrXrXrXfXyXrXeXeXeXeXrXrXrXeXeXeX'.'.rXrXrXrXeXeXeX'.eX'.'.'.'.'.eX).`.eXeX'.'.'.eX].].eXeX`.tX).).`._._.Y.).T.{ x x x x x x x k s z v h j j w g ' $.sXhXhXgXgXfXgXhXgXkXgXkXgXgXZXBXgXgXgXhXsX$._ +.@.+.Y : > @ @ = : I ~ +.|.sXsXfXgXgXgXgXBXBXBXBXBXVXVXCXVXVXVXBXBXZXVXhX).w * O w f f f g d f T { { { [ #._.#.#.#.#.#._.-X-X-X_.@.( / ( ( o.( ( ~ T ^ ^ ~ T ^ ( @.#.@.+.+.+.@.+.( ( W W W W W ^ ~ ~ ( +.+.[ +.+.+.+.[ _ +.O._ ^ ~  . .O.+.O.O.O.! Q R D H M F D F F N E E R I I Q Q Y Q R R ! ! Q E R E R E I Q Y Y P P I Q ^ ^ R E ; : > > : I ( ) Y.R.i.>.-.*.=.*.=.*.=.:.:.&.:.&.:.*.&.%.%.8 8 &.&.&.=.&.*.:.&.*.=.*.&.&.=.*.*.*.*.*.=.*.1.r.q.q.r.r.r.r.k r t c l l x ^.(.:XfXgXcXvXBXBXhX@.U : ; ; M F pXpXaXaXiXiXiXiXaXaXiXiXiXaXaXpXpXpX|.|.|.|. X X|.|. X XuX XO.O.O.pXpXpX$.$.$.$.).~.Y.T.T.Y.E.E.E.E.E.E.E.E.E.E.u.u.u.u.u.e.e.e.E.E./.u.k.j.a.a.a.a.z.z.z.k.a.z.z./.(./././.*X(./.(.(././.g.l.(.z.(.L.(.{.(.(.{.(.{././.{.(.(.E././././././.R.(.(././.j.j.l.l.l.l.l.g.f.d.f.f.d.d.f.",
"w.d.f.j.j.u.u.l./.j.u.E./.].].rXrXrXeXrXrXrXrXrXrXeXeXeXeXeXrXrX'.'.'.'.'.'.eXeXeXeXeX'.[.'.'.eXeXeXeX).tX'.].'.'.fXfX'.tXeXeX].`.).).).).).~.{ ~.] ] x x x v v z p p j 0 $ 0 h ' #.-XsXhXhXhXgXjXBXgXgXgXgXcXBXjXgXkXgXhXhXhXhXqX$.@.[ ( Y u D T ^ ^ ( { +.$.sXsXsXdXhXgXgXgXgXvXBXBXBXBXVXCXCXVXVXVXCXCXZXZXjX`.[ f w U U U U U T T [ _.-X_.#.-X-X_.#.@.@.@.@.#.#.#._._._.#._._.#.@.@.+.+.@.@.@.+.@.#._._.$.#.#.$.$.#.@.( W W I Y W ^ ~ ~ ^ ^ ^ [ [ [ [ [ [ _ +.+.[ _ ^ ^ _ _ O._ O.` ! E F F D F D D M F F E E I D D I R I I R R E R E ! ! Y E R Y Q ! Y I P I R ^ ^ ! D N > % > : E o.{ Y.T.E.r.:.*.*.=.&.*.:.:.:.:.:.:.:.:.:.:.:.:.*.*.:.&.6 7 7 7 %.8 ,.&.*.=.*.1.q.<.w.y.1.1.1.a 8 8 r.a 4 q q l W.~.(.`.-XdXBXDXFXHXFXFXFXBXjXdX#.D % % N K J pXpXaXaXaXiXiXiXiXiXiXiXiXaXpXpX|.|.|.|.|. X X|.|. X X X XO.O.O. X X$.$.$.#.@.+.).Y.Y.Y.Y.T.r.T.E.E.E.E.E.E.E.u.u.u.u.u.u.u.u./././.k.j.k.d.a.a.a.z.z.z.z.z.z.z.(./././.z.z.z.(.z.(.z.(.l.l.(.{.(.=X(.z.z.z.(.z.(.(./.(.(.(./././././././.(././././.j.j.l.l.l.l.k.k.d.f.d.d.f.d.y.",
"w.w.f.f.j.l.l.l.l.E.u.E.E.(.].rXrXrXrXrXrXrXrXrXeXrXyXrXeXrXrXrXeXeX'.tX'.'.'.'.'.eXeXeXeXeX'.'.eXeX'.'.`.'.eX'.eXrXrXeXeXeXeX'.).).).`.`._.W.[.[.] ] b l l v a p $ p 4 $ j h #.-XsXhXhXhXkXjXBXBXgXgXgXgXgXgXgXgXhXhXgXhXhXsXsXdXsX-X#.$.$.$.sXsXsXsXpXsXsXsXlXlXlXlXhXgXgXgXgXBXBXBXBXVXCXCXCXCXVXCXVXZXBXBXvXdX).( ( / T U g g h / ] _.-X-X-X-X-X`.#.@.{ [ { { [ { _._._._._._._.#.#.#.#.#._.#.#._._._.)._.$.$.#.#.#.@.+.+.^ ~ ^ [ +.+.^ ~ ^ _ ` _ [ [ [ [ [ [ +.O._ _ _ _ _ _ _ ! Q Q D D D F F F D F F F E E I I I D I I I I R R R E ! E E I I Y Q Q Y P P I Q ^  . .R : > % % M ~ o.{ Y.Y.Y.:.:.%.8 8 8 k t 6 8 7 8 8 8 8 6 %.%.&.:.:.:.:.:.&.%.&.*.q.r.*.&.*.*.r.r.r.l a t 8 8 8 8 k c x W.)._.dXgXcXGXGXDXBXZXFXFXKXPXPXFXjXkXsX$.Y * % m F K  XpXpXaXiXiXiXiXiXaXiXiXiXpXpXpX|.|.|.|.|. X X.X XOX X X XO.O.[ #.#.$.$.@.+.{ @.~.W.Y.{ T.r.r.Y.E.E.E.E.E.E.E.u.u.u.E.E.E.E.E./././.j.k.j.a.a.a.a.z.z.z.z.z.z.j././.z./.(.(.(.(.<X(.z.(.l.z.{.L.(.(.(.{.(.(.{.{././././.(.(././././././././././././.l.l.l.j.k.k.k.k.k.d.f.d.f.y.y.",
"d.y.y.u.u.l.l.l.l././.E.R.].].rXrXrXrXrXeXeXrXrXfXrXrXrXrXrXrXfXeXeX'.'.'.eX'.'.'.eXeXeXeX[.'.eXeXeXeXeXeX'.'.'.eXeX].].rXeX'.tX).)._.`._._.~.~.~.{ ] v a a p 4 $ $ $ $ j h } -XsXdXgXhXgXBXBXBXgXgXgXgXgXgXhXdXhXhXgXhXhXsXsXsXsXsXsXsXsXsXdXhXlXhXhXhXhXhXkXkXkXgXgXgXgXgXgXgXgXBXBXBXBXBXBXBXZXVXCXVXCXBXBXjX-X{ ^ ( / / P f g / ' } -X-X-X*X_.-X#.{ { [ [ { @.[ +.#.#.#.@._._._._.#.#.#.$._._._._._.#.#.$.$.$.@.@.@.@.@.+.+.( +.+.+.+._ _ _ [ _ _ _ _ [ [ [ _ [ [ _ _ _ _ _ _ ` ! Q Y D I I I R D I I I I R I I I I I I R R I R R R R R I P I Y Q ~ ~ Q P P Y Q ^ +. .W M ; % > M W +.( ( ) T.r.l t 8 r 8 r r t 8 8 8 8 8 :.:.:.:.:.:.:.:.r.:.:.:.&.:.8 8 8 8 8 8 t c l r.l x r.T.^.^.(.`.fXBXBXVXFXFXKXFXPXKXFXFXFXFXFXKXFXjX-X+.O.^ I ; > > m m J uXuXiXiXiXiXiXiXaXiXiXiXpX X X|.|.|.|.|..X X X Xn  X.X X} } } } #.#.} _ [ { [ [.[.W.Y.Y.Y.e.Y.T.u.E.Y.T.E.E.E.e.u.E.E.u.u.e.e.e.e.e.k.j.d.a.a.z.z.z.z.z.z.z.j.(.!.(.(./.(.z.z.(.{.(.{.(.(.(.z.(.z.{.(.(./.k.(.(./././.(.(././././././././././.j.j.(./.l.l.k.k.k.k.k.j.f.y.y.y.y.",
"d.d.y.y.u.l.u.l.u.E.E.E.E.(.'.rXrXeXrXrXeXrXrXrXyXrXrXrXeXeXrXeXeX'.'.'.'.eXeX'.eXeXeXeXeX'.'.eXeXeXeX'.tX'.'.eXeXtX'.].eX`.`.`.).)._.~.~.~.[.~.~.W.v l p p p 4 $ 0 $ $ j / _.sXdXhXgXvXvXjXgXcXgXgXgXgXgXhXhXhXgXkXkXhXsXsXsXlXsXlXsXhXsXlXhXlXsXkXgXgXjXkXjXjXjXgXkXkXjXgXgXgXvXBXBXBXBXBXBXBXBXBXBXVXBXBXZXBXdX/ P / T g g g / ) } ~.-X-X-X-X-X~.#.} [ [ [ [ [ { @.#.#.$.@.#._._._._._._.$.#.#.#.$.#.#.$.$.$.+.+.+.@.@.+.[ +.+.+.[ ^ _ ^ +.+.[ [ _ _ _ [ _ _ _ _ _ _ _ _ _ _ _ _ ! Y Y Y Y Y Y P I Q Q Q I Y Y E E Q I R R W R R I R U I I I I Y _ [ _ T Y Y Y Y ^  . .Q M ; > N D  .o.+.o.) U x k r q r q r q r 3 5 5 5 8 6 t 8 6 6 6 8 t &.8 %.8 %.t 8 8 t c r.Y.T.^.`.:XdXfXhXcXbXbXCXVXVXFXFXFXFXKXFXFXKXFXFXFXLXKXFXFXdX_.z d I u : : M N & D K J J uXiXiXiXiXaXaXiXiXpXpXpX|.|.|.|.|. X.X X X X.X X X Xb |.} |.} ] } ' ' ) { { ^.[.Y.Y.T.Y.T.T.E.E.e.e.E.E.E.E.E.u.E.u.u.e.e.e.e.e.a.k.k.k.z.z.z.z.z.h.z.f.k.k.(.z.(.z.(.(.z.{.(.L.(.=Xz.l.l.l.l.(././.l./.(././././././././././././././.j.j.k.l.(./.l.l.l.j.l.j.j.f.f.d.y.y.y.",
"d.d.y.y.y.u.u.u.u.E.E.E.E.(.'.rXeXeXrXrXyXrXrXrXrXrXyXeXeXeXeXeX'.'.'.'.'.eXeXeXeXeXeXeXeXeX'.'.'.eXeXeX].'.rXrXeX].'.eXeX`.).).).'.).).[.{ ~.~.~.{ x k 4 p p 4 4 0 = $ - U { -XhXgXjXjXBXgXhXgXgXgXhXlXhXhXgXgXkXkXlXlXsXsXsXlXsXkXkXkXhXdXlXkXsXkXkXjXjXBXjXjXjXjXBXjXBXgXgXgXBXBXvXvXBXBXBXBXBXBXBXVXBXBXBXBX-Xh w / / g g T ' } -X-X-X*X-X-X-X_.#.@.{ [ [ [ [ @.@.@.#.#._.#._._._._._._.$.#.#._.#.$.#.$.$.+.+.[ [ o._ ^ ^ +.+.+._ ^ ~ ~ _ +.+.+._ [ _ _ _ _ _ _ _ _ _ _ _ _ _ _ ` ` ~ ~ ^ ~ Q Y Q ~ ~ ~ Q Q ! Q Q Q W R W W ~ P P P P P I I Y ~ [ [ _ T Y Y U ~ ~ ~ ~ I : > ; M E +.$.@.o./ e r q e e 0 s g s q q q r r 8 a r 8 r r r 8 a c q.c r.l ) T.T.`.`.;X>XzXbXvXVXHXHXHXPXHXKXHXPXFXFXFXFXFXFXKXFXKXKXFXFXFXFXGX-X/ h T T f u - : D D & A F F K J uXiXaXaXaXaXiXpXpXpXpXpX|.|.|.|.|. X Xn  X X Xn  X|.|.b +X|.|.] } ' / { } ~.Y.Y.Y.Y.T.Y.T.Y.e.e.e.E.E.u.E.E./.E.E.E.u.u.e.e.w.p.k.k.z.z.#Xx.z.h.h.h.k.j.k.z.(.{.(.z.(.(.(.(.(.(.{.(.l.l.l.l.l.k.l.l.l.l././././././././././.(.(.z.j.j.j.j.l.(./././.l.j.l.l.j.k.f.y.y.y.y.",
"d.d.d.y.y.u.u.u.E.R.E././.].].eXeXeXrXrXfXrXrXrXrXfXeXeXeXeXeXeXeX'.eXeXeXeXeXeXeXeXeXeXeXeX'.eXeXeXeXeX:XeXeXeXrX'.'.eXeXtXtX).).`.`.).{ { W.~.W.] z q 4 4 $ $ @ = = 0 g ( _.sXsXgXBXhXdXdXdXhXhXdXsXsXhXgXjXkXkXsXsXsXsXsXhXgXkXkXjXkXkXgXjXjXjXjXjXjXjXBXBXBXVXBXBXBXBXjXgXBXBXBXBXBXBXBXBXBXBXBXBXBXBXBXBXgX-X/ j / T h / ' ] ~.-X-X*X*X*X*X_._.#.#.+.[ +.[ +.@.@.+.#._._._._._.)._._._.$.#._._._.#.#.$.#.+.[ [ [ ( ^ ^ [ +.+.+.+.~ ~ ~ +.+.+.[ _ _ ~ _ [ _ _ _ [ _ _ _ _ _ _ _ _ _ _ _ _ _ ^ _ ~ ^ ^ ^ Q Q Q ^ ^ W ~ Y ^ W W W P P U Y I T T ^ _ [ _ ~ T T ~ ^ ^ ~ P w : > ; D  .$.qXpXqXo.U U U U U T ' #.@.~.W.W.^.^.^.^.^.^.] ] ] W.^.^.`.:X:X:X:XxXgXbXCXCXDXFXDXKXHXFXFXHXFXFXKXKXFXFXFXFXFXFXFXFXPXFXKXFXGXvXhX#.g 9 h @.@.T w - : I D ; m F S F J uXpXpXiXaXaXiXpXpXpXpXpX|.|. X|.|. X.X X.X.X X X XOX Xb |.b |.} } } ' ] [.).T.Y.Y.Y.Y.T.Y.Y.Y.r.e.E.E.E././././.E.E.e.u.u.u.y.p.a.a.j.z.#X@Xh.h.h.p.d.j.k./.(.(./.j./.z.z.(.L.l.(.(.K.l.l.k.j.l.j.l.l.l.k././././././.k.j././.(.(.l.l.l.l.z.(./.z.(.x.l.l.l.l.k.j.y.y.y.y.",
"y.y.y.y.u.u.u.E.(././.(.(.'.'.eXeXrXrXrXrXrXrXyXrXrXrXrXeXeXeXeXeXeXeXeXyXeXeXeXeXeXeXeXeXeXeXeXeXeXeXeXeX].'.eXrXeX'.eXeXtX).).).`.)._._.{ x ) x c k p s p 4 $ = w U ( #.`.sXsXdXhXgXhXsXhXhXsXsXsXsXlXhXkXhXhXsX-XsXsXsXlXlXlXkXhXgXgXkXjXkXkXjXBXBXvXvXBXVXBXBXBXBXBXBXBXBXBXBXBXBXBXBXBXBXBXBXVXBXBXBXBXgXgXdX' j T T / { } } ~.-X:X*X*X*X~._.#.#.#.@.+.+.+.@.+.[ +.@.#._._.@.+.@.#.#._.#.#.#._._.#.@.@.{ [ [ [ [ [ ^ +.+.+._ +.+._ _ ~ +.[ _ _ _ ^ ^ _ _ _ _ O.+.+._ _ [ ^ _ _ +.O.O.O.+._ _ _ O.+._ _ _ _ ^ _ ^ ^ ^ ^ ^ ^ ^ ( ^ ^ ^ ^ ^ ^ ^ ~ _ [ _ _ ~ _ _ _ _ ^ Y D : : : I ` pXlXkXkXtX`._.)._.-X-XdXdXfXfXgXBXBXvXBXBXcXBXgXgX;XfXfXgXvXBXVXCXHXHXFXFXHXFXFXFXFXDXFXFXFXFXFXFXFXFXFXFXFXFXFXGXFXFXGXvXvXvXdX_.{ s 9 0 k _.} / w w w I E : N D F F K 8XpXpXpXpXpXuXuXuXpXpXpX|.pX|.|.|. Xn  X X X X.X X Xb |.b |.+X*X] Q.Q.^.W.Y.T.Y.~.T.Y.T.Y.T.Y.r.Y.E.e.E.E./././.E.E.E.E.E./.j.j.k.a.h.z.x.#Xh.h.h.h.d.j.j.j.z.(.l.j.l.l.l.l.l.l.l.l.(.l.l.k.j.j.k.l./.l././././././.j.k.k.k.(.L.(.z.l.l./.l.l.(.{.L.(.(.l.l.l.l.y.y.d.y.y.",
"<.y.u.j.l.u.l./.(.(.{.].].rX'.eXeXrXyXeXeXrXrXrXrXyXyXrXrXrXeXeXeXeXeXeXeXeXeXeXeXeXeXeXeXeXeXeXeXeXeXeX'.'.eXeXeX'.eXrXeX`.).).).)._._._.' z k s s j 4 s p 4 - d U $.sXsXhXgXsXsXsXhXgXhXhXhXsXsXlXkXkXkXsXsXsXsX-XsXhXgXjXkXlXkXjXkXZXZXkXjXgXgXBXBXvXvXvXvXBXBXBXBXvXBXBXBXBXBXBXBXBXBXBXVXVXVXVXVXvXBXBXgXhX-X) s g h ' ~.-X~.~.*X:X;X:X*X*X-X#.#.#.#.@.+.+.@.$.@.+.@.@.@.@.@.[ @.@.$.+.@.@.#.$.$.@.+.[ [ [ [ +.@.+.+.+.+.[ ^ ^ ^ _ _ O.O._ ^ ^ ^ ~ ^ _ _ O.O.+.+._ O.+.+.O._ _ _ O._ _ _ ^ _ +.+._ O.+. ._ _ _ _ _ _ _ O. ._ +.+.+.+.( [ +.[ T T T _ _ _ ^ _ _ _ ^ Q Y I M > M Q |.kXLXLXUXZXjXkXkXkXkXkXBXBXBXGXGXGXZXFXZXZXZXZXjXgXkXBXBXBXZXZXZXGXFXFXFXKXFXFXFXFXFXFXFXFXFXFXFXFXFXFXFXFXGXBXBXvXjXhXdX:X] k 3 < 3 k k g q z h g U U W W R R R K O.O.pXpXpXuX8X8X8XuXpXpXpXpX X|.|.|.|.|.OX X X X.X XOX Xn  Xn b b +X+XQ.Q.^.^.] W.W.Y.T.Y.T.T.Y.T.Y.T.E.E.E.E.E.E.e.e.e.u.j./.k.k.k.f.p.p.x.z.z.h.h.h.h.h.j.k.k.l.l.j.k.j.j.l.l.l.l.l.l.(.(.l.l.j.j.j.l./.l./././././.k.j.k.k.k.(.(.l.z.z.l.l.l.l.z.(.(.(.(.l.l.l.l.d.d.3.y.y.",
"y.y.i.i.l.l.E.E.E.R.].].].rXrXrXeXeXeXeXeXrXrXrXrXrXrXrXeXeXeXeXeXeXeXeXeXeXeXeXeXeXeXeXeXeXeXeX'.'.'.eXeXrXeXeXeX`.rXtX`.`.`.).`.).$.#.{ { / j 4 j s s s s g / |.-XsXhXhXgXgXhXhXhXfXsXsXsXsXsXlXlXlXlXsXsX-X-XsXsXhXgXgXgXgXkXjXkXjXkXjXBXBXBXBXVXVXbXbXvXBXBXZXVXVXbXbXbXvXvXBXBXBXBXVXBXBXVXVXVXVXbXcXVXfXdX-X#./ j f z } *X*X*X*X*X=X*X*X} #.#.#.#.#.#.#.#.#.@.@.@.@.@.+.+.+.+.+.+.+.+.@.@.+.+.+.[ +.@.+.+.+.[ [ [ _ _ _ ^ ^ ^ ~ _ [ _ _ _ ~ ^ ~ ^ _ ` _ ^ ^ ^ ~ _ _ O.O.+.O.^ O. .O.+. ._ O.+.+.O.O.O._ _ _ _ _ _ _ _ _ O.O._ ^ ^ ~ _ _ _ _ _ _ ~ T T T [ _ ^ _ ^ Y D M D : : I ~ qXkXKXIXPXLXLXLXGXGXGXGXFXGXZXGXLXLXFXFXGXGXLXLXBXZXGXUXGXGXGXZXBXFXFXGXFXFXFXFXFXGXLXKXKXFXFXFXFXZXGXGXGXjXgXhXdX_.W.c q 4 8 a l q.a.q.r.t 4 q g / / T ^ ^ ~ ~ $.sXlXsXpXpXO.K F F F F O.O.O.$.|.|.pX|.|.|. XOX X X X|..X X X X|.|.b b s.s.s.s.s.W.Q.] W.W.Y.Y.Y.Y.T.Y./././././.e.e.e.k.k.k.k.z.h.h.h.z.z.h.h.h.h.h.f.f.g.l.j.j.j.j.k.y.y.y.y.u.u.j.l.K.l./.l.l.j.j.j.j.j./.j.j.k.k.k.k.k.k.l./.l.z.z.z.l.l./.{.(.(.{.{.(.L.(.l.l.l.j.d.w.y.y.",
"f.g.l.l.l./.R.E.R.R.].].yXyXrXrXeXeXeXeXeXrXrXrXrXrXeXrXeXeXeXeXeXeXeXeXeXeXeXeXeXeXeXrXrXeXeXeX'.eX'.eXeXeXeXeX'.].eXtXtX).).).).).).@.{ ' h j 0 j j 4 4 j ) _.-XsXsXgXgXhXhXhXdXsXsXsXsXsXsXlXkXhXsXsXsXsXsXsXdXhXgXhXjXBXBXBXBXjXBXBXBXBXZXBXBXbXbXVXVXVXCXVXBXCXGXJXHXJXGXCXVXVXVXBXBXBXBXVXCXVXVXbXcXZXBXdX_.@./ g j s ' ~.~.*X*X*X*X*X*X} } #.#.#.#.#.#.#.#.+.+.+.+.+.+.+.+.+.+.+.+.+.$.$.$.+.+.+.+.+.+.+.+.+.[ [ _ _ _ _ _ _ _ _ O.O._ _ _ ^ ^ ^ ^ _ +.^ ^ ^ ~ _ ^ _ _ O._ O.+.+.O.O.O.O.O.+.+.+.+.+.+.+.[ _ _ _ _ _ [ [ +. ._ _ ~ _ _ _ _ _ ~ T T T ` _ ^ ~ Q I I D ~ ~ E | o.$.sXlXZXjXjXZXLXGXGXGXLXGXLXGXZXGXLXLXLXGXGXGXLXGXGXGXLXGXGXGXGXGXGXGXFXFXGXGXHXFXFXFXGXGXGXFXFXKXFXGXZXjXjXsX_.{ ' g q r k 1.q.1.<.<.p.k.e.l 4 2 e h / o.+.+.+.+.qXdXsX_.O.F F A & & & D K O.pX+.uX X|.|.|. X|.|.n  X|.|.|. Xn  Xv b b s.p.s.s.s.s.s.W.W.W.W.r.Y.T.T.T.Y././././././.k.k.k./.z.z.z.h.h.h.h.h.d.f.f.f.h.d.d.f.f.g.f.d.d.d.u.u.u.u.u.j.j.k.l.l.l.l.j.j.u.u.u.j.j./.k.j.k.k.j.k.z.z.l.l.z.z.z.L./.l.l.(.{.(.(.(.l.l.l.l.l.g.d.y.y.y.",
"g.g.i.g.l.u.u.E.E.(.(.].].rXrXrXeXeXeXeXyXeXrXyXrXrXyXrXrXeXeXeXeXeXeXeXeXeXeXeXeXeXyXrXrXeXeXeX'.'.'.eXeXeXeXeX].eXeX`.).).).tX`.).#.{ { ' h j 0 j j 0 4 s ] _.-X-XhXgXhXhXhXhXhXsXsXsXsXsXhXkXhXsX-X-X-XdXhXhXgXjXBXvXBXBXBXBXBXvXBXBXBXBXBXZXBXvXbXvXvXVXVXBXBXBXBXCXbXCXVXBXBXVXBXBXVXVXVXVXVXVXVXVXVXVXcX-X~.[ / T g s ' } ~.*X*X*X*X*X*X*X} #.#.#.#.#.#.+.@.[ +.+.+.+.+.+.+.+.+.+.+.+.+.$.$.@.+.+.+.+.+.[ [ [ [ [ [ _ _ _ _ _ _ _ _ +._ _ _ ^ ^ ^ _ _ O.O.^ ^ ^ ~ ^ ^ ^ _ _ _ _ O._ [ [ [ [ [ _ +.[ [ [ [ [ [ [ _ _ [ [ [ [ [ _ _ _ [ _ _ _ _ _ ~ ` T _ _ _ ` Q I : D ~ $.$.sXlXhXjXUXZXkXkXjXBXjXZXGXGXUXLXZXZXGXGXLXGXGXGXGXZXGXGXGXZXGXGXGXUXGXGXjXjXZXZXBXGXGXFXKXKXFXLXLXFXFXjXhXdXsX} h g q s k c q.q.z.f.w.<.w.p.k.e.c 4 < 2 s ( #.sXsXqX+.+.@.+.U C : : ; & F I ! ! O.pXO. X X X|.|.|.|. X|. X|. X|.b  Xb b b b b s.s.s.s.s.s.s.W.W.W.W.W.E.T.e.Y./././.a.u.e.j./.(.#Xz.j.h.h.h.h.h.8.8.f.f.d.d.d.d.f.d.g.g.f.g.f.d.u.u.u.u.j.j.j.k.k.l.k.j.u.u.u.u.j.j.j.u.j.u.k.j.j.l.k.l.k.j.z.z.z.l.l.l.(.#X(.x.l.l.l.l.l.l.j.y.w.y.y.",
"g.g.y.y.j.u.j.E.R.R.{.].rXrXrXrXeXrXrXeXrXrXrXrXrXrXrXrXrXeXeXeXeXeXeXeXeXeXeXeXeXeXeXeXeXeXeXeX'.eXeXeXeXeXeXeX].'.eX`.).).)._.).).$.@.{ ' / g j s j j j j j z @.-XsXkXsXhXlXkXsXsXsXsXsXhXkXhX-X-X-X-XsXhXgXBXvXBXBXBXBXBXBXBXcXcXBXBXBXBXBXBXjXvXvXvXvXvXjXjXBXBXvXBXBXVXVXBXBXBXZXZXVXVXVXVXVXVXVXVXVXVXfX`.) / / / z g ] } ~.~.*X*X*X*X*X~.#.#.#.[ +.#.[ [ _ [ +.+.+.+.+.[ +.+.+.+.+.+.+.+.$.+.+.[ +.+.+.[ [ [ [ [ [ _ _ _ _ _ _ _ _ O._ _ _ _ ^ _ _ O.O. .^ ^ ^ ^ ~ ^ ~ ^ ^ _ _ _ ~ _ [ [ [ ^ [ [ [ [ [ [ [ [ [ [ _ _ [ _ [ [ _ _ _ +.+._ _ _ [ _ _ _ _ _ _ _ ! D ; : I _ -XpXsXsXlXjXjXkXgXgXgXkXjXZXGXjXZXjXjXjXGXjXUXGXGXUXGXGXGXGXLXGXGXGXGXGXGXUXUXZXBXBXZXGXFXLXFXFXGXBXgX:X-X} ) s q 4 p s l x e.a.a.f.f.8.<.6.a.p.q.a 8 3 2 f / #.-XsX$. .E I M 0 - - ; M C $.$.$. . .O.O.O.O. X|.|.|.|.|.|.|.|.|.|.|.|.|.b v b b s.s.s.s.7.s.s.s.!.s.W.^.^.j.e.e.k././.u.e.e.j.j.(.x.z.f.h.h.h.f.d.8.f.f.f.g.f.f.g.f.g.g.g.g.l.l.j.u.u.u.u.u.k.k.j.j.j.j.k.u.k.u.j.u.u.u.u.j.j.j.j.k.z.z.f.j.l.z.z.l.l.j.l.z.L.(./.l.l.l.l.j.j.y.w.<.y.w.",
"j.y.y.y.y.i.l.E.R.(.].].;XrXyXrXyXrXrXrXrXrXyXrXrXrXrXrXeXeXeXeXeXeXeXeXeXeXeXeXeXeXeXeXeX'.'.eXeXeXeXeXeXeXeXeXfXeX`.).).#.@.)._.$.+.@.{ { / h g g h j q 0 = 0 ^ -XsXlXsXlXkXkXlXsXsXsXsXhXsX$.$.-XdXsXhXgXvXBXBXBXBXBXBXBXBXVXBXbXBXBXBXBXjXkXkXBXjXvXvXgXgXhXjXBXBXcXBXBXBXBXBXBXVXFXVXVXVXVXVXVXVXVXCXVXxX`.{ z / / ] ) Q.~.~.~.*X*X*X*X!.} #.#.[ [ [ [ [ [ ~ _ [ +.+.+.[ [ +.+.+.+.+.+.+.+.+.+.[ [ +.[ [ _ _ _ [ +.+.^ ~ _ _ _ _ _ _ _ ^ ^ _ _ _ _ _ _ _ +.^ ^  .^ ^ ~ ^ ~ ^ _ ^ T h T ( [ [ [ ^ [ _ [ [ _ [ [ [ [ _ _ _ _ _ _ _ _ _ +._ _ _ _ _ _ _ ` ~ _ ~ Q Q D ; : M D  .O.+.+.sXlXjXjXgXkXgXkXjXkXjXkXjXjXjXjXkXjXkXjXGXGXGXjXUXGXjXZXZXUXZXGXGXGXLXGXjXjXgXhXdXhXdX-X`.).) l s q 4 4 8 p l e.a.k.w.6.6.8.8.8.8.d.w.w.q.t 8 3 4 w U ^  . .Q M : : - - - : w U ( sXlXhXqX+.$.qXO.O.O.pX X|.|. XpX|.|.pX|.|.|.|.|.b v +Xs.s.s.+Xs.s.s.+Xz.s.a.a././.e.a.e.a.k.k.e.e.k.j.z.z.d.f.d.h.h.f.d.f.f.f.g.g.h.g.g.g.g.g.g.g.g.l.l.j.u.j.u.y.u.j.j.l.j.k.j.j.j.j.k.k.j.j.u.u.k.k.k.k.l.k.d.z.z.z.z.z.k.j.j.l.(.(.l.l.l.l.l.d.f.p.w.<.<.w.",
"y.y.i.y.y.i.u.E.R.(.].].].rXrXrXrXrXyXrXyXrXfXrXyXrXrXrXeXeXeXeXeXeXeXeXeXeXeXeXeXeXeXeX'.'.eXeXeXeXeXeXeXeXeX].dX'.).).).@.@.@.@.+.+.+.[ { ' h h j $ $ 4 - : T @.-X-XsXsXlXlXlXsXsXsXsXsX-X#.+.$.hXgXgXgXBXBXBXBXBXBXVXBXBXBXBXVXbXCXVXjXkXjXjXkXkXgXhXhXgXhXgXhXgXgXgXgXBXZXZXZXBXBXVXVXVXVXVXVXVXCXCXVXCXcXdX~.] z z v Q.!.~.~.~.*X*X!.Q.~.Q.} [ [ [ [ [ [ [ ~ +.+.+.+.+.+.+.+.+.+.+.+.+.+.+.+.[ [ _ _ _ _ _ _ _ [ +.+.^ ~ _ _ _ [ _ _ ^ ^ _ _ O.O.~ ~ ^ _ O. . . .^ ^ ~ ~ ~ ~ ^ T T T / / [ [ ' ' _ ~ ~ ^ ~ ~ ^ [ _ _ _ _ _ _ _ _ _ _ ^ ~ ^ _ _ _ ^ Y Y Q ~ ~ Q Y u ; u u R  . . ._ $.sXlXdXhXlXhXkXkXlXkXhXkXkXlXkXkXkXkXhXjXjXkXhXlXhXhXhXlXhXdXsXsXsXdX-XsX_._.{ ) ' g p q 4 4 4 8 4 8 1.w.q.a.f.d.p.w.<.8.8.8.f.f.d.p.p.q.l l k q w w M M M ; > : > w j w q s / { sXhXdXfXsXpXO.O.O.O.O.O.|.|.|.|.|.|.|.|.|.|.|.|.|.} b b s.s.s.7.s.s.s.s.s.s.s.a.a.a.a.a.a.a.j.k.j.k.k.l.z.d.f.z.d.d.h.h.h.h.g.g.g.g.g.g.g.g.g.g.g.f.k.l.j.k.j.y.y.u.k.j.l.k.j.j.k.k.k.k.k.k.j.k.j.k.j.j.k.k.f.j.j.z.z.l.l.l.l.j.j.l.l.l.l.l.l.k.y.f.y.<.<.<.w.",
"y.y.y.y.l./.E.E.(.(.(.].rXyXrXrXfXrXrXrXrXrXrXrXrXrXrXrXeXeXeXeXeXeXeXeXeXeXeXeXeXeXeXeXtX'.'.'.eXeXrX'.'.tX].rXdX'.`.#.@.@.@.+.+.+.[ [ [ [ / h j j 4 $ $ - h { #.|.-XsXhXlXsX|.@.$.sXlXlXsX_.#.-XgXBXgXcXBXZXCXVXBXBXZXZXZXBXBXVXVXBXvXcXgXgXkXgXgXhXhXhXgXhXhXhXhXhXhXhXhXBXBXBXBXBXBXBXBXVXVXVXVXVXVXVXCXcX-X_.] z z ' !.~.~.~.Q.*X~.Q.Q.Q.} [ [ [ [ [ +.+.+.+.+.+.+.+.+.+.+.+.+.+.#.$.+.+.+.+.+.+.[ [ _ _ _ [ [ [ +.+.^ _ _ _ _ _ _ ^ ^ ^ ^ _ +.+.^ ^ ^ ^ O. . . . .^ ^ ~ ~ ^ [ ( ^ T / ( [ [ [ [ [ [ ~ ~ ~ ~  . ._ ^ ~ ~ ^ ~ ~ ~ _ _ ^ ~ _ _ _ O._ ^ Q ! Q ` ~ P ; > : D Y I R  .~ ~ ^ +.( @._.{ _._._._.`.-XsXsX-XsXsXsX-X-X-X-X-X@.#.#.#.#.[ ' T T h h h h h k s s q 8 4 4 8 a l q.a.a.a.p.f.f.<.6.w.8.8.0.1.6.8.8.p.a.a.k.r.l k e 9 = * * * - - w w g ) T.T.T.T.T.`.).).tXsXqXo.K O.J O.pX|.|.|.|.|. X|.|.|.|.|.|.|.b b b OX7.s.s.OXs.s.s.OXs.s.a.a.s.a.a.a.k.j.k.k.k.k.d.f.d.f.h.f.d.d.f.d.f.g.g.g.f.f.f.g.d.g.f.f.f.d.j.k.j.k.f.j.k.k.k.j.j.u.u.u.a.j.j.j.j.k.j.k.j.k.j.j.f.d.f.f.z.z.z.z.z.l.l.f.l.l.l.l.l.l.j.f.g.y.y.w.w.p.",
"y.y.y.j.l././.R.(.(.].'.].yXrXrXeXrXyXrXrXrXrXrXrXrXrXfXrXrXeXrXyXrXrXeXeXeXeXeXeXeXeXeX'.'.'.eX'.tX].eX'.'.'.`.'.`._.#.@.@.@.+.[ [ [ [ [ [ / h j j 4 p $ 0 h z h ' #.sXhXsX$.{ [ -XhXhXsXsXsXsXfXgXBXBXVXAXCXCXCXVXVXZXBXBXBXBXkXjXgXgXhXfXdXfXdXhXhXhXhXfXsXsXsX`.`._.qXsXgXBXZXZXZXZXBXBXBXVXVXVXCXCXCXVXfX:X~.] x x ] *X*X~.Q.!.*X*X!.Q.} ~.} [ [ [ [ [ +.+.+.+.+.+.[ [ [ +.+.+.$.+.+.+.+.+.+.+.+.+.[ [ +.+.+.+.+.+.[ [ _ _ _ _ _ _ ^ ^ ^ _ O.+.+.^ ^ ^ ~ ^  . . .O. .O._ _ _ [ [ [ ( ( ^ ^ ( [ _ ^ _ _ _ +. . .~ ^ R R Y Y Y Y Y T _ _ _ ` _ O.+._ ^ ^ Q Q ~ Y u * * - I C > = C C w f f f f f 0 q q w q g f T / ' ) ' T h g h h g q f g C d j 0 0 0 4 j s s c c l l q.s.q.q.p.a.a.h.z.h.f.8.8.8.<.<.<.<.8.8.1.6.<.<.<.p.a.s.l r 9 = = = = = 0 w g q l ] ^.(.(.(.(./.(.T.T.).`._.^ Q _ O.O.O.uXpXpX|.|.pX|.|.|.|.|.|.|.] b b s.s.7.s.OXs.s.OXs.s.7.s.s.s.s.s.a.a.a.a.a.d.k.p.p.p.p.f.h.g.f.f.f.8.f.g.g.f.d.d.d.d.f.j.g.g.g.f.k.f.d.d.f.j.k.j.k.j.u.u.e.e.a.k.k.j.k.k.k.k.k.d.d.f.d.f.h.z.z.z.z.(.x.l.g.l.l.l.l.l.l.l.j.j.j.w.w.w.y.",
"y.y.g.l.(.{.(.(.R.(.].].].rXrXrXrXrXrXrXrXyXyXyXyXrXrXrXrXrXrXrXrXrXrXeXeXeXeXeXeXeX'.eXeX'.'.'.'.].'.].'.).:XeX`._._.@.{ { @.[ [ [ [ [ [ ( / / h j j p p $ $ $ $ 4 z -X} } { [ #.sXgXsX#.#.-XhXhXgXBXVXCXBXVXDXCXCXVXZXZXGXjXjXkXlXsXsXdXfX:X:XfXdX`._.#.{ ( U U U P P T ( `.hXcXgXBXZXBXBXBXcXBXBXBXCXVXCXfX*X~.v W.v Q.~.*XQ.Q.Q.*X*X*X*X*X*X#.#.#.[ [ [ [ [ +.+.+.+.+.[ [ +.+.+.+.+.+.+.+.+.+.+.+.+.[ [ +.+.+.+.+.[ [ +.+.[ [ _ _ _ ^ _ _ ^ +.+.+.^ ^ ^ ^ ^  . . . . .^ _ [ [ [ [ [ [ ^ W Y ~ ^ ^ ^ ^ _ +.+.O.^ Q E D M D I D D Y Y Y Y ~ ~ ~ ! ! ! Q Q ~ Q I u ; > * ; : - - 9 g h / ) / k k s s s s k r s s k c z / x c k s k k c k s k s k k k c k l l a l q.w.v s.p.f.p.p.p.6.6.6.8.6.8.8.8.3.<.8.8.0.8.<.8.8.8.p.p.s.s.l q 4 # + O = # # q k c x a./.{.{.{.{.L.L.(./././.(.`.).#.` ` O.O.O.pXpXpX|.|.|.|.|.|. X|.#.} v v s.s.s.s.s.7.s.s.s.s.s.s.h.OXs.s.h.h.h.p.k.z.z.x.p.p.p.f.h.x.g.f.8.8.8.f.g.f.d.f.d.f.g.z.z.x.l.g.g.d.f.f.d.d.k.k.j.j.k.k.k.j.k.j.j.j.z.z.z.f.k.d.f.d.d.h.z.z.z.z.z.z.z.l.l.l.l.l.g.x.z.z.z.d.y.y.<.w.w.",
"y.y.j./././.R.(.R.].].].'.].eXrXfXrXyXyXyXyXrXyXyXrXrXyXrXrXrXrXrXfXrXrXeXeXeXeXeXeXeXeXeX`.'.tX'.eXeX'.'.).`.`.).).@.{ { @.+.o.+.[ [ [ [ [ ' / h h s p p 4 4 4 4 4 p l s h z ' #.-X~.{ } #.-XhXjXBXvXVXVXVXCXDXCXCXCXBXZXZXkXdXsXpXtXsX-X].:X].].^.[.] ) q e e e = = - @ = f { dXgXBXgXBXBXBXBXBXBXvXvXbXVXxX^.Q.W.W.W.Q.*X~.Q.!.*X*X*X+Xs.*X*X*X#.@.{ [ [ +.+.+.+.+.+.+.[ +.+.+.+._ +._ ^ _ [ +.+.+._ [ _ _ [ [ [ [ [ [ [ _ [ [ _ _ _ _ +._ _ +.^ _ ^ ~ _ O.` ~ ^ ^ ^ ^ ~ _ ( ^ _ _ ( ^ ^ Q Q Q ^ ~ Y I Q ~ ~ R D D M ; M E E F Y Y d u P U Y Q ~ ^ Y D Q ! I D - - = - - - j q k l ) Q.!.W.s.r.l q.q.q.q.q.v q.s.q.s.s.r.q.q.l q.r.q.q.q.q.s.r.q.e.s.w.p.p.p.d.d.h.h.h.6.f.8.f.8.6.8.8.8.8.8.8.8.3.8.8.8.6.<.8.8.6.p.p.q.l l q 4 # = O # 9 9 4 q l a.(.K.L.{.{.L.L.L.L.K.K.(.{.(.(.(._.+.` ` O.O.pXpXpXpX|. X X X X#.} ] } } v v s.OXs.+Xs.s.s.h.s.s.7.7.h.h.s.h.x.z.z.d.a.h.p.d.d.h.h.g.x.x.g.0.8.8.8.l.g.h.f.d.f.f.f.f.j.h.f.f.f.d.d.f.d.j.k.k.k.j.k.j.k.k.j.j.l.z.l.d.d.f.h.j.z.h.z.z.(.z.z.z.x.(.l.l.l.z.l.j.g.l.f.l.g.f.3.w.w.w.",
"u.j././.(./.E./.(.{.'.].].'.'.rXyXfXrXyXyXrXrXrXrXrXrXrXrXrXeXrXrXrXrXrXeXeXeXeXeXeXeXeX'.).).`.`.).'.`.'.tX`.).).@.{ { @.@.+.+.+.[ [ [ [ [ [ [ ' h a p p a p p p p n p p p s v ] ' h s z -XhXjXBXBXBXZXVXCXCXCXBXBXVXBXBXkXlXsXqXqX+.{ { Y.E.(.(.(././.l q e e e 3 = @ + o + w @.fXBXgXBXBXBXBXBXBXBXcXbXbXxX*XW.W.W.W.] *X*XQ.!.*X*X*XQ.s.Q.*X*X#.{ } #.#.+.+.+.+.+.+.+.+.+.+.+.+.+._ [ _ ^ +.+.+.[ [ _ _ _ _ _ _ _ [ [ _ _ _ _ _ _ _ O._ [ _ _ ^ ^ ^ ^ ^  .^ ~ ^ ^ ^ ^ ^ ^ ^ ^ T Y Q Q Q I R Q W Y Y I I I F M > N : M M M I Y Y F d d u C I Y Y R D D M E D ; ; * # = j s k x q.s.a.a.a.a.p.q.w.6.w.p.6.7.p.p.p.d.k.z.a.z.f.p.p.h.z.h.h.p.k.k.k.p.a.p.8.f.f.h.h.f.h.8.8.8.8.8.8.8.8.8.8.8.8.8.8.0.8.8.6.6.<.6.6.p.p.q.x k p 3 + # * @ $ j k k q.y.x.<XK.V.K.K.n.L.L.L.P.L.I.{.L.(.=X^.~.' ^ ! K O.pXpX X|. XqX X$.O._ } } ' v b s.s.s.s.s.h.s.s.7.p.7.7.s.7.7.s.h.z.x.h.p.p.p.h.f.f.d.0.x.x.x.g.g.g.0.f.h.x.h.d.f.d.d.f.8.f.g.f.d.f.f.f.d.j.k.j.d.k.d.a.d.d.j.f.z.j.f.d.d.f.h.z.z.h.x.x.@X#Xx.z.z.x.x.l.z.x.g.g.f.f.g.g.g.f.p.w.<.w.",
"k.j./././././.(.(.'.'.'.].'.eXrXzXrXrXyXyXrXrXrXrXrXrXrXrXrXrXeXrXrXeXeXeXeXeXeXeXeXtXtX`.).`.'.).).).'.'.'.'.`.).{ { @.@.@.@.+.+.[ +.[ [ [ [ [ ' z l l n n a a 7.n 7.a p a s z b s j j ' fXgXjXBXBXBXVXVXVXVXVXBXBXZXvXkXsXsX$.O.! Y j q 8 <.L.{.{.z.z.k.l 8 5 3 5 4 $ 1 + + # / dXgXgXBXBXBXBXBXBXBXvXbXbXzX`.Q.W.Q.W.Q.*X*X*X} *X*X*X*X*X*X*X*X#.@.@.#.#.[ +.[ +.+.+.+.+.[ [ +.[ +.+.[ +._ +.+.+.+.[ _ _ _ ^ ^ ~ ^ [ _ _ _ _ _ ^ ~ ^ _ ~ _ _ _ ^ _ _ ^ ! ~ ^ ^ ~ ~ ~ ~ ~ T ~ ~ P P Y Q I w D M E W U C C C M V > > M M M M M : D C R I C C I d M : N ; N M : * * @ $ 0 g z ) a.a.d.p.p.p.p.8.p.3.<.6.6.6.6.8.6.8.0.f.h.h.8.h.h.h.8.h.9.9.x.g.f.f.g.f.8.0.4.8.8.8.8.8.8.8.8.8.8.8.8.8.8.8.8.8.8.8.8.8.3.6.7.6.6.7.p.s.x a 8 < < + + @ = 0 s l f.x.L.&XL.D.V.N.m.U.S.S.S.P.P.P.D.L.L.=X=X!.W.' ~ Y ` ` pX X|. XO.O.O._ +.} ] ' s.] s.s.s.s.OXs.7.7.s.+X7.7.s.h.7.s.7.h.h.h.p.p.h.h.p.p.p.h.x.h.h.x.g.x.x.x.x.9.g.h.f.f.f.f.8.8.g.g.f.f.f.d.f.f.j.f.d.p.p.p.p.p.d.d.h.f.f.f.h.f.h.x.h.z.z.#X@X@X=Xz.z.x.g.g.g.x.g.g.f.f.g.f.d.d.p.<.<.<.",
"/./.(.E./././.].(.'.'.].'.eXeXrXfXzXrXrXrXrXrXrXrXrXrXrXrXrXrXrXrXeXeXeXeXeXeXeXeXeX'.[.).).'.tX).).).).`.'.eX`.).@.{ { @.@.@.+.+.+.+.[ [ [ { [ ' / x b n n n 6.7.6.6.7.n n s n j 0 $ h -XhXgXjXBXvXBXVXVXVXBXBXBXBXcXhXdX|.o.Y F D - 2 3 a y.I.<X&XL.L.z.f.<.a 8 8 8 4 q 2 + # g -XhXfXBXBXBXBXBXBXBXBXbXbX>X*X!.W.Q.Q.v *X*X*X!.!.*X*X*X*X*X*X~.#.} } #.#.@.[ [ +.+.+.+.+.[ [ [ [ +.+.+.+.+.+.+.+.+.+._ _ ~ ^ ~ ^ ^ ~ ~ [ [ ~ ^ ^ ^ ~ ~ ~ ~ ~ ^ ^ +. ._ ^ ^ ^ ~ ^ ~ T T U U U U P d P I w : : : D W C M C Z M > * > > Z V V > * N N N M R P I C N > > * N M : @ @ @ 0 g z ] a.j.h.f.p.6.<.3.8.8.8.8.8.8.3.8.8.8.8.8.8.8.8.0.8.8.8.8.8.8.0.0.9.g.g.g.g.g.g.g.8.8.3.8.8.8.8.8.8.8.8.8.8.8.8.8.8.8.8.8.<.<.6.6.w.p.s.s.x k 4 4 < + $ $ 9 s k q.f.L.&X&X&XA.S.S.B.N.Z.Z.S.Z.Z.Z.S.V.V.K.<X=X(.^.] T Y Y ` O.O.O. X|._ _ _ #.} ] ] ] v s.s.s.7.s.s.s.s.s.s.s.OXs.s.7.7.h.h.h.h.h.h.f.h.h.p.p.h.g.x.x.h.x.9.x.x.x.x.h.h.h.h.h.h.f.0.g.g.f.d.f.f.d.d.d.f.d.p.p.p.p.p.p.d.h.h.h.h.h.h.h.h.h.h.z.z.z.x.z.x.x.h.f.g.g.g.g.g.g.d.d.f.j.f.8.<.<.<.",
"/./././.^.^.(.`.'.].rX].'.eXrXfXfXrXrXrXrXrXeXrXfXyXrXrXrXrXyXrXrXrXeXeXeXeXeXeXeXeXeX).).'.).).`.).).).).).).`.~.{ { @.@.@.@.+.+.+.+.+.[ [ [ { { ' ] v s.s.6.6.6.6.7..X7.b l k p $ g } dXgXgXcXBXgXBXBXVXBXBXZXBXhXdX).{ T f u & > $ 4 a h.&X<X&X&X&XK.x.z.z.<.8 8 8 8 a k 2 2 ) '.fXhXkXkXBXBXBXVXCXCXCXbXfX].^.W.!.Q.Q.*X*X*X*Xs.*X*X*X*X*X*X*X#.} #.#.@.#.+.[ +.+.+.+.+.+.[ [ [ [ +.+.+.+.+.+.+.+.+.+._ ~ ^ ^ ~ ^ ^ ~ [ _ _ ~ ^ ^ ^ ^ ~ ^ ^ ^ ~ ^ ^ _ _ _ _ ^ ~ ~ T U g g g g g h f f 0 = = - C C M V C Z C V C w V C V V > V V M N N D P I I : > > > M : > * @ # j z ] !./.p.f.f.8.8.<.<.8.8.8.8.8.8.8.8.8.8.8.3.3.3.8.9.8.8.8.4.4.3.4.8.8.g.g.g.g.x.g.4.4.3.3.8.g.8.8.6.f.d.d.d.d.d.d.d.d.f.8.8.6.6.6.6.w.q.e.v k p 3 < < 4 3 4 q l w.K.&X&X&XS.A.Z.Z.Z.Z.Z.Z.Z.Z.Z.Z.Z.S.S.D.V.&X&X=X(.a.z / T Y ` ` ` ` |.+.[ #.} } } ] ] v s.s.s.s.s.s.s.OXs.h.s.s.s.s.s.s.h.h.h.h.h.h.h.h.h.h.p.x.h.h.h.h.x.x.9.x.x.h.h.h.x.x.h.x.x.0.f.g.f.f.f.d.d.p.p.f.f.p.p.p.p.p.d.d.h.h.h.h.h.h.h.h.h.h.h.h.x.x.x.<Xx.x.g.f.g.g.g.g.d.f.f.d.d.8.<.<.<.<.",
"^.^.^.^./.(.].'.'.fXfXrXfXeXrXrXrXrXrXrX].rX].rXrXrXrXrXrXfXrXrXrXeXeXeXeXeXeXeXeXtX'.tX).`.).).).).).).`.).)._.W.{ { @.@.@.@.@.@.+.+.+.[ [ [ { { } ] v s.7.7.6.6.6.6.7.n 7.v s p u ' -XhXhXgXjXBXBXBXBXBXBXBXvXhXsX`.+.T u ; * @ . o 4 7.K.&X&XS.&XS.K.g.K.<Xd.1.8 a a a l q s ] `.fXhXgXkXBXBXBXBXCXCXbXbX2X*XW.!.!.^.Q.*X*X*X*X*X*X*X*X*X*X-X-X-X~.#.#.#.#.@.@.+.+.+.+.+.+.( [ [ +.+.+.+.+._ ~ ~ ~ _ [ _ ~ ^ ^ ^ ^ ^ ~ [ [ [ _ ^ ^ ^ _ _ _ ~ ^ ^ ^ ^ ^ ^ ^ _ +.~ ~ ~ U g g g g g k k q q 1 1 1 9 e = = 9 C 9 9 e 9 9 9 1 9 C M V > ; N M : > V M > * > M M = = = 0 z ' ] s.a.w.d.g.g.g.f.8.8.8.8.8.8.8.8.8.8.8.8.8.8.g.g.g.g.g.g.g.g.g.8.g.g.g.g.g.g.g.8.8.8.8.g.g.g.8.8.3.8.8.8.8.d.d.d.8.8.8.8.8.6.7.6.w.p.q.z k 8 < < < < 3 8 8 a 3.g.D.&X&X&X&XA.Z.Z.Z.Z.Z.Z.Z.Z.Z.Z.Z.Z.A.Z.N.V.V.L.(.k.e.] ' h Y ` ` ` +.+.#.#.} } ] ] v v v v s.s.OXs.s.s.s.s.s.s.7.OXs.h.h.h.p.p.h.h.h.h.h.h.h.h.h.h.h.9.@Xx.x.x.9.x.h.h.@X9.x.x.x.x.h.h.h.g.h.h.d.p.p.d.f.d.f.d.f.d.h.h.h.h.h.z.z.x.h.h.h.x.x.x.9.x.&X<X<XL.x.g.g.g.g.h.h.h.d.f.f.6.<.<.<.<.",
"T.T./.^.`.`.].].'.fXdXrXrXrXrXrXrXrXrXrXrXyX].].rXrXrXrXrXrXrXrXeXeXeXeXeXeXeXtXtX).).`.).).).).~.@.@.).tX).).).{ { { { @.@.{ +.@.@.+.+.+.[ [ { { ] ] s.h.s.OX.X.X7.6.n n s.b s j z -XsXsXdXgXcXBXBXBXBXjXjXhXsX_.+.( P u - * * * O + $ a g.L.&X&XV.C.K.g.L.<X#Xd.<.p.p.q.q.a k ) _.:XdXgXkXBXBXBXBXVXVXbXvX>X`.!.!.~.^.!.*X*X*X*X*X*X*X*X*X*X*X*X*XQ.} } } { @.@.@.+.+.+.+.+.[ [ [ _ _ [ [ ^ ^ ~ ~ ~ ^ ^ _ ~ ~ ^ ~ ^ _ _ [ [ _ ^ ^ ^ ^ [ [ _ ~ ^ ^ ^ ^ ^ +.+.+.^ ~ Y w = 0 0 q k c x r.r.x c k r q e 9 < 9 e 9 9 r r e e 9 e e w : , * w : > > > M ; , , > : > = - q l x s.a.a.d.g.g.f.8.8.8.8.8.8.8.8.6.<.<.3.<.8.8.8.8.l.g.g.g.f.0.f.g.g.g.g.8.8.8.8.8.8.8.f.g.g.8.8.8.8.8.8.8.8.8.8.8.8.3.<.<.8.6.<.6.6.w.6.q.4 8 < < 3 3 3 y 8 1.1.0.L.&X&X4XA.Z.Z.&XZ.Z.m.N.Z.Z.Z.Z.Z.Z.Z.Z.B.B.N.V.V.K.(.(.^.W.) h f f Y _ +.|.|.} } } Q.v v x s.s.s.s.s.s.7.s.h.s.s.s.s.p.h.h.h.p.p.h.h.h.d.h.h.h.h.h.h.h.h.h.h.x.x.h.0.0.h.x.x.@Xx.x.x.x.x.x.x.h.f.f.f.p.f.f.d.h.h.h.h.h.h.h.h.x.x.x.h.h.h.h.@Xx.x.x.x.@Xx.@Xx.h.g.g.g.g.h.h.h.j.8.8.6.<.1.1.<.",
"T.Y.T.`.`.`.`.].'.fXfXeXeXrXrXrXrXrXeX].].].].yXrXfXrXrXrXeXrXrXeXeXeXeXrXeXeXtXtX).).).).).).).@.{ @._.).).[.{ { { { { { [ [ +.@.+.+.+.@.+.[ } { { W.s.s.s.s..X.X.X6.7.7.7.a s h #.-XsXsXfXjXBXBXBXcXjXgXhXsX{ T P d d 0 : C : - + + < 1.0.L.&X&XV.K.g.l.L.(.(.z.l.l.l.u.w.q.c z ~.-XdXgXjXBXBXBXBXVXVXbXnXfX=X^.W.^.Q.!.!.*X*X*X*X*X*X*X*X*X*X*X~.} } } } { +.[ +.+.+.+.+.+.[ [ [ [ _ _ ^ ^ ^ ^ ^ ~ ~ ~ ^ ~ ^ ~ ~ ^ _ _ ^ _ ~ ^ ^ ^ ^ [ [ _ ^ ^ _ _ ^ ^ _  .^ I : : = = 1 q k z W.T././.a.Y.a.r.:.c t 5 e 5 q k r.r.r.t ) c k q e 9 # 9 w : M N > V > > > > * = # 9 q k c l e.f.8.8.f.8.8.8.0.8.8.8.8.6.<.6.6.3.8.8.f.g.0.0.0.0.0.0.0.8.8.8.8.8.8.8.8.8.8.0.h.h.f.8.8.8.8.8.8.8.8.8.6.6.6.6.<.<.8.8.6.6.p.6.<.a 2 < 2 3 3 y 8 8 a y.C.S.&X&X&XA.Z.Z.&X&XZ.m.m.m.B.Z.Z.Z.Z.Z.Z.Z.Z.A.B.V.V.L.L.{.(.(.W.z j j j h ' |.*X-X*X~.Q.v ) ] s.v v s.s.s.s.s.s.s.OXs.p.p.p.h.h.p.h.h.h.6.7.h.x.h.h.h.h.h.h.h.h.x.x.x.0.h.h.9.x.K.9.x.9.x.9.x.@Xx.x.x.f.f.f.f.h.h.h.h.h.h.h.h.h.h.x.x.h.h.h.x.9.9.x.h.0.g.f.g.x.g.g.g.g.h.h.h.h.8.8.8.<.<.<.<.<.",
"Y.Y.^.).`.`.`.].eXdXrXrXeXrXrXyXrXrXrXrX].yXrXyXrXrXrXrX'.rXeXeXeXeXeXeXeXeXtXtX).`.'.`.).).).).@.{ { _.).).} { { { { { [ [ ( +.#.+.+.$.#.+.{ { { ) { W.s.s.s.7.7.7..X.X7.a p j ' _.|.sXsXkXBXBXBXcXgXhXhXsX@.f - - - j f P ~ U $ $ + 3 q.g.L.L.&XL.g.g.z.z.(.{.(.<X/.l.l.l.a.l ) ^.dXsXgXkXjXjXBXbXVXVXbXnX>X`.Q.W.^.Q.!.!.(.*X*X*X*X*X*X*X*X*X*X*X~.} ~.} { [ [ +.+.+.[ ^ _ [ _ [ ^ ~ ^ ~ ~ ^ ^ ~ ^ ^ ^ ~ ^ ~ ~ ~ ~ _ _ ^ ~ ~ ^ ^ ^ _ [ +.[ ~ _ _ _ Q Q I : : * * * = 9 e z x e././././.z./.l.k.w.u.r.a :.:.q.p.p.k./.a./.a.s.r.c k 4 + 9 = M , V > C C V , , , + 1 4 q a a q.f.8.8.8.8.8.0.0.8.8.8.6.6.6.6.6.8.8.8.g.0.9.9.9.0.0.8.8.8.8.8.8.8.8.0.8.8.8.0.h.h.f.8.8.8.8.8.8.8.6.8.<.6.6.6.<.8.8.8.6.6.<.<.a a < < 3 5 8 8 &.1.(.L.P.S.&XA.Z.Z.Z.Z.A.&XZ.Z.Z.B.m.B.Z.Z.Z.Z.&X&XZ.Z.A.S.V.L.L.{.(.(.(.x q $ $ f h ' ~.-X*X~.W.] ] v v v v s.s.s.s.s.s.s.s.s.a.p.p.p.h.h.h.h.p.7.6.6.f.h.8.h.h.h.h.h.h.x.@Xh.@X@X@Xx.@Xx.x.9.x.x.x.x.9.9.x.h.h.d.d.d.f.h.h.h.h.h.h.h.h.h.h.h.h.h.h.h.x.@Xx.h.8.8.8.f.g.x.g.g.h.h.h.h.h.8.8.8.8.3.6.<.8.",
") ) ).).).).).eXrXfXrXeXeXeXrXfXrXeXrXrX].].rX].].rXrXrX;X'.fXrXeXeXeXeXeXeXeXtX'.`.`.'.`.).).).@.{ o.@._.#.{ { @.[ { { [ [ @.+.@.+.@.$.#.#.[ @.{ { } ] Q.s.s.7.7.7..XOXn p $ j ' { #.sXlXjXjXBXgXgXgXhXsX@.T - @ * - f U U T / s < < 4 7.K.L.C.L.b.g.g.z.x.(.(.(.{.l.l.l.z.k.p.a.*X;XfXhXkXjXjXjXvXVXbXxXnX;X_.W.W.~.~.W.W.*X*X*X=X=X*X*X*X*X*X*X*X*X~._._.#.#.+.+.+.+.[ ^ ~ _ _ _ ~ ^ ~ ^ ~ ~ ~ ^ ~ ^ ~ ^ ~ ^ ~ ~ ~ ~ [ ( ( ^ ^ ~ ~ ~ ^ +._ _ [ +.^ I D ; * , O O # 1 e c e.T./.j.f.f.l.g.K.l.g.g.f.f.y.w.6.f.f.f.f.h.f.z.x.f.w.p.w.1.5 < 3 9 9 # > C C : > , , O # 2 4 3 8 1.8.8.8.8.8.f.9.0.9.8.8.0.8.6.6.6.6.8.0.0.0.9.0.0.0.8.8.3.8.8.8.8.8.8.0.0.0.0.0.f.h.8.8.<.6.8.6.3.8.6.<.<.6.6.6.6.f.6.3.<.6.1.a 4 < < < 3 7 8 8 5.4.&X&XP.A.A.Z.Z.Z.Z.Z.Z.Z.Z.Z.Z.B.Z.Z.Z.Z.Z.Z.&XZ.Z.Z.Z.A.V.V.L.L.(.(.(.W.s $ $ 0 j f z { ~.{ ] ] ] ) v Y.s.s.r.s.OX7.s.7.s.s.7.p.p.p.p.h.p.h.p.p.6.7.s.h.0.h.h.h.8.h.h.h.h.@X@Xx.h.x.@Xx.@X@Xx.@XC.x.x.x.x.h.h.f.f.h.p.h.h.h.h.h.h.h.h.h.h.h.h.h.h.x.9.x.h.h.8.8.f.g.g.g.x.h.h.h.0.f.8.8.6.p.d.3.8.0.g.",
"( ( ).).).).).tXfXfXeXeXeXeXrXfXfXeXeX].rX].].].yX].rX'.'.].].eXeX'.].eX'.'.[.[.).).).).`.).{ o.{ ( ( / ( { { { { [ [ [ [ +.@.@.+.#.+.@.@.+.[ @.#.@.} } Q.s.s.s.s.s.s.s.n p $ $ h ' [ -XhXgXBXgXdXdXdXsX{ j @ @ # - j g h h h / z 4 + 4 p.@X&XK.L.x.x.x.l.l.(.(.{.{.x.j.h.f.l.z.z.].;X>XfXdXkXkXjXjXBXCXvXnX;X^.W.Q.Q.Q.W.Q.*X*X*X=X=X*X*X*X*X*X*X*X*X*X#._._.#.@.+.+.[ [ [ _ _ ^ _ ^ ^ ^ ^ ~ ^ ^ ~ ^ ~ ~ ^ ^ ^ ^ ^ ^ ( ( ( ( ( ( ^ ^ ~ ^ ^ ^ ^ _ T I : * , . O + + 3 3 r c u./.l.g.g.g.K.L.L.K.M.x.g.g.g.g.g.g.f.0.8.8.g.x.K.K.g.g.g.g.y.:.a 7 3 2 9 e C C M > , = = 9 9 e 5 8 d.h.h.6.8.8.8.8.9.0.0.8.8.8.8.8.<.6.6.8.0.0.0.4.8.8.6.3.8.8.8.8.8.3.8.6.8.h.0.8.8.8.<.<.8.8.<.<.<.8.8.8.6.6.<.3.6.<.<.<.<.a a < + < y 8 7 6 -.b.P.Z.&X&XZ.Z.Z.Z.Z.Z.Z.Z.Z.Z.Z.Z.Z.Z.Z.Z.Z.A.A.Z.Z.Z.Z.Z.Z.B.A.P.P.K.{.].^.( w = = - = = e g / ) ) ) ) ) W.W.s.s.s.s.q.p.p.s.s.s.q.p.p.<.<.p.p.h.p.6.7.a.#Xh.h.f.p.p.h.h.h.h.#Xx.h.x.x.x.@X@Xx.C.C.L.x.x.x.x.h.9.h.h.9.x.x.9.h.h.h.h.h.h.h.h.h.h.h.h.0.9.h.h.h.8.8.f.g.g.h.h.h.h.8.8.0.8.8.8.f.y.<.3.z.{.",
"( ( o.@.).).).tXdXeXtXtXeXeXeXrXrXrXrX].yX].yX].].].].'.'.].tX].'.'.'.'.'.'.eXeX'.tX).'.`.@.{ ( ( / / / / / / [ { [ [ +.+.+.+.+.+.+.+.+.+.[ [ [ +.{ } ] Q.W.s.s.s.v n a p $ $ $ h h ' #.-XsXdXfXdXsX_.[ f $ O @ $ - f / / h / ' ) s < 8 p.@XL.L.&Xx.x.x.z.z.(.(.{.{.{.(.z.l.g.l.l.<X;X:X:XsXlXhXjXgXgXBXvXvXfX^.W.^.^.!.Q.~.~.*X*X*X*X*X*X*X*X*X*X*X-X*X-X_._.#.#.+.+.+.+.[ [ [ _  ._ ^ ~ ^ ^ ^ ~ ^ ~ ^ ^ ~ ^ ^ ^ ^ ^ ( ^ ~ ^ ( ( ^ ^ ^ [ [ ^ ~ I : * @ X O O + + < 5 t :.e.u.l.g.C.C.C.C.C.V.M.M.C.C.K.g.g.4.4.4.b.C.C.C.g.L.C.C.K.L.K.L.l.j.w.t 5 < 9 C C C C : = = # 1 3 3 1.p.h.d.1.1.6.6.6.8.0.8.8.6.3.8.8.<.6.8.8.8.8.8.8.8.8.8.8.8.<.<.8.8.8.8.8.8.8.8.8.8.8.8.8.<.<.8.8.8.8.8.<.6.8.8.8.8.8.<.p.a p 4 3 3 3 y y ,.*.4.V.Z.Z.&X&X&XZ.Z.Z.Z.Z.Z.Z.Z.Z.Z.Z.Z.Z.Z.Z.Z.Z.Z.Z.Z.Z.Z.Z.Z.Z.A.D.P.{.{.{.].T.w = , , O O = = f / { ~.T.~.).W.] r.q.q.s.s.s.q.q.q.q.q.q.p.p.p.p.h.h.h.d.h.h.h.h.h.h.x.h.h.h.z.#X#X@X&X&X<X@X@X@Xx.x.x.@X9.x.9.x.@Xx.x.x.x.x.@Xx.h.h.h.h.x.x.h.h.h.h.0.9.0.9.h.h.h.h.h.h.g.x.h.h.h.h.x.x.g.g.g.f.8.8.f.z.<X",
"^ ( ( +.@.@.).tXtXtX).tXtXeXeXeXrXrXrXrX].].].].].'.'.].].'.rX].rX-X'.'.'.eXeX[.).).).).).) / / / / / T T T / ( [ [ +.+.+.+.+.+.+.+.+.+.+.[ [ [ { @.{ { ] ] v s.s.q.a 4 $ $ $ p h T [ { { _.sXsXdX_.( f = @ @ $ @ - T { ' / h z v k 4 a 6.@X&XL.L.L.g.z.z.z.z.(.{.{.{.{.(.z.f.y.x.(.=X(.`.`.sXhXhXgXgXgXvXvXfX:XQ.^.~.~.Q.!.*X*X*X*X*X*X*X*X*X*X*X*X-X*X~.#.#.#.#.+.+.+.+.+.+.+.+.+.+.O.O.^ ^ ^ ^ ~ ^ ~ ~ ~ ~ ~ ~ ^ ~ ^ ^ ^ ( ( ( ^ ^ ( +.+.~ d : O . . O O O < < 8 r.r.u.j.l.L.K.K.K.L.V.V.V.C.M.C.C.K.C.0.C.C.9.K.C.C.C.C.K.C.C.K.L.K.L.L.L./.u.:.r 1 9 = e w w - = # + 1 1 4 a p.p.<.<.<.<.<.<.0.8.8.8.8.8.0.8.8.8.8.8.8.8.8.8.8.8.8.8.3.<.6.8.8.8.8.8.8.8.8.8.8.8.8.<.<.8.8.8.8.8.<.<.8.8.d.d.w.1.a p < < < 3 3 5 y *.4.M.S.Z.&X&X%X&XZ.Z.Z.Z.Z.Z.Z.Z.Z.Z.Z.Z.Z.Z.Z.Z.Z.Z.Z.Z.Z.Z.Z.Z.Z.S.P.P.I.{.(.(.[.w : = = * O O + 9 g / ~.Y._.Y.~.^.W.s.l l l q.q.s.a.p.q.q.q.p.p.p.p.h.p.d.h.h.p.h.z.x.h.h.h.h.#X#X@X@X<X&X&X@X@Xx.x.x.x.x.x.x.x.x.@X@X9.x.@X@X@X@Xx.h.h.9.x.@X@Xh.@X@X9.0.9.6.#Xh.h.x.9.x.g.g.g.h.x.f.x.x.x.x.z.g.f.f.h.@X<X",
"^ ^ ^ ( o.@.).).tX).).tXtXeXeXeXrXrXfXrX].yXyX].].'.].'.'.].'.-X'.'.'.'.'.'.'.'.'.).).).~.) / / / / / T Y / / [ [ +.+.@.+.+.+.+.+.+.+.+.+.[ +.#.#.{ { } { ] ] ] ] v p 2 $ $ $ u T T [ ' [ _.sX-X-X{ f * @ @ = - = f T { } ' h z ' p 4 8 1.x.<XK.L.L.L.x.z.(.@X(.z.(.(.z.(.x.f.y.j.z.=X^.^.^._.dXgXhXfXdXhXgX>X*X~.~.~.~.Q.~.~.*X*X*X*X*X*X*X*X*X*X*X-X-X_.#.#.#.#.+.+.+.+.#.+.+.+.+.+.O._ _ ^ ^ ~ ^ ~ ^ ~ ~ ~ ~ ^ ~ ^ ~ ~ ^ ^ ^ ^ ^ +.[ _ ~ P : * . O + , + < 3 a r.u.K.{.K.L.L.L.P.D.V.V.V.V.V.V.C.9.M.C.C.C.C.C.M.M.K.C.b.C.b.b.b.K.C.C.K.L.L.l.j.e.c 3 + + = = = = + # + < 3 a <.p.d.f.d.d.<.<.<.6.8.8.8.8.0.0.h.0.0.8.8.8.8.8.8.8.8.0.8.8.8.8.8.8.8.0.g.0.8.8.8.8.8.8.6.8.8.8.8.8.3.8.8.8.d.w.a.q.8 < < < 4 4 4 5 1.4.K.D.S.Z.&X&X&X&XZ.Z.Z.Z.Z.Z.Z.Z.Z.Z.&XZ.Z.Z.Z.Z.Z.Z.Z.Z.Z.Z.N.Z.Z.A.D.P.P.L.(.].{ q e w w w = # # = = e q g / ) ) ^.^.!.v l l x s.a.a.p.s.p.p.q.q.p.p.p.p.p.p.d.p.p.h.z.z.z.z.x.@Xx.@X@X@X#X@Xx.x.9.x.x.x.9.x.x.9.@X@X@Xx.x.@X@X@X@Xx.h.h.#X@X@X@X@X@X#XXX9.9.0.h.h.h.h.g.x.x.g.f.f.g.g.g.g.x.z.z.l.j.l.(.<X<X",
" . .^ ~ ^ +.#.$.@.[.).tXeXfXeXeXrXfXrXrXyX].].].fX].].].'.rXeX'.'.'.eX'.'.eXeXeXeX`.).).@.) / / / [ / T T T / [ [ [ +.@.@.+.+.+.+.+.$.@.+.@.+.+.+.@.} @.{ { } } ] z j 4 $ - j h T T T h T _._.#.( g = O @ @ = - - j ' _.~.' g T / z 4 8 q.x.<XL.I.L.L.l.(.(.z.(.<Xz.(.=X(.l.g.l.l.z.(.z.Q.) { -X>XhXhXhXfXdX:X`.~.~.~.~.~.~.~.*X*X*X*X*X*X*X=X*X*X-X-X_.#.#.#.#.$.+.+.@.#.#.@.+.+.+.+._ +.O.^ ^ ^ ~ ~ ^ _ ~ ~ ~ ~ ^ ~ ^ ^ ^ ^ ^ ^ +.+.O.~ D : * O O + 1 1 < 9 k w.y.K.L.L.L.L.L.V.D.V.V.V.V.V.V.V.V.V.V.V.C.V.V.V.C.4.M.m.V.V.V.V.V.C.b.C.K.V.K.K.{.(./.r.5 2 < 1 + + O + + + 4 a w.q.p.w.8.<.3.3.<.3.8.3.6.<.6.6.0.0.9.0.0.8.8.8.6.8.3.8.8.8.8.3.6.<.6.x.g.0.8.8.0.8.8.8.0.8.8.6.8.8.8.8.8.8.d.e.T.a 4 + + < 4 4 5 a 3.Z.&X&X&X&X&X%X&X&XZ.Z.Z.Z.Z.Z.Z.Z.Z.Z.B.Z.Z.B.Z.Z.Z.Z.Z.Z.Z.N.Z.Z.A.S.S.D.L.L.(.(.Y.q 9 0 w w 9 9 9 = # , + = 9 q z ] ^.^.^.v r.q.s.r.w.q.s.a.p.w.q.w.p.p.p.p.p.f.h.k.f.h.z.z.z.x.@Xx.9.x.x.h.@Xx.9.x.x.@X@X@Xx.x.x.x.@X@Xx.x.h.h.x.@X9.@X#X@X#X@X@X@X#XXX@Xh.0.h.h.h.h.h.h.g.x.g.l.g.g.x.l.l.l.l.l.l.l.l.(.<X<X",
" . . .^ ^ O.$.$.@.o.o.).tXrXrXrXrXeXrXrXrX;XrXrXrX].yX].'.].].'.'.'.'.'.'.'.eXeX'.'.).).{ { / / / ( / / T / / [ [ [ +.@.@.+.+.+.+.@.$.@.#.+.+.+.+.{ +.#.{ } @.} / s 0 j u $ u j T f - j w ( { / w = O O @ @ = - - s ' -X_./ h h / z k p 1.h.&X{.&XL.L.L.z.(.#X(.(.z.(.=X!.a.l.z.z.z.(./.v s z } -XdXhXhX-X:X`.~.).~.~.^.~.!.*X-X-X-X*X^.*X*X=X:X*X-X-X-X_.#.#.#.$.+.@.@.+.@.+.[ +.[ _ O.O._ ~ ~ ~ ^ ^ ~ ^ ~ ^ ~ ^ ~ ^ ~ ^ _ ~ ~ ^ O.+.O.E : * O O + # 1 < e k e.l.K.K.K.K.K.C.K.V.S.S.S.V.V.V.D.V.V.V.V.V.V.V.N.V.V.m.M.M.B.N.V.V.V.V.C.C.V.C.C.C.L.L.K.l.Y.c r 4 + + O + # $ 4 l q.p.6.<.<.<.3.3.3.3.3.3.1.1.<.7.6.8.0.8.0.9.9.0.6.0.0.0.0.8.6.<.1.1.p.f.8.0.8.0.g.f.0.8.8.8.8.8.8.8.8.8.8.f.p.e.c a 3 < < < < 5 8 5.M.A.&X&X&X&X&X&X&X&XZ.Z.Z.Z.Z.Z.Z.Z.Z.Z.B.B.Z.B.B.Z.Z.Z.Z.Z.Z.B.Z.Z.A.S.S.D.L.L.{.(.Y.e < 9 w C e w w w 9 1 + + # # e q x s.Y.W.~.^.W.W.r.r.r.s.e.a.q.q.p.a.p.p.p.k.(.z.f.d.g.z.z.z.x.x.h.h.0.0.h.x.@X@Xx.C.@X@X@X@Xx.x.@X9.x.x.0.h.h.9.x.@X@X@X#X@Xx.XXXXoX@X@Xh.h.h.h.h.h.g.g.l.l.g.z.g.l.l.l.l.l.l.l.l.l.(.<X<X",
" .O. . . .O.$.$.o.o.{ [.`.eXrXeXeXrXrXrX].].rX].].].yX].:X].tX'.'.'.tX'.'.[.eXeX`.`.).).).{ ( / ( / / / / ( / ( [ [ +.@.+.+.@.+.+.$.#.@.@.+.[ [ [ [ [ @.{ { #.{ / 0 0 j - # $ - - - @ $ 4 g p 0 9 @ O O @ @ = - = j { _._./ h z z ) l a q.h.&X&X<XI.L.x.z.z.(.(.(.(.(.=Xa.a.k.z.z.z.(.a.k 4 q g { -XhXdX-X} } ~.`._.~.[.~.`.~.-X-X-X*X].-X*X:X:X*X-X-X-X-X_.#.#.#.@.@.@.+.[ +.[ [ [ _ _ ^ ~ ~ ^ ~ ^ ~ ^ ~ ^ ~ ^ ~ ^ ~ ~ ^ [ _ ^  . ._ W M > * , O # 2 3 3 t e.K.l.K.K.K.C.4.C.D.V.D.S.S.S.S.V.D.V.V.N.V.V.V.N.B.B.m.m.m.m.m.N.N.V.N.V.m.D.m.V.n.C.b.K.K.K.l./.r.k 3 + + + + 4 4 k l w.<.<.<.<.<.<.3.8.<.<.6.<.1.6.6.6.8.8.8.8.9.9.9.9.9.9.9.9.8.8.<.<.3.8.8.8.8.0.g.0.0.8.8.8.8.8.8.8.8.8.f.d.w.r.q < < < < < y %.3.n.S.A.Z.&X&X&XZ.Z.Z.Z.Z.Z.Z.Z.Z.Z.Z.Z.Z.Z.B.B.B.B.B.B.A.Z.Z.Z.Z.Z.Z.Z.Z.S.S.L.L.L.{./.r.3 2 9 e e e e w w 9 9 = # # # # 1 e q k ) W.T.^.!.Y.Y.r.s.Y.Y.e.q.a.a.a.p.p.j.=Xz.z.j.l.z.z.x.x.x.h.0.0.0.x.x.@X@Xx.x.9.@X@X9.x.x.K.x.@X@Xx.9.x.x.@X@X#X@X@X#Xh.9.XXXX@X@Xh.h.h.h.h.g.h.g.g.l.x.z.l./.K.l.l.x.l.z.z.l.{.<X1X",
" .O.O.+. .o.$.$.o.( ( $.`.'.eXeX'.].rXrX].rX].].rX].].rXeX'.'.'.'.'.'.'.'.eX[.).).).).~.{ { { ( ( ( ( ( ' ( ( ( [ [ [ +.+.#.$.$.+.+.@.+.+.+.[ [ [ [ +.[ [ { #.[ / g 0 - - = - = $ $ $ $ $ 4 4 4 4 # # @ @ @ = - - j ' -X_.' z z z ] v l 1.h.<X&X&XP.I.x.z.z.(.(.!.z.(.(.!.z.k.z.z.l.j.w.8 3 2 2 g _.dX:X_./ ) W.`.`.~.Q.~.~.`.-X-X-X`.`.*X*X:X-X-X-X-X-X_._._.@.@.@.@.+.[ [ [ [ ^ ^ ^ ~ ~ ~ ^ ~ ^ ~ ^ ~ ^ ~ ^ ~ ^ ~ ~ ~ ~ ( o. . . .~ R : * * = 9 1 3 5 8 r.l.{.L.C.C.C.K.C.C.V.V.D.S.S.S.S.S.V.V.m.m.N.N.N.B.B.B.B.m.M.m.m.m.B.B.m.m.m.m.m.m.m.C.C.C.C.K.l.l.k.w.l 8 3 + + + < p l q.1.q.<.6.6.6.8.8.6.8.8.8.6.6.<.3.8.8.8.6.9.0.0.0.0.0.0.9.9.8.8.0.8.8.8.8.8.8.0.0.9.8.8.f.4.8.8.8.8.8.8.3.1.4 3 + < < < 8 *.*.C.S.S.A.Z.Z.&X&XZ.Z.Z.Z.Z.Z.Z.Z.Z.Z.Z.Z.B.B.B.B.B.B.B.B.A.Z.Z.Z.Z.Z.Z.Z.Z.A.S.D.L.L.{.u.t 5 < + 9 e e 9 9 9 = = = 9 9 # # # # 1 1 e k x s.^.T.W.Y.r.e.Y.e.r.e.a.a.a.a.k././.k.l.l.z.x.x.h.g.x.x.x.x.x.x.9.@X@Xx.x.@X@X@Xx.9.x.x.@X@X@X9.9.x.9.XX@X@X#Xx.0.9.9.0.#X@X#Xh.h.h.h.h.z.z.z.(.(.{.(.(.(.(.{.{.(.{.(.(.<X<X1X",
"..J qXO. .+.$.+.@.o.o.o.`.`.'.'.'.'.].rX].rX].rXrX].rXdXrX].'.].'.'.'.eX'.eX'.'.).`.).).{ { { { [ ( ( ( [ [ [ [ [ [ [ [ +.$.$.$.+.@.+.+.+.+.+.[ +.@.@.[ [ @.{ { / h g - # - - $ $ $ $ $ 4 4 4 4 4 $ $ + $ $ $ - - j ' _.~.] z z z } ] l l k.&X<XI.I.I.x.(.z.(.(.(.(.(.(.*X(.z.k.l.(.k.1.8 3 # @ 0 / -X`.{ h / W.~.`.~.{ W.`.:X-X-X-X`.`.`.`.-X:X-X-X-X-X_._._.$.+.$.@.[ [ [ ~ ~ ~ ~ ~ ~ ^ ~ ~ ^ ^ ~ ^ ~ ~ ^ ~ ^ ~ ^ ~ ~ +.( +.+.( ~ E I : = = 9 2 3 5 5 :.u.K.{.L.C.b.K.D.m.C.D.S.S.S.S.S.S.A.B.m.m.m.m.B.B.B.B.B.B.B.B.Z.B.B.B.B.B.m.B.Z.B.B.m.M.M.C.b.C.g.g.l.j.k.e.a 4 2 + $ p a n a a 6.6.7.h.7.7.7.6.8.8.0.8.<.8.8.8.8.8.8.8.8.8.0.0.8.9.9.9.9.8.8.8.8.<.8.8.6.8.8.8.8.3.8.8.f.y.f.8.<.<.a 4 2 < < 3 6 r.i.3.K.S.A.Z.Z.Z.Z.Z.Z.Z.Z.Z.Z.Z.Z.Z.Z.Z.Z.Z.Z.B.B.N.N.N.N.N.Z.N.N.N.Z.Z.Z.Z.Z.Z.A.D.I.&XL.u.:.7 3 < 9 e e 9 9 9 9 9 O , 9 9 w 9 # # 1 # 1 5 r x ) Y.Y.Y.Y.Y.r.r.r.e.s.r.Y.e.e.a.k.d.k.l.l.g.x.g.g.x.x.x.h.@Xx.x.9.9.x.@X@Xx.x.@X@X@X@X@X@X@X@X@Xx.9.9.@Xx.9.9.9.9.9.h.#X#Xh.h.h.h.x.z.z.z.{.{.l.(.{.(.{.{.{.{.z.(.z.(.<X1X",
"O.O.J O.O. .O.+.o.o.o.o.[.eX'.eXeXrXeXeXrXzXrXrX].rX].rX].-X'.'.'.eX).)._.).).).).`.).^.{ { ) / ( ( ( ( ( ( ( [ [ [ +.@.@.@.@.+.+.$.@.@.+.+.#.#.+.[ [ #.[ [ ' ' T h 0 0 - - - $ $ $ $ 4 3 4 4 3 4 4 4 $ + + $ $ 0 j / Q.} ] b ' ' ' ] v q.w.f.&XL.&XL.L.L.z.z.(.z.(.(.!.!.s.a.d.(.z.a.l 4 4 4 4 9 f ' @.{ f q / _.`.[.} #.`.-X`.*X`.`.-X:X:X:X-X-X-X-X-X-X#.@.+.+.@.#.#.@.+.[ ( [ +._ ^ ~ ^ ^ ~ ~ ^ ~ ^ ~ ~ ^ ~ ^ _ +.+.[ ^ ( ^ ^ P : > - = = e 3 3 8 r.l.K.K.G.L.K.K.C.C.n.D.D.S.S.S.A.A.N.Z.B.B.m.Z.Z.Z.Z.B.Z.Z.Z.Z.Z.Z.Z.B.B.B.B.Z.Z.Z.B.B.B.m.m.m.m.C.b.K.L.K.g.l.z.a.1.4 4 4 p a a a a a 7.s.s.s.h.f.p.d.g.z.z.h.f.d.8.8.8.8.g.g.0.x.h.9.8.0.9.9.0.8.8.8.3.0.9.0.8.8.8.p.6.8.g.d.f.8.1.*.4 4 3 < < 5 :.g.K.K.C.S.A.Z.&X&XZ.Z.Z.Z.Z.Z.Z.Z.Z.Z.Z.Z.Z.Z.B.B.B.B.Z.Z.m.m.N.Z.Z.Z.Z.Z.Z.Z.S.Z.S.S.K.L.L.{.d.c r < + < e e 9 9 e w = + 1 1 9 w 9 9 # 1 1 1 1 9 3 r x Y.T.Y.Y.Y.Y.v e.e.e.e.e.e.a.k.z.(.(.z.l.g.g.g.h.x.x.9.x.x.9.9.x.@X9.x.x.x.@X@X@X@X@X@X@Xx.x.XXXX@Xx.x.9.9.9.9.h.8.h.#Xh.h.h.x.x.z.z.z.(.l.l.L.{.{.{.z.(.l.l.(.{.<X1X",
"O.O.J O.O. .+.+.o.o.o.).).'.eXeXeXeXrXrXrXyX].].].rXeX].'.].'.].'.`.).`.).`.`.).).).).).{ { { { { { [ [ [ [ [ +.[ [ [ +.+.+.+.+.+.$.@.@.+.+.@.+.+.[ [ [ [ _ ' ' h j j 0 - 0 0 $ 4 4 4 4 4 4 4 p p p 4 $ + @ - j 0 j h ] } ] v ' ' z ' s.s.p.x.L.L.I.L.L.K.x.+X(.+X(.(.(.*X(.z.(.z.(.a.q.4 4 q 4 4 j h / U 0 w h { _.{ ).`.`.`.`.`.`.].-X:X:X:X-X-X-X-X-X_._.$.+.+.+.@.@.+.[ ( ^ ^ ^ ^ ^ ^ ~ ^ ~ ^ ~ ~ ~ ^ ~ ^ ^ ~ [ +.+.( [ ( ^ U I w : 0 9 9 9 < 3 :.u.K.L.K.K.L.K.H.C.C.D.D.m.S.S.S.A.B.B.A.B.B.B.B.B.B.B.B.B.Z.Z.Z.B.B.Z.Z.Z.Z.Z.B.Z.B.B.B.m.m.m.m.m.m.b.C.C.K.g.x.l.z.f.p.1.a a 8 4 3 p p p p n l q.s.p.p.f.f.j.d.p.f.f.8.8.8.8.8.8.0.0.9.9.9.9.0.0.8.8.8.8.0.9.9.8.8.8.8.8.f.f.f.d.<.1.8 3 4 q 8 5 a y.g.L.P.S.A.Z.Z.Z.A.Z.Z.Z.Z.Z.Z.Z.Z.Z.Z.Z.Z.Z.Z.B.B.B.B.Z.N.N.N.N.Z.Z.Z.Z.Z.Z.Z.A.S.A.S.V.L.L.K.l.r.6 y + < e e 9 < , = = , + = 0 w 9 9 9 9 9 9 9 < 1 9 e q c x e.Y.Y.Y.Y.Y.r.r.e.q.Y.k.(.{.(.z.l.l.g.g.g.h.h.x.x.x.x.x.x.x.K.9.x.@X@X@X@X@X@X@X@X9.@XXXXXXX@Xx.x.9.h.XX0.h.#X#Xh.h.h.x.z.z.x.z.(.(.(.(.{.{.(.=XL.(.{.(.<X<X1X",
"..J O.O.O. .O.$.$.@.@.).'.eXeXeXeXeXrX].].rX].rXrXrXfXeX].eXrX].'.).`.).).`.`.).).).).).~.{ { { { { { [ +.+.+.+.[ [ [ [ +.+.+.+.+.@.@.+.+.[ +.+.[ [ [ [ [ ' ' ' ' h j 0 j j j 4 p 4 4 4 a a n b n l p 4 $ $ $ 4 - j h ' } } z z z z v s.s.s.x.L.<XL.L.L.x.z.z.(.(.(.z.!.^.!.!.!.z.^.a.q.p 8 s p $ # 0 - 9 0 0 g ) ~.~.Y._.`.`.*X*X`.^.-X-X=X-X-X-X-X-X~._.$.$.+.#.+.+.+.[ _ ^ ^ ^ ^ ^ ^ ~ ^ ~ ^ ^ ^ ~ ~ ~ ( ^ ^ ^ ( ( ( ( ( T U f w w w 9 9 9 3 < 5 e.l.L.K.K.L.L.L.K.H.H.C.C.D.S.S.S.A.Z.B.Z.B.B.B.B.B.Z.B.B.B.Z.Z.Z.B.B.B.Z.Z.Z.B.B.B.B.B.M.m.m.m.m.m.m.m.M.C.C.b.0.0.g.x.h.f.6.1.a 4 < 4 4 4 4 4 4 k l l q.<.<.1.1.w.p.p.p.3.8.8.8.8.0.9.9.8.8.0.0.0.8.8.8.8.8.0.8.<.6.8.8.f.f.f.j.p.n 8 < < < 2 a 1.1.3.K.P.D.S.A.Z.Z.Z.Z.Z.Z.Z.Z.Z.Z.Z.Z.Z.Z.Z.Z.Z.Z.Z.B.B.Z.Z.Z.Z.m.Z.N.B.Z.Z.Z.Z.Z.Z.A.A.S.V.K.L.K.l.u.r.y < < e e 9 < , + = + O O = = = = w 9 9 9 9 9 1 3 e e r r c r.) Y.T.Y.Y.Y.Y.s.r.e.l.(.z.{.(.l.l.g.h.h.9.x.9.h.h.9.x.@X@X@X@X@X@X@X@X@X@X@Xx.x.9.XXXX@Xx.9.9.9.h.#X#Xh.#X#Xh.h.h.x.z.z.{.{.z.L.{.{.(.(.z.(.(.(.(.(.=X:X;X",
"O.J O.O.O.O.o.$.o.$.).).'.eXeXeXeXeXeX].].rX;XrXfXrXrX'.;X'.].'.'.`.`.).).`.`.).).).).).).{ { { { @.@.o.+.+.+.@.[ [ [ +.[ +.+.+.+.+.@.+.+.[ +.[ [ [ [ [ ' ' ' ' z h h j j 4 j p p p a p 1.<.h.a.z.b l 4 $ $ $ $ 0 0 j z ] ] ' z z z b } !.z.h.g.<XL.L.L.L.z.z.(.(.(.z.(.a.!.(.!.!.(.s.s.x c c q + + + # # 0 0 g ) W.~.~.`.-X~.`.`.`.^.-X-X:X-X-X-X-X-X~.`._.$.$.#.+.+.[ [ _ ~ ~ ^ ^ ^ ^ ~ ~ ^ ~ ~ ^ ~ ^ ~ ^ ^ ~ ^ ( ( ( ( ~ U w 9 0 e 9 9 2 < 3 8 r.H.K.K.C.P.I.K.L.L.K.H.C.D.V.S.S.S.Z.Z.Z.Z.B.B.B.B.Z.Z.Z.B.A.Z.Z.Z.B.B.B.B.Z.Z.B.B.B.m.B.M.B.B.B.B.B.m.B.m.M.C.b.4.M.b.g.9.g.g.f.q.a 4 2 4 4 1 + # 2 3 q 8 a a 8 a 1.1.p.p.p.8.8.8.8.9.9.9.8.0.0.0.0.8.0.8.8.8.6.3.<.6.f.f.f.f.k.p.e.a 8 4 < < 4 a 1.1.4.V.D.S.S.A.Z.Z.Z.Z.Z.Z.Z.Z.Z.Z.Z.Z.Z.Z.B.B.B.Z.Z.B.B.Z.Z.Z.Z.N.S.Z.m.Z.Z.Z.Z.Z.m.Z.A.S.V.V.K.L.L.l.e.r 9 < e 9 9 9 < # # O @ + @ = = = w 9 9 9 9 9 9 e e e e q r k k c r.Y.T.T.T.Y.r.e.e././.(.(.x.l.l.x.x.x.z.x.x.x.x.x.@X@X@X@X@X@X@X@X@X@XK.9.x.@XXXXX9.x.9.9.9.9.XX#X@XXX#Xh.h.h.x.x.z.{.{.(.<X<X<X(.<X(.=X=X(.;X:X=X;X:X",
"O.qXqXO.O.o.o.+.o.o.).'.eXeXeXeXrXrXrXrXrXrXrXrXrX].rXrX'.`.eX-X'.].`.`.`.`.`.).).).).).)._.{ { @.@.@.@.+.+.@.@.+.+.+.+.+.+.+.+.+.+.+.+.+.+.+.[ [ [ [ [ ' ' ' ' z z z h $ 4 p p p p a n e.h.h.#X#Xh.b 4 $ $ $ p 0 0 j z ] } ' z ' z v ] Q.s.q.f.g.L.L.L.L.(.h.=Xz.(.(.z.z.(.z.=X*X^.!.Q.a.) x s + + + # # 0 0 s / { [.} ~.^.~.`.`.].`.`.-X:X:X-X-X-X-X_._.#.$.$.$.+.[ [ _ ~ ^ ^ ^ ~ ^ ^ ~ ~ ~ ^ ^ ~ ^ ~ ^ ~ ^ ~ ( ( ( ( ^ U w 9 9 9 9 9 3 5 3 5 r.g.K.L.C.K.L.I.L.L.K.L.C.D.C.D.S.S.S.A.Z.Z.Z.B.B.B.B.B.Z.Z.Z.Z.Z.Z.A.Z.B.m.B.B.B.B.B.B.m.M.M.B.B.B.B.B.N.N.m.m.M.C.m.4.b.4.C.g.C.x.g.8.1.p 4 < $ # # 1 2 3 2 2 5 8 8 a a q.a.d.d.f.8.8.h.h.9.8.9.9.9.8.8.9.8.8.8.<.<.<.8.f.p.p.j.a.q.a 8 2 < 3 3 a a <.3.m.S.A.S.A.Z.Z.Z.Z.Z.Z.Z.Z.Z.Z.Z.Z.Z.Z.B.B.B.Z.B.B.B.B.Z.B.Z.Z.Z.Z.A.Z.Z.Z.Z.Z.Z.Z.Z.A.S.V.V.L.L.L.L.i.:.e < < < 9 9 , # @ @ @ * @ O * > 9 = = = 9 9 9 e e e 9 e e q 9 q h z Y.Y.^.Y.r.s.Y.a./.z.l.(.l.l.l.z.z.z.z.x.x.x.@X@X@X@Xx.9.@X@Xx.x.9.x.x.x.@X@XXXx.x.h.0.9.9.XX@X@X@X#Xx.h.h.x.x.z.z.(.{.<X<X<X<X<X=X<X=X1X;X:X:X;X;X",
"O.0XqXqX . .o. .o.).).).'.eXeXeXrXrXrXrXrXfXrXrXrX].rXfX].eXeX].rX`.].`.`.(.).).~.[.[.)._.).[.@.@.@.@.@.@.@.@.@.@.+.@.+.+.+.+.@.@.+.+.@.@.+.+.[ [ [ } #.[ ' ' h z z z z j p p a n s.e.a.z.#X#X@X#Xz.7.p $ $ $ 0 0 0 j h ' } ] / ' z ' ] ] l a <.K.L.L.L.L.#X#Xz.(.=X(.z.k.(.z.!.!.^.!.^.^.).] z 2 + # @ = 0 j z ' _.~.~.~.^.*X~.`.`.`.-X-X:X:X:X-X-X-X-X-X$.$.+.#.+.+._ _ ^ ^ ^ ~ ^ ^ ^ ~ ^ ~ ~ ^ _ ~ ^ ^ ~ ^ ^ ^ ( ( ( W U q q e 3 3 2 3 5 8 1.j.{.L.L.C.K.K.L.I.L.L.V.V.V.V.S.S.S.Z.Z.Z.Z.Z.B.B.B.B.B.Z.Z.Z.Z.N.A.V.V.S.m.m.m.B.B.B.B.m.m.m.m.m.B.B.B.B.B.B.B.B.V.m.M.M.M.M.4.4.C.L.K.z.q.l 3 q 2 2 # # 1 < < < 4 p a a q.a.f.f.f.8.8.8.8.0.9.0.0.8.8.8.<.8.8.8.6.<.6.8.8.w.q.a.a.k 4 4 < < 3 8 a 1.3.4.V.S.S.Z.Z.Z.Z.Z.Z.Z.Z.Z.Z.Z.&XA.Z.Z.Z.B.B.B.B.B.B.B.B.B.B.B.N.V.S.S.S.A.Z.Z.Z.Z.Z.Z.Z.B.V.V.L.L.K.L.l.r.r y < < 9 # = = # # # @ O O O * = = # + , = 1 1 9 = 1 9 9 9 1 9 0 s c c Y.Y.Y.T.^./.k.k.k.(./.l.l./.z.z.z.z.x.x.@Xx.@Xx.x.@Xx.g.x.x.@X9.@X@X@X@Xh.9.x.x.h.9.0.8.XX@X@X@X9.h.h.h.f.l.z.z.(.<X1X<X=X:X1X1X1X1X;X].;X;X:X",
"qXqXqXqXqX .o.o.$.tX).).eXeXeXeXyXyXrXrXrXfXfXfXrX'.'.fXrXeXdX'.].].'.].`.`._.).).W.~._.W.~.~._.@.@.@.$.$.$.$.#.@.+.+.+.+.+.+.+.+.+.@.@.@.+.[ [ [ [ +.@.} { ' ' z z h l s s k v a.^.(.(.=X#X#X#X#X#Xs.p $ $ $ 0 0 0 j h ] } ] / / ' ' ] s.b a w.<X<XL.L.L.@Xz.z.L.(.(.z.a.(.(.!./.^.~.~.~.W.] z q $ # O O 9 f h ] ~.~.~.~.`.`.^.`.*X`.].-X-X:X:X-X-X-X|.#.$.$.$.+.+.[ [ _ ^ ^  . . . ._ ~ ~ ~ ^ ^ ^ ^ ~ ^ ^ ^ ^ W ^ T W U w q q e 3 3 < 3 5 r.l.l.L.L.L.K.b.C.C.K.K.D.V.V.S.S.S.S.Z.Z.Z.Z.Z.Z.B.B.B.B.Z.Z.Z.N.N.V.N.B.B.Z.m.C.C.m.B.B.B.B.m.m.B.B.B.B.m.B.B.B.N.V.V.V.m.m.b.M.M.M.M.C.K.K.g.g.w.l 4 2 1 $ + + + + 4 s a a q.a.k.d.d.w.<.1.<.0.0.0.0.0.8.8.1.6.6.8.8.8.8.8.1.1.q.a.x 5 + o < < 4 a a 1.4.m.N.S.S.Z.Z.Z.Z.Z.Z.Z.Z.Z.Z.&X&X&XZ.Z.Z.B.B.B.B.B.B.B.B.B.B.N.N.m.V.S.S.S.Z.Z.Z.Z.Z.Z.Z.B.V.V.V.L.L.L.l./.t 3 < < 1 + = # # # # # @ + O = , # # # O + + # # # 1 # 1 9 1 2 1 2 9 9 q z Y.T.^.^./.a.p.k.l.j.j.l.z.z.z.z.(.x.K.x.9.@XK.9.x.x.9.x.x.K.x.x.9.@Xh.@X@Xh.h.h.0.h.9.9.XXx.@Xx.h.x.h.x.l.x.l.(.=X].(.=X;X1X;X;X;X:X:X].`.",
"qXqXqXqXo.o.o.o.$.tXtXtXeXeXeXrXyXyXrXrXrXrXfXfXfXeX'.:XeX`.rX].rX].'.].`.`.`.`.).^.[.~.Y._.).#.@.@.@.$.$.#.$.$.@.+.+.+.+.+.+.+.+.+.+.+.+.+.[ [ [ [ [ { { { ' / z z z x x x s.s.!.=Xz.=Xz.z.8.8.h.h.s.p + + + 4 - 0 g h [ { { ' z / ' ' ] s.q.j.<X&XL.K.K.#Xz.z.{.(.(.(.l.l.(.!.!.~.~.~.W.W.{ ) g 0 # @ o # f h ] ~._._._.`.~._.`.-X*X`.*X-X-X-X-X-X-X_.#.$.$.@.+.+.[ [ _ ^  . . . .^ ^ ^ ~ ~ ~  .^ ( ^ ^ ^ ^ W U W W U w e 9 9 3 3 3 3 7 1.l.(.l.K.K.L.K.C.C.C.V.D.C.n.V.S.S.S.Z.Z.Z.Z.Z.Z.Z.m.m.B.B.B.B.B.N.V.V.N.m.m.V.N.m.M.M.M.B.B.B.m.B.B.B.B.m.m.m.B.N.N.N.V.V.V.m.M.C.C.S.m.M.b.M.C.K.h.p.a p 4 < < + + O + 4 4 8 a 1.a.p.6.<.1.1.<.g.9.0.9.0.8.8.<.6.6.6.6.8.f.<.<.a a l a < + + + 4 4 a a <.4.P.P.A.A.&XZ.Z.Z.Z.Z.Z.Z.Z.Z.Z.Z.Z.Z.Z.Z.B.B.B.B.B.B.B.B.B.B.B.B.B.m.B.S.S.A.Z.Z.A.Z.Z.B.Z.m.V.V.K.L.L.(./.:.5 < < + # # # # # # @ @ @ @ = = = = # O # # = = # # + # 9 1 9 9 9 # # 1 e k c W.T./.(.a././.j.j.j.l.z.{.(.x.x.h.x.x.K.x.h.0.9.x.x.x.x.x.x.x.x.@X@X@X@X#X0.0.h.0.9.9.h.h.#Xh.x.x.x.x.(.(.].(.(.(.].;X;X;X;X:X`.^.^.T.",
"qXqXqX0XO.X.o.o.$.tXtXtXeXeXrXrXyXyXyXyXrXeXrXfXfXrX].eX'.'.-XeX].].-X`.`.`.`.`.).W.[.~.~.)._._.@.{ @.@.@.#.@.@.$.#.+.+.+.+.+.+.+.+.+.+.+.+.[ [ [ [ [ ' [ { } { ] ] ] v ] W.Q.!.=X=X(.!.z.#Xh.h.h.z.a.a $ + + # $ 0 g U ' ] { ' z ' ' ' ] s.q.a.(.<X<XL.L.K.h.z.z.(.=X#Xz.j.z.(.(.!.~.~.~.{ { { / j = = O - f / } ~.-X-X`.`.`.`.-X-X-X`.`.-X-X-X-X-X-X-X#.$.@.+._ +.[ ^ ^ ^ ^ O. . .~ ~ ^ ^ ^  .+.[ [ [ ( ( ( ( W U U f w e e 2 3 3 8 :.e./.L.L.K.K.C.K.b.C.C.V.V.m.m.m.N.N.N.Z.Z.Z.Z.Z.Z.Z.B.m.m.B.Z.Z.Z.Z.V.V.S.V.N.m.N.N.V.N.M.M.m.B.B.B.N.N.B.B.m.m.m.B.B.B.N.N.B.V.V.V.m.m.m.m.m.m.M.M.M.0.0.h.<.a 4 4 + + o $ + + < p a q.p.p.1.<.f.h.x.g.4.8.8.8.8.8.6.6.1.<.<.p.1.a a 4 4 < + + + + e t 1.1.3.K.&X&XA.Z.&XZ.Z.Z.Z.Z.Z.Z.Z.Z.Z.Z.Z.Z.Z.Z.B.Z.Z.Z.B.B.Z.B.B.B.B.B.B.m.B.N.S.S.A.Z.Z.Z.A.A.m.m.m.V.D.L.L.K.j.r.5 3 < + # = = # # # @ @ @ = = = = = # # # # # # # + # # 9 9 9 0 0 0 0 2 2 2 3 q r.].;X:X/././.a.j.j.k.z.(.(.x.z.z.x.@Xx.h.h.0.h.9.9.9.@Xx.9.@X@X@X@X#Xh.h.h.h.0.h.9.9.9.x.x.x.9.M.x.#X=X=Xz.(./.].1X;X;X].`.`.[.^.T.",
"8XqXqXqXO.X.X.$.qXtXtXtXeXeXrXyXyXrXrXzXrXrXrXrXeXeX'.'.].'.].`.`.`.`.].].`.`.*X`.^.~.)._.~.~.@.@.@.@.@.@.#.#.#.+.+.+.+.+.+.+.+.[ +.+.+.+.#.@.[ [ _ [ [ [ [ } } ' ' ' ] ] v ] W.!.(.(.z.(.(.(.z.!.(.p.a 3 + # # - - j h T ] { { / v ] ] s.W.q.<.z.<X&X&XL.L.&XK.x.z.#X(.z.l.z.!.!.(.^.~.[.{ { ] / h d 0 = $ 0 / } _.-X`.-X-X:X:X-X].~.`.].:X:X_._.-X-X_.).#.@.+.+.+.+.+._ ^ T ~ ^ ^ ~ ^ ^ ^ ^ ^ ^ ( ( ( ^ ( ( W U U w w e e 5 5 3 3 8 u.(.L.K.g.K.K.K.C.D.C.K.D.V.S.B.B.N.N.N.B.Z.B.Z.Z.B.m.B.B.m.B.Z.B.N.N.S.S.S.V.V.V.m.C.V.V.B.N.m.M.M.B.N.N.B.B.B.B.m.B.B.B.B.B.B.B.B.N.m.B.m.m.m.B.m.B.M.9.M.9.0.8.<.a 4 < 4 < + + + < p a l q.w.f.h.f.f.0.8.8.8.8.8.6.6.<.<.1.p.k.q.a 4 $ 2 $ o + + 2 a 1.<.3.C.D.A.Z.Z.Z.&XZ.Z.Z.Z.Z.Z.Z.Z.Z.Z.Z.Z.N.Z.A.B.B.B.B.B.B.B.B.B.m.m.m.B.Z.A.N.N.S.S.Z.Z.Z.A.A.Z.Z.A.S.P.K.K.L.l.r.8 3 < < # = = O @ # # @ # # # + = # 1 # # # # 1 1 1 1 # = 1 1 1 1 2 1 # # < 1 2 q x ^.`.].(.(.^.e.a./.(.;X(.(.{.(.z.z.h.h.h.h.x.h.0.h.h.h.x.x.@Xx.@X#X8.7.0.h.h.0.h.h.9.x.9.@Xx.x.h.z.(.{.=X(.(.(.].1X].`.[.[.[.[.[.",
"8X8XqXqXqXqX .$.tXtXtXeXrXrXyXyXyXrXrXzXfXrXrXrXeXeX].'.`.].].`.`.`.`.'.'.`.`.`.`.`.`._._.).@.@.@.@.@.@.@.@.#.#.+.+.+.+.+.+.+.+.+.+.[ [ +.+.+.[ ~ [ [ [ ' [ [ _ ' ' ' ] ] ' v !.=X(.(.(.(.`.(.(.(.z.a.a 3 < # $ - - j j h { { { ' v ] v ] ] s.1.h.=X<XL.L.<X&XL.x.x.x.z.@Xz.z.(.(.^.^.~.~.~.~.) ) / f f f 0 g ' ~._.~._.`.*X`.-X-X`.~.`.-X:X:X_.`.`.`._._.#.@.[ [ +.[ +.^ ^ Q ^ _ ^ ^ ^ ^ ^ ~ ^ ( ( [ ( ^ ( ( T g C e w e 3 5 5 5 6 r.l.L.K.K.K.C.K.V.D.C.V.m.V.V.N.N.B.N.B.N.B.B.N.N.N.B.m.B.B.B.B.B.Z.A.A.S.S.D.V.V.V.m.D.V.V.V.N.M.M.m.B.N.N.B.B.B.B.B.B.m.m.B.B.B.B.B.B.m.m.B.B.B.B.B.N.N.B.V.9.9.x.0.6.<.a a a 4 < < < 3 4 q l p.j.h.p.f.8.6.8.8.8.6.6.6.w.<.1.e.Y.r.4 $ + $ + + + < 3 a 1.3.C.S.S.Z.Z.Z.Z.Z.Z.Z.Z.Z.Z.Z.Z.Z.Z.Z.Z.Z.Z.Z.Z.B.B.B.B.B.B.B.B.B.B.B.B.B.Z.Z.Z.N.A.S.Z.Z.Z.Z.Z.Z.A.S.S.D.D.K.L.l.w.8 < < 1 1 # # O # # # # # # # + # 1 1 1 1 # + 1 1 1 1 # < 1 2 1 1 1 1 1 # 1 1 1 2 9 r x T.T.(.].[.^.^.(.=X].(.(.=X(.(.z.x.h.h.x.x.@X@Xh.@Xh.x.h.0.XX@X#Xh.9.0.h.6.0.h.x.x.x.x.x.9.x.x.=X=X=X=X(.(.(.].].[.[.[.[.[.[.",
"8X8X8XqXqXqXO.+.o.tXtXrXzXyXyXyXyXyXzXfXfXrXrXrXrXeXeX].].`.`.-X`.).`.`.'.).`.`.`.`.`._._._._.@.@.@.@.@.@.@.#.#.+.+.+.+.+.+.+.+.+.[ [ [ [ +.[ [ _ [ [ ' ' ' [ ' ' ' ' } ' ' } Q.*X=X=X(.(.`.(.].(./.p.l 4 + + $ - u j h h { { [ ' v ' v W.Q.x l 6.<X<X&XK.L.&XL.K.z.x.#X@Xz.z.z.!.^.^.^.~.~.~.~.{ ' / / h / ) Q.~._._._.`.~.-X-X-X`.`.].`.-X:X-X`._.)._._.@.+.[ [ ^ ( _ ^ ^ ^ ^ ^ ^ ^ ^ ~ ^ ~ ~ _ [ ( ( ^ ( W U w e e e 3 5 5 7 &.y./.{.L.b.b.C.C.V.V.C.D.C.D.V.B.B.B.N.m.B.B.B.B.B.B.B.B.B.B.B.N.N.Z.S.S.S.S.S.V.V.V.V.C.V.V.V.N.m.m.M.m.B.B.B.B.m.B.m.B.B.B.B.B.B.B.B.B.B.Z.Z.B.B.B.B.B.B.B.B.m.C.M.L.K.g.g.f.3.<.1.a 4 < < < < 8 q.d.d.w.8.8.8.8.8.8.8.h.d.p.q.1.t c 8 4 + O . O + o + 8 1.3.4.Z.S.&XZ.&XZ.Z.Z.Z.Z.Z.Z.Z.Z.Z.Z.Z.Z.Z.Z.B.Z.Z.Z.B.B.B.N.N.V.B.B.B.N.V.N.N.B.N.Z.S.S.S.A.Z.Z.Z.Z.A.S.S.D.m.D.L.K.u.t 3 < 3 9 1 9 @ # = # # # 1 1 # 1 1 1 < 1 1 = 1 1 < < < < 2 1 1 1 1 2 2 2 3 2 3 2 2 3 3 r Y.Y.`.`.^.~.^.).(.].].=X(.=X=Xz.z.h.x.@X@X@X@X#X@Xh.h.9.XXXX#X@Xh.0.0.0.0.8.h.h.h.h.h.h.x.x.#X=X<X{././.(.`.(.[.[.[.[.[.[.",
"8X8X8XJ ..qXO.o. .tXeXrXDXzXyXyXyXzXzXzXfXrXrXyXrXeX:XtX`.`.`.(.).`.`.(.^.`.`.`.`.~.)._._._._._.@.#.@.@.@.@.@.@.@.+.+.+.+.+.+.+.+.+.+._ _ [ [ [ [ [ ' / / T / ' ' ' ' } ' ' ] ] `.=X=X`.(.(.(.*X#Xz.a.l 8 # # = - - j j h / { { ' ' ] ] ] s.s.l w.=X<XL.L.L.K.L.L.K.x.#X#Xz.(.(.z.(.(.^.^.`.~.~.~.} { { ] ] ~.~._.`._.-X`.].`.`.-X~.*X`.-X-X-X-X-X-X`._.@.@.+.[ ( ^ ~ ~ ^ ^ ^ ^ ^ ~ ~ ^ ^ ~ ^ ~ [ +.o.^ ( ( U w e e e e 5 5 y %.i./.{.{.K.K.4.C.D.V.V.V.C.D.m.V.N.B.Z.B.B.B.B.B.B.B.B.B.B.B.B.B.Z.A.S.S.S.S.V.V.C.D.n.V.D.D.V.V.B.m.m.m.m.B.B.B.m.m.m.m.m.B.B.B.B.B.B.B.B.B.Z.Z.B.B.B.B.B.B.B.B.m.V.C.M.V.L.K.x.g.8.d.w.a 8 3 3 3 5 1.<.w.<.6.f.f.8.8.8.h.h.k.p.<.a 5 3 $ $ @ O O O + + < 8 1.8.M.&X&X&XZ.&X&XZ.Z.Z.Z.Z.Z.Z.Z.Z.Z.Z.Z.Z.Z.Z.Z.Z.Z.B.B.B.N.N.N.B.B.B.N.V.V.N.B.S.S.S.S.S.S.Z.Z.Z.Z.Z.Z.S.V.V.K.K.L.(.r.5 3 3 9 9 9 # O O @ # # 1 9 1 1 1 1 9 < 1 1 1 9 1 < < < < 1 1 2 1 3 3 3 3 5 5 5 3 3 3 3 e r ) Y.W.Y.).[.~.~.].:X:X=X=X=X(.z.x.h.x.x.@X@X@X#Xh.9.9.XX@X@Xx.6.8.0.9.h.h.h.h.f.f.f.h.h.x.z.=X=Xz././.T.T.T.Y.Y.[.[.[.",
"qX8X8XqXO.O.qXqXqXtXeXyXyXyXyXrXyXyXzXzXzXrXrXrXeXeX'.].`.].`.`.:X`.`.'.`.`.).`._._.W.#.~._._._.)._.@.@.@.@.@.#.$.+.+.+.+.+.+.+.+.+.[ _ ^ [ [ [ [ [ [ [ ' T T ' ' ' [ } { ' ] Q.^.*X:X(.(.].`.(.(.(.(.k.c 1 + # @ - : j h / ) { ' ' ' ] ] W.W.q.w.=X<X&XL.L.L.L.L.L.L.x.z.z.z.(.=X(.^.`.(.`.`.].`._._._.~.~.~.~.^.`._.-X-X-X*X`.-X-X-X`.-X-X-X-X-X-X).`.@.@.+.[ [ [ ( ( ^ ^ ^ ( ^ Y Y ~ ~ ~ ~ ~ +.[ ^ W ( / U q e 3 3 5 5 8 &.i.l.{.{.K.g.g.C.D.V.V.C.D.C.D.C.N.N.Z.Z.Z.B.B.B.B.B.B.B.B.B.B.B.B.N.S.A.N.N.N.V.V.D.C.D.C.C.D.V.V.N.B.m.M.m.B.B.m.m.m.m.B.B.B.B.B.B.B.B.B.B.B.Z.&XZ.S.B.B.B.B.B.B.B.m.M.M.M.C.L.K.9.x.z.z.l.d.w.<.*.1.1.1.<.1.1.3.0.f.8.6.1.z.a.p.<.1.8 < + + + O O + + < y 1.8.M.A.%X&X&XZ.Z.Z.Z.Z.Z.Z.Z.Z.Z.Z.Z.Z.Z.Z.Z.Z.Z.Z.Z.Z.B.B.B.N.N.B.B.B.B.B.N.V.N.N.A.S.S.S.S.S.m.Z.Z.Z.Z.Z.S.V.S.K.L.L.(.r.6 5 e 3 1 9 # + # + + # 1 1 2 1 1 1 1 1 1 < 1 < 9 1 1 1 1 1 1 2 < < y y y 5 7 t t r t 3 < 3 3 q z ) W.W.[.~.`.`.:X:X=X=X=X=Xz.z.x.h.h.@X@X#X@X9.0.9.@X@X@Xh.h.9.h.@Xh.h.h.8.8.f.f.h.x.z.z.z./.j./.T.Y.T.T.Y.Y.[.[.",
"8X8X8X8XqX0XqXqXtXtXeXyXyXyXyXyXyXyXrXfXfXfXrXrXeX].;X'.].].].`.`.`.`.).`.^.~._.~.Y.~.[._._._._._._.).#.#.#.@.@.$.$.@.+.+.+.+.+.[ +.[ [ [ [ [ +.+.[ [ +.[ [ ( T Y / { { @.] ] ~.~._.`.`.`.(.(.(.(.(.(./.c 9 + # @ - - 0 g h / { { ' ' ' ] ] W.r.q.z.=XL.K.L.K.L.L.&X@Xz.z.z.z.z.z.(.(.(.(.`.`.`.`.`.`._._.} [.~.!.`.-X-X:X:X`.`.:X-X-X-X`.`.:XdX-XsX`._._.@.[ +.+.( ( ^ ^ ^ ( ( ^ T ~ ~ ~ ~ ~  . .O.^ W ( ( q e 3 5 5 7 6 r.u.i.L.{.K.b.C.K.K.D.D.V.D.m.m.m.m.N.B.Z.Z.Z.Z.Z.Z.B.B.B.m.m.B.B.B.B.B.V.V.N.N.N.V.V.V.V.V.V.D.C.V.V.V.B.B.B.B.B.m.m.m.m.m.B.B.B.B.B.B.m.m.B.B.B.B.B.A.A.Z.Z.B.B.B.B.B.V.N.V.V.V.C.C.V.M.K.K.K.K.K.K.g.0.g.3.1.8 1.6.8.8.8.1.a q.q.<.q.a a 4 $ O O . . + + 4 1.8.XX&X&X&X&XZ.Z.Z.Z.Z.Z.Z.Z.Z.Z.Z.Z.Z.Z.Z.Z.Z.Z.Z.Z.Z.Z.N.B.B.B.B.B.B.m.m.B.B.N.N.V.S.S.S.S.S.S.S.A.Z.Z.Z.Z.S.V.C.K.K.K.{.:.6 y e e 1 9 # + + + + 1 9 9 1 1 1 1 1 1 1 1 1 1 2 3 3 3 3 3 3 3 3 3 y 7 y y 7 %.:.:.:.%.y 3 < < 1 e g T ) { @._.`.-X:X:X:X=X=X(.z.h.h.h.#X#X@X@X@X6..X@X@X@Xh.h.#X0.9.h.h.h.f.f.f.h.x.l.z.z.z.j././.Y.T.Y.Y.T.T.[.",
"J 8X8XqXqXqX0XqXtXtXtXeXyXyXyXyXyXyXrXfXfXfXfXrX].`.-X].eX].`.`.].`.`.).~.).~.T.{ Y.).W._._._.)._.).#.#.#.#.@.@.@.$.+.+.+.+.+.+.[ +.[ [ [ [ [ #.#.+.+.#.[ [ [ ^ ~ T ' [ { { ] { ~.[.~.`.`.^.^.(.z.z.=X(.x 3 # # # $ - u j h { { { ' ' z x } Q.r.q.(.@X@XI.L.L.L.L.L.&X<Xx.z.z.z.k.^.(.(.(.(.].`.`.`.`.*X`.*X`.`.`.-X:X:X:X`.].:X:X:X:X-X`.`.-X-X-X`.).$.#.@.[ ( [ ( ^ ^ ^ ~ ( [ [ ^ ~ ^  .O. . .^ ^ W W W z r 5 5 8 %.r.w.i.K.L.L.L.K.K.K.D.V.C.C.V.V.N.N.N.N.N.B.Z.B.B.B.B.B.B.B.B.B.B.B.m.m.B.m.B.N.V.V.V.V.S.S.D.I.I.P.S.A.S.V.S.A.B.m.m.m.m.m.B.B.B.B.Z.B.B.B.m.B.B.B.B.B.B.N.A.B.Z.B.B.Z.Z.B.S.A.S.V.V.C.D.V.V.C.C.K.C.C.K.M.C.L.x.8.5.1.3.0.0.f.<.a a a a a k k p # O .   o + 4 1.<.9.M.&X&X4X&XZ.Z.Z.Z.Z.Z.Z.Z.Z.Z.Z.Z.Z.Z.Z.Z.Z.Z.Z.Z.Z.Z.Z.B.B.m.B.B.B.N.m.m.m.N.N.V.S.S.S.S.S.S.S.Z.Z.Z.Z.Z.S.S.D.K.K.C.l.r.7 5 5 2 1 1 # # + + # 1 1 9 9 1 1 1 1 1 1 3 3 2 2 3 3 3 3 3 3 3 3 3 5 y 7 y ,.*.=.*.1.=.:.6 5 5 < < 9 w W ( ( )._.).`.].].(.:X=X=Xz.h.h.h.@X@X#X#Xh.7.h.@X@X@X@Xh.6.9.h.h.h.h.h.g.x.x.z.z.z.z.k././.T.T.Y.Y.T.Y.T.",
"J 8X8X8X8XqXqXqXqXqXqXeXeXfXrXfXyXzXzXfXfXfXfX'.].rX'.eX].`.`.`.`.`.`.).).).).).).)._._._._._.~.#._.#.#.#.@.@.@.@.+.+.+.+.+.+.+.[ [ +._ [ [ [ #.#.@.} #.} [ [ ^ T T T ( ' [ { { { ~.~.`.`.(.(./.z.z.=X!.r.4 2 # # - u j j h z ] ' ' ' / / ] Q.v l d.#XL.L.L.L.L.L.L.z.z.z.z.x.z.(.(.(.(.].].`.`.`.`.`.`.`.`.]._.^.:X:X:X`.].:X:X:X:X:X:X-X-X-X-X`.).)._.#.@.o.o.+.^ ( ^ ( ( ( +.[ ( ^ ^  .+.o.^ ~ ~ W U w s r 5 t :.i.y.K.K.L.K.K.K.K.P.I.V.n.D.V.D.V.N.N.N.N.Z.B.B.B.B.B.B.B.B.B.B.B.B.B.B.m.m.m.m.V.V.L.V.V.S.V.D.P.I.P.S.V.V.S.S.A.Z.Z.Z.B.B.B.B.B.B.B.Z.Z.B.m.m.m.B.B.B.m.m.B.B.B.B.B.B.B.B.B.Z.Z.N.N.m.m.m.m.V.V.C.C.V.M.C.C.C.C.C.M.9.0.0.0.9.9.0.1.a a 8 8 4 p 4 @ O . o + < a <.8.M.Z.%X&XZ.%X&X&XZ.Z.Z.Z.Z.Z.Z.Z.Z.Z.Z.Z.Z.Z.N.B.B.Z.Z.Z.B.B.B.B.B.B.B.m.m.m.m.m.N.V.S.S.S.S.S.S.S.Z.Z.Z.Z.Z.S.S.D.C.D.4.3.*.7 5 5 3 2 # # # = # 1 1 1 9 e 9 3 2 1 2 3 3 3 2 2 3 3 3 3 3 3 3 3 5 5 8 5 8 %.=.=.,.,.=.*.:.&.7 3 3 3 e e U ^ ( [ @.).`.`.:X:X:X=X=X(.(.h.h.h.#Xh.h.0.h.h.@X@X@Xh.9.9.h.h.h.h.h.h.x.z.z.L.l./.k././.T.Y.Y.T.Y.T.Y.",
"8XJ uXuXpXqXqX0XqXqXqXtXlXlXlXfXfXzXzXfXfXfXfXrX'.eX`.].].`.`.*X`.`.`.).).).`.).).).).)._._.).{ @.#.#.#.#.#.$.@.+.+.+.+.+.+.[ +.[ [ +.#.+.{ [ #.@.[ [ { [ [ [ T T T T T T ( { { { ~.~.`.`.(.(.z.z.z.<X(.s.k 4 # $ - u 4 0 j h ) ' ' ' ' ' ] ~.v a a.z.@XL.L.L.L.L.x.x.x.z.x.z.(.(.(.(.`.(.`.`.(.].^.(.].^.].`.`.^.].:X:X:X;X:X:X:X:X:X:X:X-X-X-X`.).)._._.@.@.@.+.( ( +.( ( ( o.[ ( ^  .+.+.o.^ W W U U e q r 6 :.:.i.K.{.I.L.n.n.C.P.D.D.K.V.m.N.A.V.N.B.B.N.B.B.B.Z.B.&XZ.Z.B.B.B.B.B.B.B.N.N.N.N.N.V.V.V.V.V.V.D.I.D.D.S.&XV.V.V.N.Z.A.S.Z.B.Z.B.B.B.B.B.Z.Z.B.B.B.B.B.B.m.m.m.M.m.m.B.B.B.B.B.B.B.B.N.N.Z.S.N.m.N.V.V.V.V.M.V.C.C.C.C.V.V.m.9.C.C.0.<.8 a 8 4 + + + + . + o + 3 <.9.&XoXB.&XZ.Z.&X&XZ.Z.Z.Z.Z.Z.Z.Z.Z.Z.Z.Z.Z.Z.N.N.B.B.Z.Z.Z.Z.B.B.N.V.V.N.B.m.m.m.N.S.D.V.S.m.S.S.S.S.S.A.Z.Z.Z.S.S.S.C.G.K.5.*.%.7 y 5 9 + + + = # 1 1 1 9 9 e e 3 < 3 3 3 3 1 3 3 3 3 3 3 3 3 5 y 5 5 7 7 6 ,.6 ,.,.&.,.=.&.%.%.6 6 5 9 9 w q C o.).`.`.-X-X:X^.=X=X(.(.h.x.z.#X#Xh.h.h.@X#Xh.9.9.9.0.8.h.8.h.h.x.x.x.x.{.z./././.Y.Y.T.T.T.Y.T.",
"8X8XuXpXuXpXpXqX$.o.9XqXlXkXkXlXfXfXzXfXfXfXfXrXdX:X].:X(.`.].`.`.`.`.`.).).`.`.).`.)._.).~.~.@.@.#.#.#.#.@.@.#.+.+.+.+.+.+.[ +.[ [ +.#.#.[ } [ @.{ [ [ [ [ [ ' T T T ' T / / ] ] { `.).`.(.^.(.k.x.<X(./.l 3 # # - - $ 0 0 k / ' ' ' ' ] } Q.v a p.z.=X=XL.x.K.L.x.K.z.z.(.(.{.z.(.(.(.(.].(.(.(.].(.:X].].:X'.].:X:X:X:X;X;X:X:X:X:X:X:X-X-X*X`.`.)._._.#.@.@.+.o.+.+.+.( ( ( o.( [ +.+.[ o.^ W P U q q q t &.:.i.K.L.I.P.C.n.C.D.P.S.V.S.m.m.m.N.V.N.B.B.B.B.B.B.B.Z.Z.Z.Z.B.B.Z.B.B.B.m.N.N.N.N.V.V.V.V.V.V.&X&XD.S.&XV.V.V.V.V.B.N.Z.N.Z.Z.B.B.B.B.B.N.B.Z.Z.B.B.B.B.B.m.m.M.M.m.M.m.B.m.B.B.B.B.B.A.Z.A.A.A.N.B.B.N.V.V.V.V.C.C.M.M.V.N.&XV.V.V.C.6.1.a p < + + o @ O + + < a 8.B.&X&X&XZ.Z.Z.&X&XA.Z.Z.Z.Z.Z.Z.Z.Z.Z.Z.Z.Z.Z.Z.B.B.B.B.B.Z.B.B.B.N.V.N.N.B.m.m.m.N.S.C.S.D.D.S.S.S.S.S.Z.Z.Z.Z.S.S.m.D.C.K.2.*.=.7 5 5 9 1 # 1 # 1 1 1 1 2 1 e 3 3 3 3 3 3 3 3 < 3 3 y 3 3 3 5 5 5 5 5 y y y y ,.,.,.=.=.,.&.&.:.:.:.6 r e 3 e r e ) { `.-X:X`.`.].*X=X/.z.z.h.h.#XXXh.h.@X#X0.h.@X@Xh.h.8.8.0.h.h.h.g.x.(.l.j.k./.T.Y.Y.Y.Y.Y.Y.",
"8X8X8XqXuXpXpXqXO.X.o.tXlXlXlXfXfXzXcXfXfXfXrXfXfXfX].`.`.`.`._.tX).).).).)._._._._.).)._.{ ~._.@.@.@.@.@.#.#.#.+.+.+.+.+.+.[ [ [ [ [ [ [ @.{ { { { { [ { [ [ [ ( [ ( ( T T / ' ' { @.).[.^.(.(.z.(.(.(.!.q.4 $ $ $ $ - j j h / z ' ' ' ' ] } W.a p.(.<X<X&Xx.x.&XL.x.L.(.(.(.(.{.(.(.(.(.(.].(.`.].].:X:X:X:X:X:X:X;X;X;X;X;X;X:X:X:X:X:X-X-X`.`.).).).#.@.@.@.+.o.+.+.+.( ( ^ +.@.@.o.o.W ( ( / g q q r t :.r.u.l.L.P.P.D.D.C.D.S.S.S.S.m.m.B.B.B.B.B.B.B.B.B.B.Z.B.B.B.Z.B.B.B.Z.B.B.B.B.B.N.V.V.V.V.V.V.V.V.&XP.P.I.&XS.V.V.V.N.B.B.B.B.B.B.Z.Z.Z.B.B.m.B.N.Z.Z.Z.B.B.B.B.B.M.M.M.M.M.m.m.m.m.B.B.B.B.B.Z.Z.Z.Z.B.N.B.B.N.V.V.V.V.B.B.B.V.V.V.V.B.M.M.x.1.p < o + o . + o < 8 8.M.&X&XZ.Z.Z.Z.Z.Z.Z.Z.Z.Z.Z.Z.Z.Z.Z.Z.Z.Z.Z.Z.Z.Z.Z.B.B.B.B.B.B.N.S.m.m.m.m.B.B.B.B.m.C.D.S.S.S.D.D.S.S.Z.Z.Z.Z.m.S.S.D.C.D.b.F.3.*.6 8 3 2 9 9 1 # 1 1 1 < 1 < < 3 3 3 3 3 3 3 3 3 3 3 y 5 5 5 y 5 5 5 y y y 7 ,.,.,.,.=.,.,.,.*.>.>.*.:.:.6 5 e e e e q @.`.dX-X-X`.`.(.(.(.(.z.h.h.h.h.h.@X@X7.h.#X@X#Xh.h.h.h.h.x.9.x.z.x.#Xz.k.a.T.r.v r.r.Y.Y.",
"J J 8X8X8X8XqXO...qXqXtXtXtXtXdXfXfXfXfXfXrXrXfX;X;X].:X`.`.`.`.`.).).).).).~.) ~._.).~.).@.@.).@.@.@.@.@.#.#.#.+.+.+.+.+.+.[ [ [ #.#.} #.} { { { } { { [ [ [ [ [ [ [ [ T T / ( ( ( ( { ~.^.`.(.(.(.#X(.W.a 2 $ $ $ u $ 0 0 g z z ' ' ' ' ' } Q.n a p.z.#X@X&XL.L.K.z.z.{.(.L.z.(.(.].(.].].].].(.].`.].].].:X:X:X;X;X;X;X;X:X:X:X:X:X:X-X`.].`.`.).).`.).@.@.@.@.( [ [ +.+.( ( +.@.@.+.o.U C ( ) g r r 5 :.u.i.g.P.P.P.P.D.C.D.m.D.S.S.A.m.B.B.B.B.m.m.B.B.B.B.Z.Z.Z.Z.Z.Z.Z.B.Z.B.B.B.B.B.B.B.N.N.m.m.V.V.V.V.S.S.P.P.L.V.V.V.N.N.N.N.B.B.B.B.B.B.B.B.B.B.N.N.Z.Z.Z.B.B.B.B.B.V.V.V.V.m.B.B.m.m.B.B.B.B.B.B.B.N.N.N.N.B.B.B.B.B.B.B.B.B.B.B.B.B.B.B.B.C.x.1.8 + + + O O + + 4 <.&XoX&XZ.Z.Z.Z.Z.Z.Z.Z.Z.Z.Z.Z.Z.Z.Z.Z.Z.Z.Z.Z.Z.Z.Z.Z.Z.B.B.B.B.B.A.N.m.m.m.N.B.B.B.B.m.D.C.S.S.D.m.D.S.S.S.S.Z.Z.A.S.V.C.D.C.v.F.2.*.:.7 y < < < # # # 1 1 1 2 3 < < 3 3 3 3 3 3 3 3 3 3 5 5 5 5 5 5 y 5 5 y 7 7 y ,.*.*.*.,.,.,.-.-.-.*.&.&.%.6 5 5 5 3 e e / _.tXdX;X:X`.^.(.=Xz.h.x.z.h.7.h.h.h.h.h.h.9.h.8.h.h.h.h.x.x.x.z.z.z.k.a.a.e.r.r.r.e.r.",
"uXuXuX8X8XqXJ O.O.qXqXqXo.o.tXrXfXfXfXfXdXrXrXrX].'.'.`.(.].].~.`.).).).`.).~.)._._.@.@.@.@.#.#.@.@.@.@.#.#.#.#.+.#.@.+.+.+.#.#.{ #.#.#.#.{ { { { { { [ } { [ [ { [ [ ( ( / ( ( / / / { _.^.^.(.z.(.=X=X(.c 2 2 $ $ $ $ 4 0 j h h ' ' ' ' ] ] Q.c 4 1.d.z.z.<X&X&Xx.x.z.(.z.(.{.{.(.].1X{.;X].=X-X].(.(.(.:X:X:X;X;X;X;X;X:X:X:X;X:X:X].:X].^.`.`.).).)._.#.@.@.@.( ( +.@.@.@.[ [ ( ( o.W C w g r r t r t i.K.K.K.K.L.P.C.C.D.C.m.D.S.S.m.m.B.B.B.m.m.m.B.B.B.B.Z.Z.Z.Z.Z.Z.Z.B.B.B.B.B.B.B.B.B.N.m.m.V.V.V.V.C.C.C.K.K.K.C.C.V.V.m.m.m.B.B.B.B.m.m.m.B.B.V.V.V.Z.A.Z.B.N.N.N.N.N.N.V.N.m.B.B.B.B.B.B.B.B.B.B.B.B.m.N.N.B.B.B.B.B.B.B.B.B.B.Z.Z.Z.Z.Z.N.V.g.p.8 < + + o o + $ a Z.&X&XZ.Z.&X&XZ.Z.Z.Z.Z.Z.Z.Z.Z.B.Z.Z.Z.Z.Z.Z.Z.Z.Z.Z.Z.Z.B.B.B.B.B.B.V.m.m.B.m.m.m.m.m.m.V.C.D.n.m.S.S.S.S.S.Z.A.S.A.D.m.C.m.n.G.H.i.:.:.r 3 < + # # # # 1 1 < 3 3 < < < 3 3 3 3 y 5 3 3 5 5 5 5 5 5 5 5 7 7 7 6 7 7 ,.,.*.*.,.,.,.*.=.=.&.,.&.:.:.:.:.y 3 9 9 2 q / ).-XdX;X:X:X(.(.z.z.#X@Xh.h.h.h.h.h.h.h.h.h.h.h.h.h.x.x.x.x.z.z.k.a.q.r.e.Y.e.e.e.",
"uXuXuXuXuX8X8XqXO.O.O.qXo. .@.tXsXlXfXrXrXeXrX;XfX].].].`.].`.`.).`.`.).).)._._._._._.@.@._._.@.@.@.@.#.#.#.#.#.#.#.#.$.+.+.#.#.{ #.#.@.} { { { { { { { { { { { [ T T T T T T T / / / ( ).W.^./.k.l.(.=X(.a.4 2 @ $ $ $ 4 0 0 s z ' ' ' ' ' ' ~.x a q.z.(.z.(.&X<X<X=Xz.{.(.(.(.(.].].].].].].].].].`.(.(.:X:X;X;X;X;X;X;X;X;X;X:X:X:X:X:X:X:X:X`.`.`.).)._._.@.@.{ @.@.@.@.@.( ( ( U U U q r r r r t :.i.j.K.K.K.D.D.D.n.D.C.S.m.m.m.m.m.m.m.B.m.m.B.B.B.B.B.B.B.B.B.Z.B.B.B.B.B.B.B.B.B.B.B.B.N.N.N.V.V.V.V.C.C.C.C.K.C.C.K.M.V.m.m.m.B.B.B.B.m.m.m.m.B.B.B.N.V.A.V.N.V.V.V.N.M.M.m.B.B.B.B.B.B.B.B.B.B.B.B.B.B.N.N.N.B.B.B.B.B.B.B.B.B.B.B.B.B.Z.Z.Z.V.M.8.8 + + + + + o 8 <.&X&X&XZ.&X&XA.Z.Z.Z.Z.Z.Z.Z.Z.Z.B.Z.Z.Z.Z.Z.Z.Z.Z.Z.Z.Z.Z.N.B.B.B.B.V.V.V.V.N.m.m.N.m.m.m.V.n.C.D.S.S.P.S.S.S.S.S.S.S.D.m.D.S.K.K.L.i.*.8 5 < 1 1 = # # # # < 9 3 3 3 3 3 3 3 3 3 e 5 5 5 y 5 5 5 5 5 5 y 7 y 7 y y y 7 y ,.=.*.&.=.*.*.,.&.=.-.>.:.:.:.:.t 5 2 < + 1 q Y.:X:XfX].`.!.(.z.(.#X@X@Xh.h.h.h.h.x.h.x.x.h.9.x.x.x.x.x.z.z.z.a.q.r.e.a.e.a.a.",
"uX8X8X8X8XuX8XO.O... . . .o.$.$.tXeXdXtXeXeXeX].rX].eX`.].`.`.`.).).).).).)._._._._.#.@._._._.@.#.#.#.} #.#.#.#.#.#.#.#.@.@.@.@.{ { @.{ { { { { { { } { { { { ' T T T T T T T T / / / / ) z x s.q.q.a.=X=Xs.k # $ $ $ $ 4 0 0 q z ' ' ' / ' ' } z k q.*X=Xz.x.#X{.<X=X(.(.=X(.(.(.(.].].].].].].:X].:X:X].;X;X;X1X1X1XfX;X:X;X1X;X].:X:X:X:X:X:X-X`.).`._._._.@.{ @.@.@.{ o.( ( / T U U U C t t t :.r.i.K.L.L.L.K.m.D.C.D.C.m.m.m.m.m.m.B.B.B.B.B.m.B.B.B.B.B.B.B.B.B.B.B.B.B.B.B.B.B.B.B.B.B.B.Z.Z.V.N.C.M.C.C.C.C.K.C.9.C.9.V.V.M.M.M.m.N.m.V.V.m.m.M.m.m.m.m.N.m.V.N.V.V.V.N.B.m.m.m.N.N.N.N.m.m.m.m.B.B.B.B.B.B.B.B.B.B.B.B.B.B.B.B.B.B.B.B.N.N.N.N.V.K.y.8 + + + + + < 1.9.M.&XZ.Z.A.Z.Z.B.Z.Z.Z.Z.Z.Z.Z.Z.Z.Z.Z.Z.Z.Z.Z.Z.N.N.Z.B.B.B.B.B.m.m.C.D.D.C.D.m.m.N.m.m.m.V.V.C.n.D.D.P.S.S.S.S.S.S.S.S.D.D.D.K.L.K.i.*.8 3 3 9 1 # # # # 1 1 1 9 3 3 3 5 5 3 3 3 3 5 5 5 5 5 5 5 5 e y y y y 6 7 7 7 y y ,.,.,.,.,.=.,.,.,.=.=.=.=.=.=.:.:.6 y 3 3 2 < 5 ) ).eX:X;X=X(.(.(.=X#X#Xh.h.h.h.h.h.h.h.h.h.x.z.x.x.9.g.l.z.z.k.q.r.e.e.e.e.e.",
"uX8X8X8XuXuX8XJ K O..... .o.$.$.$.tXtX).`.'.`.`.`.eX].].].].`.`.).).tX).).)._._._.#.@.@.@.#.@.@.#.#.#.#.#.#.#.#.#.#.+.+.@.@.@.{ } ] } } { { { { { { { } { ] ' ' ' / ' [ ' ' T T / ' ( / T k c l q.q.a.=X=X^.q 1 $ $ $ 4 4 4 q s h ] } ' { / ' ] ' p l (.=X(.=X(.z.=X(.z.(.(.=X=X1X].:X(.(.:X].:X:X:X:X;X:X;X;X;XrX].1X1X;X;X;X].].].;X:X:X:X:X:X-X].`._._._._.@.{ _.@.{ ( / T z U w U U U / k t :.r.y.K.K.C.K.K.D.D.C.D.C.D.V.A.N.m.m.m.m.B.M.B.B.B.B.B.B.B.B.B.B.B.B.B.B.B.B.B.B.B.B.B.B.B.B.B.A.&XS.V.m.M.b.C.K.M.C.K.9.K.V.M.M.M.M.M.m.N.N.V.V.V.V.m.m.m.C.C.m.V.m.V.m.m.V.S.A.V.D.m.m.m.m.N.Z.m.m.m.B.B.B.B.Z.Z.B.B.B.B.B.B.B.B.B.B.B.B.B.B.N.N.N.N.V.K.y.8 < + o + + 1.9.V.B.Z.Z.Z.Z.Z.Z.Z.Z.Z.Z.Z.Z.Z.Z.Z.Z.Z.Z.Z.Z.Z.Z.m.m.m.m.B.B.B.B.B.N.C.D.V.C.D.C.C.m.m.m.m.m.V.C.D.V.V.S.D.S.S.S.S.S.S.S.S.S.S.V.V.K.K.i.r.7 5 9 < 1 # # # # # 1 1 < < 3 y 5 5 3 5 y 2 3 5 5 5 5 y 5 5 5 5 y 6 y 6 6 6 7 7 y y y ,.,.,.,.,.,.,.=.,.,.=.=.=.:.:.%.6 7 7 5 2 < 3 q ) `.;X:X=X=X(.=X=X#Xh.h.h.h.h.h.h.h.h.h.x.x.x.x.g.x.x.z.(.k.w.a.a.e.w.a.q.",
"uX8X8X8XuXuX8XJ K O...O. .o.@.o.o.).tX).).`.).`.`.].].].].`.`.`.).).).'.`.).#.).).@.@.@.@.#.#.@.@.#.#.#.#.#.@.+.#.#.@.@.@.@.{ { { } } } { { { { W.} { ' ' ' ' ' ' ' ' ' { { ( ) / ' [ / T q k l x q.a./.(.^.k # $ $ $ $ $ j 0 q h { [ } ( / ' { ' g c !.=X(.(.l./.z.k.k.z./.(.;X1X;X;X:X].;X:X;X:X:X;X;X;X;X;X;X;X;X1X].;X;X;X;X].;X].:X;X:X:X;X`.`.`.`._._._.@.{ _._.[ / h P w f w w w q t r t r.e.l.L.K.b.C.C.m.V.V.C.C.m.V.V.V.N.m.m.m.M.B.B.B.B.B.B.B.B.B.m.B.B.B.B.Z.B.B.B.B.B.B.B.B.B.B.Z.S.&XV.V.m.M.M.C.C.9.C.0.g.C.C.9.9.M.C.M.M.B.V.V.V.V.V.B.m.m.C.M.C.C.m.C.M.m.m.D.S.S.S.A.m.m.m.m.m.m.m.m.m.B.B.B.Z.Z.B.B.B.B.B.B.B.B.Z.B.B.B.B.B.N.N.m.m.C.L.i.r.y + + < 8 f.&X&XZ.Z.Z.Z.Z.Z.&XZ.Z.Z.Z.Z.Z.Z.Z.Z.Z.Z.Z.Z.Z.Z.Z.A.m.m.N.B.B.B.N.B.m.D.n.V.D.n.C.D.m.V.N.m.B.N.D.C.D.S.S.D.S.S.S.S.S.S.S.S.S.S.D.n.H.K.K.r.6 3 2 # + , = # # # # 1 < < 3 3 5 5 y 5 5 3 5 y 5 5 5 5 5 5 5 5 y 6 y 6 ,.7 7 7 y y y y ,.,.,.,.,.,.=.,.,.=.=.=.=.=.:.%.6 7 7 r 3 < < e ) `.].:X=X(.(.=X#Xh.h.h.h.0.h.h.h.8.h.h.h.9.@Xg.h.h.(.z.z.e.a.a.a.p.p.p.",
"uX8X8X8XuX8X8XJ J K O. . . .+.o.o.o.@.#.`.eX`.`.].rX`.`.(.:X^.`.tX).).).).#.@.@.@.@.{ { @.#.{ { @.#.#.#.#.+.+.[ #.#.#.@.@.{ { { { #.} { { } { { W.{ } ' ' ' ' ' ' ' ' ' { ' { / T / [ ' / s q k l q.q.e.(.^.k $ @ $ $ $ 4 0 4 j g ' { { ] ( ( #.{ z c ] Y.e.a.j.r.a.k.a.p.r.v W.(.:X].;X;X;X;X:X:X:X:X;X;X;X;X;X;X;X;X;X;X;X;X:X:X:X;X;X;X;X;X`.`.`.*X`._._._._._._.{ { U w w w w C q e e r t :.w.y.K.L.L.K.C.n.V.V.V.V.D.C.V.V.V.m.m.C.m.B.B.B.B.B.B.B.B.m.m.m.B.B.B.Z.Z.Z.B.B.B.B.Z.&XB.B.B.Z.Z.m.m.V.V.m.C.C.C.4.4.4.g.C.C.9.9.C.M.M.M.m.m.V.V.V.C.m.V.V.V.V.D.m.C.C.M.b.C.m.D.N.S.S.A.A.m.m.m.m.m.m.B.B.B.B.B.B.B.B.B.B.B.B.B.B.&XB.B.B.B.B.N.N.M.C.C.K.i.r.3 < + 4 8.I.&X&XZ.Z.Z.Z.Z.Z.&X&XZ.Z.Z.Z.Z.Z.Z.Z.Z.Z.Z.Z.Z.Z.Z.A.Z.S.m.B.B.B.N.Z.m.C.C.D.m.V.D.C.m.m.m.A.B.N.V.S.C.n.C.D.S.S.S.S.S.S.S.S.D.P.L.C.H.L.L.e.5 3 < 1 + < + # # # 1 1 1 3 3 3 5 5 5 5 y 5 5 5 5 5 5 5 5 y 5 5 y y y y y y y ,.,.,.&.7 6 ,.,.,.,.,.,.,.,.=.=.=.=.=.=.>.=.6 6 r 5 3 < < q k ^.].:X=X=X=X=Xh.h.h.h.8.6.6.7.6.8.h.h.x.x.h.h.x.z.{.z.a.p.a.a.p.p.p.",
"8X8X8X8XuXuX8XJ 8XG O.O. . .o.o.o.o.@.^.'.eXeX].;X:X].`.].`.(.`.).).`.`.~.@.@.@.@.@.{ @.@.#.@.{ @.#.#.#.+.+.[ [ +.#.#.#.@.{ } { { } } ] } ] { { ] ] ] ] ] ] ] ' ' / / T / / ' T g h / / / 0 0 q q a l q.^.^.z + O $ $ $ j $ j 0 s ' ' { ' ( [ _.{ / k k a 8 r k k x a.a.q.8 4 r c Y.^.].].:X:X:X].].:X:X;X:X;X;X;X;X:X;X;X;X;X;X;X;X;X;X;X;X;X:X`.`.-X`.`._._.`.-X_.~./ j 0 0 w w g q e r t r.u.l.K.L.L.P.C.D.C.V.V.V.V.V.V.V.&XN.N.m.M.m.m.B.B.B.B.B.B.m.m.m.m.B.B.B.Z.A.A.B.B.B.B.B.B.B.B.Z.Z.m.m.m.m.N.V.V.C.C.4.4.0.9.C.9.9.9.M.M.M.M.M.M.C.C.M.b.M.m.m.V.V.V.V.C.C.C.C.C.C.m.m.m.S.S.S.S.S.m.m.m.m.m.N.m.m.m.m.B.B.B.B.B.B.B.B.B.B.B.B.B.V.V.V.V.C.b.l./.a 3 < < a x.&X&X&XZ.Z.Z.Z.Z.Z.Z.Z.Z.Z.Z.Z.Z.Z.Z.Z.Z.Z.Z.Z.Z.Z.Z.Z.S.S.S.m.B.B.B.S.D.D.C.D.n.V.m.D.D.C.S.N.V.V.V.S.S.n.D.V.D.S.S.S.S.S.S.P.P.D.m.K.K.L.{.r.5 < 2 2 1 + = # # # 1 1 1 3 < 3 3 y 5 5 5 5 5 y 5 5 5 y 5 5 5 5 5 5 y 6 y y y y 6 ,.%.&.&.&.&.=.,.,.,.,.=.=.=.=.,.,.=.=.=.=.:.%.6 5 e 3 2 2 c [.:X;X:X=X=Xz.z.x.h.h.7.6.6.6.h.h.h.h.x.h.f.j.z.(.(.g.k.a.a.p.p.p.",
"8X8X8XiXuXuX8XqX8XJ J J X.X. . .W W ) { @.[.`.`.eXeX].].].`.`.).).).).).)._._.#.@.@.@.@.#.#.#.@.+.+.$.$.$.+.#.+.$.$.$.#.[ } } } ] ] ] ] v z v ] Q.v z b v ] ] ] ' / z g / / / z g 0 g U h 0 0 q s k k l l z q # + $ u $ $ p 0 0 g ' } } / / / { _.{ z 1 # 2 1 # 1 s ' !.r.a 4 < 4 q c W.^.`.`.:X:X:X:X:X;X;X;X;X:X;X1X1X;X;X;X:X;X1X1X;X].].:X;X-X`.).`.).~._.-X-X-X_.{ g e e q z ) k r 5 %.u.K.K.K.L.L.D.C.C.D.n.V.V.V.V.V.V.B.N.N.m.B.B.B.B.B.B.B.B.B.m.m.m.m.B.B.B.N.V.V.N.B.B.m.m.B.B.B.N.B.B.B.B.B.B.B.m.C.C.C.b.C.C.K.L.K.C.9.9.M.V.C.C.V.C.C.b.M.M.b.M.V.C.C.C.C.M.g.K.C.D.m.m.S.S.S.S.S.S.m.m.N.N.N.N.B.m.M.M.M.M.m.B.Z.Z.Z.Z.B.B.B.V.V.C.C.C.4.4.k.T.r < < a g.&X&XZ.Z.Z.Z.Z.Z.Z.Z.Z.Z.Z.Z.Z.Z.Z.Z.B.B.B.Z.Z.Z.Z.Z.Z.Z.Z.m.m.m.m.B.B.A.D.C.C.m.m.D.n.V.C.P.P.S.S.S.S.S.D.m.C.V.m.m.S.S.S.S.S.S.P.D.D.D.I.K.i.8 < < 9 q 9 + + # # 9 1 + < 3 3 < < < 3 5 5 5 5 5 5 5 y 6 y y y 5 5 5 y y 7 ,.,.y y y 6 &.&.=.=.,.,.,.=.,.,.=.=.,.,.=.=.=.=.=.=.=.%.5 y 9 < < e z ] ^.:X;X=X=X<X<Xh.h.h..X7.6.7.8.h.7.h.h.f.h.g.z.z.l.f.p.p.p.p.p.",
"8XuXiXuXuX8XJ 8X8X8X8XK K .. .W W W ) [.[.).'.'.'.].rX'.`.`.`.).).`.).~._._.#.@.@.@.@.@.#.@.+.$.+.+.$.$.+.+.$.+.$.$.#.#.#.} } ] ] v v v v z v ] W.x x z z v z z z h g s q g g g f g g w 9 1 2 4 4 s s h h z j # $ $ $ u j $ $ p h ' } ] ' ' ' { { [ z 0 # # # # 1 q k s s 0 1 2 4 s c z W.W._.).`.`.`.].:X:X].].].;X;X1X:X:X;X;X;X;X;X1X1X;X].^._.} _.)._._._._._.-X`._./ s q q q q r t %.r.u.K.L.L.P.P.C.D.D.C.V.V.V.V.V.V.N.B.N.N.N.B.B.B.B.B.B.B.B.B.B.m.m.m.B.B.B.V.V.V.B.B.B.B.B.B.B.B.B.B.B.B.B.m.B.B.V.D.C.C.C.K.K.L.L.M.M.L.&X&XM.M.V.V.m.C.M.b.M.b.M.C.b.b.C.C.g.g.C.C.C.D.S.S.S.S.S.S.S.m.m.S.A.Z.Z.N.B.B.M.M.M.m.Z.B.Z.Z.B.B.B.M.V.M.C.C.K.b.l.e.k 2 < y <.L.&X&XZ.Z.Z.Z.Z.Z.Z.Z.Z.Z.Z.Z.Z.Z.Z.Z.B.B.B.Z.Z.Z.Z.Z.Z.Z.Z.B.m.m.m.m.S.S.S.D.D.m.m.C.C.D.D.D.P.P.S.S.S.S.S.S.S.n.m.m.Z.S.S.S.S.S.S.P.P.I.L.K.u.t 3 < 9 e 9 + + # 9 9 9 + < 2 3 3 3 3 3 5 5 5 y 5 5 5 5 5 6 6 7 7 6 y 6 y 7 7 y 7 6 7 6 ,.=.*.*.=.,.,.,.=.-.=.=.,.,.,.,.,.,.,.=.=.%.%.5 y y 3 1 0 q h { `.:X(.=Xz.h.h.h..X7.7.6.6.h.7.h.h.h.g.x.z.z.f.f.p.p.p.p.w.",
"8XuXuXuXuX8XJ O.8X8XJ K K G X.W W ( ) o.o.`.'.].`._.`.eX).).).).).).).)._._.#.#.@.+.@.@.#.$.$.$.+.+.+.$.$.+.+.+.+.$.#.+.[ ' ] ' ) z z s h k z ] z z h s g j g s g s j 0 j f g g f w f w 0 0 0 0 1 = - j j s 4 @ @ @ $ $ $ $ $ $ s h ' ] ] ' { [ ' ) h j 0 1 # 9 0 g s q 0 0 0 q k z z g z T / ( { { { } `.*X`.`.`.;X:X;X:X`.].].:X:X:X].(.^.^.`.~.{ @.)._._.#.#.{ _.`.).W./ g q q 3 e 6 :.u.K.L.L.K.I.P.D.n.C.D.V.V.V.V.N.V.V.N.N.N.m.B.B.B.B.B.B.B.B.B.B.m.m.m.M.M.B.M.V.N.B.B.B.B.B.B.B.B.B.m.B.B.B.B.B.m.C.C.b.C.L.K.K.x.4.4.9.M.@X9.x.C.V.V.V.m.M.M.M.C.M.b.C.K.K.C.g.4.4.C.C.n.V.D.D.P.D.D.D.C.m.N.N.N.Z.N.B.B.B.M.M.m.m.m.B.Z.B.B.M.V.V.M.K.x.g.g.l.c 3 < 4 a 0.&X&X&XZ.Z.Z.Z.Z.Z.Z.Z.Z.Z.Z.Z.Z.Z.Z.Z.Z.Z.Z.Z.Z.Z.Z.Z.Z.Z.Z.Z.B.m.m.Z.S.S.S.S.D.D.C.D.S.S.S.P.P.S.S.S.S.S.S.S.D.m.m.m.m.S.S.S.S.A.A.P.I.P.L.L.k.r.5 2 9 9 9 # # # # 1 9 1 < < < 3 3 3 3 y 5 5 5 5 5 5 5 5 6 6 6 6 7 6 6 y y y 6 6 6 6 y 6 ,.,.*.,.,.,.,.=.=.=.,.,.=.=.=.,.,.=.,.=.%.%.%.6 7 5 3 2 = 9 c ~.:X=X=X(.z.h.s.7.s.7.6.6.6.6.p.h.h.h.x.z.z.f.f.d.p.p.w.q.",
"uXuXuXuXuXuXJ J J 8X8XJ K H |  .W o.o.( o.).`.`.`.).).`.`.`.).).).`.).`._._._.#.@.@.+.+.$.$.$.+.+.$.$.+.+.+.+.+.[ +.+.[ T h h h h j 0 0 0 q h g 0 j j 4 j 0 j j j j j j f j f f w - w f 0 0 0 0 = # = # - 0 - # @ @ $ $ $ $ $ $ j f z ' ' ' ' ' ' / h z s q q s k h h g 0 g s h / / T f j f g g T T / ( ) _.~.).).-X:X`.`.^.^.W.`.:X].).W.W.^._.).{ { @._.{ [ +.{ { _._.~./ s q q e 5 %.i.K.K.L.K.L.L.D.S.C.D.C.N.N.N.N.V.V.V.B.B.B.B.B.B.B.B.B.B.B.B.B.B.B.m.M.M.M.M.M.m.m.m.B.B.Z.B.B.B.m.m.m.B.B.N.B.C.C.b.C.K.K.x.g.3.6.5.*.<.6.8.h.0.9.C.C.V.C.M.XXM.M.C.C.K.L.L.b.4.4.4.C.b.C.C.C.I.L.D.C.V.m.D.V.m.m.m.N.m.B.B.B.B.m.m.V.m.m.N.N.N.B.V.C.C.f.j.e.r.3 < < a e.x.&X&X&XA.Z.Z.Z.Z.Z.Z.Z.Z.Z.Z.Z.Z.Z.Z.Z.Z.Z.Z.Z.Z.Z.Z.Z.B.Z.Z.Z.Z.Z.Z.Z.N.S.S.S.S.m.U.N.S.A.S.D.S.S.S.S.S.S.S.S.S.S.S.m.m.m.m.m.S.S.S.D.P.P.L.L./.u.:.e 9 1 = # # # + 1 9 9 1 < < < < 3 3 3 5 3 5 5 5 5 y 7 7 7 6 7 6 t 6 6 7 y 7 7 6 7 7 ,.,.,.,.,.,.,.,.,.=.,.,.,.=.*.-.=.,.,.,.;.,.,.=.%.t r 3 9 1 9 k ) `.=X=X(.x.h.s.p.7.7.6.6.p.7.6.h.h.h.x.z.z.z.f.p.p.w.w.q.",
"uXuXuXuX8XL J J qX8XuX8XJ H F I W ( ( ( ( { ).).`.tX`.`.`.).).tX).).).)._._.#.#.#.$.$.$.$.$.$.$.+.$.$.+.+.+.+.+._ [ ~ P u - - 0 4 - $ $ - 0 g 0 0 0 0 4 4 j f j f j j f f j j f 0 = - - = = 0 = # # # # - = - @ @ @ $ $ $ $ p p j h ' ' ' ' ' ' ' z z z h z c c x x z g h g h T / h g f 0 f d f U g f f T / / / ) )._.~.Y.{ z c ] _._.~.) / ) { ~.{ { { { { ( ( ( ( { ).{ ) r q q 5 8 r.u.L.L.L.L.L.L.n.C.D.D.m.m.B.N.N.N.V.B.B.B.B.B.B.B.B.B.B.B.B.B.B.B.B.m.M.M.M.M.M.M.m.m.B.B.Z.B.m.m.B.B.B.N.N.M.C.M.C.C.K.K.4.<.1.8 1.8 7 8 a 1.3.6.8.0.9.9.K.K.K.V.K.b.K.C.K.K.b.4.b.K.b.4.4.4.b.K.K.L.n.C.P.D.V.V.m.m.m.B.B.B.B.N.m.m.C.C.m.m.V.N.V.C.C.g.i.e.r.r 2 < 8 y.K.L.V.Z.&XA.Z.Z.Z.Z.Z.Z.Z.Z.Z.B.B.B.Z.Z.Z.Z.Z.Z.Z.Z.Z.B.B.B.Z.Z.Z.A.Z.Z.m.B.Z.S.S.S.S.D.S.S.S.S.S.S.S.S.S.S.S.S.S.S.S.S.A.S.m.m.m.m.S.S.S.D.L.L.L./.E.) e 9 9 + # # # # = 9 9 9 < < < < 3 3 3 < 3 3 5 5 5 y y 5 y 7 7 6 :.6 6 7 y 6 6 6 ,.7 6 ,.,.,.,.,.,.*.=.,.=.=.,.,.-.=.-.;.,.}.,.;.=.=.:.:.:.5 e 9 0 s ) ^.^.=X(.z.x.s.s.6.6.6.6.p.6.7.h.h.x.x.x.z.z.l.j.p.p.w.q.",
"uXuXuXuXuX8X8X8X8X8XqX8X8XJ F D C U ^ ( W ( @.).'.eX`.eXtX).).).`.).).`._._._.#.#.$.$.$.$.$.$.$.$.+.$.[ ( _ [ [ _ ~ P : # @ @ @ # @ # @ # 0 - 0 - - 0 0 j g h h f f h g f f d f : = = = O * * @ @ @ # = = = # @ O @ @ $ $ $ p p s h ' ' ' ' ' ' ' ' z g z ) ) x l x z k z g g g g g s j j j f d w f 0 f f g w w g / ) ' / g f s h ) { ).@.{ ) ( { { @.@.@.{ W U U ^ ( ( ) ) e q 5 r t w.u.{.L.L.K.L.K.m.V.D.C.m.m.B.B.B.N.N.N.B.B.B.B.B.B.B.B.B.B.M.B.B.B.m.m.M.M.M.M.M.m.m.m.m.B.B.B.B.B.B.M.B.V.V.C.M.K.C.L.K.4.<.8 8 8 8 5 8 8 8 a a 1.1.6.<.3.f.f.K.K.K.K.C.C.K.4.b.b.n.n.H.g.4.g.4.4.b.C.C.C.I.D.S.S.V.V.N.B.B.Z.A.Z.N.V.m.C.C.C.D.V.C.C.x.y.r.t 3 + < < 8 i.L.D.C.A.Z.Z.Z.Z.Z.Z.Z.Z.Z.Z.Z.B.B.B.Z.Z.Z.Z.Z.Z.Z.Z.Z.Z.B.Z.Z.Z.Z.Z.A.Z.Z.Z.m.S.m.m.Z.S.S.S.S.S.S.S.S.S.S.S.S.S.S.S.S.S.S.S.S.m.m.m.S.S.S.D.V.L.K.{.E.r.e 9 < + + = + < = = 9 9 1 < < 3 3 3 3 < 3 5 5 5 5 5 7 y 5 7 7 6 6 6 %.%.%.%.6 ,.%.%.,.,.,.,.,.,.*.=.,.,.=.=.,.,.,.,.=.,.;.,.;.=.;.,.=.:.:.t r 0 0 q z W.(.=X=X(.z.h.s.7.6.7.6.d.p.h.h.h.x.g.h.z.z.z.z.d.p.p.w.",
"8XuXuXuXuX8X8XuX8X8X8X8X8XO.F A M D U ( T T ( { _.).).`.).`.`.).).).).).).$.#.$.$.$.+.$.$.$.$.$.$.+.` ~ T ~ ~ ~ ^ U d * @ @ @ @ @ # # # - - - - : - - 0 j g h g j j j f g f w - = @ @ @ @ O O O @ @ @ @ O @ * + @ @ = $ $ $ p p h b ' ' ' ' ' ' ] } ' k l ] W.a.l x x x x x c k s s s s j j j j 0 0 0 0 j f w w : d U g w - - 0 0 w P ( ( @.@.@.( { #._._.#.[ T U W ( ( ) U q t r t %.r.y.l.K.K.L.K.K.D.C.C.m.M.M.m.m.B.N.N.N.N.N.N.B.B.B.m.B.B.B.M.M.B.M.M.m.M.M.M.M.M.M.M.m.m.m.M.m.B.B.B.m.m.V.V.M.K.K.K.d.<.1.,.8 8 8 y 5 8 t t k q 3 a a a 1.<.w.g.f.g.g.L.L.K.C.n.D.V.C.K.L.L.g.b.4.4.b.b.b.b.C.V.V.S.S.V.N.m.N.Z.Z.N.m.V.C.K.C.C.V.C.C.0.w.a 5 < + < 8 5.g.x.V.S.S.A.Z.Z.Z.Z.Z.Z.Z.Z.Z.Z.B.B.Z.Z.Z.Z.Z.Z.Z.Z.Z.Z.Z.Z.Z.Z.Z.Z.Z.Z.Z.Z.Z.m.Z.m.m.U.S.S.S.S.S.S.S.S.S.S.S.S.S.S.S.S.S.S.S.S.S.S.S.S.S.S.m.G.K.H.E.R.:.e 9 + + + + # , + + 9 1 1 1 1 3 3 3 3 3 5 5 5 5 y 5 5 6 6 6 7 6 6 y y 6 %.%.%.%.*.&.,.,.,.,.,.=.*.*.*.,.=.=.=.=.,.,.,.,.;.;.;.;.,.-.;.>.:.) k 9 1 w g ) ^.].*Xs.s.s.7.7.6.p.p.p.h.x.h.h.f.f.f.x.z.z.k.k.p.w.w.",
"K uXuXuXuXuXuXuXuX8X8XuX8XK F F F F D W U U ( @.@.).).`.).).'.).`._._._._.$.$.+.$.$.$.$.$.$.$.+.+.[ Y f d f T Y T d : # @ @ # @ @ @ # # = = = - : : - 0 0 0 j j j j j j j - - @ @ @ @ @ @ @ @ @ @ @ @ O O O O @ @ = - 0 $ $ $ p j h / ' ' ' ' { } } ] z l W.^.^.T.^.!.!.!.!.s.s.v v l x c z h g j q 0 4 0 g f f d f d w - - = = - = = - d U [ @.) ( { @.@.+.+.U U W W ( ( / k r r :.t a <.g.g.K.C.C.C.C.b.C.M.M.M.M.M.B.B.B.B.B.N.B.B.B.B.B.B.B.m.M.M.M.M.M.M.M.M.M.M.M.M.M.M.M.b.M.m.m.B.M.M.m.M.M.C.K.d.1.8 7 7 y 5 5 3 3 q q q q q e 1 4 q r t t a r.r.<.y.g.K.L.K.K.L.L.K.C.L.L.L.H.H.G.b.b.n.b.b.b.C.V.C.D.V.m.m.Z.Z.N.V.V.V.D.C.C.C.C.8.<.8 y < + < 8 1.f.4.4.M.V.Z.Z.Z.Z.Z.Z.Z.Z.Z.Z.Z.Z.Z.Z.Z.Z.Z.Z.Z.Z.Z.Z.Z.Z.Z.Z.Z.Z.Z.Z.m.Z.Z.Z.Z.Z.Z.Z.Z.Z.S.S.S.S.S.S.S.S.S.S.S.S.S.S.S.S.S.S.S.S.A.S.S.S.S.S.C.D.L.H./.E.r.9 9 + + + + # + + , < # # 1 1 2 2 3 3 3 5 5 5 5 5 5 y 7 ,.6 6 y y y y 7 ,.,.&.,.&.%.%.=.,.*.&.*.=.,.,.,.,.*.,.*.*.*.=.,.,.;.;.;.;.-.-.>.:.T.r 9 0 g U ) W.^.(.*Xs.n n n 1.6.7.<.h.h.h.h.h.h.f.x.z.z.x.f.w.q.q.",
"uXuXuXuXuXuXuX8XJ 8XuXuXJ J K J F F E Q T ^ ( +.@.@.#.).).).).)._._._._._.$.$.$.$.$.$.$.$.#.+.[ _ _ f u - u P d f w 0 * @ # - = @ - 0 0 0 0 0 0 d j j j 0 - 0 j h h h j j j j f f j u j 0 * @ @ @ @ @ = = = @ @ - 0 w = @ $ $ $ 4 j h / ' ' ' } ~.~.v k c x ^.(.(./.(./.(.=X(.=X=X^.!.^.W.W.s.x c p p q s j j 0 j f d d d U w w w - : : : w w U U U U U ~ T U M P I P U U g q r t c a 8 <.l.l.g.4.b.g.C.C.C.M.M.M.M.M.m.B.B.B.B.N.V.B.B.B.B.B.B.m.M.M.M.M.M.M.M.b.M.M.M.M.M.M.M.M.M.M.m.m.M.M.M.b.b.K.8.1.8 4 3 3 3 3 < 2 e q q e q w f f 1 # 1 9 3 3 8 t t 8 1.3.j.g.L.L.L.K.K.H.H.L.K.L.K.K.K.C.V.C.b.n.b.C.V.D.C.S.m.B.B.V.V.C.C.K.C.g.d.w.w.8 + + + 5 &.3.K.K.C.M.N.Z.&X&XZ.Z.Z.Z.Z.Z.Z.Z.Z.Z.Z.Z.Z.Z.Z.Z.Z.Z.Z.B.Z.B.B.Z.m.m.m.m.N.Z.Z.S.A.Z.S.Z.Z.Z.Z.S.S.S.S.S.S.S.S.S.S.S.S.S.S.S.S.m.S.S.m.m.D.m.C.P.L.H.H.i.E.t y 1 , # # = = 1 + + + # + 1 1 < < 2 3 3 5 5 5 5 5 y y y y 7 y 6 6 y 6 y 7 6 &.7 7 6 ,.&.,.*.*.*.*.,.,.=.=.,.,.,.*.*.,.,.,.,.,.,.=.-.>.>.:.:.e 9 e U / g ) W.!.a.s.n n n 7.p.<.<.<.7.h.h.h.h.g.x.z.z.x.h.p.q.q.",
"uXuXuXuXuXuXuXuX8XuX8X8X8X8XJ J K F Q _ ( +.+.@.@.@.#.@._.).)._._._._._.@.$.$.$.$.$.$.$.+.[ T Y Y d - @ - d f - w w - # 9 0 0 0 = 0 0 0 j 0 j s s h z z ' ' } #.} |.} @.} @.#.-X$.-X#.} @.h d j 0 # 0 0 g 0 - = # @ - @ $ - $ - 0 $ j h ' } ' ' } ~.Q.z k x ].>X;X=X=X=X=X=X=X=X,X:X=X:X`.*X*XQ.Q.s.] c s j j j j f f d w f f f f d : : > = = = C h / U I : : ; : u : C w w q r t r t :.p.j.j.g.g.K.K.b.C.9.9.C.M.M.M.B.B.B.B.B.V.V.B.B.m.m.B.B.m.M.M.M.M.M.M.M.9.m.M.M.M.M.M.b.M.M.M.B.M.9.9.C.M.g.3.1.8 3 < 3 < 2 2 e w C C 0 w w : C w - * @ + , 1 1 3 5 5 8 t 1.5.5.3.y.g.K.K.K.L.L.L.H.G.G.G.G.D.m.n.C.C.D.C.D.m.m.m.m.m.V.V.K.K.L.K.y.:.r < + + 2 8 1.g.K.K.C.M.N.Z.A.Z.Z.Z.Z.Z.Z.Z.Z.Z.Z.Z.Z.Z.Z.Z.B.B.B.B.m.Z.Z.Z.m.Z.Z.Z.Z.N.N.m.Z.A.A.Z.Z.Z.Z.S.S.Z.Z.S.S.S.S.S.S.Z.S.S.S.S.S.S.S.S.S.S.S.S.C.D.C.D.P.I.L.L.R.T.e 9 , 1 # # = = # + 1 + 1 < 1 2 3 4 3 3 5 5 5 5 y 8 y 7 8 y 7 y ,.y ,.y 7 6 &.:.6 ,.,.,.,.%.%.,.&.,.,.,.,.,.*.*.*.*.,.,.,.,.,.;.;.;.>.>.:.t 9 9 0 C U / ) Y.W.s.s.7.n n q.w.6.6.6.6.h.h.h.h.x.x.x.z.h.p.p.q.q.",
"uXuXuXuXuXuXuXuXuXuXuXuXuX8XJ J J O.O.O.+.$.+.@.@.#.#.#.#._.#.#.@.@.).#.@.@.$.$.@.$.+.+.[ T f 0 - - = @ w w = = 0 9 = 9 0 0 0 s s h h z h z v ' ] } _.*X-XsX:XdXdXdXdX>XhXhXkXjXgXkXjXkXdXsX-X-X{ [ { { / h w 0 - @ @ @ $ * - - 4 4 j h ' } ' ' } *X!./ s x :X2X1X1X1X1X=X=X<X:X2XxXfX2X>X>X>X>X:X:X*Xs.z h j j j d f f d U P d d w w : : - : 0 : s g f - > * * % * - = w e e q r r r a w.d.l.g.g.K.K.C.g.9.9.9.M.M.M.B.B.B.B.V.V.V.N.B.B.m.m.M.m.M.M.M.M.M.M.M.0.M.M.M.M.b.M.m.M.m.M.M.M.9.9.g.C.8.1.a 3 < < < < 2 9 e g C C w : : : > ; * * * O O O # # < 3 3 5 5 8 7 :.>.w.u.K.G.L.L.L.H.K.G.G.n.n.n.m.n.n.m.n.V.C.n.C.D.C.V.V.D.K.K.i.1.3 < < + 3 5 r.i.b.V.D.V.N.Z.Z.Z.Z.Z.Z.Z.Z.Z.Z.Z.Z.Z.Z.Z.Z.B.Z.Z.B.Z.Z.m.Z.B.Z.m.Z.Z.Z.Z.Z.m.m.Z.Z.Z.Z.Z.Z.Z.S.S.Z.Z.S.S.S.S.S.S.S.S.S.S.S.S.S.S.S.S.S.S.S.V.J.C.C.D.L.L.(.E.T.e < + + # < = = , 1 , # 1 1 < 2 3 3 3 3 5 5 5 5 5 y y y 8 7 6 6 y 6 y 7 y %.=.=.6 y 6 ,.7 7 ,.,.,.,.,.,.=.*.,.*.*.,.=.;.,.,.;.;.,.=.-.:.:.y 9 = 9 0 f z ) { W.s.s.s.n n b s.p.p.7.6.h.h.h.h.8.h.h.h.h.h.q.q.q.",
"uXuXuXuXuXuXuXuXuXuXuXuXuXuXuXK O.O.O.O.+.|.$.+.@.@.@.@.$.@.@.@.@.@.@.@.@.$.$.@.+.+.#.[ ~ f u $ @ * $ - - : = = q 0 e w s g z / v |.~.|.^.*X*X:X:X>X>XdXhXxXgXvXgXBXvXgXvXBXGXFXGXGXFXGXGXGXjXgXhX>X|.hX_.' g w - = = + @ @ # - 4 4 j h } ] ' ' ] -X} ' z W.:X2X2X2X1X1X>X:X2XnXMXbXJXGXbXbXbXJXnXxX>X,X|.#.' h h Y f g d f Y d d d w : w : d w - 0 0 - - * * % . * * @ = # 1 9 e r 8 a r.k./.g.g.g.g.g.g.0.0.9.M.M.M.M.m.m.m.B.N.V.N.B.B.m.B.B.m.m.M.M.M.M.m.M.M.M.M.M.M.M.M.M.M.M.M.M.b.9.h.0.3.<.a 8 < < < < + < 1 9 - - > > > > , > % * % % . . O O @ + # 9 9 5 e t t :.:.:.>.i.R.K.L.L.L.G.G.G.G.H.n.n.G.n.n.V.K.C.C.V.D.V.V.V.L.g.<.5 < < < 8 t r.i.b.C.V.V.N.N.Z.Z.Z.Z.Z.Z.Z.Z.Z.Z.Z.Z.Z.B.Z.Z.Z.Z.Z.Z.Z.Z.B.Z.B.Z.m.m.Z.Z.Z.m.m.m.m.Z.Z.Z.Z.Z.A.S.S.A.A.A.S.S.S.S.S.S.S.S.S.S.S.S.S.S.S.S.S.S.A.D.D.V.K.L.K.l.i.t e + + + # # # = = # + 9 9 1 1 2 3 3 3 5 5 5 5 5 y y 7 y 7 7 ,.y 7 6 %.7 6 %.&.%.y 7 ,.,.y y ,.,.y ,.,.,.-.=.=.=.=.=.-.;.,.;.,.=.=.=.=.=.%.y 9 9 = = w ( ) W.) s.s.s.v v s.p.p.s.h.7.h.h.h.f.8.h.h.h.h.d.p.q.q.",
"uXuXuXuXuXuXuXuXuXuXuXuXuXuXuXK J O.O.$.@.$.+.+.+.+.@.@.@.@.@.@.@.@.#.@.@.).#.@.[ [ ' ' h j - - $ $ $ $ $ - 0 j s s h h / ' ~.^.-X-X:X:X>XxX>XxXxXnXvXgXbXCXGXbXFXFXFXGXBXBXvXGXGXGXFXFXGXFXGXGXhXgXjX>X*X] h s 0 = = # * = = - u 4 0 h ' } ' ' ] *X~.Q.} ^.:XnXnXnXxXxX2XnXJXJXFXHXHXPXHXPXPXFXKXFXLXBXgXhX-X-X} } ' T T f f g f d - w w d f f j j - - - ; > * . * * * O + + 1 e s r r c e./.(.l.l.x.x.g.8.0.0.9.C.9.M.M.4.b.m.B.B.B.B.B.B.B.B.B.m.M.M.M.m.9.9.M.M.M.M.M.9.M.M.M.C.M.M.M.C.x.8.<.1.a a 3 < < 1 # # 1 = = * * * , , , % % % % % . . . O O , + 9 9 e e r r r t :.:.:.:.i.i.K.L.L.H.L.K.H.G.G.G.G.G.L.K.K.L.V.C.C.C.L.g.y.a 2 < < 8 r.y.g.L.C.V.V.N.m.B.Z.Z.Z.Z.Z.Z.Z.Z.Z.Z.Z.Z.Z.B.N.B.Z.Z.Z.Z.Z.Z.Z.Z.Z.Z.Z.N.m.m.m.m.m.m.m.m.m.Z.S.S.S.S.S.S.S.A.S.S.S.S.S.S.S.S.S.S.S.S.S.S.S.S.S.S.S.S.S.S.C.K.L.l.r.t 9 + + + O @ # # # 1 + 9 9 1 2 3 3 3 3 e y 5 5 y y y y y ,.y y y 7 6 ,.%.6 &.&.,.6 6 ,.&.,.7 ,.7 y ,.,.,.=.,.,.,.=.,.-.=.;.;.=.=.=.:.=.%.y e 9 9 V - U ) ).T.Y.x r.s.b b l q.w.p.0.h.h.h.8.6.0.h.h.h.h.f.w.<.q.",
"uXuXuXuXuXuXuXuXJ uXuXuXuXuXJ J J O.O.+.+.+.+.+.+.+.+.+.+.+.@.@.@.@.@.@.@.#.#.+.[ _ T Y f 0 - $ $ $ $ $ $ j j g g z ' ' ~.*X-X:X>X>X>X>XhXgXxXvXvXbXbXvXGXGXVXVXGXFXJXGXjXgXvXgXvXGXGXGXvXFXGXBXvXFXFXvX>X`.v s 4 # = = = = = - 0 4 j h } } ' / ' } _.} } ~.>XxXnXnXxX2XnXnXnXGXFXFXFXFXKXKXPXPXIXPXKXKXFXFXGXgXgXfX-X-X#.' _ T T f f f w f f d d d u - u f : - * - = * * O + # 0 9 q q t s./.(.l.k.d.h.8.8.8.8.8.9.9.C.M.M.M.M.m.B.B.B.B.B.B.B.B.m.m.M.M.b.9.9.9.M.M.M.M.K.M.M.C.M.M.9.C.9.d.<.a 8 4 e 2 1 # + # + # O , , , % % % % % % X X % % % % % , , , > 9 9 e e E / ) ) r 6 6 :.r.i.l.{.L.L.L.L.K.K.K.L.H.L.L.L.L.K.K.C.C.g.y.1.5 < 2 :.l.(.L.L.L.V.S.V.m.m.B.Z.Z.Z.Z.Z.Z.Z.Z.Z.Z.Z.Z.Z.B.B.B.B.Z.Z.Z.Z.Z.Z.Z.Z.Z.Z.Z.Z.Z.Z.Z.m.N.m.N.B.S.S.S.S.S.S.S.Z.A.S.S.S.S.S.S.S.S.S.S.S.S.S.S.S.S.S.S.S.S.S.D.C.L.K.E.r.r 1 + + o O @ @ @ # # # 9 9 9 < 3 3 3 3 3 5 5 5 y y 7 y y y y y y 7 7 ,.%.%.%.%.6 y %.&.&.,.,.&.,.y 7 ,.,.,.,.,.,.,.=.=.=.=.,.=.%.:.:.:.r y e 9 9 = w U ) ) Y.) x v s.v n n n q.p.6.7.h.h.h.8.h.h.h.h.h.p.6.q.q.",
"uXuXuXuXuXuXuXuXuXuXuXuXuXuXuXuX8XJ O.O.+.+.+.+.+.+.$.$.+.o.@.@.@.@.@.@.@.#.{ { ' T h h s - $ $ $ 4 - 0 j h h h h ' } } _.-X:XgXhXhXkXgXcXvXvXvXbXVXvXvXBXBXBXBXCXFXGXGXGXGXUXGXGXFXFXFXFXKXFXGXGXFXFXvXhX:X} h 0 # # @ # = = $ - 4 j h } } { / ' { } } ' ] -XhXhXgXgXhXgXvXvXgXgXvXGXFXKXKXKXKXKXKXKXIXIXIXPXKXKXLXGXUXjXlXsXsX-X@.[ _ T f f d f f f f f d f d d d w : - = @ @ = = = e r x ^./.a.<.<.<.<.8.8.8.8.8.0.C.M.b.M.M.M.B.B.B.B.B.m.B.B.B.m.m.M.M.m.M.m.M.M.M.M.C.M.M.M.0.0.9.x.4.1.8 8 5 q e 2 + + + + O O O O O . . X X X X X     X . % % % % , = V M C C C | o.o.[.) r r r :.e.e.E.l.l.H.H.G.L.L.L.L.L.K.L.L.K.K.x.x.y.1.5 < < :.u.{.L.K.S.V.S.S.S.m.B.B.Z.Z.Z.Z.Z.Z.Z.Z.Z.Z.Z.Z.Z.Z.Z.Z.Z.B.B.B.B.Z.Z.Z.Z.Z.Z.Z.Z.Z.B.B.B.B.B.B.N.S.S.S.S.S.S.m.m.m.m.m.m.S.m.m.S.S.S.S.S.S.S.S.S.S.S.S.S.S.S.D.P.L.K.u.r.r < + o + + O # # # # # # 1 1 3 3 3 3 5 y y 5 5 7 y 6 y y ,.y ,.7 7 7 ,.6 7 %.%.6 y 6 %.%.%.7 %.,.y ,.,.,.,.=.,.,.,.,.,.,.,.,.=.%.%.:.r e < , 9 = = w w e W Y.Y.e.r.W.b n n n n 1.7.7.h.h.h.h.x.h.h.h.h.p.p.q.q.",
"uXuXuXuXuXuXuXuXuXuXuXuXuXuXuXuXJ O.O.O.+.+.+.+.+.$.$.$.+.+.@.@.@.@.@.@.@.[ [ ' h j j j j $ $ $ p j s s h z ' h ' { |.-XsXdXhXgXhXZXBXvXvXGXGXFXFXJXBXGXGXGXGXGXGXGXGXGXGXGXGXLXGXKXGXFXGXKXLXGXGXKXGXvX>X,X*XQ.z j $ $ # = = = 0 4 j h ] ~.{ / { { Q.{ / z ~.-XdXgXgXgXvXvXvXBXVXGXFXKXLXLXLXLXKXKXKXKXKXPXPXIXPXPXPXPXKXKXLXGXjXhXhX-X-X#.[ ' ^ T P f f d d d U f d d d w - * @ O O 1 0 c W.^.a.l a 1.w.d.j.6.8.8.9.C.M.C.M.M.M.m.m.B.B.B.B.B.N.N.N.m.m.M.M.M.M.M.M.M.K.M.M.M.M.C.9.9.8.<.1.8 3 3 2 # # O O + O O O O O . . X     X . .   X X X   X % % % % V N C N C Z o.o.o.C C U r r r :.r.u.l.l.L.L.L.L.L.H.L.L.K.g.g.x.x.f.1.y < 4 8 w.K.K.K.C.m.A.S.S.m.m.Z.Z.Z.Z.Z.Z.Z.Z.Z.Z.Z.Z.Z.Z.Z.Z.Z.Z.Z.B.B.B.B.m.Z.Z.Z.Z.m.m.N.m.m.B.B.B.B.N.B.B.V.D.S.S.D.N.m.m.m.N.Z.S.n.C.D.S.S.D.S.S.S.S.S.S.S.S.S.S.S.L.K.C.g.e.t e = + o . + O O # 1 = # # 1 3 3 3 3 3 y y 5 8 y y 7 y 7 y y ,.y 7 y y 7 8 7 ,.7 7 7 ,.,.%.6 6 %.,.y ,.,.,.,.=.=.,.,.,.,.,.,.=.=.>.:.r y < + # = > - w w w / [.T.Y.r.x b n n n n 7.7.6.9.h.h.h.x.h.h.h.p.p.6.w.p.",
"uXuXuXuXuXuXuXuXuXuXuXuXuXuXuXuXJ O.O.O.$.+.+.+.+.+.$.$.$.+.$.@.@.@.@.@.@.@.[ / h j $ $ $ 4 4 j p z z h z ] ] ] Q.*X-X:X>XgXZXZXgXGXGXGXGXGXFXGXFXGXjXGXFXFXFXFXFXGXUXGXjXGXGXGXGXGXFXGXGXLXLXGXFXGXGXvX>X>X>X*X*Xz 0 $ + = = 0 - 4 0 h { @.{ / { { _.{ / h / ' _.-X:XdXgXgXcXBXGXFXFXKXKXKXKXKXKXKXGXKXKXPXKXKXKXKXKXIXIXIXPXPXKXKXUXZXhXlXdXsX|.+.( Y Y d d j w d f d d d u - * * = 9 9 k c ) a a a a a q.w.<.<.0.9.0.9.M.M.M.M.M.m.m.B.B.B.B.N.V.V.V.M.4.M.M.M.M.M.C.M.M.m.M.9.9.9.0.8.1.8 8 3 2 1 + O O O O O O O O . . O . , X . X X X   X % % % % % % % > V % , V V N Z V > V : = 9 9 e 6 r.e.i.i.K.L.L.L.L.G.H.b.g.f.h.d.n 8 3 3 a 1.K.L.P.S.S.Z.A.A.A.S.m.Z.Z.Z.Z.Z.Z.Z.Z.Z.Z.Z.Z.Z.Z.Z.B.B.Z.Z.Z.Z.B.B.N.B.Z.B.m.m.m.m.m.m.m.N.B.B.N.N.B.N.m.S.m.N.m.m.m.m.m.V.S.m.V.D.D.Z.N.S.S.S.S.S.S.S.S.S.S.S.V.K.K.y.r.t 9 < + + . + O O , , 1 + # 1 9 3 3 3 3 5 5 5 y 8 y y y y y ,.y y y 7 y 7 8 8 ,.y y y y 6 6 6 6 %.,.,.,.,.,.=.=.=.,.,.,.,.,.;.=.=.:.6 y < + + = = w w C U C ) [.T.Y.x l b v n n n n 7.7.9.h.8.7.x.h.h.x.p.6.p.p.p.",
"uXuXuXuXuXuXuXuXuXuXuXuXuXuXuXuXqXJ O.O.+.+.+.+.O.+.+.+.$.$.$.$.$.@.#.@.@.@.{ z h $ $ $ $ 4 j s h v ] ] ] } } -X-X-X:XdXhXjXGXGXGXGXGXGXGXGXGXGXGXBXZXGXFXFXFXFXFXFXGXUXkXGXGXUXGXFXGXKXKXLXLXKXFXGXFXJXvX>X,X-X*X~.s $ $ $ = $ $ 4 4 h ' #.{ / { ' #._.) f 0 q g ' `.:X>X>XgXBXGXFXFXKXKXKXKXKXKXFXFXKXKXFXFXKXKXKXKXPXPXIXPXKXPXPXKXKXLXLXGXGXUXhXsX-X_.+.T f d d f f P U P P d > > - = 9 e 4 3 8 4 8 a q.p.p.3.8.0.0.9.9.&XM.M.M.m.m.N.N.B.N.V.S.V.V.m.4.b.M.M.M.M.M.x.9.9.9.9.0.0.8.1.8 8 7 3 1 + O O O . O O O + @ O . @ # = = * O @ O O , % % % % % % % % % % X % V > > % % , , % , , 1 < 3 r 1.:.i.g.i.L.L.K.H.g.y.y.w.1.8 3 < 4 1.l.K.K.S.Z.Z.Z.Z.Z.m.S.Z.Z.Z.Z.Z.Z.Z.Z.Z.Z.Z.Z.Z.Z.Z.Z.B.B.Z.Z.Z.Z.Z.Z.Z.m.m.m.m.m.m.m.m.N.m.m.N.V.N.V.N.m.m.m.V.V.V.D.m.V.V.S.S.m.D.C.m.V.S.S.S.S.S.S.S.S.S.S.S.V.K.K.g.w.:.3 < 1 , + O + O + = # 1 + + # < < < < 5 y 5 5 5 8 8 5 y y y y ,.y ,.y 7 7 7 7 y y 7 y ,.6 %.6 %.%.%.,.&.,.,.=.,.,.,.,.,.,.,.;.=.=.:.t y < + + = = : w f w T ( Y.T.Y.x l b s.b 7.n 7.n 7.6.7.7.8.h.@X#Xh.h.p.p.p.p.",
"uXJ uXuXuXuXuXuXuXuXuXuXuXuXuXuXuXuXqX+.+.+.+.+.+.+.+.$.+.$.$.+.@.$.$.#.@.} ' T j p $ $ $ 4 4 s ' [ } ~.} } *X-X-X-XdXhXgXjXGXGXGXUXGXGXBXGXjXGXGXGXGXGXFXGXFXFXGXGXGXGXUXGXGXFXFXKXKXKXKXKXLXKXFXJXGXJXJX>X-X,X:X*Xs $ @ $ $ $ $ - $ s z ' ] ' ) / { ~./ d @ @ - w / } |.>XhXBXGXBXZXZXFXKXKXKXKXKXKXFXKXFXLXKXKXKXFXKXKXPXKXKXKXPXIXPXKXKXKXKXIXIXGXGXjXlX|.|.T f f d U T T P d f d - = = # # 1 4 4 4 q k q.q.6.6.8.0.9.C.C.M.M.m.m.m.N.N.V.V.V.S.V.B.M.M.M.M.M.M.b.9.9.9.9.9.8.8.8.<.8 8 5 3 3 1 O O O O . . O , * @ @ = - w : j j - = @ * * % % % X % X % % % % X % , , % . , % > V V % V 1 9 < 3 5 :.:.u./.l.l.k.e.r.1.a a 4 < 8 a 3.x.K.V.S.m.Z.Z.m.Z.m.m.Z.Z.Z.Z.Z.Z.Z.Z.Z.Z.Z.Z.Z.Z.Z.N.Z.B.Z.B.Z.Z.B.Z.Z.m.m.m.m.N.V.m.N.V.m.V.D.C.V.V.D.V.m.C.m.V.V.C.V.n.V.D.S.V.C.V.n.D.D.S.S.S.S.S.S.S.S.D.J.D.D.H.y.i.t 3 < < # = = O O @ 9 # , 1 # = 1 < < < 3 3 5 5 5 5 5 y 7 7 7 y y y 7 y y y y y 7 7 7 y y ,.%.%.%.%.%.&.=.,.,.,.=.=.,.=.=.=.;.;.-.=.:.6 9 < # + = = : w w g ( { ) Y.) x x v s.s.n n n n 7.6.6.6.6.h..X.Xh.7.6.p.6.p.",
"uXuXJ uXuXuXuXuXuXuXuXuXuXuXuXuXuXpXpX$.$.$.$.+.+.+.+.$.+.+._ +.+.@.#.#.$.{ ( h 0 0 4 4 $ 4 $ j ' #.} } } Q.-X-XhXgXgXgXjXGXGXGXGXGXUXGXGXUXGXGXUXGXGXGXGXGXFXGXGXGXGXGXGXUXGXLXKXLXLXKXKXKXKXFXFXFXJXFXFXxX>X,X,X*Xz $ $ O $ $ - j $ j j z ] ] ' / } ~./ j @ # - = = j T #.dXlXkXkXjXjXFXLXKXKXKXKXKXPXKXKXKXKXKXKXLXLXKXKXKXKXKXIXPXKXKXKXKXKXPXPXPXKXKXLXjX-X|.[ T Y T / ~ P f T d u - u $ = = 0 w 0 0 s z l l <.6.0.9.9.9.M.M.M.m.m.m.S.S.S.S.S.m.V.K.M.M.M.M.M.m.9.9.9.0.8.<.3.1.a 7 8 < 3 < + + . . . . @ @ - - u $ - j j h j j j - $ * - > * % . % . % % % % % % % . % % > > C B Z V M V 9 = 1 3 y 5 t Y.Y.r.x c r 8 3 2 < 5 1.3.4.V.L.D.m.m.m.Z.Z.N.m.m.Z.Z.Z.Z.Z.Z.Z.B.Z.Z.Z.Z.N.N.m.N.A.N.N.N.m.m.Z.m.m.m.m.S.C.D.C.K.C.V.D.m.C.V.V.V.C.m.n.C.C.V.V.V.C.C.n.V.D.D.D.D.V.n.D.D.D.S.S.S.S.D.D.P.P.P.G.F.i.u.r.3 + + + = + , # = 9 9 , # = = # 1 2 < < < 3 5 5 5 5 5 5 8 6 7 7 7 7 7 y 7 7 y 7 6 y ,.7 ,.%.%.%.%.%.,.,.,.,.&.,.=.=.=.-.-.=.-.:.:.t 5 9 + = = , = = - w U { { ) ) z x l x b b n n n n 7.7.6.7.7.7.XX.X7.7.7.7.6.p.",
"uXuXJ J uXuXuXuXuXuXuXuXuXuXuXuXuXqX$.$.$.$.$.+.O._ O.+.+._ O.+.+.+.#.#.@.#.{ z j 4 $ 4 p $ j j } #.#.#.#.-X-X-XgXgXjXjXGXGXGXUXGXLXGXGXGXGXGXGXjXjXvXGXFXGXFXGXGXGXGXGXGXGXGXGXGXGXGXGXGXKXKXKXFXGXGXFXJXnX,X,X,X*Xl $ @ @ $ $ $ p 0 j s z ] v v ' ] } ' h j w - = @ @ u Y [ -XsXlXjXGXGXLXLXLXUXGXGXGXGXKXKXKXKXKXKXKXKXKXKXKXKXKXKXKXKXKXKXKXKXKXKXKXKXKXKXGXZXdX#./ f f U T U g g u u u - * O # : C w g z c n n <.6.9.9.0.9.M.M.m.m.m.S.S.S.S.S.V.V.V.M.M.M.M.C.M.9.9.0.0.8.1.1.8 8 8 < < < + o . . . @ * - - u j h j u h j j j j 0 $ - - - - > - > * * % * , * % X .   % % > : C | ..X.| Z Z C C 9 < < e r 9 e e e e 3 < < 4 a <.0.C.V.N.N.N.Z.Z.Z.m.m.m.Z.Z.Z.Z.Z.Z.Z.Z.Z.Z.Z.Z.Z.Z.N.m.m.S.S.S.S.A.m.m.m.m.V.D.C.D.C.b.C.C.b.C.C.C.M.n.C.C.C.D.C.C.V.V.n.D.V.L.L.L.P.P.L.C.C.D.C.D.D.C.D.V.C.J.J.P.D.K.K.K./.r.5 + + O O O , + # # < 1 + # # # 1 1 1 1 1 2 5 5 5 5 5 5 5 7 6 7 7 7 8 8 8 ,.7 7 6 6 7 y 7 %.%.%.&.%.,.,.,.,.,.,.,.,.=.=.=.=.&.:.%.y 3 9 = = = , = = = 0 f T ] ) z k k k l l n n n n n n 7.6.6.7..X.X.X7.7.6.6.6.w.",
"uXuXuXuXJ uXuXuXuXuXuXuXuXuXuXuXuX8X$.|.$.$.O.O.O._ +. .O._ ~ O.O.@.#.@.@.@.( g $ $ $ $ $ $ $ h ' #.#.#.-X-XdXhXjXBXGXGXGXjXkXjXBXGXjXGXZXZXZXUXGXGXGXFXGXGXGXGXBXjXGXUXBXjXkXGXGXGXGXGXLXKXKXKXFXJXGXFXBXnX>X#X*X*Xl j @ @ $ $ $ $ p j h z ] } z ' ] ' ( ( / U h - - = @ $ u ~ +.|.lXjXjXLXKXLXLXGXKXKXKXKXKXKXKXKXKXKXKXKXKXKXKXKXKXKXKXKXKXKXKXKXKXKXKXKXPXPXKXGXjX-X[ g h T T U h h d d d - , , = w w f g k a a 1.6.9.9.0.9.M.C.N.B.m.A.S.S.S.D.V.V.V.V.9.9.0.0.0.0.8.8.6.1.8 8 5 5 3 3 2 < + o X . % * * * u u j h h j j j j j j j u - - - > - : : - * * * * * * . X X % % % , > V Z |  .W C o.) r e e 3 2 1 1 < 1 2 3 < < 8 1.d.0.M.V.m.B.N.S.A.Z.N.S.m.Z.Z.Z.Z.Z.Z.Z.Z.Z.Z.Z.Z.N.N.N.N.A.S.S.S.S.m.m.m.m.m.D.C.C.b.C.C.b.b.K.D.V.C.C.V.D.C.D.V.V.D.K.L.L.K.L.K.L.L.L.L.L.K.C.D.K.P.P.P.P.P.P.P.P.J.G.G.H.k.r.t 5 + o + X O + + = + + 1 + + + # # 1 2 1 1 3 3 3 5 5 5 y 5 7 7 7 7 ,.7 7 6 7 7 ,.y y 7 7 7 6 %.%.%.%.,.,.,.,.,.,.,.,.,.=.=.:.%.6 5 5 9 9 = = = = = * = - w g / / / z k s c c n n 7.n n n n 7.6.7..X.X7.6.6.7.6.6.p.",
"uXuXuXuXJ uXuXuXuXuXuXuXuXuXuXuXuXuXO.O.O.O.O.O.+.O.O.+.O.^ ^ ^ o.+.$.@.@.{ _ h j 0 j $ $ $ $ f [ #.$.-X-XdXgXgXkXjXGXGXGXjXjXkXjXGXGXvXZXZXGXGXGXGXGXvXvXvXjXgXgXhXjXvXBXjXgXjXUXGXKXLXKXKXFXGXGXvXvXvXvXxX:X*X*Xs.a $ $ @ $ $ $ 0 0 j j h ] } / ] ' ' / ' { ' T / h j * @ @ - h [ -XsXlXjXGXGXGXGXLXKXKXLXLXKXKXKXKXKXKXKXKXKXKXKXKXKXPXPXPXPXPXPXPXPXKXKXKXKXKXKXKXGXdX_.' T / / / / T g g f : - = = = : 0 j 4 8 a n 6.0.9.C.V.M.m.m.m.S.S.D.C.D.C.D.V.C.M.0.9.8.8.0.8.8.<.8 3 4 3 y 5 q 1 + + X X O * * @ @ - - - - u j p u u j f j j u - - - - ; - * * * * - * * * X X X . . % X % > N N B C W W W ) ) r 9 + + + 1 3 3 < 2 8 <.l.K.C.M.m.m.m.Z.Z.Z.N.m.m.m.m.B.m.m.Z.B.Z.Z.Z.B.N.m.N.N.m.m.m.S.m.m.m.m.m.C.C.C.D.n.C.C.K.L.L.K.K.K.C.b.C.L.L.L.L.C.b.C.g.g.g.K.g.g.K.L.L.L.L.L.K.H.H.b.L.L.L.L.L.L.L.L.L.K.e.r.3 < + + O O O + 1 + # = + = # # # # # 1 1 < 3 3 3 3 y 5 5 5 5 5 7 y y y y 6 7 7 y y 6 6 y 7 6 6 %.%.,.,.,.,.,.,.,.,.=.=.:.:.:.6 y 3 < < 9 = = * * , = = - w 0 g z / z c l l x b n b 7.n n n 7.6.7..X7.6.6.6.6.6.7.q.",
"uXuXuXuXuXuXuXuXuXuXuXuXuXuXJ uXuXuXJ O.O.J O.O.O.+.O.O.+.! ~ ~ _ +.+.@.+.{ [ T j j 0 4 - $ $ h [ #.|.-XsXkXgXgXgXjXjXjXjXjXZXGXGXGXGXBXGXGXGXGXGXjXvXvXjXgXhXhXhXvXvXGXGXvXgXjXGXKXKXKXLXKXGXGXGXgXxXvXvXgX,X(.!.s.k $ @ @ - - j p 0 $ 4 h ] } ] { { ' { ' { ' ' ' { T f u - # - g ( @.pXsXkXjXZXGXUXKXLXKXKXKXKXKXKXKXIXKXKXIXKXKXKXPXPXIXPXKXPXPXIXPXPXPXPXPXKXKXIXIXFXgX-X} ] { ' T T h h P U w = , @ - = 0 0 4 p a <.8.0.9.9.9.M.M.m.m.m.m.m.C.C.b.M.C.C.0.8.<.3.p.3.6.a 3 < 3 3 3 3 9 # + O O O * * - * = u d u - u u p u u j j j u j u d u - - * * * > = - - * * * @ % . % X % % % % & , 9 w e C ) ) e # , + 1 , < < 8 a <.g.L.K.C.V.m.m.m.B.B.B.m.N.m.m.B.m.B.B.N.Z.Z.Z.Z.B.B.m.N.N.N.V.m.D.m.M.C.b.m.C.K.C.C.C.K.L.L.K.K.g.K.K.4.b.g.g.l.4.3.4.y.8.3.6.3.6.<.<.<.i.g.g.g.g.K.l.l.K.H.i.i.i.H.l.i.K.l.l.e.k 3 + < O o O O O # + + , # # = # # # # 1 1 9 3 3 3 5 y 5 y 5 5 5 7 y y y y 7 y y y ,.7 6 6 6 6 6 7 ,.6 6 6 y ,.,.,.=.&.:.:.:.6 5 e < < < 1 = = , * * , = - w = j h / z k l c b b b n 7.n n n n 7.7.XX6.6.6.6.6.7.p.p.",
"uXuXuXuXL uXuXuXuXuXuXuXuXuXuXuXuXuXuXO.O.O.O.O.O._ O._ O.` ! ^ _ +.+.+.+.+.[ / g j 0 - - # $ j _ $. XsXsXkXhXgXjXgXhXgXjXjXGXGXKXGXUXGXvXGXJXGX>XhXjX>X>X>XhXvXgXvXvXGXGXBXjXGXGXKXKXLXLXKXKXGXBXhXvXvXvX2X>X,X*Xv g 4 $ @ u $ $ p 4 $ 4 z ) ~._.} @.W.~.} { ' ' ' } [ ' T f : - : f T [ @.sXlXkXUXLXLXLXKXPXKXKXKXKXKXKXKXIXKXKXKXKXKXPXKXPXKXKXKXKXPXKXPXPXPXKXKXKXKXFXFXvX>XQ.} ' / / T h U T U w * O @ @ = $ $ 4 a a d.8.9.9.9.4.M.C.m.V.m.m.b.M.C.K.M.9.8.p.6.<.q.1.8 4 3 < 3 3 2 1 # * O O O * * : : : u j d j - $ - j u j p u - - u - j u - - - - - ; - * > ; : - > % X % % % % % % % % , , + = e C = O , 1 + + + 3 l w.f.K.L.C.C.N.B.M.m.m.m.m.m.B.N.N.B.B.B.B.B.Z.A.A.A.V.N.m.N.V.V.V.n.C.C.C.C.C.K.L.L.b.g.K.g.K.g.g.d.y.g.f.w.y.d.y.<.1.1.1.1.1.a :.8 a 8 1.a 1.:.1.w.y.u./.l.(.u.i.i.y.i.w.e.k.u.e.r.8 2 + + O   X @ O + # 1 1 + = # # 1 = 1 1 9 1 3 < 3 3 3 3 5 5 5 5 y 7 7 7 6 y y 7 y y 7 7 6 6 6 ,.7 7 y y y ,.,.,.%.:.:.:.:.t y 5 3 < 1 + + , = # = = * * = = = 0 z / c k c l b b n n n n n n n 7.7.7.7.6.6.7.6.7.p.q.",
"uXuXuXuXuXuXuXuXuXuXuXuXuXuXuXuXuXuXuXO.8XO.J O.O.+.+. .O.+._ _ ^  .+.+.+.+.[ ~ f - # = * @ $ d [ $.|.sXlXlXhXhXjXgXhXkXjXGXGXFXGXGXGXvXvXvXvXjXgXhXvX>X>X>X>XvXvXvXvXFXGXGXvXGXLXUXLXLXUXKXKXGXGXgXhXgXcXhX,X,X!.v s j 4 - $ p 4 4 0 $ 0 s / ~._.).~.)._.~.{ ' ' / ' } +.+.( h w - - : - d W +.sXkXkXUXUXPXPXKXKXKXKXKXLXKXKXIXKXKXKXKXKXKXKXKXKXKXKXKXKXKXIXPXIXKXFXFXFXFXFXvX:X} ' { ] ' z T / / f : > * @ * # $ 4 4 a q.8.g.x.0.b.M.V.D.m.C.n.b.M.b.0.0.0.8.p.<.q.a 8 4 < 3 3 e 3 1 # + O O O * * - u u u d u j u - u u j u j u u - - - $ u - - - u - : - - - - : : : - * % X % X % % X . % , = , O O = , O , = < + 2 k q.k.f.h.XXC.V.N.B.B.B.m.m.m.M.m.V.V.m.B.m.B.B.Z.A.V.S.D.V.V.V.V.V.V.C.C.K.K.C.K.K.x.l.g.j.g.g.k.p.w.w.w.q.r.q.q.q.r.t 8 r a a k 8 q r 8 p 8 5 8 5 p a l r.e.s.e.a.k.a.q.t r.r.q.q.t q 1 + + O O . * , O , + + + 1 + # = + # # # 9 1 2 2 3 3 3 3 5 5 5 5 5 5 6 6 7 7 y y ,.y 7 7 7 7 7 7 7 y y 7 y ,.&.,.:.:.:.:.6 6 5 1 9 1 1 + + # # = = = = * = = = 0 h / z k c x v b 7.n n n n n n 7.6.6.7.6.6.6.7.p.s.q.",
"L L uXuXuXuXuXuXuXuXuXuXuXuXuXuXuXuXuXO.O.O.O.O.O.O._ O. . .O. .Q Q ~ +.+._ _ _ Y - # $ @ @ * d [ #.|.pXsXlXlXhXkXgXgXkXjXZXGXGXvXjXvXjXhX>XhX>XhXhXvX2X>X>XvXvXvXvXvXFXGXvXBXGXGXGXGXKXKXKXKXGXGXvXgX>XxXxX:Xz.s.b s 0 0 0 0 $ j $ 4 4 4 w g / _.{ ~._.~.~.{ { W.} ' { #.#.{ ( f - = = O = d ~ |.sXlXlXkXUXLXKXKXKXLXLXLXKXKXKXKXKXKXPXKXKXKXKXKXKXKXKXKXPXIXPXKXPXFXFXFXFXFXFXnX-X~.~.} ] ' / ( ) / P : * @ @ @ @ # 4 q l p.8.9.9.C.C.C.V.C.C.b.b.4.3.g.0.8.d.p.l a 3 4 3 < < e e 9 1 + + O O O * ; : : u f d u u - - $ u u - - $ - - - - - - - - - - - - : : - - - : - * * * . . % X X   X . , , O O O O , = , = , 1 3 c s.k.8.0.9.V.m.B.B.B.B.B.m.m.C.M.M.M.M.m.m.m.B.m.N.M.N.V.V.V.V.V.K.b.C.C.b.K.l.j.k.e.k.a.a.e.e.q.r.q.r.:.c k k k k s q q s k s q q s s g g s 4 4 q p p a s k k c W.!.Q.x k k r.c q 2 2 + + O O @ * * * = , , 1 # # # # + + = # # # 1 2 1 2 2 < 3 < 5 3 5 5 y 7 6 6 y ,.,.y y y y 8 8 7 8 y ,.y y ,.,.=.=.:.:.:.t 5 3 < 1 1 # , 1 # = = = = = = = = = - g z z c k c c c l n n n n n n n n 7.6.6.6.6.7.7.s.q.q.",
"uXL uXuXuXuXuXuXuXuXuXuXuXuXuXuXuXuXJ  XJ O.O.J O.O.X.! !  . .! ! ! ~  .+.[ _ _ ` f u - - @ * D +.|.sXsXsXlXhXhXgXgXgXkXjXGXvXvXgXvXvXgXhX>X>X>XhXvX2X>X>X>X2X2XvXvXvXvXBXvXvXGXGXGXLXLXPXKXFXFXJXvX>X>XvX2X,X*Xb a s j w 0 0 4 j 4 0 4 j 0 0 / #.{ ~.@.{ } } ~.~.~.{ / { #.#.{ T u - = = - d Y [ $.sXsXsXkXZXGXKXKXLXLXLXKXKXLXKXPXPXPXKXKXKXPXKXKXPXIXPXPXPXPXKXKXPXKXFXFXFXFXFXVXhX-X} ] ] } { { { ( I - * @ @ @ @ # $ p 1.6.8.0.0.C.b.M.b.C.b.4.4.8.4.f.<.w.r.k 3 2 < + < < # 9 2 # + + O O * * : : u d f d f u u j - u - - $ - * ; * u - - - - - : : - - : : - - * * * * - * * > * % % . X . X . O O @ = * * = $ 4 p k l w.<.8.9.M.M.M.b.m.m.m.N.V.M.M.C.M.M.4.M.M.b.M.M.M.b.m.m.m.M.b.C.C.4.g.g.i.u.u.e.r.x c k k p a p 8 5 3 3 s q q q j 0 f h h g g g h T T h h h z h h s p p j s s z z ] z s s z h q 4 1 # # # * > * * * - = # # # # # # # # # # + + 1 1 1 < 9 1 < < < 3 3 5 5 y 6 6 6 7 7 7 7 5 5 y y y 7 y y y y ,.,.:.:.:.:.t 5 1 < < < = = = = 1 + 9 9 w = = = = = 0 g h c c k k l l l a n n b n n n n 7.7.7.7.7.7.s.q.l q.",
"J uXuXuXuXuXuXuXuXuXuXuXuXuXuXuXuXuXuXJ J F O.O.O.X.F ` O. .~ Q ! ! ~  . .O._ ` ~ f u @ @ = - : _ |.sXsXsXsXhXhXhXgXgXgXjXGXvXvXhXhXhX>X>X>X>X>X>X>X2X2X>X>X>XvXnXvXvXvXvXvXjXgXUXGXUXKXKXGXFXFXBXvX>X>X>X>X>X*Xs.c k c g - # 0 j $ $ 4 $ j s g h / ( ( ) { ~.~.~.~.{ ' ' ' [ [ { ( f - = - f P I ~ +.$.#.lXZXLXLXLXKXLXLXKXLXKXKXKXKXKXKXKXKXKXKXPXPXPXPXPXKXKXIXPXPXPXKXFXHXIXHXFXvX,X*Xs.W.Q.W.{ { _.[ I : - > @ @ # 4 4 a 1.6.8.0.9.M.M.4.0.9.g.g.8.8.6.<.1.a k q # + + + # # # = = , O O * - - u Y d f d f f f h u $ - u - * * * > - * - ; > - : u u u u : - ; ; * - > & * > > : : : * @ . . . . X @ * * * * # 1 4 k l a 1.8.8.9.9.4.M.M.M.b.M.M.M.C.M.M.0.9.9.0.4.b.M.M.M.M.M.M.M.C.M.M.0.g.d.r.r.r.l k e 2 1 # < 3 3 4 2 3 3 j j j g g h T T T / U T T T T T T T U h h g h g g h j j h / / h h 0 e w - - 0 0 0 - * - > > - > = @ @ # = # # 9 + + + + # = # 1 1 9 9 < < 3 3 5 5 y y 5 5 5 y 8 8 7 5 5 y 7 y y ,.y ,.,.:.-.:.:.6 6 6 9 1 1 , = = = = # 9 9 9 9 9 = = = # 9 0 j k k k l c c a a a a a a n n n n n n n n s.s.l c l c ",
"J J uXuXuXuXuXuXuXuXuXuXuXuXuXuXuXuXJ J J F J O.O.! Q Q ! Q Q Q ! Q ^  . .O._ ` Y Y - @ @ @ * : Y [ |.sXsXsXdXhXhXgXgXgXhXgXgXgXgXvXgXhX>X>X>X>X>X>X2X>X>X>X>X>X2XvXvXvXvXvXvXGXGXGXGXLXGXGXFXFXGXvXhXhX>X2X2X>X(.b k z g q 0 0 4 4 p p j 0 0 0 0 g h T ( ' ' ' ] } } } [ [ [ { { ) h u = - w P I Y ^ +.+.lXUXFXKXKXKXKXKXKXKXKXKXPXPXKXKXKXKXKXKXKXKXKXKXKXKXKXPXKXKXPXPXFXFXPXPXFXFXbX:X=X!.!.s.s.x } { _ T f - * @ * $ < y 1.<.8.0.0.0.M.b.4.9.g.f.f.f.p.1.a 4 r 4 $ + + $ # # = = = # O = - u u d f f d f h f u d d u - - * % * * > ; : ; - : : : u u ; = * * - * - ; ; ; * > > > * * ; * * % > * * * @ O O O @ 4 4 4 4 a 1.8.8.M.C.b.M.M.m.M.M.4.9.0.M.C.9.0.9.9.9.4.M.M.M.4.0.0.0.9.0.3.<.1.a 8 5 3 < 9 1 + 1 # # 1 0 0 0 0 s g h h h g f j j j f j f f g g g g g g h j f j j j j 0 - - 0 w 0 - = - d d 0 0 0 w w : : ; - : : - = - = = # # # 0 # # + + O O + # # 1 1 3 3 3 3 3 5 5 y y 5 5 5 y 5 y 7 y y ,.y ,.y y :.:.:.:.6 y 5 3 3 1 1 = = = = = 9 9 9 9 9 9 9 1 # = 9 9 q k k k k a a 8 a a a a n n n n n n n n n n 7.x c c l ",
"J J J J J uXuXuXuXuXuXuXJ J uXuXuXuXJ J O.K ` ` ! Q ! Q Q Q Q Q Q ! ! ^ ^ ~ ` ! Y Y u @ @ @ = - w U { -X-X-X-X>XhXhXhXhXhXgXhXhX>X2XxXxX2X>X>X2XxX2X2X2XxX>X>X>X>X>XgXvXvXGXGXGXGXGXFXKXGXGXGXFXGXxXxXhX>X>X>X2X,Xs.4 q g w 0 # 4 $ j j 0 4 0 0 0 0 q / ( { } ] { { } } } { { { ] { { T 0 = - : u I W ^ +.sXkXGXKXKXKXKXKXLXKXKXKXKXPXKXKXKXKXFXKXKXKXKXKXPXPXPXKXKXKXKXKXPXIXPXHXHXHXJX2X1X=X(.^.W.r.' { { ' ^ d : - * + $ < a 1.3.<.8.0.9.9.0.g.g.f.p.d.w.1.a 4 2 4 $ $ + # # # = = @ O = - w d u d f d Y Y d h f f f u u - @ % % > > ; : : : : : : ; - * * * * ; ; ; ; ; ; ; ; > % * > > > * , > * % % * O @ @ 2 4 4 3 4 a 6.8.0.9.M.m.M.M.m.m.M.M.9.0.M.M.M.M.9.M.M.M.b.M.M.M.M.C.9.9.3.<.1.a a 3 # < + + , = = $ - 0 0 0 0 g g f j s j s s s s g g h k h h h T / T / h / T T h g g f j 0 0 0 = @ # = w w - w w w w I I I I u d d d f s f 0 - 1 0 - - = # O # , + 1 < < 1 3 3 3 5 5 5 5 3 5 5 5 5 y y y 7 y y y y 7 6 :.:.:.6 5 5 3 9 1 1 = = = = = V 9 9 9 9 e 9 9 1 = 9 9 0 q r r r r 8 8 8 8 8 8 a b n n n n n n n n n n b x l l ",
"J J J K uXuXuXuXuXuXuXJ J J 8XuXuXuXK K O.! ! ! Q Q Q Q R R ! Q Q ! Q W ^ ! ! F u u - * @ * u - - d ) _.-X-X-X:X>XhXgXhXgXhX>XhX>XnXnXxX2X2X>X2X2X2X2X>XxX2X2X>X>XhXvXvXvXGXGXFXGXFXGXGXGXGXBXGXGXvXnXgX>X>X>X>X,Xs.4 2 0 0 0 # 4 j p j 4 $ $ u j - 0 s / ' ~.{ } { { { { { ' { { { { ' f - * - : : R ^ [ |.lXGXKXKXKXKXKXKXLXKXKXKXKXKXKXKXKXKXKXKXKXKXKXKXIXKXKXPXKXKXFXFXFXHXFXHXHXJX2X1X<X=X(.a.q.x v ] } [ ' Y f - O $ 4 4 a 6.<.<.6.<.0.0.x.h.d.q.1.n a p 4 4 # # $ # # @ + = # @ # = d d f f h Y Y ! Y f f f f u d u * % % % % > ; > > ; ; ; : ; > > * > > ; ; ; ; ; ; > ; > > % > > > V > > % % % * @ @ 2 q p a 8 p 1.0.0.9.9.M.M.M.B.&X&XoX&XM.9.M.M.M.V.M.&XM.oXM.M.&XM.M.M.M.M.0.3.<.a 8 4 + # = O , = > w f f s j f g h z s b z x ] v Q.~.~.{ Q.~.~.^.~._.^.~.`._._.@.#.{ } { ( / ) g f 0 0 - 0 = = - - : w I I I I Y f f u f f h h g f 0 0 0 = = # # # + 1 + < 1 1 5 r 5 5 3 3 3 3 5 y y y 7 7 7 7 7 %.t %.:.:.:.t 5 3 < < 1 1 9 = 9 > = = 9 9 9 9 e e 9 9 9 = 9 9 e q r r r r t 8 8 8 *.8 a b v n n n n n n n n b b z c l ",
"J J J K J uXuXuXuXuXO.K J J O. X XJ K K K F ! ! Q Q Q Q R R ! Q Q E Q ^  .~ ! F u u - - # = j j - g ' _.*X-X-X:X>XhXgXhX>XhX>XgXnXxX2X2X>XxX2X2X2X2X2X2X>X2X2X>X2X>XvXxXvXvXvXvXGXFXFXGXjXvXvXvXvXvXxXgX>X>X>X>X,Xs.4 # # 0 0 # $ $ 4 $ $ $ $ 0 j j - 0 g / )._.{ / / ] { ] ' ' { { { { h u @ @ - : I T +.+.sXLXLXKXKXIXKXKXKXKXKXKXKXFXKXKXKXKXKXKXFXKXKXKXPXKXFXPXPXKXFXFXFXFXFXHXHXnX2X<X<X=X<X(.z.s.c v ] { { ' T d # @ 4 4 a l n 1.1.<.<.8.z.z.w.q.a a p p 4 4 # # @ + # @ @ @ # = - d f d f u Y Y f h Y h h f f f d : * * * * V & > > > > > > > * ; * * ; ; ; : ; ; - * > > ; > > > > > > > > % % * @ @ $ 4 k a a n 1.6.XX9.9.M.M.M.M.m.&XZ.&XB.V.M.m.M.V.N.B.oXB.&XB.&XM.M.M.M.M.M.9.0.6.a 4 3 $ = e : , , w U h z h z z ) ] W.^.!.*X*X:X:X>XxX>XdXdXxXcXgXxXcXxXcXcXcXkXhXhXdXhXdXdX:X-X`.@.) ) T g 0 9 = = : 0 : I : d u u f h f g h h h g g f g 0 - # = # 1 , # + + 1 e r r 5 3 5 5 5 5 7 7 7 7 ,.6 6 %.:.:.:.:.:.:.7 y < < < < < , = 1 9 9 9 9 9 9 9 e e 9 9 9 9 9 9 e e r k c t r r t 1.1.8 a l v n n n n n n n b n b b c z ",
"J J K J J J uXJ J  X XO.J O.O. XO.J K F F ! ! ! Q ~ W  .R ~ Q ! Q E E W  .O.` Y u u - - = = - j j s ] Q.~.W.~.^.-XdXhX>X,X>X>XhXvX>X>X2X2X2X>X2X>X>XxX>X2X2X>X2X2XxX2XvXvXvXvXvXvXGXJXGXvXgXvXvXvXvXnXxX2X>X2X2X2X*Xa + + # 4 = - $ $ $ $ @ $ 4 - $ = $ j g ' { / g h / ' ' ' ' { { { ' h 0 = - - * : W +.+.sXLXKXKXKXKXKXKXKXPXKXKXFXGXFXKXKXFXKXFXFXFXFXKXKXKXFXPXKXFXFXFXJXFXFXHXJXMX3X<X<X<X<X=X=Xz.x v ] ] ' } { T w @ $ 4 a a n n 1.a 1.<.w.8.l a a p p p 4 $ # @ @ @ @ @ @ * = - u f d d u f h Y h h h h h j f d d : = * * > > > > > > > > V > > * - ; ; ; ; ; ; ; > > % > & ; & > > > > > > V > * @ + $ 4 a 7.1.6.6.0.0.M.M.M.M.M.M.m.m.Z.Z.B.B.V.B.M.B.m.B.B.m.B.oXB.Z.B.M.M.M.M.M.M.8.<.p < $ w C C w : U T ' / v Q.Q.*X-X:X>X>XgXxX2X2XnXbXCXAXCXHXFXFXFXFXKXKXFXLXFXFXVXZXFXGXFXCXBXgXgXdXsX-X$.{ T : w w 0 - > ; * = ; u j h h s h h g / T U g d - - = = = # # # 1 9 r r 5 5 y 5 5 5 7 7 7 6 &.&.:.:.:.:.:.:.t 5 3 9 1 , < , + + + + 9 9 9 9 9 9 9 e e w 9 9 9 0 9 e q r k r r r r 1.:.1.a a a l n n n n n n n n  Xl c k h ",
"K J J J J J J J J 8XO.J O.O.O.J O.O.O.! ! ! Y ! Q R  . .W ^ Q Q E Q E W  .+.+.F D ; - @ @ $ $ - 0 j b ] W.s.s.!.*X:X:X:X>X>X>X>X2X2X2X2X2XgX2X2X2X2X2X2X>X>X>X>X>X2XxXxX2XvXvXvXvXJXFXGXgXgXgXvXvXnXnXvX2X>X2X2X2X=Xb < + + 1 0 = # = - $ $ $ $ $ $ $ - - j g h g 0 0 h / ' ] { { { { ) j - - - * @ > W $.sXkXGXIXIXKXKXKXKXKXKXKXKXFXGXGXGXGXGXGXGXJXGXGXJXGXFXFXFXFXHXHXFXCXvXvXJXNXnX3X<X<X<X<X<X=X=Xs.Q.v v / ' ] ' g 4 $ 4 4 a n n a a 1.1.1.1.a a a p 4 $ 4 # # @ # # = - > = - w f f f d f f h h j h h h h f d u u - > > > > V > > > V > > & > > > ; ; > > > > ; ; > & % % & N N ; V > > V & > > @ @ + $ p 1.6.6.9.9.9.9.M.&XoXm.m.B.B.m.m.Z.B.B.Z.B.B.B.Z.m.m.m.Z.Z.Z.Z.B.B.M.M.M.C.9.0.6.a 4 < w T ( W W T / ] Q.*X*X:X2XxX2X2X2XnXnXnXbXbXCXHXFXHXFXHXHXPXPXPXPXKXKXKXKXKXKXHXKXFXFXFXFXFXZXZXjXgXhXsX-X-X@.[ T U w - * - * u u f j h h T h U T T T h g w = = = # 1 1 1 9 5 5 r 5 5 7 7 6 %.&.,.&.:.:.:.:.%.r r 5 3 9 = = < + = = 1 + # 1 9 9 e e 9 9 e e 9 9 9 9 9 e e e r r r t r 8 r r 7 8 a a a a a n n n n n b n z c k k ",
"J J J J J J J J J O.J  XO.O.O.O.O.O.O.! Q ! ~ ~ W W W ^ ^ ~ Q Q Q ~ Q ! Q _ O.O.P u - @ $ $ $ j $ 4 k l v s.s.s.s.*X-X:X:X:X>X>X2X2X>X2X2X>X2XxX2X>XxX2X>X>X>X>X>X>XxXvXxXnXnXnXxXBXFXGXgXgXgXgXhXgXxXxX2X>X2X2X2X>X*Xp + + $ 0 = # # # # $ $ $ $ @ $ $ - 0 0 0 0 0 0 0 g / ' { } } } ) - $ @ @ @ @ u +.sXkXGXLXLXKXKXKXKXKXKXKXKXFXGXGXGXGXjXgXvXvXvXvXvXJXJXGXFXFXFXFXHXHXJXnXnXnXJX3X3X<X&X<X&X<Xx.=X=X*X!.v v ' ' ' / g 4 0 p p n n n a a a a a l l k p p 4 # # O = = = > : w : : w f U U U f h h h h h p h h h u u u ; > > > V > > V ; N ; & > > > > > N > > > > > > > & * > & N N N > V V V % % % % # 4 p n 7.8.9.9.0.9.9.m.oX&XoXV.B.Z.Z.Z.m.B.Z.Z.Z.Z.Z.B.B.B.B.B.B.&X&XB.B.V.V.M.M.9.0.0.n 4 2 4 g W ^ @.[ ' ] Q.*X>X2X2XxX2XxXxXnXbXJXHXFXHXFXHXFXFXFXKXKXKXKXKXKXFXKXFXFXFXFXFXFXFXFXFXFXKXKXKXKXZXGXFXFXZXjXgXdXsX#.#.T u u u u u u u f j g h T ' ' T f w w 0 9 e 9 2 < 3 3 5 5 7 6 %.&.:.=.=.:.:.:.%.7 y 5 3 3 9 9 = , 1 = = 9 1 1 < 9 y e e e e 9 9 e 9 9 9 9 1 9 q q q r r r 8 8 8 8 8 *.a a a a a n n n n p h h h b h h ",
"J K J K J O.O.O.O.O.O.O.O.O.O.O.O.J O.! Q ~  .^ Q E W ^ W W W W ~ ~ Q R D Q ! ! F u * @ @ - $ 4 $ 4 p a l v s.v !.*X*X=X=X:X>X>X2X>X>X>X>X>X>X>X>X>X>X>X>X>X2X2X>X>X2XvX>XxXvX>XxXvXCXvXgXgXgXhX>X>X>X2X2XxX>X>X2XvX>X|.q $ 0 0 9 # # @ @ # # $ $ $ $ @ @ # = 0 0 0 0 9 j T / { { { { ' h - @ @ @ f ( lXjXLXLXLXKXLXLXIXPXKXFXFXFXFXFXGXGXGXGXvXxXvXvXvXvXvXGXFXFXGXJXbXGXFXJXbXnX2X3X3X3X<X<X&X&X<X&X=X=X=X*X] ' ' ' ' ' z s p 4 p a n n n a a a a b c s p 0 0 = = + = = - ; : w w : : d Y T T T h h f h j h u u u u u : ; > > > > > & N ; > > V * > > m N N ; N m M V N V N N N & N ; V > > V > V % % , = s l b h.9.9.9.9.9.0.M.M.m.B.B.N.N.A.Z.m.Z.Z.Z.B.B.B.Z.Z.Z.Z.B.B.N.N.M.M.V.V.N.M.M.0.6.1.p 4 3 q C T @.@.' Q.^.,X>X>X>X1X2X2XnXnXnXbXVXHXHXFXFXFXFXKXKXKXKXKXKXFXFXFXFXFXFXFXGXFXFXFXFXFXKXKXKXKXKXLXFXFXKXLXFXLXGXGXGXZXsX+.T h j - u - j j f j s h h U T / / z g q 0 q 3 3 3 5 6 6 %.%.:.:.:.:.%.6 6 5 3 < < < + # > , # = = 9 9 9 9 9 9 e e 9 C 9 9 e 9 9 9 < 1 9 q q q q r t r.:.8 5 a a a a l n n a n n n p n ` h h j h ",
"K J K K O.J ` ` ` O.O.O._ O.O.O.O.O.O.F ! ~ ! ~ R R W W R  . .W E W  .R E F E ! ! u ; * @ $ j j 4 $ 4 p k l x b s.s.!.*X=X,X>X2X2X>X>X2X2X>X>X>XgX>X>X>X>X>XvXxXxX2X>X>X>X>X>X>X2XxXnXvXxXvXhXgX>XxXxX>X>X2X2X>X2X2X2X>X-Xs.h p e # # # # # = @ @ $ @ @ @ @ = = 0 w w = 0 g T ( { @.#.{ h $ + @ d @.dXUXLXLXLXLXLXLXLXKXLXLXGXFXFXFXFXGXvXGXvX>XxX2X2XvXvXvXvXvXvXFXCXvXxXvXJXJXvX2X3X3X<X&X<X<X<X&X<Xz.=X(.!.} ' ' ' ' / z k s a a p p a a p p a l l s 4 $ @ 1 = = = : - ; : : : - w d u Y h h ` h f h h h h f u - u u : > > > > V V V N * V V V m V m N S N B B N N m m m m m m > ; N N ; ; V % % > * = 0 s a 1.0.9.9.0.9.0.9.9.M.M.&XB.B.B.N.B.Z.Z.Z.B.Z.Z.Z.Z.Z.A.Z.B.N.N.N.B.M.M.M.M.M.9.9.0.q.a 4 q q q U ( _._.`.:X;X>X>X2X>XxXxXnXxXbXnXbXbXJXGXGXFXFXFXKXFXFXFXFXFXFXLXFXFXFXFXFXGXFXFXFXFXFXFXLXGXGXLXFXKXKXKXKXKXKXKXKXKXGXkXsX#.} ' ~ f j j j 0 j j g g f h / T U g s s 0 2 3 r t 5 6 t t :.t :.6 y 9 < 2 < + + O , # # # # = 9 9 1 9 1 e e e 9 9 e e e e 9 9 = 1 1 1 q s r r r c 6 8 7 8 8 8 a a n b n a n h h h b h h h h ",
" X` `  XO.` ` ~ ` _ +.O.O._ +.+.+.O.` ! ! ! ! Q Q E R Q E !  .R R  . .R M M F ! ! D : @ @ $ j 4 $ 4 4 p s k l b v s.a.*X^.=X>X>X2X>X2X2X2X>X>X>X>XhX>X>X>X>X>X>X>X>X>X>XvX>XxX>XxXnXxXnX2XxX2X>X2XxX2X2X>X2X>X2X2X2XxX2X2X:Xs.] z g 9 1 # 9 9 9 $ @ @ @ @ O * = - w w = 0 w w U [ @._.{ h j 4 j } :XgXGXGXLXLXKXLXLXLXLXKXGXGXGXFXFXJXvXvXvXvXvXvX2X2X2XvXvXxXvXvXvXGXvXxX2X2X2X2X2X3X<X&X&X&X<X<X<X=X*X*X!.s.] v ' ' ' ' z k k n n a p a a p p a c b s - $ @ - : : : w d u u u : - w f d Y d f h h j h h u h f j - u u > & > ; m N V V V V V V V N V m m N B B B N N N N m N N > > & ; : N m m & % V > # 0 k q.1.8.9.9.9.9.9.9.0.9.B.XXM.M.N.N.B.B.B.Z.B.Z.Z.Z.A.A.B.N.N.N.V.N.B.M.M.M.M.M.M.9.0.h.l 8 3 9 e w { -X-X-X;X:X>X>X>X2XxXxXnXxXnXnXbXbXbXCXJXFXFXFXFXFXFXFXFXFXFXFXFXFXFXFXFXFXFXDXKXFXFXFXGXFXZXFXFXFXKXFXFXLXKXKXKXKXKXGXjXlXhXdX-X} ' z h h j 0 w - : d P P g h h h f d e q e 5 5 e r 6 5 e y 9 1 9 9 = = # , = = # # # 1 , = 1 9 9 e e 9 9 9 9 e e C e 9 9 1 1 9 q k r r t t 8 8 8 8 8 8 a a l h s p b b h h h h h j h ",
"K ` ` Q ` ` _ ^ ^ ^ _ _ _ _ _ O.O.` ` Q Q Q ! ! E R R ! R ! Q E R R Q E M M | | ! F M * @ * - 4 4 4 4 4 4 p a l a b s.s.(.=X=X,X,X:X>X2X2X2X>X2X>X>X>X2X>X>X>X>X>X>X>X>X2XxX>XxXxXgXnXxX2XxXxX>X2X2X2XxX>X2X2X2X>X2X2X2X2X2X,X,X~.W.z s e 9 1 # @ @ @ @ + @ @ = = = 9 = = - - w / { _.~./ ' ' -XdXcXgXvXgXGXFXKXKXLXGXFXKXFXCXvXGXJXJXvXvXvXvX2XxX2XxXxXnXnX2XJXnXvXvX2X2X2X2X2X2X3X<X@X<X&X<X<X<X<X=X=X!.!.s.b z z ' ' ' ' h c a n a n a p p a a k h j 0 - - - : : u d f f d : : : d d d d f d h h j h h u u f u u : : > ; > M N m V V V V V V N N S N B B B B B m N N S N S N ; > & > N m m m V > > * = q c q.<.0.0.9.0.9.0.0.0.9.M.m.M.M.M.N.B.B.N.N.B.A.Z.Z.A.S.A.N.A.&X&XV.B.M.M.M.M.m.9.9.0.h.q.c e 9 w / @.-XdX:X:X>X>X>X2X2X2XnXnXnXnXnXbXbXbXCXCXFXFXFXFXFXGXGXFXFXFXFXFXFXFXFXFXFXFXKXFXFXFXFXFXFXFXFXGXFXFXFXGXLXLXKXKXKXKXKXKXGXGXUXGXdX>X-X-X|.' h j - - 0 j d s f g s h g g 0 e 9 e e y 9 9 < 9 < 1 9 9 = , * = = 9 9 = # + , = 9 9 9 e e e 9 9 9 9 e e e 9 9 9 1 0 q k k r r r t 8 r r 8 8 a a l z s s h b j h j h s s j ",
"! Y Q Q ^ T ~ ~ ~ [ [ _ [ _ O.+.O._ ` ~ Q Q Q Q Q E E ! E Q R R R E E R | F F F E R D : @ $ - 4 4 4 4 4 3 4 p p p p n b b s.!.(.=X=X=X=X>X>X2X2X>X>X>X2X>X>X>X>X>X>X>X>X>X>X>X>X>XgXvXnXxXxXxX2X2X>X2X>X2X2X2XxX2X2X2X2X2X2X2X2X;X;X-X} / q q 2 $ 4 9 # @ # = $ 1 # # $ # $ # 0 z ] ~.Q.^.~.:XhXvXGXvXgXgXGXFXFXFXGXbXGXJXGXGXvXnXvXvXvXJXxXJXnXnXxXnXnXxXxXxXnX2XnXnX2X2X3X2X3X<X<X<X<X&X<X<X<X<X=X=X=X/.!.] v b ' ' } } v b b p k b n p 4 p a s p j j 0 - w d : : d d d f d u u f f g f d f f h u h h h u h u j u u : > ; ; m m m m V V V V V S N N N m B B S S N N N N B N N N V > N & m m m V > * * 9 k l q.8.3.8.9.9.9.0.0.0.9.0.M.M.C.V.V.N.B.N.B.N.S.A.Z.Z.A.V.V.A.&XA.V.V.V.V.M.M.M.9.9.6.<.s.l q e w @.).dXfX:X>X>X>X2X2X2XnXnXnXnXnXnXbXbXbXbXCXGXGXGXFXGXGXGXGXGXFXFXFXFXFXFXFXFXFXFXFXFXFXFXFXFXHXFXKXFXFXGXGXFXFXFXFXKXKXKXKXKXKXKXFXGXFXCXvXfX-X~.' h s 0 0 0 0 0 j j f j g 0 0 e 9 9 9 9 1 9 < + , = = = , , = = 9 9 9 = 1 9 1 9 9 e e e 9 9 9 9 9 9 9 e e 9 9 1 4 q s r r t r r t r r r 8 a a a l l s p s s h h s s s s ",
"! ! ` _ _ ^ ^ ~ _ [ [ [ [ _ O.O.O._ ` ~ Q Q ^ ~ W E E R E Q R E R E E R E E F D E Q ! : * * $ 0 4 4 4 3 4 4 4 p p p n n b b s.a./.(.=X=X=X=X>X2X2X2X2X2X2X>X2X>X>X>X>X2X>X>X>X>X2XvXvXvXcXnXxXxX2X2X2X2X>X2XxX2X2X2X2X2X2X2X2X2XxXxX>X:X-X~.) k s h k s j q 4 4 4 4 j 4 4 e q s / Q.Q.] _.:XxXvXvXvXgXvXbXJXHXFXHXbXvXJXJXbXvXvXbXvXvXnXJXvX2XvXvXxXxXvX2X2X2X2X2X2X2X2X2X2X3X3X<X<X<X<X<X<X<X=X=X=X=X=X!.!.W.] ] ] ] } } ] ] z s p z a p p a k j $ $ - w - u d : : u u u f f f g Y Y T T f f T h h u h h j u u u f D ; > > m M V V V V V N V B B N S N N N S N N N N B N N S N N N N N N N m & > > = 0 s a 1.<.6.0.6.9.9.0.0.0.9.9.0.9.C.M.V.V.N.M.M.B.S.S.A.A.Z.A.N.V.V.V.B.B.B.V.M.M.M.9.0.0.6.a a c r e U @.$.sX-X-X:X:X>X2XxXcXxXnXMXMXmXbXbXbXbXCXCXCXFXJXGXGXGXGXGXGXFXFXFXFXFXFXFXFXFXFXFXFXFXFXFXFXFXKXKXFXFXFXFXFXFXKXKXGXGXFXFXFXFXKXFXFXFXFXbXxXdX-X~.Q.] z s j 0 0 - - 0 0 0 - 0 0 9 9 9 < < + + 1 + # # , , , = = 9 9 9 # 9 9 9 9 e e t e 9 9 9 9 9 9 9 9 9 9 1 1 9 q q r t r r r r t r t 8 a a c l a s h h j h h h h h g ",
"Y Y _ _ _ _ _ [ [ [ [ [ [ _ O._ _ _ ` Q ! Q ~ W W E E E R E E R R R R W R H N N F | Q i - u u p 4 3 4 4 4 3 a p p p s z l l n s.k.z.h.z.(.=X=X,X,X2X2X>X2XxXxXxXxXvXxXnXnXxXxXvXxXxXnXxXxXnX2X2X>XxX>X2XvX2X2X2X2X2X2X2X2X2X2X2X2XxX2X>X:X:X:X`.~.~.Q.] v v x l l c z z x x x s.~.~.Q.^.:X>XxXvXvXxXnXbXJXJXJXJXbXnXbXJXJXbXnXbXbXbXxXxXxXxXxXxXxXxX2X2X2X2X2X2X2X3X2X2X2X2X3X3X<X<X<X<X1X1X=X=X=X^.s.*X(.!.Q.Q.Q.} ] } } ] ] z g g b h s b s j p $ $ 0 0 - - : d d d f f f f T T T T T Y f f h h h h u j u u u d Y d : > N N V V V V V D m N S N N N B N N B V B N S B B m V B N S N N N N M N > * = q c l 1.<.0.8.9.0.9.9.0.0.0.0.9.0.0.M.M.M.M.M.B.A.S.S.&X&X&X&XA.B.N.N.B.B.V.V.V.M.M.M.9.0.q.7 4 k q e C ( ^ #._.-X:X:X>X2X2X2X2X2X2XNXmXMXbXbXbXbXCXCXFXFXGXFXFXFXGXFXGXFXFXFXFXFXFXFXFXFXFXFXFXFXFXFXFXFXFXFXFXFXFXFXFXKXKXKXFXFXFXFXFXFXFXFXFXbXgXgXhX>X:X*X!.Q.] b s 0 $ # # - - @ - w w C = , , , > , , , * = = = = = # # 9 9 9 9 9 9 e e e e e 9 9 e 9 9 9 1 1 # < 1 4 q q e t r t r r r r r 8 a k c h h h h h h h h h h f h ",
"Y T ~ _ _ ^ ~ T _ [ [ [ [ _ O._ +.O. .Q ! Q ^ Q E E P E I E E R E R E E E E N N F X.Q D : : j $ $ 1 4 4 k k k a k h k b l c b s.a.z.z.z.=X=X=X=X=X=X:X:X>X>X2X2X2X2X2XxXxXnXnXnXvXgXhX>X>X>X>X>X>X>X>X>X2X2X2X2X2X2X2X2X2X2X2X2X>X>X>X>X>X:X:X:X:X:X:X-X*X*X*X*X*X+X*X(.-X:X*X>X>X:X:X^.:X>XxXnXvXvXvXvXvXnXnXnXxXnXJXJXJXbXnXbXJXvXnXnXxXxXnXxX2X2X2X2X2X2X2X2X2X3X3X,X<X<X1X<X<X<X=X=X=X=X=X=X(.^.^.^.~.~.Q.} ] ] ] } Q.' ' z h h h h h h h h j $ - - - - - - d d f f d f Y T T T T Y Y u h h f f f j j u u d P u : ; ; N V V V V V N B S N N N N N N N N N m N B B B G B N S N m B S N N N ; > > e k x q.<.8.0.9.0.6.9.8.0.0.9.9.9.0.8.9.M.m.M.M.m.M.B.V.&X&X&X&XZ.Z.N.m.m.m.M.V.V.C.M.M.9.0.1.8 4 q 3 0 C T U #._.-X-X:X:X:X:X=X2X3X3X2X2XnXbXMXMXbXbXbXbXCXCXCXCXCXBXBXBXGXCXCXGXCXGXCXCXbXCXCXCXCXCXGXGXJXFXGXGXGXGXGXGXFXFXKXFXFXFXFXFXFXFXFXFXJXGXvXxXxX2X>X:X*X~.W.z s 0 9 4 $ - = - d d d w - * * * * , * * : 9 9 9 # # = 9 9 9 9 9 9 9 e e e 9 9 9 e e e 9 9 9 < 9 9 q q r r r r r r r 7 8 8 8 a k l h b b h h j h j h h j h ",
"Y T _ [ _ ^ ~ T T [ [ [ _ _ +.O. .O.` Q R Q ^ ~ U P I I M I R R E E C I E E F F F | Q D ; : u $ $ 4 r l q.a.s.l k z x x v s.s.s.s.a.a.h.a.z.z.=X#X(.=X=X=X=X=X:X=X>X;X>X>X>XxX2X>X>X2X>X>X>X>X>X>X>X>X>X>X2X2X2X2X2X2X2X2X2X2X2X2X>X2X>X>X2X>X>X>X2X>X>X>X>X>X,X>X:X>X2X2XxXxXxX2X>X:X*X:X>X2XxXxXxXnXvXnXxXnXnXxXxXvXbXbXnXnXvXvXvXxXvXnXnXxXxX2X2X2X2X2X3X2X3X3X3X<X&X&X&X<X<X@X<X=X(.(.`.(.^.~.~.~.~.~.~.~.} ] ] } } } ' h g j h h j j j j j j - - - - - - u d f d f d f Y Y h f ` Y h h u f d f d d u u u f d : : ; ; M V V V V B m N N N N S B B B B N B B B B B B N B N N B N N N N N N > - w z ) s.w.6.9.0.9.9.9.9.8.3.3.8.8.0.6.8.9.0.9.9.4.b.M.M.V.Z.&X&X&XZ.Z.m.M.M.m.B.V.V.M.M.V.L.h.q.p 4 2 9 = w w T #.-X-X:X:X-X^.`.=X=X<X3X1X3X2X2XxXMXMXbXbXnXnXCXbXCXbXvXbXVXbXbXbXMXbXCXCXCXGXVXCXCXVXbXCXFXGXZXGXZXGXGXGXGXGXFXLXFXFXFXFXFXFXFXFXFXFXnXnXxXxX2X2X>X:X*X*X!.v z k s j - 0 u d f f d u : > * * , > : : = 9 9 9 + 1 9 9 9 9 9 9 9 e e e 9 9 9 e 9 9 e 9 9 9 9 e q q r r r r t r r r 8 8 8 p k k b h h h h h h h j h h h ",
"Y T _ [ ' T T T T T _ [ _ _ O.+.O._ _ Q R ! Q Q R P I I I I E E R R I I E E H M F F F D ; ; - $ 4 q r q.a./.a.r.k l x ] W.!.s.Q.s.v v s.s.h.s.h.k.z.=X(.(.*X(.=X=X=X:X=X:X>X2X>X2X>X2X>X>X>X2XxX>X>X>X>X2X2X2X2X2X2XnX2X2X2X2X2X2X2X2X2X2X2X2X2X2X2X>X2X2X>X>X>X>X2XnXMXnXnXnXxXxXxX,X*X:X>X2XxXxX>X2XnXJXxXnXxXnXvXvXnXgXxXnXvXxXvXnXxX2XnXnX2X2X2X2X3X3X3X2X3X<X<X<X<X<X<X<X<Xz.#X(.(.`.~.~.~.~.~.~.~.~.~.~.~.} } } } } / u - u j u $ $ $ $ u u - - - - $ : u d d h Y h Y ` Y u Y d h u f f h f u j d u u d d u : ; ; > V V V V m B N N N N B B B G B G L B B B N B B N S B m m N N N m N > * * / W.s.p.<.8.9.0.9.9.9.0.6.3.<.3.<.3.<.0.9.0.9.9.9.9.9.9.C.S.&X&XN.V.V.m.V.M.M.M.V.V.M.9.9.9.h.p.p 1 # # , # = w ( { _.-X-X~.~.^.(.(.=X=X1X1X1X2X2XbXbXbXnXnXnXnXbXbXnXnXbXbXnXbXnXnXbXbXbXJXbXVXVXbXBXGXbXFXGXBXZXZXGXGXUXGXGXGXGXFXFXFXFXFXFXFXFXGXnXnXbXnX2XxX>X>X>X,X>X=X-X~.W.l z s j j j j j w : - : ; - : M w : 9 = 9 9 9 1 9 9 9 9 9 9 e e e e 9 < 9 9 9 9 9 9 9 9 9 e q q r t r r r r r r r 8 8 k k k h h h h h h j h h h j h ",
"T T T [ ' ( T T ~ _ ~ _ _ _ _ O.+.O.` Q R Q Q ~ Q P P I I I I I R R E I R | | N M E K D : - - $ 4 s c e.E.j.u.e.k k c l v v W.] s.v b b b s.p.p.a.z.(.z.z.=X=X=X=X=X=X=X,X>X2X2X2X2X2X2X2X2XxXcXvXxXxX2XxX2X2X2X2X2X2X2XNX2X2X2X2X2X>XxX2X>X>X>X2X2X2X2X2X>X>X>X>X2X2XnXbXnXnXnXxX>X>X-X>X>XxXnXxX>X>XxXJXvXnXxXnXvXvXnXgXxXxXxX2XxX2X2X2X2X2X2X2X2X3X3X3X3X<X&X<X<X&X&X=X<X#Xz.k./.^.`.~.~.~.~.~.~.*X_.~.~.~.~.} } #.#.' h * * * u $ . @ $ $ - * - - - * i u f f g T T T T h h d f d f f f u h h u u u u d P P : > ; ; ; V V V m B N N S B S B B B G B G B B B N m S N N N N N m B N N N N > > w ) ^.s.p.8.8.0.9.9.9.9.6.6.<.6.6.<.6.6.6.0.8.0.9.0.9.9.9.M.9.M.9.M.V.M.m.V.M.M.9.M.9.x.9.9.x.z.a.l 2 # + + , , - U ( @._.-X~.~.^.^.!.(.(.=X:X1X1X2X1XxX2XxXnX2X2X2XnX3X2X2XxX2XnX2XxX2XnXbXnXMXnXbXbXVXCXbXvXVXVXBXvXGXBXGXGXGXGXGXGXGXKXFXFXFXFXFXbXvXnXnXJX2X2X2X2X2X2X2X2X1X:X:X!.W.v h g s j j 4 - - - - : M C C 9 = 9 1 9 9 9 9 9 1 9 9 9 e e e e 9 9 9 9 9 < 9 9 9 9 9 e s q q r t r t r 8 t t 8 8 k k k k h h h h h h h h j h h ",
"' T T / ' ~ Y T _ _ _ ~ _ _ _ +.O._ ` Y R ~ ~ ~ Y P I I I I I I I R I E E E M N C X.O.D ; - - 9 q c r.s.e.y.y.e.r.c t k k l v ] W.] v v v s.s.e.a.z.(.x.z.=X=X=X=X=X=X=X=X,X1X2X3X2X3X2X2X2XxXxXJXvXxXnXxX2X2X2X2X2X2X2X2X2X2X>X2X2X2X>X2X>X>X>X>X>X2X>X>X>X>X>X2X2X2X2X2XnXnXxXxX2X2X>X>X>XxXvXnX2X2XxXxXxXxXxXxX2XxXxXxX2XxX2X2X2X2X2X2X2X2X3X1X3X<X3X<X<X<X<X&X<X&X#Xz.(.z.z.z.(.^.~.^.^.~.~.~.!.*X_.~.} } @.@.@.[ / f u * @ . @ @ % . @ @ * = ; - - u u u h ! T T T T T h f f T f f f u f f d f u u u I Y I : > N m N V V N B N N B B G B H G G G G B B B B B B m N m N N N B m N N N > > - w ] W.e.p.3.8.0.8.0.0.9.6.6.6.6.7.6.6.6.6.6.8.8.0.8.6.9.9.9.9.9.0.9.M.M.M.9.M.9.M.9.0.0.8.0.x.x./.) k 9 O O , , = C / { #._._._.~.^.^.!.(.=X=X;X1X1X1X=X<X1X2X<X3X3X3X3X<X3X3X3X3X3X2X3X2X2XnXnXxXnXnXbXbXbXvXbXbXvXvXvXvXvXBXBXZXGXGXGXGXFXFXFXFXFXJXvX2X2XnX2X2X2X2X2X2X2X2X2X2XnX>X*X^.!.] x k s p q 0 $ # * > - - = # 1 < 9 9 9 1 1 9 9 9 e e e e 9 9 9 9 9 9 1 9 9 = # 1 0 q k q q t r t r 8 8 8 7 8 k k k k s s h h j h h h h h f ",
"T T T ` T ^ T T T _ _ _ _ _ O.+._ O.^ I P Q Q R R P I P I I I I I I I I C E Z V N | X.E : : - 0 s c r.e.w.<.3.r.r.r.l l l l x v v Q.!.Q.~.Q.v s.!.!.#Xz.z.z.=X=X=X=X=X=X=X=X=X,X,X<X<X2X2X>X2XxX2XxXxXxXxX2XxXvXnX2X2X2X2XxX2X2XgX2X2X2X>X>X>X>X>X>X>X>X>X>X>X>X>X2X2X2X2X2X2X2XxXxX2X2X2X2XxX2X2X2X2X>X2XnX2X2X2X2X>X2X>X2X2X2X2X2X3X2X2X3X3X,X<X<X&X<X&X&X&X&X&Xz.z.z.z.(.*X^.!.^.!.Q.!.~.~.~.~.~.~.~.} } #.#.+.' U d u - @ % . @ @ @ * u - * = ; - : u f Y Y T T T T T T T h h f f f f f f f d u u d u I I M > > > N N m S B G B B B G S N H G G G G G G S N m N m B N N S B H B B m & > * = g b x q.1.6.8.6.6.6.6.6.7.6.6.6.6.6.6.6.6.6.6.6.6.6.6.0.8.x.0.9.0.0.x.0.9.9.9.0.9.0.8.8.8.8.f.#X=X^./ e # O O , , w C / { ).W.^.~.^./.^.!.^.(.=X;X:X=X=X=X<X<X<X<X<X<X<X<X3X3X3X3X3X3X3X3X3X2X2XnXxXxXxXnXnXxXnXbXbXxXcXvXvXbXCXVXVXBXGXFXGXFXFXFXFXCXnXJX2X2X2X2X3X2X2X2X2X2X2X2X2X2X2X:X*X^.^.!.s.x k p $ $ # # # = # + 9 2 9 e 9 9 9 9 9 9 e e e e 9 9 9 9 9 1 1 9 9 9 # 1 0 g k s r r r r r 8 8 8 8 8 k k k h h h s h j j h j h h h ",
"T T ~ _ _ T Y Y ~ _ _ _ ` ` O.$.+.O._ ! Y W W W P I P I I P I P I I I C C E I M M R  .R : : f z c e.e.e.y.i.i.i.t.i.u.e.e.r.x x v } Q.Q.Q.Q.W.W.W.^./.z.z.z.z.z.z.#X@X#X@X@X#X=X=X=X=X=X=X:X>X>X>X>X2X2X>X2X2X2X2X2X2X2X>X>X2X2X2X2X2X>X>X>X>X>X>X>X>X>X>X>X>X>X2X2X2X2X2X2X2X2XxXnXvXbXnXxX2X2X2X2X2X2X2X2X1X<X<X,X2X2X2X<X<X<X3X3X3X<X<X<X&X&X<X&X&X&X<XL.&X#X=Xz.z.=X!.(.s.^.^.^.~.~.~.~.~.~.^.] ] ] { { { { ' U f f d - * * @ @ * - : u : * - : u f d f Y T T T T T T T T Y h h u f d f f d f u d Y u : : N ; ; N N m B H G G G G B B N m B G G G G G G B N S V N N S B N m m B m V V - - w z s.a a 1.6.6.7.6.6.6.7.6.6.1.6.6.7.6.1.1.6.6.6.6.7.6.6.6.h.7.7.6.8.9.9.9.9.9.0.6.8.6.8.7.6.w.a.:X_.) w 9 , , , O , = w U { ~.~.~.~.^.^.^.(.^.(.].(.(.(.<X<X<X<X<X<XL.&X&X<X&X<X3X3X3X3X3X3X3X2X2X2X2X2X2X2X2XnXnXnXnXxXnXnXbXbXbXCXCXCXJXGXFXFXFXGXJXJXJX2X2X2X2X3X2X3X3X2X3X2X2X2XnXnXnX2X2X=X=X=X(.p.s.k 0 $ + O + + $ 1 1 1 1 9 9 9 9 9 9 9 9 9 9 e e e 3 < 1 9 9 9 = = 1 0 s k r r r t r r r r r r r r k k k s h j h j h h h h j h ",
"Y T T ` ` _ ~ Q Q ^ _ _ ` ` _ O.O.O.! ! R W W P P P I P P I P I I I C M M E C C D R Q I d f g z x r.e.e.u.i.g.K.i.j./.(./.^.e.r.r.x ) v v W.W.W.W.s.s.s.k.a.k.a.a.a.h.s.z.(.*X=X=X=X=X=X=X=X=X=X>X>X>X>X2X2X2X2X>X2X2X>X>X>X2X2X>X2X>X2X2X>X>X>X>X>X>X>X>X>X>X>X2X2X2X2X2X2X2X2X2X2XxXxXxX2X2X2X2X2X2X2X2X<X<X&X,X<X<X<X1X<X<X<X<X<X<X<X&X&X9.&X&X&X<X<X<X=X=Xz.(.z.a.!.!.^.^.*X~.~.~.~.~.!.!.!.Q.W.} } } ] / z h g 0 0 j d - * * * * : M M u ; : u d Y Y T T T h h T T T T h h u f d f f d d f f d d Y D ; M N N N N N F H H G G G G m N B B B G G G N m B N N B B N S N m B B N m m V > > : q k c a a a 1.<.6.6.<.a a 1.1.7.a a a a p a a a 7.n n n n 1.w.a a 1.6.6.8.6.6.8.6.7.6.<.7.q.p.a.W.~.).W.C = = , , , X X = w / { { ^.!.-X^.~.~.^.^.!.^.(.(.=X=X<X<X<X<X<X&X<X&X&X<X&X&X<X<X<X<X<X3X3X3X3X3X<X3X3X2X2X2X2X2X2X2XnXnXnXbXbXbXbXbXbXJXMXJXJX2X2X2X3X2X2X2X2X2X2X2X2X2X2X2X2X2XxX2X3X<X<X<X=X=X=Xs.k $ + + @ + $ 0 2 < 1 1 9 9 9 1 1 1 9 9 e e e e e 3 9 9 9 9 9 9 1 0 s g q e t r r r r t r r r k k k k b h h h j h j j j h h ",
"Y Y T ` ' _ _ ` ! ` O.O._ ~ ` O.O.O.! Q Y I I I I D P I I I I P I f w C C I I C M I R I P f z c c r.w.y.y.y.x.L.i.g.l.l.l.j.k.w.r.l l a l r.W.W.W.s.s.s.s.s.s.s.s.s.s.s.^.(.*X(.=X*X=X=X=X=X=X=X,X=X=X2X2X2XxX2X2XxX2X2X2X2X2X2X2XxX>X2X2X>XxX>X>X>X>X>X2X>X2X2X2X2X2X2X2X2X2X2X2X2X2X2X2X2X2X2X2X2X2X<X<X<X<X&X<X&X<X<X&X<X<X&X<X<X&X<X<X&XL.@XK.#X@X=X=X=Xz.z.z.s.!.^.^.~.~.~.~.~.W.] } ] Q.!.W.W.] ] ] ' k j j 4 4 4 9 : : * * * > ; ; ; M M I I Y Y T T T T h h h h ` h h h d d f f f d d f d h P D : ; M M M N F N B G G H G G B N B G G G H N S B N N F N N N N S N N N N m m V V > ; 0 0 q a a a 1.a a 1.6.<.8 a 1.l a p 8 4 4 4 8 4 p p p p a n a a p 4 4 p a a 1.6.h.7.6.n a a a a l l g @.) C = O , , * O , > I ^ ) ' { Q.~.~.~.*X^.`.^.^.(.!.k.z.(.=X<X<X<X<X&X&X<X&XL.L.&X<X&X<X<XL.&X<X<X<X&X<X3X<X3X3X3X3X3X3X2X2X2X2X2XnXbXnXSXJXJXNXMX2X2X3X3X2X2X2X2X2X2X2X2X2X2X2X3X2X2X3X3X<X<X<X<X#X#Xa.a 8 $ + # # 4 0 $ $ 1 1 9 9 3 9 1 1 1 1 3 e e e e e 9 9 9 9 9 9 1 0 q k k r r t r t t r r r r k k r c z h h j h h h h h j h ",
"` Q ` ` ` ` _ ` ! _ +.O.O.O.` J O.! Q I I I P I I M I I P I P I P C w C I C C M : I I P w g z c c r.r.w.y.4.g.b.H.4.g.4.f.l.u.w.w.r.q.a l x q.W.W.W.W.s.Y.W.Y.W.s.!.!.s.a.W.z.^.s.*X*X*X(.*X=X=X=X=X=X:X:X,X,X1X2XxX2X2X2X2X3X2X2X>X2X2X2X2X2X2X2X>X>X2X2X2X2X2X2X2X2X2X3X2X3X2X2X2X2X2X2X2X2X2X2X2X3X<X<X&X&X<X&X<XL.&X&X&X&XL.&X&X@X&X@X&X&X<Xx.z.z.#X(.=X(.s.a.(.^.^.~.~.~.~.~.^.} ] ] Q.~.Q.W.] z l k s 4 4 4 q 0 e 2 - - * * * > ; M ; ; M I I Y T T T T T T h h h h T h d d d d f d f f d f D D i ; ; M N N N B F N H H G G H S G B H H B B N N N N N N D N m N m N N N m & m V > > : C w c a a q.q.a a 1.q.a 8 4 p p p p 4 $ < 4 4 3 p 4 4 p 4 8 p 4 4 4 4 2 4 8 p a p.a.q.l a a a p p q 3 q g e 9 O O , = , , = w U / / ] ] Q.Q.~.*X*X*X*X~.!.(.!.z.z.z.(.#X@X=X<X&X&X<X<XL.&X<XL.&XV.L.&X&X<X&X&X<X&X<X&X3X3X3X<X3X3X3X3X3X3X2X2XxX2XnXNXNXMX2X2X2X2X2X3X3XNX4X3X3X3X3X2X2X2X2X2X2X3X<X<X<X&X@Xz.f.n p + + # # 1 4 $ 1 2 9 9 e 9 e e e 9 1 3 9 9 e e 3 1 1 9 9 9 = # 4 q k s r r r r r r r t r r k k k z z h h h h h j j h h h ",
"` ` ` ` ` ` _ O.` ! O.O.O.J O.O.O.O.F I I P I P M : : I P I I P P f w w I M M : : : I d w g z l r.1.r.i.3.4.4.b.C.4.4.4.3.8.i.4.y.l.u.w.r.q.q.s.Y.] ] ] ] ] ] W.W.!.!.!.W.s.!.^.!.*X!.(.(.z.z.(.=X=X=X#X=X=X(.=X>X,X1X,X1X2X2X2X>X2X2X2X2X2X2X>X2X>X2X2X2X2X2X2X2X2X2X2X2X2X2X2X2X2X2X2X2X2X2X2X2X2X<X<X&X@X<X&X&X&X&X<XL.&X<X<X@X&X@X@Xx.x.@X#Xz.z.z.z.z.(.(.^.!.~.^.~.~.~.Q.W.~.Q.Q.W.Q.} Q.W.] z k p 4 2 4 3 4 c c s e = = * > % > M D M M I d Y T T T h h T T h h T T T h u u u d d f f f f u u u ; ; N M N B S F B N N G G G B N G H H G B B N B N S N F B m m m N M N N m & m & > : C U z x a a <.7.n 8 p a a 4 4 4 4 p 4 $ + $ $ 4 4 4 0 p 4 4 4 p 0 4 4 4 4 4 4 4 a n q.v x x l p 4 $ 1 < e e e 9 # , , = M > , = w / ' ) z / ] } ~.*X*X*X*X~.(.(.(.z.z.k.z.z.=X=X&XL.L.<X&X<X&X&X&X&XS.P.D.L.&X&X&X&X&X&X<X&X3X<X<X3X<X3X3X<X<X<X2X3X3X3XNXNX3X2X2X3X2X3X3X3X3X3X3X3X3X2X3X3X3X3X<X<X<X<X&X&X#X@Xx.q.p 4 + < 1 1 2 2 1 1 9 9 e e e e e e 9 9 1 9 9 e e 9 < 9 9 = = # 4 q k k k r t r r t t 8 r r r k k c h h h h h j h h j h h ",
"` ` ` ` ` _ O._ ` ! K O.O.O.O.O.O.K ! D P I P I I M : I w I P I I C w w I I D : : : d w w g x r.r.:.y.y.2.3.4.4.g.4.b.4.4.4.4.4.K.g.u.u.u.u.r.q.s.l x v z ] ] ] ] W.W.W.r.s.s.Q.!.!.(.s.a.s.a.z.z.z.z.#X#X=X(.=X*X=X=X=X:X1X2X,X>X2X2X>X2X2X2XxX2X2X2X2X2X2X2X2X2X2X2X3X2XnX4X2X3X2X3X2X3X2X4X<X<X&X@X&X<X&X<X&XL.<X@X&X<X=X&X#X#X#X@Xz.z.x.z.z.(.z.k.^.!.!.!.^.~.~.^.~.W.Q.W.W.W.W.Q.~.} ] z ] z k k q 8 k t 1.c q.p.l q 9 * O % % > I E I I I P Y Y T T T ' ' T T h T T T h d u u u u u f f u u u ; ; D N F N N N m m N B H G B m m N S B B G S H N N N B F N N m N N N m N ; V m > > : w g z c a a q.p.1.a 4 4 4 4 4 4 4 $ 4 $ $ $ p j j 0 s p p 4 4 s j 0 4 j q 4 s p a a x b b v z s j 0 9 9 9 9 e w 9 = , * W I : - 0 s h z h / ) ] } Q.~.~.~.~._.-X*X!.!.a.z.(.z.x.x.9.L.&X&X&X&X&X&XD.&XV.&X&XA.&X4X&X&X&X&X&X&X&X&X<X<X<X<X<X<X<X<X<X3X3X3X<X3X3X3X3X2X3X3X3X3X3X3X3X3X3X2X3X3X3X<X@X<X@XL.@X#X@X@Xz.s.8 4 4 1 1 1 1 2 1 2 9 3 e 9 e e e e 9 1 3 9 e e 3 1 9 9 9 = # 2 q s k r r t r t 5 8 8 8 8 r k k k p j h h h h g h h h j ",
"` ` ` ` ! ` O._ ! ! ! O.O.O.O.O.O. .R D I P I P P P P I : I I I I C : w I I I C : : I w e k l l r.r.5.3.3.4.4.4.4.C.C.4.4.4.4.b.K.i.g.l.l.j.y.q.q.q.q.c c x v v ] ] ] ] v v s.Q.!.!.!.^.W.s.a.a.z.(.z.(.(.z.(.=X=X=X=X=X=X=X=X=X=X=X3X2X>X2X2X>X2X2X2X3X2X2X3X2X2X2X2X3X3X2X3X2X<X<X<X<X<X<X<X<X@X@X@X@XL.&X<XL.L.@X&Xz.z.#X#Xz.(.(.z.z.z.#Xh.a.!.!.^.^.!.!.!.!.!.~.Q.] ] ] ] ] W.W.] ' / z k a k k a l q.y.e.q.w.y.f.w.8 3 # O X % > M E R U I P I Y T T T ' ' ' T h h h h f d u u u u u u u u u D D M D M N N N N B N S N H G H N m m N H H H G G G F F F N N N m m N m M N & ; N * > > w 0 e 0 k a l b n 4 < < 4 4 s 4 j j s j j j h h h g z h s s s g g g g h h z z l c x c z z z h g h g q e 9 9 w I C , = = ( o.o./ q e 4 s s z v ' ] ] ] v ~.~.~.!.!.!./.^.(.(.(.j.d.x.x.@X&X<XL.L.x.L.&X&X&X&X&X&X&X&XS.&X&X&X&X&X&X<X&X&X<X&X&X<X<X<X<X3X3X<X<X3X3X3X3X3X3X3X3X3X3X3X<X3X2X=X=X=X=Xz.#X#X#Xh.h.@X#X=Xs.z r q 2 1 1 2 1 1 1 2 1 1 1 9 e e q e 9 2 e e q e 9 9 9 = # # 9 0 j s k r t r r r r r t 8 r k k k s s s j h f g h j h j ",
"` Y Y Y T _ ` ` ` Q ! ! F F E Q ~ ^ Y I P I P I P P P I : P ~ U C C : w P M M M : : w w f z ) T.e.w.y.y.i.4.4.g.C.b.4.4.4.4.4.4.4.4.4.g.g.g.g.f.y.y.q.a a a a a l x ] W.v ] } Q.Q.Q.] ~.~.Q.Q.Q.Q.(.!.^.!.!.!.p.a.!.(.z.z.(.(.x.(.(.=X=X,X=X=X=X=X=X=X=X=X=X=X=X=X<X<X<X<X<X4X<X=X=X=X=X=X=X#X#X#X@X#X@X@Xz.z.z.z.x.(.l.a.a.k.z.!./.!.!.(.^.(.!.!.!.^.^.^.!.W.] !.] ] ] W.Q.Q.W.] v x z k p a a q.q.w.3.g.L.g.4.4.4.4.4.i.l 2 O X * N M I W R I I P Y Y T T / ' T Y h h h f f f f : : u D D D D D D D A m & m N m B G G G G H G S N N N N G H H G G H N N F N m N N N N V V M F N * % % * * @ $ $ 4 4 s l c p $ $ 4 j h h z z z h b z z z z / z z g s z z z z z z z z z z z z z z / / / z h h g g s g g U w w - - U ( { W.W.l k 3 3 q h h / ' ' ] } Q.~.~.!.^.^.=X=X=X(.(././.(.(.(.z.z.z.z.#X@X&X&X<X&X&X&XI.&X&XN.&X&X4X&X&X&X&X&X&X&X&X&X&X<X<X<X3X3X3X3X3X<X<X4X<X<X<X<X<X<X,X,X=X/.!.!.!.(.!.s.s.s./.^.!.!.) c r 9 1 1 2 # # = 1 1 1 9 4 q e e e 9 1 3 3 e e 3 9 = # # # 9 q s q k r r r t r t r r r k k k a k s h h j g h h h h h ",
"f Y Y Y Y ~ ^ ~ _ Y R Q Q E R R Q R I I I I I I I D D D : P P P C C w I P : M : : w w w r c l r.r.w.y.i.4.4.4.b.b.4.4.3.3.4.b.4.4.K.K.C.g.4.4.4.g.g.f.w.q.1.a a a l l x ] ] ] ] ] ] ] ] W.Q.Q.Q.} !.W.W.W.Q.!.s.!.(.(.*X!.^.=X!.!.(.*X!.=X(.=X=X=X=X=Xz.z.(.(.=X#X=X=X=X=X=X#X=X#X=X=X=X=X=X#X@X#X=X#Xz.=Xz.z.(.z.(./.(.^.!.z.!.!.!.(.z.!.!.(.!.a.W.W.^.a.W.] x v ] W.] W.s.s.x l c c a a k q.w.j.l.g.K.4.C.K.C.0.C.C.b.g.a + + # I W E D I R I I Y T ~ T T / ' h ` h h h h d d u u u D D M M M M N D D A N N N N B N F G G H H G H N F F F N F F F S N N B N B N N N M N N N D ; * % . O @ O O $ 4 0 k z z p j s f h h z z z z z z z z z z z z h g g h z z z z z z z z z z / / z z z z z h z h g g h T T U U w 9 q c r.Y.W.e.r.q.l 3 4 q w h ' } } ] Q.^.!.W.W.s.^.^.^.(.:X:X(.(.(.(.!.!.z.#X(.(.z.z.@X@X@X&XL.L.K.K.L.P.&X<X&X&X4X&XL.<X&X&X<X<X&X&X<X&X<X<X<X<X<X<X=X=X=X=X=Xz.!.z.s.s.W.W.W.s.Q.!.!.!.!.^.^.T.Y.c r e 2 1 1 1 $ 1 2 1 1 2 9 e e e 9 2 2 3 3 e < 9 9 9 # # 0 g g j k k r r r t r r r r r k k k s p h h h h j h j h h ",
"h h Y Y T T Y T Q I I Q Q Q R E R I I I I I I : u : : : : w I P d w d I P C M D f w 9 e c z x r.r.w.y.y.g.g.b.C.b.4.4.4.4.b.b.b.4.4.4.4.4.4.3.3.4.g.g.j.j.<.q.q.a a k 4 l x x v v Q.Q.W.W.Q.W.W.} s.W.W.Q.Q.Q.!.!.z.!.!.!.z.!.!.s.*X(.!.s.!.!.z.(.*X!.(.*Xs.!.=X*X(.=Xz.z.=Xx.(.(.#X(.*X(.=X(.#Xx.(.=Xz.(.z.=X!.z.*X(.#X(.^.(.!.(.!.!.!.!.!.!.!.s.W.W.W.Q.W.W.s.s.s.W.r.x x z l l k k l q.a.a.j.l.l.g.K.4.4.b.b.C.b.K.C.4.r.5 + = P  .E M I d f Y T T _ _ Y T T ' h T h Y h f d u d D ; ; M M D N ; N M M N m B S N N B ..G H G G G H F D N B N N N B N N N S N N m ; N N M ; V % % . X O @ = - 0 p g h z h s z b v v v z z z z z z z z z z z v z z z z z z z z z z h k s s z z g s s g s h h k g s s g g U f w 9 q k x p.a.k.k.k.d.l p p 4 4 g z ) ) ] { } ] ] W.Q.W.^.^.^.^.].(.(.*X(.!.z.(.z.z.z.l.z.#Xz.z.#X<X(.@X&XI.<X&XL.I.<X<X<X<X<X@X@Xx.=XL.z.@X@X<X=X=X@X<X=X*Xz.(.Q.!.W.W.W.W.W.W.!.!.Q.Q.Q.!.!.^.^.^.Y.Y.t q 9 1 9 2 1 1 1 1 1 1 9 9 3 3 3 3 2 2 3 3 3 9 1 1 # # 9 q k q q r r r r r r t r r r r r k s h j h j h f h h j h ",
"d h u Y Y T T Y Y P R ! ! Q E E I I I I I I M : : : : : : u I C w w C I w M I I C w = e x ] x e.r.w.y.i.g.4.b.C.n.4.4.4.4.b.4.4.4.4.3.4.4.3.3.3.4.3.4.3.y.y.d.p.q.q.a p a a l x v !.W.s.s.W.W.W.W.W.W.W.Q.Q.Q.W.!.!.^.a.!.!.!.^.!.!.!.!.!.!.Q.^.^.^./.!.^.^.^.!.^.z.(.z.k.k.z.^./.!.!.(.+X/.z.a.z.^.(.(.z.!./.!.(.(.z.!.^.!.^.!.!.^.W.Q.W.W.W.W.s.W.s.W.W.s.W.s.r.s.q.l l a l a q.l q.q.p.k.d.j.j.f.4.b.4.4.b.b.4.C.b.4.4.y.r.e = = I R D P f f d T _ _ ~ T T T T T T T T f d d u u : ; N m M M m ; N M m N m N N N H H H H G G G G H F m B N N B m N N N M N N N > ; N ; % % % > * * @ # 0 0 s j z h z z z z z z / v z z z z z z z z h h k h z z z z z z z z z z z h c h h s g s p 0 4 j h h h k s k s j g g w q r k l p.k.f.g.g.z./.s.a 4 4 4 4 k k z ' / { { } ] W.W.Q.W.W.^.(.^.!.(.!.(.!.^./.a.(.z./.!.z.=X=Xz.#X#X=X<Xz.#Xz.=X<X=X(.=X*Xz.(.z.(.z.z.z.s.+XOXa.a.s.^.!.W.W.W.Q.~.~.Q.W.Q.W.Q.Q.] ~.~.~.~.T.T.) t e e e e 9 9 9 9 9 9 1 9 e e 1 4 2 2 2 2 3 4 4 1 1 9 1 1 2 e k s q e r t r t r t r r r r k g k s h h j h h h j h j ",
"f d d h Y T T Y P Y I I R Y I R R I I I I I C : C : : : : C C : : w C w : I P P f w # e Y.T.r.r.1.y.w.i.3.4.4.b.n.b.4.3.3.4.4.4.3.3.3.5.3.4.b.5.3.4.3.3.3.3.3.d.f.y.w.q.q.a q.l q.q.l l x s.) ] s.W.W.W.!.W.W.W.W.W.W.W.Q.W.!.!.!.Q.!.!.W.!.^.W.^.^.^.!.^.^.^.a.!.!.!.!.W.W.s.^.!.!./.^.!.^.W.s.a.!.!.!.!.!.W.!.!.!.!.!.~.Q.W.W.!.W.W.W.] s.] W.s.s.x q.x x q.q.x q.q.1.a a 1.<.w.w.p.d.j.y.y.y.y.3.4.4.b.b.C.b.4.4.b.4.3.y.e.t 1 * : R I P P f P Y T T T T T T T T T T T T f f : : ; M M D M M M M N m m N N N B L G G G G G G G G F D m N S N B N N m N m A ; N % , > % > * ; d C f d w f g h j z z v x z z z z z z z z z z z z z z h s k z z z z z z v z z x z v v x v z z h s p j s h h v ] s.s.] z s g g g s c l q.e.l.h.g.g.x.=Xz.d.q.a 8 3 4 4 4 k z / { ' { ] } Q.W.W.W.!.^.!.s.^.!.z.!.!.^.!.Q.!.^.^.^.^.(.(.(.(.!.^.(.z.(.^.z.(.!.^.!.!.!.*X!.^.!.!.s.s.!.] Q.!.W.!.W.Q.~.~.~.~.W.W.Q.Q.] ] Q.W.Q.W.) c q e 9 e e 9 e 9 9 9 e 9 9 9 9 2 4 4 0 q 3 4 4 0 q 4 e q 9 2 2 q k k q r t r r r r r r t r t r c s j h h h h h h h h h ",
"h h h h T T T Y P I Y I I I I I I W U P I I P C C I : : M C w : : w C C : P P P f w + e c T.Y.r.r.w.i.3.3.4.b.b.b.b.4.4.3.3.3.3.4.3.3.4.3.4.4.4.4.4.4.3.3.3.4.3.g.g.l.y.f.d.d.w.1.a a a c l l x l v ] W.s.x v W.s.] W.W.W.W.!.W.W.W.Q.] s.W.W.W.] Q.s.Q.W.] W.W.Q.] !.!.W.W.W.Q.s.!.!.^.W.W.W.Q.W.^.Q.^.!.!.W.W.] ^.^.^.Q.Q.W.W.W.W.W.] x x x x x r.q.c l l a a a q.1.1.<.<.3.d.y.f.4.y.4.i.i.i.4.4.4.b.C.C.b.4.4.4.4.4.i.t.e.:.e e C R D R P P f Q T T T T T T T T T T T T f d : : D D D F F M N m N N N N B N N H G G G G H H H G G F F N N N m N m N ; N M > * % % % % > : d f U U U h h h z k v z x v ] x z z z z z z h z z z v v z v / z / z z v v ] s.v ] } s.} *X} ~.} ] ] { ' ' } *X-X*X^.:X*X-XW./ k k k l q.q.j.g.g.g.0.K.9.x.x.0.6.1.a 3 < 3 4 p k h z ' { { } ] W.W.W.W.W.W.W.] !.^.^.^.Q.Q.W.Y.^.^.!.^.!.!.!.!.!.^.!.!.^.!.!.~.~.~.~.~.~.~.!.Q.~.Q.~.!.Q.Q.!.!.!.~.~.~.~.Q.W.W.W.Q.~.Q.} ] ) ] ) q 9 1 1 9 e e e 9 e 9 e e e 9 9 9 1 4 q s s 4 q q k k k k k e 3 2 q k c r r r r r r r t r t r r k r k s j h h j h h j h h ",
"h h f u U g U Y P P P I C C I I I R W P P P P I I P P P w w w w w w I I I I f f w = 1 9 g Y.Y.q.e.y.i.3.3.4.4.b.b.b.b.b.4.4.b.4.4.b.4.4.4.3.3.3.5.4.4.4.4.4.4.4.4.4.3.y.g.g.g.l.6.1.1.a a a l c c c x r.x x x v x x v v v s.W.s.v v v v v v v v v v v v v v b v v s.W.W.W.] s.r.a.W.W.s.q.s.W.W.W.W.W.W.!.!.W.W.W.W.^.!.W.W.W.W.W.W.x x x x x x c a a a a w.1.<.<.<.w.y.d.f.g.4.g.g.4.3.4.4.i.4.4.4.4.4.4.4.4.3.4.4.4.4.4.>.:.t t o.W I I T T U T T T T T T T T T T T T T T U d : : D E E E D N N N N N F F H H G H G G H G G H m N G G H B N N N N N N > > > > > > ; : : : D Y f U U T h h z z h z z z x ] ] z s z z z v z v ] ] ] ] ] ] } } ] } ] } Q.Q.~.~.*X*X*X-X-X-X-X-XsX-X-X:X-X:X>XgX>X:X>X>X2X-X~.l k k c 1.<.d.g.g.0.C.M.9.9.9.x.x.f.<.a a 4 4 4 4 j g g / ' } ] ] W.W.W.W.W.] ] W.~.~.~.Q.W.W.W.^.W.W.!.~.~.!.!.!.!.!.Q.~.~.!.~._.~.~.~.~.~.~.~.~.~.~.~.~.~.~.~.~.~.~.~.~.Q.] !.Q.~.~.~.] { T z e 9 = + 1 9 9 C e 9 e e e e e 9 1 1 9 r k k k k k k c c k k q q q e q s z r r r r t r t r r r r r r c s g h h h j h h h j j ",
"h h d d f h Y Y P P u : : M C M I R U P f d I I I I I I w C w w w w C P I P w : - = # 1 q x Y.Y.e.u.y.3.3.3.4.b.b.b.b.b.b.b.b.b.C.b.4.4.4.3.3.4.3.3.5.4.4.b.b.b.b.4.5.4.3.4.4.g.f.y.d.<.p.q.q.q.l c c q.q.l c c l l x x x v v v b b s.s.s.s.s.v b v b b b b b b v s.) v v v v s.s.) W.W.W.W.W.s.r.s.W.] W.W.W.] W.s.s.s.x r.r.r.r.x l l q.q.r.q.q.1.1.1.<.w.f.d.d.y.y.f.g.4.4.4.4.4.4.4.4.4.4.4.4.4.4.4.4.5.3.5.3.b.b.4.4.y.r.:.) ) W W W ~ T f d Y T T T T T T T T T T T T U I : M M D F M N B N N F N N N F H G G H H N B G N m m N F N N N N M M N > > > * > ; : P P d d f U T T h g g s s s s s z x x ] ] x z ] ] ] ] ] { ] ~.~.} Q.!.~.Q.~.*X~.~.*X*X:X:X:X>X>XhXhXhXhXgXgXgXjXvXvXvXvXvXgXgXgXvXvXhX`.] c c r.1.<.3.8.4.3.4.M.M.M.M.C.9.x.h.p.p.1.a a 4 4 p s h / / x ) ] W.W.W.W.W.] ] Q.W.W.Q.W.] W.Q.W.W.Q.W.] W.W.!.Q.Q.Q.Q.~.~.~.~.~.~.[.~.~.~.~.Q.Q.W.~.~.~.~.~.~.~.~.~.~.~.~.~.} } { ' ' Y f 9 + # 1 + 9 9 e w 9 e e e e 9 1 1 3 2 4 k c l k k k k k l k s q q q q 5 q r r r r r r t r r t r r r c z p j h j j h h h h j h ",
"h u d d d f P Y P R w 0 : C I C I I C : d f P I P I I I P U U w w w w w f w w w = # # 1 e c r.r.e.u.i.i.i.4.4.C.b.b.b.b.b.b.b.b.b.b.4.4.4.4.4.4.4.3.3.3.3.3.3.b.4.b.b.b.4.3.3.3.4.3.3.g.g.l.j.p.q.q.1.1.a a a a a a l l x x x v b s.s.s.s.s.s.s.s.s.s.s.s.s.s.v x s.s.s.r.s.v s.e.s.s.W.a.a.s.s.W.s.s.r.Y.s.s.e.r.c q.q.q.r.q.q.q.q.q.r.r.q.p.d.d.y.<.<.w.d.d.y.3.8.8.3.3.4.3.3.4.b.b.C.b.4.4.b.C.C.C.b.4.4.M.M.K.C.C.b.4.i.:.:.Y.W W W W P d f f Y T T Y Y T T T T U T T T U I D M M M M N N N S F M F B N N B B B B N m N G N V m M N N F M M M N & > > > > > u d P d d d g g h g j j 0 4 4 s z z ] Q.Q.] W.W.Q.~.~.~.~.^.~.~.~._.-X-X-X:X>XhXhXdXhXdXcXcXcXcXvXFXGXGXFXFXBXvXvXGXFXJXGXGXFXCXgXgXgXgXcX>X_.W.s.e.w.w.8.8.4.3.4.C.M.4.M.9.C.0.9.9.h.p.w.q.a a a k k g s x x ) ] ] ] ] ] ] x ) ] W.W.Q.] W.W.Q.Q.Q.!.] ] W.] ] W.W.W.W.W.^.~.~.~.} Q.] ] W.Q.^.W.~.W.W.] ] ] W.W.W.~.~.~.} { / T g j - # O O O , # = = C w C C 9 9 9 9 1 2 9 4 s k c c k k k k k k k r r q r k r r r k k c r r r r r r t r r r a h p h h h j h j h h h ",
"h h h g f d d d P P P C d P C C w P D : : w f I I C C C P U U C w w P f w I w w 0 0 = + 9 c x x r.u.i.i.4.4.4.4.4.4.b.b.b.b.b.b.4.b.b.4.4.4.4.4.b.4.3.3.3.3.3.5.4.4.4.4.4.4.4.b.4.4.4.3.3.l.d.0.g.k.j.w.1.a 1.1.1.a a a a l q.q.n 7.7.7.6.q.s.s.s.s.s.s.s.q.a.s.s.s.s.p.a.s.a.a.s.p.a.a.k.k.e.a.a.s.a.e.e.q.w.r.r.<.q.w.a.k.w.y.y.w.w.y.d.8.8.8.g.4.4.3.8.4.4.4.4.3.3.3.4.3.3.3.4.4.b.4.4.4.4.4.4.4.4.C.4.b.M.b.4.b.b.4.2.i.:.Y.Y.( ( I Y Y ` d h h Y Y Y U T T T T T T U Y Y I D M M M V N N N N B N H N m S N N B G B m m N H H N N m N D D D ; ; > ; ; : d I d d d j d f j w 0 0 2 4 0 0 g z ] } _.-X~.Q.~.^.~.-X_.-X:X-X-XdX:XdXgXvXvXvXJXHXGXJXGXGXFXFXGXGXFXFXFXFXJXFXFXHXHXFXFXFXFXFXFXFXGXvXGXVXVXgXdX~.W.s.e.w.6.<.0.0.4.b.M.b.M.C.M.M.9.9.@X#Xh.p.1.q.q.l l k a l c x x ) v s.W.W.W.W.] ] v v v v ] v v ] ] Q.W.v v v v s.] v v ] W.v x ) W.] W.W.Q.W.] ] ] ) ] ] ] { ~.W.~.{ ' z g j 0 = # = = @ O O + , = = = - 9 0 9 9 # # 1 e q k k k k k k k k 8 8 8 r r r r r k k r r k r r r r t r t r r t r z s s p h h h h h h h h g ",
"` T Y h U f f Y P P I I I C w w C I I d w f f P P C U U P W W P w w C I w I w : = 9 = + 9 c ) Y.r.e.u.y.i.3.4.4.4.b.b.b.b.b.4.4.4.4.4.4.4.4.4.4.4.4.3.3.3.5.4.3.3.5.4.3.4.4.4.b.4.4.3.3.3.3.3.4.i.g.g.j.f.<.<.1.1.1.1.a a a l a a n a a a l n 1.<.s.h.p.p.q.<.p.a.p.6.w.a.a.e.p.p.p.d.p.u.d.k.a.d.k.p.w.k.p.d.w.w.y.d.d.j.g.l.f.j.g.f.4.y.4.8.4.4.4.4.4.4.4.4.3.3.4.3.4.3.3.3.4.4.4.4.4.4.4.4.4.b.4.C.b.4.M.b.b.b.b.b.4.2.i.5.:.) ( W I P Y T h h f h Y Y f T Y T T T T T T Y d D I E E N N H G N F N N m B N N N S H F B B H G G F M m N : M ; ; ; : : I w I d d d g u - - $ @ # 4 s z z / } _.`.*X:XdXdXsX>XfXhXdXhXcXcXBXBXBXGXGXHXFXFXFXFXFXFXFXJXFXGXFXFXFXFXFXFXFXJXPXFXFXFXPXFXFXFXGXGXFXPXKXFXFXFXvXhX`.W.W.a.y.3.0.K.9.9.C.M.M.M.M.M.M.9.9.9.h.0.0.h.h.h.p.p.p.q.l l q.q.l r.q.l x x s.r.v r.] x x x v v v x W.v v s.W.W.v x v v v v v x x x s.) s.) ] x ] x ' ' ) / ) / z h g j j $ $ # + # # = 9 9 # + = - - = = = 9 # 9 1 # 1 2 k s q k k k k k 8 8 8 8 8 r r t r k r t 5 r r t r t r r r r r r r r k k j h h h j h h j g f ",
"T T U U I d d P I P f I C w w w C I f f f P P P C U U U C W U U P C C f f d d - = = = # e / W.Y.r.r.w.w.w.y.3.4.b.b.4.b.4.4.4.4.4.4.4.4.4.4.4.4.4.3.3.3.3.3.3.3.3.3.3.4.b.4.2.3.4.4.4.4.3.4.3.5.3.3.y.g.l.h.8.3.<.<.<.1.a 1.a 1.1.1.a a 1.a 1.1.1.<.y.<.6.<.1.<.p.<.<.w.<.p.3.d.p.d.g.f.3.f.f.8.h.f.g.f.g.f.g.g.f.g.4.g.4.g.g.g.g.4.g.4.4.4.4.4.4.4.4.4.4.4.4.4.5.4.4.4.3.4.4.4.4.4.4.4.4.4.4.b.b.C.C.b.9.C.M.b.b.b.b.2.>.i.>.t e C I I P U T h j d f Y Y d h T T T T T T T Y I D I E D F F H H F N N S N N B N N N F N N B | | | D ; N M ; : ; ; - : P P P f d j u w = . @ @ + 1 g { ~._.|.-XdXhX2XvXGXVXVXVXFXFXGXGXFXFXFXFXFXFXFXFXLXFXFXFXGXFXFXGXGXVXFXFXFXFXFXFXFXGXFXGXGXFXKXFXFXFXGXGXFXFXPXFXFXFXGXvX,X] W.r.e.j.g.K.M.9.M.M.M.M.M.M.C.9.9.0.9.0.0.9.x.C.x.x.g.f.p.p.p.p.p.p.q.q.l s.a.W.s.e.s.s.a.W.s.s.x x x l v x v ] v v v v v v v x x x z x l x l z z z z g g g s j $ $ - $ # + + + + + 2 2 0 0 9 = 1 - - # = # # # 9 9 9 4 q k r q k k k r r r t 8 8 r t r t r k r t r 5 t r r r r t r t r r r k k z h h h h h h h h h h ",
"T T h f f P d P I I C C C 0 w w w w I w d f P P U U U U U U U U U P w f I Y P w - = = = w / Y.Y.c r.e.w.y.y.3.3.b.g.4.4.4.4.4.4.g.4.4.4.4.4.4.4.4.b.4.3.3.4.3.4.4.4.4.b.b.4.2.4.4.4.b.b.b.4.4.3.3.3.4.4.g.4.g.4.f.3.<.3.8.<.<.<.<.<.<.<.1.<.<.1.1.1.1.<.<.1.1.<.<.<.<.3.3.8.3.4.4.8.g.g.3.8.8.8.4.g.g.g.g.g.g.4.g.g.4.4.4.g.b.C.b.4.4.4.4.4.4.4.4.4.b.4.4.4.4.4.4.4.4.4.4.4.4.4.4.4.3.4.3.4.4.C.C.b.b.M.b.M.M.C.b.b.4.2.*.i.:.t e w M I P T T h h d d Y Y d f h T T T T T T Y Y u Y F D M B M H F N N N N N N N B N N N M D D M M ; ; M M - * * > : : I P w d - * - # @ @ - w s ' _.`.-X:X:XdXBXGXZXFXKXKXFXFXKXKXFXFXFXFXFXFXGXFXFXFXFXFXFXFXGXFXFXFXFXGXGXFXFXGXGXFXGXUXLXLXGXKXKXPXKXKXFXKXGXGXGXGXGXFXFXGXsX] x x e.e.f.x.C.9.9.M.M.M.M.M.M.9.9.9.9.0.4.0.0.0.9.x.9.9.9.h.x.9.f.d.6.d.k.k.k.k.a.a.k.^.!.^.^.s.x r.l l x x r.x v s.v v x x x x x x l c k l k s j p 4 e 9 0 $ $ $ $ $ $ + + < + 3 3 p k c z g 4 0 0 - # # # # 1 9 q q q s s k r r r r 8 t r r 8 8 r t r r r c r t 8 r r r r t r r r r r r r r s k z h h j h j j h j h ",
"g f d f P I P P P E C w w w w w C I f w w w I I U U U U W U U U U U P w d U U : : - = = 9 C ) x k c r.q.q.w.w.3.f.4.4.3.4.4.4.4.g.4.4.4.b.b.b.b.b.b.4.4.4.4.4.4.b.b.b.b.b.4.4.4.4.b.b.b.b.3.3.5.3.3.4.4.3.3.4.4.4.3.3.8.0.3.3.5.<.3.<.w.3.3.3.4.3.<.<.<.<.<.3.3.i.8.8.4.4.4.4.4.4.4.4.4.g.g.4.b.4.4.b.4.4.4.b.4.4.4.4.4.4.4.4.4.4.4.4.4.4.4.b.b.b.b.b.b.b.4.4.4.4.4.4.4.4.4.4.4.4.4.4.4.4.4.C.C.C.m.b.b.b.M.b.b.b.b.4.3.*.r.c e 9 C C R Y T T T h d u Y Y d d f Y T T T T T P u u I D M M N E F N B N N M N M D F N N ; N M M ; > > > : - * * = : w P I f - = # @ @ @ - T ~.-X-X-X:XsXdXgXBXZXFXKXFXKXKXPXFXFXKXKXKXFXGXFXFXGXGXLXFXGXGXFXFXGXUXFXGXFXGXZXGXGXGXGXGXFXFXGXGXGXGXFXKXKXKXKXKXKXLXvXGXGXGXGXGXGXdXW.c k x e.p.f.g.9.9.M.M.M.M.M.M.m.b.M.M.9.9.4.4.9.M.C.M.V.&Xx.9.9.0.8.8.h.x.h.f.f.z.j.g.x.(./.z.a.a.a.a.a.s.s.q.s.s.s.q.q.q.q.q.x x l l l l a a 8 4 4 4 4 4 4 4 4 $ 4 j k p 4 4 8 a q.q.s.^.s.x s 4 4 4 # # # 9 e s g k k k k k r r r 8 8 r r r r r t r r r t r r r r r t r t r r t r r 8 8 8 r s s z h j j h j h h g g ",
"f f d f d P f w P w - : w w C C C C I f d f P I U U / U ( U U C U U U w w I f w : * @ O = 0 q s q r k 8 a <.w.d.y.4.f.4.4.g.4.4.4.b.C.b.4.b.b.b.b.b.C.b.M.b.M.4.3.4.4.4.4.4.4.4.4.3.3.3.5.3.3.4.4.4.4.4.4.4.4.4.4.4.4.4.4.4.4.4.3.4.g.g.g.0.g.3.4.4.4.4.4.4.4.4.4.4.4.4.4.C.4.4.4.4.4.4.C.b.4.4.4.4.4.4.4.5.3.4.4.4.4.4.4.4.b.b.4.4.b.C.C.C.b.b.b.b.b.b.b.4.4.4.4.4.4.4.4.4.4.4.4.4.4.4.M.C.C.b.b.b.b.b.b.C.C.b.b.4.4.5.=.r.r 9 w C R R Y ~ ^ h h d d Y Y Y Y d Y T T T h h h d u I D F F H M N M F H D M N F E E M M N ; M M : : ; : > O O * w f f U I f u * @ # - - U _.dXhXdXfXgXBXZXGXKXPXKXKXFXFXFXKXKXFXFXKXFXKXKXKXFXFXFXKXFXFXGXLXGXGXGXFXFXGXZXZXGXGXGXGXFXFXFXFXFXGXFXFXFXFXFXFXFXKXKXKXKXGXZXjXZXBXhX-Xc l r.r.y.f.g.g.M.M.M.M.M.M.M.M.M.C.V.V.C.C.M.4.M.M.M.M.M.M.9.9.9.9.9.9.9.0.8.8.0.8.f.f.f.f.f.f.d.j.j.a.a.k.a.a.s.s.p.p.d.w.q.q.q.s.p.w.q.q.l c c l l a c l l l l x q.q.s.p.p.w.8.g.z.z.=Xz.s.p 4 4 4 = 9 9 r r k l c k k k t 8 r 8 t r r t r r r r r r t 8 r r k k r r r r r r r t r r r 8 q s s g h h j h h s h h h ",
"f f d f P P P P I I : w w P C C P P P P P I I U U U U / ) U w C U U U w w P w w : * * O = 9 9 9 9 e r 8 8 :.w.i.y.y.y.y.y.y.4.3.3.b.C.b.4.4.4.4.b.b.b.b.b.b.b.b.4.4.4.4.b.C.b.b.4.4.3.3.3.3.4.4.4.4.4.3.4.4.4.4.4.b.4.4.4.4.4.4.4.g.C.C.C.C.C.4.4.4.4.4.4.4.4.4.4.4.b.b.b.b.4.4.4.4.4.4.4.4.4.4.4.4.4.4.4.4.4.4.b.b.b.4.4.4.b.b.b.b.K.C.C.b.4.4.4.4.b.4.4.4.4.4.4.4.4.4.4.4.b.b.b.b.b.M.C.M.C.b.n.b.b.b.b.C.C.C.0.g.g.<.=.8 3 = : I Q F I T T T h d Y Y Y Y Y h f T T T h h h d u D D F H H M N B F F M M N D F M M : ; M M : : > > = * . = = d d d d - - @ @ @ w g Y ~ _.dXgXgXZXGXPXKXPXPXKXFXFXFXFXKXKXKXFXKXKXKXKXKXFXFXFXFXFXFXFXFXGXGXGXFXFXFXFXGXGXGXGXLXUXGXGXGXFXFXLXKXFXGXGXGXGXGXGXGXGXFXGXGXjXjXBXhX].) k r r.w.p.d.g.9.M.M.M.9.9.4.M.m.M.M.V.V.V.V.M.M.C.M.b.M.M.M.V.V.V.9.C.C.M.M.C.g.g.4.4.4.4.8.8.0.8.f.8.8.8.d.h.h.h.h.d.d.d.d.f.d.f.h.h.h.h.p.p.k.z.k.a.k.p.h.h.p.h.OXh.@Xx.x.h.x.x.L.<X@X@Xh.1.4 3 4 9 e r r c c l c c r 8 8 8 8 8 8 r r r r r r r r t r r r r r k k k k r r r r r t r r r k k s h h h h h h h h h h ",
"U I P I I P I P I : : : C M C C C C C P I I P P U U U W / C U U U U U P w d w : : * * = = : 9 # 1 e k r 8 8 l r.w.6.3.<.y.3.3.4.3.4.4.4.4.4.4.4.4.4.b.b.b.b.b.b.b.b.b.4.m.b.9.4.4.4.4.4.4.4.4.4.4.4.3.5.3.4.4.3.3.4.3.3.3.3.3.4.4.4.4.4.4.4.4.3.3.4.4.4.4.4.b.4.4.4.4.4.b.b.4.4.4.4.4.4.4.4.4.4.4.4.4.4.4.4.4.4.4.4.4.4.4.4.4.4.4.4.4.4.4.4.4.4.4.4.4.4.4.4.4.4.4.4.4.b.b.b.b.b.b.b.b.m.M.4.n.n.n.n.b.n.n.b.K.b.4.g.g.1.8 8 2 # ; I Q E I P T T g f d Y Y Y Y T h T T h h h h u u : M D E | F N N F D D ; M M M M > > ; : : ; @ O O @ @ = - : d f j - - @ @ @ - f ] _.-XsXZXLXKXFXKXPXKXKXPXKXFXPXFXFXFXKXKXKXKXKXKXKXKXFXFXFXLXFXFXFXFXGXFXFXFXFXFXFXFXLXGXGXUXGXGXZXGXGXGXFXGXGXGXUXGXUXGXGXjXUXjXGXGXGXGXBXhXfXW.c r t r.w.3.3.3.9.9.C.M.9.9.0.9.b.C.M.M.9.V.M.M.M.b.M.M.M.b.M.V.V.V.C.C.V.K.C.V.C.C.C.C.9.C.K.9.9.0.0.9.0.h.x.x.h.h.h.x.h.h.x.x.8.8.8.8.8.d.0.8.h.#Xx.x.x.x.C.@X9.K.C.C.x.9.9.M.C.V.C.@X@Xh.6.a 8 4 q g ) ) x c c k r r 8 8 8 8 8 r t r t r t r t r r r t r r r r c k k k r t c t r 8 k r k k s g h h h h h h h T h ",
"U U I I P I P I I : : : : C C M M M C P P I U f U U U U C C C U U P f P I d : : - > * = = w e 9 1 e q r r k l r.<.1.<.<.<.3.3.i.0.4.4.3.4.4.4.b.b.b.b.b.b.b.b.b.b.b.4.4.b.4.4.4.4.4.4.C.b.4.4.4.4.4.b.4.b.4.4.4.4.3.3.b.b.4.b.4.4.4.4.b.4.b.b.4.4.b.4.b.b.M.M.4.b.4.b.b.b.b.b.4.b.b.4.b.b.b.b.b.4.4.4.4.4.4.4.4.4.4.4.4.4.4.4.4.4.3.4.4.4.4.4.4.4.4.4.4.4.4.4.4.4.4.4.b.b.b.b.b.b.b.b.b.b.b.b.n.n.b.n.n.b.C.b.4.4.g.y.1.8 < + O > D F R Y d g h h h Y f f Y Y T h T T T h T T d d u M D F E H N N F M N > > : : > > * > - - ; @ O O O = 0 0 j f j - j j - = 0 d T -XjXjXGXLXKXKXZXFXKXKXKXKXKXKXKXKXLXZXZXFXFXGXLXGXLXGXFXGXGXGXGXLXFXFXFXFXGXFXGXGXGXGXFXGXGXGXBXBXjXjXGXBXGXGXUXGXGXFXKXGXGXGXjXjXGXGXGXGXGXgXdX).x t r.r.q.<.3.3.4.C.C.M.M.4.4.M.4.4.M.M.M.V.M.M.C.C.m.M.C.m.C.C.M.V.V.D.V.m.m.m.V.M.&XM.V.V.M.V.V.M.M.9.9.9.h.C.9.K.M.x.@XK.V.x.9.9.9.0.0.h.9.C.9.K.M.x.9.C.M.C.C.M.M.C.9.9.C.M.M.M.M.x.x.h.p.1.5 3 5 U ( Y.r.c r t c c k 8 r r 8 t r r r r r r r r c c c r k r k c l k k k k k k k r k k k s s s h h h h h h g g g ",
"U U U I I P I I I I M : w C C C w : d f C C C g U U U C g C U U U P f P C : : : - = * * 9 e w e 9 q e q r t c r.a 1.a 1.q.w.y.d.4.3.3.3.4.4.4.b.4.4.b.b.b.b.b.b.b.4.4.4.3.5.4.3.4.4.4.4.C.4.4.4.4.b.b.C.b.b.b.b.b.b.4.b.b.b.b.b.b.4.b.b.b.b.b.b.b.b.b.b.b.b.C.b.b.C.b.b.b.b.b.b.b.b.b.b.b.b.b.b.b.4.4.4.4.b.4.b.4.b.4.b.4.4.4.4.4.3.4.4.4.4.4.4.4.4.4.b.4.b.b.4.b.4.b.b.b.b.b.b.b.b.n.b.m.n.b.b.n.b.b.n.n.C.C.b.b.4.8.1.8 + O * : M D Q Y I g T h h h f d d d h h Y h h U T T d u D M D D E | E F D M ; ; > : > > * * * * * * * O O @ - d f s j j j h ' z j j / -XgXLXKXKXLXKXKXZXZXKXKXKXKXFXKXKXFXZXZXZXZXZXGXGXGXZXLXGXGXGXGXGXGXGXGXGXGXGXGXGXBXvXjXBXBXGXBXGXBXGXBXBXBXGXGXGXGXFXGXFXUXGXGXGXUXGXBXBXGXvXgXdX).Y.t t r.e.3.3.3.3.4.9.M.M.M.M.m.M.4.C.M.9.V.V.M.V.V.N.m.C.m.m.M.M.C.C.M.m.M.m.M.m.m.B.M.V.V.V.V.V.V.V.V.m.m.M.M.C.M.M.M.M.M.M.M.M.V.M.9.9.9.M.V.M.&XM.C.M.M.C.&X9.C.&X9.9.9.9.9.M.M.M.C.&Xx.8.q.t 5 t ) ) ) Y.c k r k c k k k r r r r t r c r r r r r k c z k k k k r s q 8 q k s r s r r k s s s s h h j h g h g g ",
"g g U U C P P I P C C C P P C C C w w P C w P P U U U C C U U U U U U C C w : : - = + = q ) ) e q r 3 r r k l x l a a l q.w.<.y.4.3.3.3.4.4.4.4.4.4.4.4.b.b.b.4.4.4.4.3.3.3.4.4.4.b.4.4.4.4.4.4.4.b.b.b.b.b.b.b.b.b.b.b.b.b.b.b.b.b.b.b.b.b.b.b.b.b.b.b.b.b.b.b.b.b.b.b.b.b.b.b.b.b.b.b.b.b.b.b.b.b.4.4.4.b.b.b.b.b.b.b.b.b.4.4.4.4.4.4.4.b.4.4.b.4.b.b.b.b.b.b.b.b.b.b.b.b.b.b.b.b.C.D.C.n.b.b.b.b.b.C.m.m.C.n.b.g.g.1.t + O : : : : P Y f h h h d d f f f f f h h h h h Y T Y u P D D D I R R D M M > ; > > * * * * * * * * @ X . @ - g g h h h z ~.-XQ.h T `.cXFXKXFXKXKXKXLXLXLXKXKXKXLXDXZXGXFXGXBXBXBXGXGXGXGXGXGXGXGXGXGXGXGXGXZXZXGXGXGXGXGXvXvXgXvXvXBXGXGXGXvXvXjXGXGXGXFXFXGXGXLXLXLXKXGXjXgXgXgXvXgXhX-X[.c t t r.i.3.3.3.3.9.M.M.M.M.B.B.M.M.M.C.V.V.V.V.V.N.N.m.m.C.M.m.C.M.M.M.M.M.C.m.m.B.B.B.B.N.N.V.V.N.V.&XZ.N.M.M.M.M.M.M.M.M.M.M.M.M.M.M.M.M.M.M.&XM.M.C.&X9.M.9.C.9.9.9.C.C.M.M.4.M.C.&Xz.8.w.r.8 r x ) ) z k r r s k r q r k k s k r r s k k q q e 0 q g q q 2 9 9 $ # + 1 4 0 e 2 4 e 4 e 0 q 4 j d j j f f j g ",
"g g U U U P P I C C C I P I C C C C w w w C P P I I I I C U U U U U U C C C C - * = = q ) ).[.c x r r r q q k c k c q.q.q.q.1.<.y.3.3.4.3.4.4.3.5.3.3.b.4.3.4.4.4.4.4.4.4.4.4.4.4.4.4.4.4.4.4.4.4.4.b.b.b.b.b.b.b.b.b.b.b.b.b.b.b.b.b.b.b.b.b.b.b.b.b.b.b.b.b.b.b.b.b.b.b.b.b.b.b.b.b.b.b.b.b.b.b.b.b.b.b.b.b.b.b.b.b.b.b.b.b.b.b.b.C.b.b.b.b.b.b.b.b.b.b.b.b.b.b.b.b.b.b.b.b.b.b.b.n.V.C.n.b.b.b.b.b.b.b.b.n.C.K.K.f.w.r # , - : > : f Y d Y T h h f d u f d f h h h Y T Y Y Y u u D D D P R E M ; ; > : : > * * * * * * * * . . . @ - f h z z ] !.*X-X~.Q.=XgXZXFXZXBXZXFXFXZXLXLXKXLXKXKXFXFXGXGXBXBXBXBXBXBXgXBXvXjXBXBXjXBXGXGXJXGXGXGXGXGXBXGXvXGXvXvXvXvXvXxXvXvXgXgXvXFXFXFXFXKXLXKXLXLXKXGXGXvXgXvX2XvXhX:X^.t t t r.w.y.g.g.0.9.C.C.C.M.M.B.B.M.M.m.M.V.V.V.S.V.N.B.N.m.m.m.m.C.M.M.M.M.M.M.m.m.B.B.B.B.B.B.B.B.B.B.B.N.m.N.V.V.M.C.M.XXK.M.M.M.M.M.M.M.m.M.M.M.C.V.9.9.0.0.9.9.9.9.M.C.9.M.M.C.M.L.g.<.w.1.5 k ) / c q e 3 4 e 4 0 q 4 q e e q 4 q q e 4 e 0 9 9 9 1 # + + + + + + + + # # # + O + @ @ # # @ $ @ * - - = = 0 ",
"I g U I I P I P I I I I I P C C C w C C P U U P C I U U w w U U U U U C P C w : = O = ( [.[.[.Y.Y.x t q 8 8 r k a a l q.q.q.1.1.<.y.3.4.4.4.4.3.3.3.3.4.4.4.b.3.4.4.3.4.b.4.4.4.4.4.4.4.4.4.b.4.b.b.4.b.b.b.b.b.b.b.b.b.b.b.b.b.b.b.b.b.b.b.b.b.b.b.b.b.b.b.b.b.b.b.b.b.b.b.b.b.b.b.b.b.b.b.b.b.b.b.b.b.b.b.b.b.b.b.b.b.b.b.b.b.b.b.b.b.b.b.b.b.b.b.b.b.b.b.b.b.b.b.b.b.b.b.b.b.b.n.n.C.b.b.b.b.b.b.b.b.b.C.C.V.C.K.i.&.3 + , > - > : f U T T T h h u d u h Y f d d f f Y Y Y I u u u u D P I M : ; > > : : - * % % * * * * * @ O O = w g / z ] Q.*X:X*X*X:X>XvXVXZXVXZXZXLXLXLXKXDXFXFXFXFXDXZXBXBXGXvXvXvXvXvXgXgXvXgXvXvXvXvXjXBXGXGXGXGXvXgXgXvXvXvXvXhXhXgXhX>XhXgXhXhXvXGXFXFXKXKXKXKXKXKXKXGXGXvXgXgX>XvXhX:XW.r t :.r.i.y.y.g.0.C.M.C.9.b.M.M.M.M.V.V.N.V.S.S.S.S.m.N.N.m.V.V.V.m.V.M.M.M.M.m.m.B.B.B.B.B.B.B.B.B.B.B.B.N.V.V.N.M.M.M.M.C.M.M.M.m.C.M.C.M.b.C.M.x.K.&XM.9.0.9.9.9.9.0.C.C.C.C.C.C.M.L.4.3.q.r.k r z U 0 + + o + + + + + + + + # # # # # # # # + , + O O O + + + O + o o + O O O + o o O O O O O O . @ @ @ @ @ O ",
"P U U P I I P I P I I P I C C C C C f P P U U P C w I U P P P P U U U U P P d > * + = C ) T.Y.T.Y.r.c k r r r 8 8 k c q.q.r.a 1.w.w.y.3.3.3.4.4.3.b.b.4.3.4.4.4.4.4.4.4.3.3.4.4.4.4.4.4.b.b.4.b.b.b.b.b.b.b.b.b.b.b.b.b.b.b.b.b.b.b.b.b.b.b.b.b.b.b.b.b.b.b.b.b.b.b.b.b.b.b.b.b.b.b.b.b.b.b.M.4.b.b.b.C.M.b.b.b.b.b.b.b.b.b.b.b.b.b.b.b.b.b.b.b.b.b.b.b.b.b.b.b.b.b.b.b.b.b.b.b.b.n.n.n.b.b.b.b.b.b.b.b.m.m.m.K.K.f.1.8 < + * * - - : f T T T T h h h j h Y h f d h T T Y Y f I P : u u D M : ; > > > > > > * , * * * * * * * * * * - d g h s h ] !.*X!.*X>XxXcXcXcXCXZXZXLXKXPXLXFXZXZXZXZXZXZXvXvXvXvXvXvXvXgXgXgXgXgXvXvXvXvXvXxXvXvXcXgXhX>XhXhXgXgXhXhX>XhXhXhXhXhXhXhXvXGXFXFXFXKXKXLXKXKXLXGXBXvXgXgXgXvXgX*Xx t r.e.r.r.w.<.8.0.M.C.M.M.M.M.M.m.B.M.B.B.N.N.N.m.m.m.V.V.D.V.V.V.m.V.V.V.N.B.B.m.B.B.B.B.B.B.B.B.B.B.B.B.N.N.N.N.m.m.M.M.V.C.M.M.M.M.9.0.9.C.9.9.M.M.M.M.M.M.9.M.9.C.K.9.C.b.b.C.C.C.K.8.1.r.r.t q w e # + o o o o o o   . o o o o + O . o o o o o o o X O O o O O O . + O O O O O o O O O . . . . @ . . . . . . ",
"T T U U P C f I P I P f P C w I I I P w w P P P P P I R U U I I P U U U I I : > * # , 9 r Y.[.Y.:.r.r.Y.x :.r 3 8 8 r k c a a 1.w.w.<.3.3.3.3.3.4.b.4.3.3.4.4.4.4.4.4.3.3.5.4.4.4.4.4.4.4.4.4.b.b.b.b.b.b.b.b.b.b.b.b.b.b.b.b.b.b.b.b.b.b.b.b.b.b.b.b.b.b.b.b.b.b.b.b.b.b.b.b.b.b.b.b.b.b.b.b.b.b.b.b.C.C.b.b.b.b.b.b.b.b.b.b.b.b.b.b.b.b.b.b.b.b.b.m.4.b.b.b.b.b.b.b.b.b.b.b.b.b.b.b.b.b.b.b.b.b.b.b.b.b.b.b.C.K.y.1.3 2 O * > : : w I U f Y h h f f g Y T T h f T T T T Y Y Y Y : : : ; ; ; * > > > > > * * * > * % % * % . @ @ * - - w $ 4 j z s.!.=X=X1XnXnXcXvXVXZXZXZXLXLXFXZXZXBXZXZXZXBXvXvXvXvXvXvXvXvXgXgXgXgXgXvXvXvXnXgXgXgXvXhXhXgXhXhXhXgXhXgXhXhXhXhX>XhXvXvXvXGXGXFXFXFXLXKXLXLXLXGXBXvXgXhXgXgXhX].) c Y.^.w.r.q.<.8.4.9.C.M.M.M.M.m.b.M.M.m.m.m.m.M.m.m.D.C.n.D.C.m.m.M.B.V.V.B.B.B.B.B.B.B.B.B.B.B.B.B.B.B.B.N.N.B.m.m.M.M.M.M.M.M.C.M.M.M.M.9.M.M.9.C.C.C.M.M.M.M.C.C.C.C.C.M.M.C.C.V.C.K.f.q.q.x q 9 9 # O O . X . o   . O .   . . . @ . . O X             o   . . o . . . . . . . . . . . . . X X . . . . . . . . ",
"T T U U U U I I I I I C C C w w C I I w w P P P I P P I R U I I P U U U P I : = = = 9 9 e r Y.t t t r.T.Y.r.c c t t r r t a 1.1.w.<.<.<.3.4.4.3.3.3.3.3.3.4.4.4.4.3.3.4.3.b.4.4.4.4.4.3.4.4.4.b.4.b.b.b.b.b.b.b.b.b.b.b.b.b.b.b.b.b.b.b.b.b.b.b.b.b.b.b.b.b.b.b.b.b.b.b.b.b.b.b.b.b.b.b.M.b.b.b.b.b.b.b.b.b.b.b.b.b.b.b.b.b.b.b.b.b.b.b.b.b.b.b.b.b.b.b.b.b.b.b.b.b.b.b.b.b.b.b.b.b.b.b.b.b.b.b.b.b.b.b.v.b.b.n.4.y.:.r e + @ > : : d U T f g T h P Y T T T T Y f T T T Y d Y Y I u : : : ; * * > > > ; > * * * > > * % * % . . @ * - * @ $ j s v !.=X=X=X1X2XnXMXbXBXcXZXZXZXUXZXZXZXBXBXBXBXBXvXvXvXvXvXvXvXgX>X>XgX>X>XxXvXnXnX2XgXgXhX>X>XhXhXgXvX>XhXhXhXhXxXvXvXvXvXvXvXBXGXFXFXFXFXGXLXLXGXGXGXvXgXgXhXhXhXfX~.c x Y.e.r.k.y.8.K.K.C.M.C.M.M.M.M.M.M.M.m.B.m.m.m.m.V.V.D.C.V.m.m.M.B.V.V.M.B.B.B.B.B.B.B.B.B.B.B.B.B.B.m.N.N.m.m.M.M.M.M.M.M.M.M.C.9.M.M.M.M.C.M.M.M.M.M.M.M.M.M.V.M.V.C.K.K.M.M.@XM.L.8.<.q.c 0 = , O X X           X . . . . . . @ . % X O X X     X X     . . . . . . . . . X X X . . . . % . .   X . . . . . ",
"T T U U U P I I I I P I C 0 w : w C f w f P w C : w : u : I P P P U U P P w > * = = 9 9 e r r r r 7 t r.r.Y.T.T.x c c t k a r.q.q.<.<.w.g.g.4.4.4.3.3.4.4.4.4.4.3.3.3.5.4.b.4.4.4.3.3.3.3.3.4.4.b.b.b.b.b.b.b.b.b.m.b.b.b.4.4.4.b.b.m.4.b.b.b.b.b.b.b.b.b.b.b.b.b.b.b.b.b.b.b.b.b.b.b.b.b.b.b.b.b.b.b.b.b.b.b.b.b.b.b.b.b.b.b.b.b.b.b.b.b.b.b.b.b.b.b.b.b.b.b.b.b.b.b.b.4.b.b.b.b.b.b.b.b.b.b.b.b.b.b.b.m.b.b.b.g.w.l r q @ @ - w f P U T U U T h Y Y T T T T Y d h T T f f d P I u : - * * * * > > > > > * * > ; ; & % % . . . . @ O @ O $ s x ] *X=X=X=X<X2X2XbXcXgXgXBXZXjXjXZXjXZXjXjXZXvXBXvXgXvXvXvXxXxX>X>X>X>X>X2XxX2XvXnXnXnXgXhX>X>X>X>XhX>XvX>XgXhXvXxXvXvXjXvXgXvXBXBXGXGXGXGXGXGXGXGXBXGXBXvXgXhXhXhX:XY.g t x r.e.k.x.x.K.C.M.0.C.M.M.M.M.M.M.M.m.B.B.m.B.m.B.N.m.M.N.M.M.B.M.B.M.M.M.B.M.M.B.B.B.B.B.B.m.m.m.m.m.m.m.C.M.M.M.M.m.M.M.M.M.M.M.M.M.M.M.M.M.M.M.C.M.M.M.M.M.V.V.L.V.V.N.V.M.M.C.L.8.q.q.k e O O X         .   X   . . . . . . . . . X X   . . . . . .   . . . . . . . . X     X X . % % % . . X . . . . . . ",
"^ T U U U P I P I I I C C : : : w w w w I I w : * * @ * * > w U U I I f P M : > > = < 1 e e r 5 5 7 7 t r.r.T.R.E.Y.r.x l r.r.r.q.w.w.w.y.f.3.4.4.4.4.4.4.5.4.3.5.4.3.4.4.4.3.4.4.3.3.4.3.3.4.b.b.b.b.b.b.b.b.b.b.4.4.b.4.4.4.b.b.b.4.b.b.b.4.b.b.b.b.b.b.b.b.b.b.b.b.b.b.b.b.b.b.b.b.b.b.b.b.b.b.b.b.b.b.b.b.b.b.b.b.b.b.b.b.b.b.b.b.b.b.b.b.b.b.b.b.b.b.b.b.b.b.b.b.b.b.b.b.m.b.b.b.C.b.b.b.b.b.n.n.n.m.n.b.g.f.r.k e 9 = * w f d P U T T T T Y Y T T T T U U f T T Y f g f f u : : : - * * * * * > > * % * * * > % % . . . . X . O @ = 0 h v !.*X=X=X=X<X2X2XxX1XfXcXcXBXjXjXjXkXgXkXjXgXcXcXvXhXvXxXxXxXxX2X>XgX2X2XxX>X2XxXxX2XxX2X>X>X>X>X>X>X>X>X>X>X>XvXxX2X>X>XhXhX>XvXvXvXvXjXGXGXGXGXUXGXGXGXCXvXhXhXgX:X^.k q r c e.p.z.x.x.V.K.C.M.M.M.M.M.M.M.M.M.m.B.B.B.B.V.m.m.m.M.M.M.B.M.M.M.M.M.M.M.M.M.M.B.B.B.m.m.B.m.m.B.m.m.M.b.M.M.M.m.M.M.M.M.M.M.b.M.M.M.M.M.M.M.N.M.M.C.b.m.V.V.V.m.m.B.m.V.M.M.K.f.1.r.k 2 + O % % . . . . . . . . . . . . . . . . X X o X . . . . . . . . . . . . . . . X X X X % % % . . . . . . . . . . ",
"^ T U I C f P I I I C C M : : : : w w u d I : * X         % : P U C w w I M : - = , + 9 e e r 5 r r r 5 5 %.Y.T.R.E.T.Y.r.:.r.q.q.w.w.<.<.3.3.3.4.4.4.g.4.3.3.3.4.3.3.4.4.4.4.3.3.3.3.4.4.5.4.b.b.b.b.b.b.b.4.4.4.4.3.4.4.4.4.b.3.4.4.4.4.4.4.4.4.b.b.b.b.b.b.b.b.b.M.b.b.b.b.b.b.b.b.b.b.b.b.b.b.b.b.b.b.b.b.b.b.b.b.b.b.b.b.b.b.b.b.b.b.b.b.b.b.b.b.b.b.b.b.b.b.b.m.b.M.C.b.C.b.b.C.C.b.b.b.b.C.C.C.n.n.4.b.g.y.1.q e 9 = : C d d d g U U T f Y P f T f U g P T f T h T T T Y d u u ; - * * * > = * * * @ * * * * * % % . . .     % - 0 g z ] W.*X*Xz.=X2X2X1X1X:XzXcXgXgXjXgXhXgXgXgXgXgXgXcXvX>XvXnXnXxXvXxXnXnXnX2X2X2X2X2X2X>X2XxXxX2X2X>X>X>X>X>X>X>X>X>X>X>X>X>X>X>XhXgXhXvXvXvXvXvXBXGXZXGXFXFXVXxXgXgXhXhX:X/ 3 q c r.e.a.x.K.K.K.M.M.M.M.M.9.M.M.M.M.m.B.B.B.B.M.M.M.M.M.M.M.M.M.M.M.M.M.M.M.M.M.M.M.m.B.B.M.B.B.B.B.m.M.m.M.M.M.M.M.M.M.M.M.M.M.M.M.M.M.M.M.M.B.m.M.M.M.M.m.B.V.m.B.N.m.N.M.M.V.x.8.<.q.z 3 + + , O . . . . . . . . . . . . . . . . . .     . . . .         . . . . . . . . . . . . . . . . . . o X . . . . ",
"U I w w C C w C C : : : : : : : - - > : : > . X       X o   , - : w w j I P : * , , 9 e e r 5 y t r r 6 7 5 6 t T.E././.e.q.a c q.q.w.w.<.<.3.4.4.4.4.g.3.3.3.4.4.4.4.3.5.4.5.3.3.5.4.3.3.4.4.4.4.4.b.b.4.4.4.5.3.3.4.4.5.4.4.4.3.4.4.4.4.4.4.4.4.b.b.b.b.b.b.b.b.b.b.b.b.b.b.b.b.b.b.b.b.b.b.b.b.b.b.b.b.b.b.b.b.b.b.b.b.b.b.b.b.b.b.b.b.b.b.b.b.b.b.b.C.C.C.C.b.b.b.4.b.b.b.4.4.b.b.4.b.b.b.C.b.b.b.n.n.b.4.g.y.t e q w = : : : - : - = = = = @ * - - - - u f j i - u I d u u u : - - ; ; - u > : > > ; * * * * % % * % % & . . . O = 0 g / v s.^.=X=X<X<X@X<X1X1X2XcXgXvXvXvXgXgXgXhXgXgXcXxXxXxXxXxXnXxXxXvXnX2X2X2X2X2X2X2X2X2X2X>X2X2X>X2X2X2X>X>X>X>X>X>X>X>X>X>X>X>X>X>X>XnXvXgXgXgXgXgXBXvXBXGXvXgXhXhXfXdX-XQ.r e q l e.e.d.g.@Xh.9.9.M.m.9.9.9.0.M.M.M.M.M.M.M.B.M.M.M.B.m.m.M.M.B.M.M.M.M.M.M.M.M.M.M.M.m.m.B.B.m.m.M.B.m.B.B.M.M.M.M.M.M.M.M.M.M.M.M.M.M.M.B.B.m.M.M.M.M.m.m.m.m.B.N.N.N.B.M.M.0.8.p.l k q # o   X . . . . . . . . * . . . . . . . . .     . . . . . . . .   . . % % % % . . % . X . . . . . . o O @ @ @ O ",
"= * * * = = = > : : - > > * * * * * * > * * . .         o o   . O * * * * w u > , + , e r r t r r r r 5 5 5 5 r :.:.r.r.Y.r.r.r.1.r.q.w.w.<.y.g.4.4.4.3.3.3.4.g.4.4.4.3.3.4.3.3.4.5.3.5.3.3.4.4.4.3.4.b.4.3.4.4.4.4.4.4.4.4.4.4.4.4.4.4.4.4.4.4.4.b.b.b.4.b.b.C.b.b.b.b.b.b.b.b.b.b.b.b.b.b.b.b.b.b.b.b.b.b.b.b.b.b.b.b.b.b.b.b.b.b.b.b.b.b.b.b.b.b.b.b.4.b.b.b.b.b.b.b.b.b.b.b.b.b.b.n.b.b.C.b.b.b.b.C.b.b.g.l.q.8 4 e - = : : - - - @ . . . .     X   . . = : * . X . % . O @ . @ @ @ @ * * * * = * * * * & % % % % % % % % . . . @ - f U ' v !.^.=X=X=X<X=X=X=X1X2XnXcXcXgXgXcXcXcXhXcXxXxXxX2X2XJX2X2X2X2X2X2X2X2X2X2XJX2X2X2X2X2X2X2X2X2X2X2X2X2X2X2X>X>X>X>X>X>X>X>X>X>X>X2XvXxXxXgXgXgXgXBXBXGXGXGXgXhX>XhXhX:X^.k 4 4 c l a 1.8.0.x.9.9.0.9.9.9.9.8.9.9.C.M.M.M.m.M.M.M.M.M.M.M.M.M.M.M.M.M.M.m.M.M.M.M.M.M.M.M.B.B.M.M.M.M.M.M.M.M.M.M.M.M.M.B.M.M.B.M.M.M.M.B.B.Z.m.B.M.M.m.m.B.B.B.B.B.B.B.M.M.9.h.x.p.s.l 4 + O O       X . . . . . . . . . . . . . . . .     . . . . . .   . . . . . . . . .       X .   o o . O O * = @ . ",
"= = = : w - > : : : : - - - > * * * * = * . . . X             X . O O O O : : * , O , e r U r r r t r 5 5 y 5 5 t 7 6 t c r.Y.r.t r.w.w.w.y.l.l.g.y.<.<.3.3.4.g.4.3.3.5.4.4.3.3.3.3.4.3.3.4.4.3.5.3.3.3.3.5.4.4.4.4.4.4.4.4.4.4.4.4.4.4.4.4.4.4.4.b.b.4.4.4.4.4.b.b.b.b.b.b.b.b.b.b.b.b.b.b.b.b.b.b.b.b.b.b.b.b.m.b.b.b.b.b.b.b.b.b.b.b.b.b.b.b.b.b.b.b.b.b.b.b.b.b.b.b.b.b.b.b.b.b.b.b.b.b.4.b.4.4.b.C.C.C.b.d.1.8 2 0 = = w w : - - @   X .   o o o o o   @ * .                 . . . . . . . % % . O O . . . . . . . . .       X @ - w U / ) ] !.*X=X=X=X=X=X=X:X1XxXcXnXgXgXnXcXnXxXxXxXxX2X2X2X2X2X2X>X2X2X2X2X2X2X2X2X2X2X2X2X2X2X2X2X2X2X2X>XxX2X2X>X2X>X2X>X2X>X2X>X,X>X>X2XnXxXhXxXxXvXvXBXvXvXxXgXhX>XhX>X:X~.k 2 4 q 4 4 a 1.6.g.x.9.0.9.9.9.8.8.8.8.9.M.9.9.9.9.9.9.9.9.9.9.M.M.M.M.M.M.M.M.M.M.M.M.M.M.M.M.M.M.M.M.M.V.N.M.M.M.M.M.V.M.&XM.M.B.B.M.B.B.M.B.M.oXB.B.B.M.M.M.M.V.N.B.B.B.V.V.M.9.h.h.p.l a 1 + o O O     X @ * . . . . . . . . . . . . .     . . . . . . . . . . . . . . . . .     X X O O o o + + = 9 0 $ @ ",
"- - - w C M : : M w : : : : : * * > * - * X X . X   X X             . X X . O , , O O 1 C e r r r e 5 5 5 5 5 r y 5 5 5 r t :.t 7 t r.r.e.k.l.j.j.y.w.<.<.3.d.y.3.3.y.4.g.4.4.3.3.4.4.3.3.4.3.5.3.3.3.3.4.4.4.4.4.4.3.3.3.4.4.4.4.4.4.4.4.4.4.4.4.4.4.4.4.4.4.4.4.b.b.b.b.b.b.b.b.b.b.b.b.b.b.b.b.m.4.b.b.b.b.b.b.b.b.b.b.b.b.b.b.b.b.b.b.b.b.b.b.b.b.b.b.b.b.b.b.b.b.b.4.4.b.b.b.b.b.b.b.4.g.4.4.g.g.K.g.g.g.w.8 2 1 w - - w w w - = @ X X X   o           . . X X                       . . . .                 . . . . X         . @ 0 w / ' ] !.^.z.*X=X=X=X=X=X<X2XxX2XxXxX2XxX2X2X2XxX2X2X2X2X2X2X2X2X2X2X2X2X2X2X2X2X2X2X2X2X2X2X2X2X2X2X>X2X2X>X2X>XxX2X2X2X2X2X2X2X>X>X>X2XxX2XgX2XgXgXvXjXgXgXgXhX>X>X>X>X:X*Xh 0 4 0 0 4 8 a 1.8.0.h.8.8.8.6.<.<.6.<.6.6.8.8.9.9.0.0.9.9.9.9.9.9.M.M.M.M.m.M.M.M.M.M.b.M.M.M.M.M.M.M.M.M.M.M.M.M.V.&XV.V.M.&XM.M.B.M.M.V.M.M.M.M.M.M.B.M.M.M.M.V.M.V.M.V.&XL.L.x.f.1.n a p $ + o X .   X . @ * . X . . . . . . . . . . . . . . . . . . . . . . . . . . . . . .   X . O . + o + + + 2 q h g f ",
"= - : w C : > : M : > : : : : > * - * ; * . X       X .                 X     X O O , 1 e e e r r e 5 y y e y r 5 5 5 y 5 r e 5 3 r t :.c r.a.e.e.u.y.w.w.w.y.y.f.l.f.l.f.f.g.3.3.i.4.4.4.5.3.4.3.3.t.g.4.4.3.3.5.3.5.3.3.3.3.3.4.4.4.4.4.4.4.4.4.4.4.4.4.4.4.4.b.b.b.b.b.b.b.b.b.b.b.b.b.b.b.b.b.b.b.b.b.b.b.b.b.b.b.b.b.b.b.b.b.b.b.b.b.b.b.b.b.b.b.b.b.b.b.b.b.b.b.b.4.b.b.b.b.b.b.C.C.4.g.g.g.g.f.h.g.i.w.1.3 + 9 : w - - - - @ @ .   X X     X .     o   . X                         . . . .                     X . X         X . = : U ' ] Q.!.!.!.*X=X=X=X=X=X>X=X>X2XxX>X2X2X>X2X2X2X2X3X2X2X2X2X2X3X2X2X>XxX>X2X2X2X2X2X2X2X2X2X2X3X2X2X2X2X2X2X2X2X2X2X>X2X2X2X2X2X>X>X2X>X2X2X2XxXgXgX>XgX>XhXhXhX>X>X:X:X:X/ 4 1 - 0 q 8 p a w.6.d.6.3.6.1.1.1.1.1.1.1.6.<.6.8.0.9.9.9.9.9.9.9.9.M.9.9.9.M.9.M.M.M.M.M.M.M.M.M.M.M.M.M.M.M.M.M.M.M.V.M.M.M.M.M.M.M.M.M.M.M.M.M.M.M.M.M.M.M.M.M.9.M.C.L.@XL.g.h.q.a a k 9 # + o X . X X X . @ . X X . . . . . . . . . . . . . . . . . . . . . . . . . . . . . . O O O + + + + = q g ) { { +.",
"> - w C w C > > M : - : : : : : ; - : : * . .       X O @ . @ @ . X . O , O X , , O O < 9 e e e e < 3 3 9 3 3 y 3 3 r 5 e < 3 3 3 3 5 e r k r.l r.q.e.d.w.1.y.u.j.j.j.j.d.y.y.y.y.i.i.4.y.i.i.y.u.y.y.3.d.f.8.3.3.4.4.4.4.4.3.3.4.4.4.4.4.4.4.b.4.4.4.4.4.4.b.4.b.b.b.b.b.b.b.b.b.b.b.b.b.b.b.b.b.b.b.b.b.b.b.b.b.b.b.b.b.b.b.b.C.b.b.b.b.b.b.b.b.b.b.b.b.b.b.b.b.b.b.b.b.b.b.b.b.b.C.b.g.g.l.j.k.p.w.3.w.1.r.7 < + # - : = = = @ o O o o         X X X   X         X         X .     X . . . .                         X X   X X       O = g / ' ] ] v ^.^.=X=X=X=X=X=X=X<X1X2X2X2X2X2X2X2X2X2X2X2X2X2X2X4X2X2X2X2X2X2X2X2X2X>X2X2X2X2X2X4XnX2X2XxX2X2X2X2X2X2X2X2X2X2X2X2X2X2X2X2X2X2X2XgX2X2X>X>X>X>X>XgXhXhX>X:X>X-X' j $ # 0 j c c l w.s.w.<.a 1.1.1.a a a a a 1.1.1.6.6.8.0.x.x.9.9.9.9.9.9.9.9.9.9.M.M.M.M.M.M.M.M.M.9.M.M.M.M.M.M.M.M.M.M.M.M.M.M.M.M.M.C.M.M.M.M.C.&XM.C.M.M.M.C.x.9.9.x.K.x.f.d.r.l k q 0 4 # O . X . . X   X . . X   . . . . . . . . . . . . . . . . . . . . . . . . . . . . . O O O + + o + 1 e / _.`.dX`.`.",
"( ( W o.o.W C W C C w I w f P w w : u : * . X   o o X * - > - * > - > = : > * * = , , , 9 e e e e 9 9 < < 1 1 3 3 e e r 9 9 < 3 e 3 3 3 3 q r q c c c l r.r.r.r.e.r.w.w.r.w.w.w.y.y.y.y.y.y.y.y.e.5.1.1.1.w.3.4.0.4.4.4.4.4.4.4.b.4.4.4.4.4.4.4.4.4.4.4.4.4.4.4.b.b.4.4.b.b.b.b.b.b.b.b.b.b.m.b.b.b.b.b.b.b.b.b.b.b.b.b.b.b.b.4.b.b.b.b.b.b.b.b.b.b.b.b.b.b.b.b.b.b.b.b.b.b.b.b.b.b.C.g.f.y.d.q.r.:.r.a a a 5 < + + @ @ * = = @ + + . o o X X           . . . .   X X . .   . . . X X X . . . .     o         .   X           X . X o o X = U ( / ' ' x s.!.!.=X=X=X=X=X=X=X<X<X1X1X1X3X2X3X2X2X3X2X2X2X2XnX2X2X2X2X2X2X2X>X2X2X2X2X2X2X2X2X2X2X2X>X2X2X2X2X2X2X2X2X2X2X2X2X2X2X>X2X2X>X2X2X2X>X>X>X>X>XhXgXxXhX>X:XhXdX} h - $ - j k l q.s.q.q.a a a a a p a a a a a a a 1.1.1.<.f.x.x.9.x.x.9.9.9.m.M.M.M.C.M.M.9.C.C.M.9.9.9.9.M.9.9.M.M.M.9.M.M.M.M.x.M.M.M.XXK.M.M.C.@XK.M.9.&X9.K.M.x.x.x.z.z.z.a.q.c k q 2 # @ O X X X O * X   X . . X   . . . . . . . . . . . . . . . . . . . . . . . . . . . . . . . o o o o + q ) -XfXgXgXdXsX",
"tXtX).tXtX@.$.$.$.+.+.+.+.+.+.+.+.~ T P * .       X * - : : : w C C C w : : * * * - - = = 9 e e 9 9 9 9 < 9 < 9 9 e e e 9 < 9 3 e 9 < < 1 1 1 1 3 k k t 8 k c c c a a r.r.r.:.r.1.y.w.y.y.u.u.e.<.=.y y 7 1.3.g.g.g.g.4.4.4.4.4.4.4.4.i.4.4.4.4.4.4.4.4.4.4.4.b.b.b.b.b.b.b.b.b.b.b.b.b.b.C.b.b.b.b.b.b.b.b.b.b.b.b.b.b.b.b.4.4.4.4.b.b.b.C.C.b.b.b.b.b.b.b.b.b.b.b.b.C.b.b.4.4.b.C.b.y.y.<.1.a 8 8 r k 8 5 3 + o + * % * = # @ O O O O . O . X         X . O . .           . .       . . . . . X X       . . . X X X         X X X   o X w ( / / / z z x v !.!.!.=X=X=X=X<X<X<X<X<X3X1X<X2X2X2X2X2X2X2X2X2X2X2X3X2X3X2X2X2X2X2X2X3X2X2X1X2X2X2X4X2X2X2X2X2X2X2X2X3X2X2X2X2X2X2X1X2X2X2X2X2X2X2X>X>X>X>XhXxXxXhX>X:X>X:X} h j # - w q c l r.r.z 8 8 a p q q s s k k a a a a a a 1.6.p.h.x.9.9.9.x.M.M.M.M.M.M.9.0.9.0.0.M.M.9.0.9.9.9.9.9.9.9.9.M.0.9.M.M.M.M.9.C.M.K.9.9.9.h.9.x.9.9.x.x.g.f.f.p.q.1.c r e 9 9 9 @ O O . . . % & . . . . . . . .         . . . . . . .         . . . . . . . . . . . . . . X O + + # e ) rXgXBXBXZXkXgX",
"tXtXtXtXsXsXsXsXsXlXlXlXsXsXsXsXsXsX_.^ : X o     @ : R W W ~ ( O.$.+.^ C : * . * : w = 9 e e 9 9 9 e e 9 < 9 e 9 9 9 < 9 e e 1 9 9 9 9 9 1 1 # 1 e q q q k k k r k c l r.r.q.r.r.r.e.e.e./.E.e.8 y + + + y r.f.g.g.f.K.C.4.4.4.4.4.4.4.4.4.4.4.4.4.4.4.4.4.b.b.b.b.C.b.b.b.b.b.b.b.b.b.b.b.b.b.b.b.b.b.b.b.b.b.b.b.b.b.4.b.b.4.4.4.4.4.4.b.b.b.b.b.b.b.b.b.b.4.4.4.4.b.b.4.3.3.4.g.f.y.w.r.l c k k k c k 4 2 + + @ % % * * @ @ . . @ @ O . O O . .     X . . . . . .       . . .       . . . . X . . . . . . . . X X . % X X X X X X O O d W ( T / z z v x s.v s.s.a.(.=X=X=X=X=X<X<X<X<X<X<X<X3X3X3X2X3X2X2X2X2X2X2X2X2X2X2X2X2X2X2X2X1X1X2X2XJX2X2X3X2X3X2X2X2X2X2X2X2X3X2X2X1X2X2X2X>X2X>X>X>X>XxX2X>XhXhXhX>X:X:X-X#.T j - = w q q s c l ) l r r q 4 4 q j s s s k k a a a 8 a a p.p.<.8.8.8.f.@Xx.h.9.9.9.9.9.0.0.x.x.9.0.9.9.9.9.0.9.9.9.9.0.9.9.9.9.9.9.9.x.@Xh.f.f.h.d.f.f.f.f.p.q.q.l l r 8 4 2 < 1 + # # = * * % % % . .   . . . .               . . . . . . .       . . . . . . . % . . . . X , O + + + e / -XgXBXBXZXBXBXkX",
"sXsXsXlXkXlXlXlXlXkXkXkXkXkXkXlXhXkXlX$.> . %     > $.sXsXlXlXkXkXkXsX$.T : * * O * * = = 9 e e 9 9 r r C y 9 < < < 9 e e 9 9 1 < 9 1 < < 1 1 1 # # 1 2 4 4 q r q r r c l c c k c c l r.r.Y.T.r.y + o o + 3 1.u.g.l.g.g.g.g.g.4.4.C.C.C.C.b.b.b.b.b.b.4.b.b.b.b.b.C.C.b.b.4.b.b.b.b.b.b.4.4.b.4.4.b.4.b.b.4.4.4.4.3.4.3.3.4.4.3.3.3.4.4.4.4.4.b.b.b.b.b.b.b.b.b.g.g.4.4.3.i.t.i.i.y.w.l l t r q k k k q s 1 1 + + O * * . . . . . . . . O O O O . . . . X X   X . . . . . . . . . .   . . . . . X X . . . . . . . . . . O . O O . X X . . d P f w j g ' ] ] x l l l l a.a.*X+X=X=X<X<X<X<X<X<X<X<X<X<X3X3X3X,X3X3X3X4X3X3X3X3X3X3X3X3X3X3X2X2X2X2X2X2X2X2X3X2X2X2X4X2X3X2X3X2X<X1X1X1X2X2X2X2X>X>X2X:X>X:XxXcXxX>X>X:X:X_.' f - = w 9 e q r c r r 3 3 3 q q q q q q s q r q q q 4 4 8 p a a a 6.6.q.h.s.h.p.8.h.0.0.h.0.h.h.h.h.h.9.0.0.0.h.0.0.8.8.6.0.f.p.d.6.d.d.p.q.w.w.l q.x Y.e.s.Y.h q e 1 1 < 1 2 1 1 9 9 9 = @ . . . . . . . . . . .       .     . . . . . . . .                   . & O . . O . O + o + 0 [ sXgXGXjXjXZXZXBXjX",
"sXlXlXjXUXjXlXkXkXjXjXUXGXUXLXUXLXLXjXsX: . % X   P sXjXLXLXLXKXKXLXlXsX+.~ d * O O * = @ 9 9 e 9 9 e e e 9 9 < 9 y 3 y 9 9 1 1 9 < 1 < 1 9 9 9 1 # # $ 1 1 1 9 4 j q r q k q k r k c h c ) x e < o o o + < a e.e.j.y.l.g.g.g.4.0.4.b.4.b.4.4.4.b.4.4.4.4.4.4.4.4.4.b.b.4.4.4.b.4.4.4.4.4.4.4.4.4.3.3.4.b.4.4.4.4.4.3.3.5.3.3.4.3.3.4.3.3.4.4.4.b.4.b.4.b.g.4.g.g.y.y.y.y.y.w.i.w.r.r 3 e 3 9 9 s k k q j # O O . . % @ . . . . . . . . O . . @ . . . . . . X X . . . . . . . . . . . . . . . . X X . . . . . . . . . . . . . . . . X X X = = = = 0 g / Q.] x k c a l n q.s.+Xh.#X<X=X<X<X<X=X<X<X<X<X<X3X<X<X<X3X<X3X3X3X<X3X<X3X<X3X<X<X3X3X3X3X3X2X3X3X2X3X2X2XnX2X2X2X2X2X2X3X1X1X2X2X2X2X>X:X:X;X:X>X2X2XxX:X,X*X-X~.' f - * - 9 e q r r 5 3 3 3 2 2 e 3 9 e q q q q q q q 4 4 4 p p p 4 p a l l b q.l 1.<.6.6.8.p.8.8.8.<.8.<.6.6.3.<.6.6.<.6.<.<.p.w.a 1.n q.l l l k k s k k r k z w e 9 = @ = 9 2 1 < 1 9 9 = # @ . X X . . . . . . . . . . .   . . . . . . % . . .           % .     * .   X X   + + # 0 / `.hXZXGXGXZXGXZXjXjX",
"kXkXUXUXLXUXUXjXjXUXUXUXLXLXLXLXLXKXLXsX; .     . R lXLXLXLXLXKXKXLXZXlXsX#.Y * O @ = O = 9 9 9 9 9 9 9 9 9 9 9 9 9 e y 2 1 1 < < 1 1 1 1 9 9 9 < 1 1 + 1 1 < 1 1 4 e 9 9 e e q s k g q q g q + o o o o o 4 c r.r.w.w.w.i.y.g.f.d.3.y.4.g.4.g.4.4.g.4.4.4.g.4.g.g.4.4.4.4.4.4.4.4.3.4.g.4.4.4.4.3.4.3.3.4.4.4.y.i.3.y.3.3.3.4.f.3.3.3.3.<.3.8.3.3.8.4.f.g.f.f.d.w.r.1.q.1.r.1.t t 5 3 < 1 + 1 1 4 s q 0 1 # O   o . . . . . . . . . . . . . . . . . X O O @ O O . @ . . . . . . . . . . . . . . . . X X . . . . . . . . . . . X X X . . O o @ = = = 0 / / ] x x l l a a a a s.p.z.h.z.=X@X=X=X@X=X<X<X<X<X<X<X<X,X<X<X<X&X<X<X<X&X<X&X<X<X<X<X<X3X3X3X<X3X3X3X3X3X2X3X2X<X<X2X3X3X1X3X3X2X2X1X<X<X=X1X<X2X2X2X,X*X*X*X!.} / d * * = = 9 9 3 e 5 3 3 2 1 1 1 1 9 9 e 2 q 4 e 0 q q 0 q q j p 4 4 p 4 8 p p 8 p a 1.1.n 1.1.1.a 1.1.a 1.1.1.a 1.8 8 a 1.a l a 8 p p 8 a 8 r q e 9 e 2 2 e 2 0 9 # 9 = 9 9 1 1 < 2 2 2 1 # @ . X X . . . . . . . . . . . . . . . . . . . . . .         . % .   . % . X X O O + 9 w { `.dXjXZXGXLXLXLXjXjXkX",
"kXjXUXUXLXUXUXUXUXUXUXUXUXLXLXLXLXLXjXsX; X   o % O.kXLXLXLXKXLXLXLXLXjXhX$.P * O O = = = 9 e 9 9 1 9 1 < 9 9 e e e e 9 9 < 1 9 9 1 9 < 1 9 9 9 9 1 2 9 1 1 = 1 # 1 1 1 2 1 9 e q s q q q 9 1 o o o o o + e c c r.:.:.r.r.q.q.p.w.w.d.j.g.f.l.g.g.g.y.g.g.l.l.g.i.4.y.4.y.8.8.4.4.4.4.g.4.3.4.3.3.4.3.3.3.g.d.y.d.y.y.y.3.y.y.d.y.w.p.<.<.<.<.w.<.<.p.d.p.p.<.1.a a a 8 4 y < < < < < # + 1 # 1 e e 0 1 @ + o o . . . . . . . @ . . . . . % . . . . . O @ @ @ @ @ @ * @ @ . @ . . . . . . @ O O . . X X . . . . . . . . . . . X     . . O o O = = = 0 h / c c z x x x l a a a q.w.d.h.f.z.z.z.l.f.=X=X<X<X,X<X<X<X<XL.<X<X&X&XL.&X<X&X&X&X&X&X<X<X&X<X<X<X3X3X3X3X3X3X<X<X<X3X3X3X3X3X3X3X1X<X<X<X<X<X<X<X2X=X=X!.Q.] ] ' T : @ O = 9 1 2 3 3 3 3 3 3 9 9 1 1 1 2 2 2 3 3 1 2 0 4 4 4 q 4 4 $ 4 2 4 4 4 3 4 4 3 p a p 8 a k a k k a p a 8 a p 5 8 8 8 a a 4 3 3 4 5 3 4 4 2 < < 1 2 < 1 1 1 # 9 9 9 9 9 9 3 1 3 3 3 1 # = .   X . . . . . . . . . . . . . . . . . . . . . . . . . . . . . .   . . . O * 9 # q ~.sXkXZXGXGXGXLXKXjXkXlXlX",
"kXkXkXjXUXUXjXkXUXkXkXjXUXjXUXUXUXUXkXsX: X     ; +.kXLXLXLXLXLXUXUXZXlXlX+.: @ . O = = 9 9 9 9 1 1 < < 9 9 9 e e e e 9 9 9 < 9 9 9 1 1 1 1 1 1 1 # # 9 1 1 1 # # # # # 1 1 1 1 # < 9 9 9 # X o o o o o o 0 g c k c r.r.a k l l q.q.e.a.y.u.k.u.u.y.y.y.w.k.j.u.u.u.j.d.w.d.d.p.y.d.d.p.y.y.w.<.<.y.y.y.y.w.u.w.w.w.q.w.w.w.w.w.w.w.q.1.1.1.1.q.l q.l l a k 8 3 < 4 2 < + + o + + # 1 < 9 < 1 1 < 1 # # # O @ . . . . . X X . % . . . . . . . . . . @ O @ @ @ @ * * * @ @ @ @ @ * . . . @ . O O . .     . . . . . . . . . . .       . O O . O , = = 0 g g s k c ) W.W.x x l a a q.1.p.p.p.p.j.k.d.z.z.z.=X=X<X<X<X<X<X&X&X&X<X&X<X&X<X&X&X<X&X&X&X<X&X@X<X1X3X3X3X<X<X<X<X<X<X<X<X3X3X3X<X<X<X<X<X<X<X<X=X=X=X=Xa.s.v v / j 0 @ * = 9 9 9 3 3 3 3 3 3 3 e 1 9 1 1 1 1 1 1 1 9 9 1 1 4 4 9 4 4 4 4 4 3 4 4 4 4 4 3 4 q 3 e q e e e e 2 3 4 4 4 4 4 3 4 3 4 < < < < 2 3 2 1 1 1 1 1 2 1 1 1 2 1 1 9 e e e e 3 e 3 3 2 2 1 # + X . . . . . . . . . . . . . . . . . . . . . . . . . . . . . . . . . X O - w U f { dXBXGXFXGXGXLXGXjXjXkXlXsX",
"sXlXlXlXjXkXkXkXlXlXkXjXkXkXUXjXjXUXlXqX-   X % M $.lXUXLXUXkXlXsXsX$._ +.d * % , O * = 9 9 9 9 1 < + < 9 e e e e 9 9 9 1 1 1 9 e 9 1 1 1 1 1 1 + + + + , + + + # + + # # + + # + # + # + o o o o   o o O = w e q r 5 r r q k r e r k c c r.q.r.:.a c r.:.r.e.Y.r.r.q.q.q.q.q.q.q.q.w.w.w.w.r.1.<.<.w.w.w.e.r.q.q.q.r.1.r.q.q.l c c q.q.q.q.q.a k k q 3 2 < o + + + o + + + + + # 9 9 + + # + + + # # # # O O . . . . . o X @ . . . . . . . . . . . . O @ @ @ @ * * @ * @ @ @ @ @ . @ @ @ @ O . .       . . . . . . . . . . .     X . O O O O O O O = 0 0 q e q c x W.s.v l c l q.q.q.q.q.q.q.w.p.s.a.z.z.(.=X=X=X=X@X&XL.@X&X<X&X<X@XL.K.<XL.<X&X&X<X&X&X<X<X<X<X<X<X&X<X<X<X<X<X<X<X<X<X<X<X<X<X<X&X@Xx.z.z.z.a.s.v z h $ # @ O = 9 9 9 9 1 3 3 3 3 2 1 1 2 1 1 1 1 2 1 1 9 9 9 9 1 # 1 1 1 2 < 2 2 < $ 4 4 1 2 2 9 9 e e e e e 1 9 9 1 1 < 1 < < < < < < < < 1 1 2 1 1 1 1 1 1 1 1 2 3 3 3 3 3 3 3 e e e q 3 < 1 1 1 # = + O . . . . . . . . . . . . . . . . . . . . . . . . . . . . . . .   O = f U / #.sXjXZXGXGXGXGXLXjXkXkXlXlXlX",
"lXlXlXlXlXlXlXlXlXlXhXlXlXlXZXjXlXlXsX .*   X X * Q qXqX`.$. .R : > * . . % % % X   o O = = 9 e 9 1 9 9 e e e e 9 9 < + + + + 9 9 9 9 9 9 1 1 1 # + + + + < 1 + + + + # # # + = = # + + o o         o o O , 9 9 9 e 9 2 9 # + + + + 1 3 3 5 3 3 3 e 5 3 5 r t t r t t t a c c l x c l r.a.e.q.q.q.q.q.w.q.l l l c c l l c k k k e e c k r q 4 4 < < + + + + o + + + + O + + # # = 9 # # + + < < # + 1 # + + , X X X X X   X . . . . . . . . . O O O * * * @ O O * @ @ @ @ @ @ O O @ @ . @ . % . .       . . . . . . . . . . . X o   . O O O . . o , 9 = 9 9 9 1 p k l x x s.s.r.s.s.r.s.r.q.q.q.q.q.q.q.s.a.a.a.a.(.z.#Xz.z.#Xz.z.z.x.x.x.x.#Xz.#X@X&X&XL.L.L.L.&XK.L.L.L.L.<X&X&X<X&X&X<X&X<X&X<X&X&X<Xx.z.z.x.a.s.s./ f - @ O @ = = = 9 1 1 2 < 3 3 1 < 1 1 1 1 2 1 1 1 1 9 9 9 9 1 1 1 1 1 1 1 # 1 1 1 1 2 1 1 1 9 9 9 9 9 9 1 9 9 9 9 9 1 1 2 1 1 1 1 9 < < < 1 9 9 3 9 1 1 1 1 3 3 3 3 3 3 3 3 1 1 3 e 3 9 < < # # # # + . . . . . . . . . . . . . . . . . . . . . . . . . . . . . .     % : ^ +.@.#.dXBXZXGXGXZXLXUXZXjXkXlXlXlXkX",
"lXlXlXlXsXlXlXlXlXlXlXsXpXpXpXqXpXtXO.; .   X   X > ; N ; ; * . X X           X   o o X O = - e e 9 e e e e e 9 9 # + o o o + + 9 9 e 9 9 1 < 9 9 1 = = = = + o o O @ # = = - = = # + + o   o         X , = = = 9 1 1 + o o o o o o + + # + # 1 < < + 1 1 e 9 3 e e e 3 8 q q s e r c l r.l l l l l l l c c q r q s q s e 2 1 1 1 + + < + + o + + + o + + + + + + + + + + # = 9 9 9 9 1 1 1 1 < 1 + # + , O O X X   X . X . . . . . . . . . O . . O @ * * @ @ . . . . . . . @ . . . . . . . . . . . . . . . . . . . . . . . .       X . . . . . X O , # # 1 # 1 1 q s c c l x x l x s.s.s.r.s.v s.r.x x l x r.s.s.s.a.a.a.a.^.a.p.k.d.p.p.a.k.k.j.x.(.l.l.K.K.g.g.h.g.g.K.g.g.g.g.x.l.K.x.z.=Xz.x.x.z.@X@X(.z.^.!.W.v h j * @ @ , = = = 9 9 1 < < < < < < 1 1 9 1 1 2 1 1 2 9 9 9 1 2 1 1 1 1 1 # # # 1 1 1 1 1 1 1 # 9 1 1 1 # 1 # # # 1 1 1 1 1 # 9 9 9 9 9 9 9 9 9 9 9 9 1 9 3 < 3 3 3 3 3 3 1 1 1 9 9 9 1 1 2 2 # = = , O O . . . . . . . . . . . . . . . . . . . . . . . . . . .       . u +.`.sXsXhXZXLXLXLXZXZXjXZXZXjXlXlXkXkXjX",
"lXlXlXlXsXlXlXhXsXpX$. .X.F F F C w > % X   X X X X %             X   o               X O , 9 9 9 e e e e 9 < < 9 < + o o o + < < 1 9 9 9 < 1 9 9 = @ + , O + o o o O = = = = = # O + o o X   o   X O * = = = # 1 + O O o o   o o o + + + 1 + # + , 1 + + 1 + # # 9 9 1 2 2 2 2 < 1 3 9 1 4 q 8 8 q r 4 q 3 e 2 2 2 0 1 1 + + + + + + + + o + O + + , < < < 1 9 # 1 9 # + # 9 9 9 9 1 1 1 9 1 1 1 , 1 = + O O X X X . . . . . . . . . . . O . X . O . * @ @ O . . . . . . . . . .     . .     . . . . . . . . . . . . . . . . X         . . . . O O O , O + # 1 1 1 2 3 3 q 4 a q c x v W.W.W.W.Q.s.v l l l c x x x x l b l x r.q.s.q.q.w.q.a.e.y.a.a.w.w.y.8.8.g.f.d.f.f.f.g.f.d.y.y.d.p.p.a.p.p.p.q.a./.k.a.Q.!.Q.] z u - @ @ = = * = = 9 9 < < < < < 9 9 9 9 1 1 1 1 1 1 1 9 1 1 1 1 1 1 1 1 1 1 9 9 9 1 1 1 1 1 1 1 1 1 1 # + = = # 1 1 1 1 1 # 1 9 9 e 9 9 9 9 1 9 < < 9 9 9 1 3 1 1 1 3 3 3 1 1 1 9 9 9 1 9 9 9 9 9 + . X . . . . . . . . . . . . . . . . . . X . . . X . . . . .   . u ' :XsXsXkXFXLXLXLXLXBXjXkXkXkXkXhXgXjXjXkX",
"sXlXlXlXlXlXsXo.I I ; & * % % * .   X X   % % % X               X . . X % * X       X   O # 1 9 9 e e e < < < < 9 + + o o o o + , 9 9 9 9 1 9 = 9 + + o o O o o o o + * = # = * , O   o o o       O * * * @ # # O X o o o o     o o o + , + # # + 1 , + + # = # # 1 1 9 9 1 2 1 + + + < + 2 3 < 2 < < 2 2 3 1 1 1 1 # + # + + # < , + < + + $ 1 < 9 < 9 9 9 1 1 2 1 1 # 1 + 1 1 9 1 1 1 1 1 1 1 1 + + = # O o X X X X . . . . . . . . . X . .   . . . @ . @ O . . . . . . . . . .     .     . . . . . . . . . . . . . . . . . .   X   X . .   . o O O O O + + < 1 # # < < 2 3 4 4 k c z l x v ) x s.v l l l z c l l l x r.l l x r.q.l 1.q.l q.<.1.w.w.q.q.w.w.<.6.3.<.y.d.w.p.w.w.q.w.q.r.q.r.q.q.s.s.r.W.s.W.Q.Q.' T j $ * @ * - = = * = 9 1 < 2 2 < < 1 9 9 9 9 9 9 9 9 1 1 1 1 1 1 1 1 2 1 # 1 # # 9 1 # # # # < 1 9 1 < 1 # 1 + < < 1 1 1 1 2 1 1 2 9 9 9 9 9 1 1 1 < < < 1 1 1 1 1 1 1 1 1 9 9 9 1 9 9 9 9 e e 0 9 = , . X . . . . . . . . . . . . . . . . . . X X . % X X . . . . O w / _.sXhXgXZXKXUXLXKXLXjXjXkXlXlXlXkXjXkXkXjX",
"lXlXlXlXlXsX .; . . .     X       X X   X % %             .   % * M I P ^ ^ M * X       O O # + 1 9 e 9 < < < 9 e # o o o o o o , = = 9 9 9 1 + + + o o o o o o o o O o O O O , , o o o o o o X O O , , , O , , O o o o         o o o o + # = = 1 + = # < , + # , < , < 9 < 1 + , < + < 9 < 9 < < < < < , < 9 # 1 9 , < # # # + + < , , , 1 , 9 9 9 < 9 1 < 3 9 9 < 1 1 1 1 1 1 1 1 2 1 1 1 1 1 9 1 # , , O o X .     . . . . . . . . . .       . . . . . . O O . . . . . . . . . . . . .     . . . . . . .   . . . . O   . O O . . . . .       o X O O O + + + + + + < 1 2 3 2 4 0 0 s s k k h k l c s k z z l x c r.r.r.s.s.r.q.l a l q.s.q.<.<.6.e.p.q.<.p.a.p.<.<.6.w.q.q.s.q.q.W.Y.W.T.W.Y.] W.{ x z x ) ) / g g - * @ - > ; = = = 9 9 1 < 3 3 3 < 3 e e 9 9 9 9 e e 2 1 1 1 1 1 1 1 1 1 # # 1 # # # # 1 # < + 9 < 9 1 < 1 1 1 < 1 1 1 1 1 < 1 1 1 9 < 1 < < 1 9 1 1 1 9 < 9 9 3 1 1 1 9 1 9 9 9 9 9 9 9 9 2 e - - = * . . . . . . . . . . . % .     X . . . . X X . . . X . . X . : [ -X-X-XhXZXGXLXkXLXLXLXjXjXjXlXkXlXkXkXjXjXjX",
"lXlXlXlXsX+.M % . X   X . X           . X X     X % %     % % > Q sXlXlXlXsX$.d ,       o o O + o + 9 3 3 9 9 e 9 O o o o o o o O = = = , # 1 + + o o o o o o o o o o o   o X O o o o o o o o X O O O O = = # O O o o o         o o o o X , = # # = # + + # + 1 < , < 9 1 1 < , + < 1 , < 9 < < $ + + + + < + 1 1 < < , + # , 1 , < < + < 9 < 9 9 9 9 < 1 1 1 1 2 1 1 1 1 1 1 1 1 1 < < 1 1 1 1 # # = = , O X O . . . . . . . . . . . . .       O @ . . . . . . O . . . . . . . . . . . .         . . . . .     . . . @ . . . . . . . . .       X X O O , + , 1 # # < # 1 1 1 1 2 2 4 4 q q q q 4 s s 0 4 s k c z z z z l b x s.q.q.q.q.q.s.p.p.a.a.a.a.a.h.s.s.s.a.s.p.s.s.s.W.s.!.Q.^.^.^.`.~.[ ) T g q e f f : w d : - * - * * : - = = 9 1 3 3 3 3 < e e e e 9 9 9 9 9 1 1 1 1 1 1 2 1 1 1 1 2 1 1 1 1 1 1 1 1 9 9 1 1 1 1 1 1 1 1 1 1 < 1 1 1 1 1 9 9 , 1 9 1 1 < 1 9 1 9 9 e e e 9 9 1 9 9 9 = = # # 1 9 + + # = = * * . . . . . . . . . . X X .   X . . . . . . .           . . : ( $.sXlXhXBXGXLXZXkXkXUXjXjXjXjXjXjXlXlXlXkXjXjX",
"lXlXlXlX-XQ %         % % X X . % . X . %     % > : *   X % % D +.sXUXLXjXlX+.C %       o o o O o + 9 e q q e e 9 O o o o o o   O , 9 = , + + O o o o o o o o o o o o o o o o o o o o o o o o o + O o o o + X o o o o   X X X   o o o o o + , = # + + , , < + + 1 , , 9 9 9 9 + 1 , 9 9 , < , 9 < + + # , + 9 < < < < 9 < 9 9 9 1 1 9 1 1 1 1 1 1 1 9 < 1 1 1 1 < 1 1 1 1 1 1 1 2 1 < < 2 e 9 1 + + # = O o o . . . . . . . . . O O O . .   X . @ @ .         . @ @ . . . . . X X . . . . . . . . . . . .     . . . . . . . . . . . . . X . X X O O O O + < = 1 1 1 < < 1 1 1 2 q e q g g g g s s s 4 4 4 0 0 q s s p p p p k c x x v s.e.s.!.s.a.*X^.z.z.z.!.*X!.a.s.!.s.s.Q.^.!.s.W.W.] ) ) c g g w = = # = = = = : : ; * * * - : w 9 9 9 1 3 5 5 y 3 e e e e 9 9 9 9 1 1 1 1 1 1 1 1 2 # 1 1 1 1 1 2 < 1 < 9 9 9 9 9 9 1 1 1 1 1 1 1 1 1 1 < 9 2 < 1 < , # 1 9 1 < 9 9 9 9 9 e e 9 9 9 9 9 e 9 9 9 1 1 < + + + + 9 = = O O . . . . . . . . % X     X X X . . . . . . X       . > D [ -XsXhXjXjXLXLXLXZXkXkXjXjXkXjXjXjXkXlXlXlXkXjXkX",
"sXsXlXlX$.R X o     X . % X . * > * % . .   X M  .+.M .     % > M ~ +._.qXQ - %     o   o o o o o o 9 / / q q e w O o o o o o o X + , = = < O o o o o o o o   o o o o o o o o o o o o o o O o o o o o o o o o o o               o o o o X , = = = # 9 + 1 # # = = = 9 , 9 9 , 1 + + 1 9 1 < < 9 9 9 1 1 1 1 1 1 1 < < 9 9 9 < 9 9 9 < 1 1 1 1 1 1 9 < 9 1 1 1 1 1 < 1 2 1 1 1 1 < < 1 2 9 3 2 1 1 + + # O o   X . . . . . . . . . O O . .     . . . .   o   . . . . . . . X       . . . . . . . . . . . . . . . . . . . . . . . . . . .   X . . X O O O # # 1 9 1 9 1 1 2 1 1 9 9 e q q g g s s q w 9 9 0 0 q q 0 $ $ $ $ $ 4 4 0 s p k z v v v v v v v l b b v v v x l c l k c c s q j 4 3 9 e w w w w w w w w - * : : - * * * * > 0 9 1 1 2 9 3 5 r r 3 e e 9 9 1 9 < < 1 1 2 2 1 1 1 < # 1 1 # 1 # 1 1 1 1 9 9 9 9 9 9 9 1 1 1 9 1 9 9 1 1 9 1 < 9 < 9 1 1 1 < 9 9 e 9 9 9 9 9 9 9 9 9 9 9 e 9 9 < < < < + < < 2 k q 9 # .   . . . . . . . . X   X . . X . . . . . . X O O * = f [ tXsXsXkXZXLXLXLXLXGXGXjXjXkXjXjXkXjXlXlXlXkXkXjXjX",
"sXpXsXsXpX( w * * * : M D w T o.+.~ > X     * Q sXsXW * X     X   % * > ; % o o   X X   o   o o o X e / ) g q q - + X     o o o X X O , , + o o o o o o o           o o o   o o o o o   . @ O o o o o o o o o             o o o o o o o O @ = = # = = = = # # = = , 9 9 9 9 9 + + 9 9 2 1 1 1 1 1 9 9 9 9 < 1 1 1 1 1 9 < 9 9 9 9 9 < < < 9 1 < 1 1 1 1 1 2 1 1 1 < 1 1 1 1 1 1 2 2 1 1 2 2 2 1 9 # # + O o o . O X   . .   . . . . . . X       . . . .   . . .         .           . . . . @ . . O . . . . . . . . . . . . . . O . . X     X . O O O O # # = 1 9 9 1 1 1 9 9 1 + 1 9 9 9 9 w 9 9 9 9 9 q q U z g 0 9 $ $ $ $ @ $ $ $ $ 4 $ 4 $ j p $ 4 $ $ 2 4 j 4 $ 4 9 = + + 1 # + = = 9 9 9 9 9 9 e w C 9 9 V = : : = * * * * = = $ $ < 4 4 < 3 8 3 3 3 2 1 < < 4 1 < 1 1 1 # 1 2 1 # # # # # # # + < < < 1 1 9 9 1 9 9 9 9 9 9 9 9 1 1 < 9 9 < 1 1 1 1 1 1 1 1 9 9 9 9 < 9 9 9 9 9 9 1 9 < < < < < < < 3 5 8 l x z q # + + . . . . . . . . . . . . . . . . . . . . O @ * * w ( _.sXlXkXZXLXLXKXLXLXLXLXkXkXkXkXjXjXkXkXkXlXkXjXkXjX",
"sXsXsXsXsXtX$.( ^ ^ @.$.sXpXsXhXsX+.- X     > @.lXlXsXY * X           X     o o o X X X     o X O + 9 / ) k q e O O o           o o + o o o o o o o   o     X X           o o o o o     O * = o o o o o o o o               o o o o o O @ = = = # = = # = # # # = 1 < = = 9 9 9 = + + 1 1 1 < 9 9 9 9 9 9 9 < 9 9 9 9 9 9 9 9 9 9 < 9 9 1 1 1 1 1 1 1 2 1 1 < 1 1 1 1 1 2 1 1 1 1 1 < < < < 1 1 9 1 9 = O   o + . X X O @   . . . . . .         . % . . . . . .       .   . . .   . . . . . @ @ @ @ @ . . . . . . . . .   X . O @ . . X     X O O O O + # # # # + 1 1 1 1 1 9 9 9 = 1 9 9 9 9 9 9 # = 9 9 w f U g w w 0 - 0 $ # # @ + O @ @ # O @ O O + + + O + + $ # @ + 1 < + < 1 1 # 9 = = 1 , 1 = 1 # 1 9 9 9 9 w : > * * * * = @ + 2 3 8 p 5 3 3 4 3 4 2 < < < 2 1 < 1 1 2 # # # # # # # # # # # 1 1 2 1 1 < 9 1 9 9 9 9 9 9 9 9 9 9 9 9 9 9 9 9 1 1 1 2 1 2 1 1 1 1 1 9 9 e 9 9 9 < + + + + < 3 8 a 1.1.<.p.z.a.a.k 4 + o . . . . . . . . . . . . . .   . . . . . . . = I U @.sXlXkXZXLXLXZXjXUXLXLXUXkXkXlXlXjXjXjXjXjXjXjXkXjXkX",
"sXsXsXsXsXsXlXsXsXpXsXlXkXlXjXkXsX^ *       ; qXkXkXsX$.: .     X X X X       o     X O .   X o o + # 4 9 1 # + o o o o o     o o o o o o o o o X         o             o o o o o     X O O X o o o o o o                     o o o O O @ = # = # , , 1 # + + + , + O + = 9 9 1 1 , 1 1 1 9 1 1 9 9 9 9 9 9 9 9 9 9 9 9 9 9 9 9 9 < 9 < 1 1 < 1 1 2 1 1 1 1 9 1 1 1 9 1 9 1 1 1 1 1 < < < 2 2 9 9 9 9 = O . O O O . . O @ . . . . . . . X   X X . . . . . . . . .     . . . . . . . . . . . . O O @ O . . . . . . . . . X X X . O O O .     O * @ O O @ = # + = + # 1 1 1 1 1 9 9 9 9 9 9 1 # 9 # # = 9 9 = w e e w e 0 w e 0 9 9 # = , @ # = @ @ @ @ + + # # # 1 # # # 1 + < # # 1 1 1 1 1 1 1 1 < 1 < < 1 9 9 9 w w : > = * * = # # < 4 p x q.1.a a 8 a 4 4 3 < 3 4 < 2 1 # 1 # # # # # # # 1 # # 1 9 < 1 1 1 # 1 1 1 1 9 < 9 1 9 1 9 = = 1 9 9 1 1 < 1 1 1 1 1 1 1 1 9 2 9 e 9 9 < < < + + < < 8 a q.g.z.K.K.K.z.h.k.l a 4 o   . . . . . . . . . . . . . . @ . . . . @ * w T @.).sXhXjXGXFXLXjXkXkXjXjXjXkXkXlXjXjXjXkXjXjXjXkXjXjXkX",
"sXsXsXsXlXlXlXkXlXlXdXkXjXkXkXlX$.I O X   % Q sXkXkXlXsX+.: .         X   X X X X O , * O X o o o o o o o + o o o o o o o o o o o o o o o o o o           o o o o     o o o o o o   . X O X o o o o o o o     o                 o   O @ @ @ # + , O O + + o + o O O o + + + # # # # # # # + # # 1 < 9 9 9 , < < 9 9 , < , 1 1 9 9 , < 9 9 1 1 1 9 1 1 9 1 9 9 9 9 9 9 9 9 9 9 < 2 2 < 2 3 q r r q 0 0 = O . . O X   . O @ . . . . . . X . . . . .   . . . . . . . . . . . . . . . . . . . . . . O O . . . . . . . X X . . X X X X . O . O . * * * O O @ = # # # 9 1 1 1 1 1 < 9 9 1 9 9 1 1 1 + = + 9 9 9 # = 9 9 9 9 = 9 e e e 9 9 9 9 # = = # # # = $ 1 = 9 0 9 1 9 9 9 9 + 1 # + + # + , + 1 3 3 1 3 3 9 9 e e w e C 0 @ * * # @ 4 4 4 p s./.a.p.q.a a a 8 4 4 4 3 < < < # 2 1 1 # # # # # # 1 1 < 1 1 1 1 # # # 1 1 < , 9 < 1 # < # + 1 + 1 1 1 9 9 3 1 2 1 < 2 2 2 < 3 3 1 < < 9 3 3 3 y 6 :.w.z.{.<XL.L.L.K.C.g.f.<.1.4 +   % . . . . . . . . . . . @ @ @ O . . @ : Y ( #.`.sXgXjXjXZXGXjXjXkXjXkXjXjXkXjXZXjXjXjXkXkXjXjXgXkXjXjX",
"+.pXsXsXsXsXlXlXsXlXlXlXkXlXlXsX+.- .   X > +.lXkXkXkXlXlX$.M O X X O % @ * * = = = - = = O o o o o o o o + o o o o o + o + o o o o O o o o o o o o o o o o o o o o o o o o o o o o + O . o o o o o o o o o o o                   . O O O o O . O O + o o o o o o o o o + + # # , 1 , < + + 1 , < 9 9 9 9 # # + + + < + + # # + , < 1 1 1 1 1 9 9 9 9 9 9 9 9 9 9 9 2 1 < 2 < < < < 3 8 a k c a q q 0 = o o   .       . @ @ . X X X X X . . X X .       . .     . . . . . . . . . . . . . . . . . . O . . X . . . X     X . X     X O O + O = * = O O # = # 9 9 9 9 1 9 9 1 1 9 9 1 1 9 1 9 9 9 9 + 9 9 9 1 + 9 9 9 < , 9 9 9 9 9 9 9 9 = 9 9 # # 9 9 9 9 # # # # + # 9 1 1 < < 1 1 1 1 9 9 < 3 3 3 9 3 < 9 < 9 9 9 w w 9 , @ @ @ # $ 4 4 4 q.z.(.l.g.6.<.1.1.8 8 4 8 4 < < 2 2 < 1 1 # # # $ # # # + 1 2 1 < 9 # # + < 1 1 + 1 + # < + + < + # + 1 3 e 3 < 3 3 1 3 3 3 < 3 3 < < 3 8 :.r.e.w.i.g.L.<X<XK.C.C.V.V.9.0.g.j.q.3 +   . . . . . . . . . . . & * * @ @ O * w ^ $._.-XsXgXjXZXjXZXZXjXjXjXkXjXkXjXjXkXUXLXGXjXjXkXjXkXkXgXgXkX",
"( @.sXqXqXsXlXlXsXlXlXlXlXlXkXsXg @ . %   : $.lXkXkXkXkXjXlX_.^ u D P T U ~ Y w = = 0 g q 9 + + o + + o o o o o + + < r k q < + o + o o o o + + < # o o o o o + o o o + < + + + + + + o o o o o o o o o o o o o   o             o o o o o o o   o o o o o o o o o o o o + + = = 1 + < , 9 9 9 < = = , = , 9 9 = , 9 1 1 1 # # 1 3 , # = 1 # # + + + # # # # 9 e g q 2 2 < < < < 3 8 5 1.<.q.r.8 4 4 q = o             . . . .       X X . .                   .     . . . . . . O O . . . . . . O O O . X       X X X X o O + o o o o O = @ O @ @ @ , # + + + 1 1 1 1 1 1 1 1 1 1 1 1 9 1 < 9 1 < 9 < 1 < 9 9 9 9 9 9 9 9 1 9 9 9 9 9 9 9 9 9 9 9 9 9 9 # 9 1 1 1 9 9 9 9 e 9 1 3 3 3 9 9 9 9 3 3 3 1 1 3 y e e 9 9 e w = = O @ @ * 4 4 4 8 a h.x.8.8.8.8.8.f.p.<.<.1.*.8 3 4 < < < # + 2 2 2 < # # < < 2 1 1 < + + + + < < 1 1 2 < < < < < < < < < 3 < < 3 2 5 r 7 7 7 8 8 :.:.=.r.r.u.l.L.K.b.K.K.V.V.D.C.D.V.V.M.9.9.0.n 3 +     . . . . . . . . . @ @ @ @ . * - I T @.$.lXkXkXjXkXUXLXZXjXjXLXjXjXjXkXjXjXkXjXjXjXZXZXjXjXkXkXjXjXjX",
" .+.$.$.$.qXdXlXsXsXsXlXsXlXlX_.P % X   X F sXkXkXlXlXlXkXkXkXlXhXhXlXlXlX$.' w = = f ) / c 3 < + + o o o + + + y 8 a c r.r.k 3 < < < + < < e e 2 2 < + + o o o o + # 1 1 1 1 # + + + + + o o o o o o o + + o + o o o o         o o   o     o o o o o o o o o o o o o o o + # # + + < 9 9 9 + + + # # = # # # # < , < 1 9 9 9 q e w = + # # 1 1 1 1 1 1 2 9 e q f s 3 3 3 3 5 5 5 1.1.5.3.<.w.l 8 4 4 @       o     . . . . . X     . . . . . . . . .       . .   . . . . O O @ O . . . . O O O O O o   . . . . X X . .   . O O O @ @ @ = @ * @ @ O + # 1 + 1 9 1 1 1 < 9 9 1 1 1 < 1 9 9 1 1 1 1 1 1 1 1 9 9 9 9 9 9 9 9 9 9 9 9 9 9 9 9 9 1 9 9 9 9 9 1 1 1 1 1 1 1 < 1 e 9 2 3 e e 3 1 9 1 3 y 3 e < 3 e 9 9 9 9 e e 9 # , @ @ @ $ 4 4 a <.f.M.9.0.3.3.8.8.8.8.g.f.g.0.p.q.q.a 8 8 2 2 < < + < < < < < < < < < < < < < < < < < < < < < < < 3 3 y y 5 6 :.e./././.l.j.l.l.K.K.K.K.K.K.K.L.D.C.D.C.V.V.D.C.m.V.m.M.9.9.h.n 3 +   . . . . . . . . . % @ O O @ * : d W +.|.sXsXjXjXjXkXGXLXZXkXkXjXZXjXkXjXkXjXjXkXjXLXLXGXjXjXjXjXjXjXkX",
" . . .+.+.qXqXsXsXsXlXlXlXlXsX$.P .     ,  .lXjXkXkXkXkXlXkXkXkXjXZXGXjXsX_.( : = 0 z ) ] s.c 8 3 y < $ < y q 8 %.1.1.w.k.a.r.c :.5 8 a r.r.c c k k q 3 < + o + + + 4 r j q j p 4 2 4 < 4 + < < + < + < < < < o o o o o o o     o o o o o   o o o o o o o o o o o o o + + + 1 1 1 9 9 9 < 9 < < 1 + + < + < # < < 1 9 e e e q z r r e 1 1 1 < 3 2 3 < < 3 e q q r k r r r t c :.1.w.3.3.3.<.w.q.4 4 1 + .           . . O .       X . . . . . . . .       . . . . . . % @ @ . . . X . O O O + O O O . o . . .         X X o o o o O O = - = * = = # , + , + # 1 1 9 9 9 9 1 1 1 1 1 1 9 1 1 < 1 9 1 1 1 1 1 1 1 < 9 1 1 1 1 1 < 1 9 1 1 1 1 1 1 1 1 1 1 1 1 1 1 1 1 1 1 1 1 9 3 e e e 3 1 1 1 < < 9 e e y 9 9 < 9 e e 9 = + O @ @ @ $ 4 p 1.0.&XV.M.M.9.3.0.0.9.h.K.K.K.K.K.h.z.j.f.<.q.1.a 1.*.8 1.1.8 a 1.1.r.w.w.w.1.w.w.r.:.:.1.1.r.1.r.w.w.e.y.u.u.y.l.l.{.<XL.L.K.L.L.K.K.K.K.C.K.C.K.C.D.V.V.V.V.V.n.m.m.m.M.M.x.8.q.2 + . . . . . . . . . @ . . . O @ ; P ~ #.sXsXkXkXkXjXkXkXUXLXjXjXjXkXjXjXjXkXjXjXkXkXLXLXLXLXjXjXGXZXjXkXjX",
"W Y R W  .O.$.$._.sXsXlXlXlXlX-X( > . * M -XkXjXkXjXjXkXkXlXkXkXjXjXjXgX-X[ f - = q c z x r.s.r.1.r.t c 1.r.r.w.y.w.w.k.j.y.e.w.r.r.r.r.r.e.r.r.r.r.r.l k 3 4 4 4 a k l k z z k k k k k p r r 8 a a t t 8 p p r 2 + + + o o o o o o o o o o o o o o o o o o o + o o + + + 2 2 4 1 3 2 3 3 3 < 3 < 2 < 2 < e e e 4 e 4 r s k c l l c k e 4 2 2 3 3 3 < < 8 8 r q r r.c :.r.r.q.y.y.y.i.4.3.<.y.e.t 3 2 @ .   . . . . . O O . .       X . . . . X         X X X X X O O @ O O .     X . O O O O O . . .     . .       o       O o o o = 0 - : - - = # # + # = = 1 9 9 9 9 9 1 1 1 1 9 1 1 1 1 # 1 1 # # 1 1 1 1 1 9 1 1 1 < 1 1 9 1 1 1 2 1 1 1 1 1 1 2 1 1 1 < 1 1 1 1 1 1 2 1 1 9 9 9 1 1 9 3 2 9 9 e e e 2 1 1 1 e e q 0 # + $ @ $ < p a w.h.L.C.C.M.M.4.9.9.9.9.9.L.V.L.C.C.x.x.K.g.K.g.x.K.g.g.g.K.g.g.g.K.g.K.K.&X{.=XL.x.K.K.x.g.g.K.g.K.g.g.<X@XL.l.g.4.9.x.C.K.C.C.C.C.b.C.m.b.M.b.b.C.C.N.V.V.V.V.V.m.M.M.b.M.9.<.a < o O o o X X X o O O @ O O , * - I ^ _ sXlXkXkXjXjXkXkXjXLXUXjXkXjXjXkXjXjXjXkXjXjXkXjXLXKXLXjXGXLXZXZXjXkX",
"I C I U W ~ ~ _ +.$.$.sXlXlXlXlX$.W E | $.sXkXjXjXkXjXjXkXkXkXjXjXjXjXkX-X/ d = 0 k l k a a q.w.<.<.<.3.w.5.3.3.3.g.3.3.3.3.i.y.y.w.y.w.u.w.r.w.1.r.w.q.l l q.1.a a k a k a l l l k a l l l l l r.q.w.w.1.1.q.a.q.k 4 < + + + o + o o o + o O O o o + + < < 3 2 4 2 2 8 4 8 p 8 e 5 5 r q q q 8 r 5 r 5 3 r s k q s r k k l l k k k k k q 8 5 5 5 3 3 4 8 a :.l c r.w.r.w.<.y.3.y.3.4.4.4.3.d.y.r.a 4 # O O . . . . . . . .         . . . . .       o   X O . O O O O O .   X   X . . O O . . X X X . X   X . .           * w w = # e w = : w : - = = # # 9 9 9 9 9 9 9 9 1 1 1 9 9 9 1 1 1 = # = # 1 # 9 2 1 1 1 1 1 1 1 1 1 1 1 1 1 1 1 1 1 1 2 2 1 1 1 1 1 1 1 2 1 1 1 1 1 1 1 < 1 1 3 < 3 9 e e e e 3 3 3 5 5 r 5 4 e 1 + + + + 4 8 1.6.9.M.C.M.m.M.M.9.M.9.9.M.M.M.M.M.M.C.M.C.C.V.V.L.V.K.L.D.C.L.D.K.K.C.K.&XL.&XL.V.K.K.L.L.D.L.D.L.G.K.K.V.L.C.C.C.b.9.9.9.M.M.C.C.C.M.M.m.M.m.m.M.b.C.m.M.m.C.C.C.b.M.M.M.b.8.1.p + + + o O X O O O O O @ O O * : P ( +._.sXhXjXBXUXjXZXBXZXZXZXkXkXjXjXjXjXZXGXLXUXUXjXLXjXLXLXkXjXjXjXZXjXZX",
"> - : P U Y I Y +.o.+.$.pXsXlXlXlXsXsXpXlXlXjXkXkXjXjXkXkXkXkXZXGXjXGXjXsX/ w 0 q k c k a 1.<.<.<.<.3.3.3.3.3.3.4.4.4.3.3.3.3.3.3.y.y.y.y.w.p.w.y.w.w.r.q.q.q.w.q.a a a a a l x l l l l q.1.q.r.r.q.w.r.r.r.r.w.a.r.l k 4 4 y 3 $ + $ 1 $ = 9 2 4 q q a a 8 c a l a l l q.q.q.l r.t r.t c c l 1.a c :.t c l l l l c c l l q.q.l a l l l c t %.8 8 8 :.1.r.1.q.r.w.r.w.y.w.w.i.3.3.3.4.4.b.4.g.j.a.c 4 < + O . . . . . X .         X . . . . X         . O O O O O . O . . . . O O O O O . . X   X   .       X O X X X X @ U @.@.T g U g 0 w w w - = = # + 9 9 9 9 9 9 9 1 1 1 1 9 9 9 9 9 9 = = = 9 9 9 9 9 9 1 9 1 1 1 1 1 1 < 2 1 1 1 2 1 1 1 3 1 1 2 2 1 1 1 1 1 1 1 2 1 1 1 1 1 1 1 3 5 e e 3 e 3 5 5 3 5 6 8 8 8 8 4 < + + # 3 4 a 6.0.9.M.9.M.m.B.M.M.M.M.M.M.M.M.N.M.M.M.m.C.b.M.V.N.m.V.V.V.V.V.b.C.C.C.M.b.m.C.m.b.M.b.b.m.m.C.C.D.C.m.m.M.M.C.M.m.M.M.B.M.C.m.C.M.M.M.m.m.M.b.m.C.C.M.M.4.4.b.b.C.M.M.m.M.M.8.<.8 < + o + O O O X X O . O O * w W +._.sXsXkXjXZXGXLXLXLXZXUXZXjXjXjXkXkXjXjXLXLXLXLXLXKXUXkXjXjXjXjXjXkXjXZXZX",
"* = - : I I I Y ~ Q ~ +.@.+.sXsXlXlXlXlXkXkXkXlXkXjXjXkXlXkXjXjXZXGXLXjXsX+.U 0 s k k a r.w.w.<.<.<.3.5.5.4.4.4.3.4.3.3.3.3.3.3.y.y.y.y.y.y.d.k.u.w.r.r.r.r.e.p.w.r.w.q.e.q.e.q.q.l l q.l q.q.1.r.q.q.l q.r.a a l r.q.l l l k k s s z z z z g s k l q.q.q.<.q.q.1.r.w.q.w.e.w.<.r.<.w.1.5.r.w.q.q.r.r.1.q.r.r.w.1.r.r.q.q.q.q.q.q.1.<.q.q.w.r.r.w.r.w.w.y.w.y.w.w.w.y.y.i.3.3.4.b.4.4.4.C.4.y.u.r.a 3 o + O . . . X . . .           . . .     X     X O @ @ O O X X . . . . O O @ @ O . X o       . . .     X . X o o = U #.sX-X@.~.{ / w 9 9 0 9 = # + + 9 , # 1 1 9 1 1 1 1 1 9 9 9 9 = 9 9 9 9 9 9 9 9 9 9 9 9 9 9 < 1 1 1 1 1 1 1 1 1 1 1 2 1 1 1 1 1 1 1 1 1 1 3 1 9 1 < 2 1 3 1 3 3 3 e 3 3 3 3 3 5 8 r.r.w.8 a 1.8 4 3 p k a a 1.8.9.9.M.m.m.B.m.m.M.M.M.M.M.M.m.N.N.B.N.m.m.M.C.M.C.C.m.C.V.V.V.C.D.C.C.m.m.C.D.m.M.M.C.b.m.m.m.V.m.D.m.m.m.m.B.B.m.m.m.m.m.C.M.M.M.C.m.b.M.m.M.M.m.b.C.b.4.3.3.4.C.b.m.M.M.M.9.6.8 3 + + O + O X o o O O @ - w ( +.-XlXjXjXjXjXLXLXLXLXLXZXZXjXjXjXjXjXjXjXjXZXGXLXLXKXLXLXkXjXjXkXjXjXkXZXZXZX",
"@ * * = ; : : d I R Q Q ^ _ O.+.qXlXlXlXlXlXlXkXkXjXkXjXjXkXkXkXjXBXZXkXsX@.T g q k k l :.r.w.<.<.<.3.3.3.3.4.4.3.4.g.y.w.<.y.y.w.y.w.w.w.w.y.e.q.w.r.w.e.e.Y.r.r.r.w.e.Y.r.r.q.l c k k a c c k q p k k 8 r r p a k q 8 r p k s 4 q p s s p q a l a 1.1.1.1.1.1.1.<.1.1.1.1.1.<.<.1.<.1.1.w.w.w.<.1.1.1.1.r.r.q.r.1.1.:.1.1.5.y.w.w.w.<.<.w.w.d.<.<.y.y.y.y.y.y.3.w.y.3.4.3.4.b.b.b.b.4.b.3.3.w.:.5 < + + o . .     . . . .         . . .     X   . . O O O O X . O O O O O O O @ . X X         . . .       X     O * U ).sXdXsXsX`.).{ w e 0 w 9 9 = + # , = 1 1 + = 1 1 1 < , , = = = # = = 9 9 9 9 9 1 9 9 1 9 9 2 2 1 1 1 1 1 2 1 1 1 1 1 1 9 9 3 3 9 9 9 9 9 e e e e 3 3 3 3 3 3 3 3 3 3 5 3 < < 5 1.w.y.f.y.8.8.3.<.<.q.p.p.a.n 1.6.x.M.M.m.m.Z.B.m.m.M.M.M.M.M.m.m.m.m.m.m.m.m.m.C.C.M.M.C.C.D.C.B.V.V.m.m.C.C.V.V.C.C.C.m.C.M.C.m.m.m.C.C.n.D.m.m.m.b.M.b.C.m.m.M.M.M.C.D.C.m.C.b.C.C.C.4.3.3.3.4.b.C.m.m.M.4.9.f.a p < + + + O o X O @ w w U [ @.-XlXkXjXkXjXZXZXUXjXLXLXjXjXjXkXjXjXjXjXZXkXjXjXGXLXLXLXLXjXjXjXjXjXjXkXjXZXGX",
"= = * @ @ > - ; > d I Y W ~ R U _ $.sXlXlXlXkXkXjXkXjXkXkXjXkXlXsXlXlXsXsX{ U s 0 q k c l r.1.1.1.<.<.<.<.<.<.<.w.y.u.y.<.<.w.w.q.r.:.r.q.a a t t t t 8 r t r t 8 y q q 3 3 < < 2 + + + + < + + + + + + + + + + + o o + + + + + + + + + + + + 4 a l 1.1.1.1.1.5.<.<.<.1.1.1.<.<.<.<.1.1.*.1.1.1.1.1.<.1.1.1.1.1.1.<.<.w.<.<.<.<.<.<.<.<.1.<.<.i.3.y.d.y.3.3.y.i.0.3.3.3.3.3.4.4.4.3.4.b.4.4.g.p.a 3 < o + o .       X . . .         . .             . . O . o o O O O O O O . .   X . X         . . . .     . X O : ( qXlXkXgXgXcXfX`.( w 9 e w C e 9 # = 9 # # # # # # # 1 + < + # + 1 # # # # # # # 1 2 2 1 1 1 2 2 2 1 1 1 1 1 1 1 2 2 1 2 1 3 3 3 3 3 3 3 3 e 3 3 3 3 3 5 3 3 5 3 3 3 5 5 5 5 5 8 1.w.f.g.K.x.0.0.h.x.h.z.h.p.a a 1.0.x.M.M.M.m.m.M.m.m.M.M.M.M.m.m.m.m.m.m.m.m.n.C.M.b.C.b.b.C.b.n.b.M.M.C.n.M.C.b.C.D.C.D.n.C.b.C.M.m.b.M.C.m.C.M.m.m.M.b.M.M.M.b.b.C.b.C.C.C.C.M.b.4.4.4.M.M.b.M.C.b.M.C.M.4.9.9.g.w.a < + $ = + + # = w g +.@.-XsXsXkXkXjXkXLXLXLXjXkXjXjXkXjXjXjXjXjXjXZXjXkXkXkXLXLXLXLXLXUXkXkXlXkXjXZXZXZXGX",
"@ @ @ @ @ * * * * - : I Y T Q Q W ~ +.$.tXsXkXjXkXkXlXlXlXjXjXlXsXsXsX_.@.( g w 2 q k c l c l r.r.w.q.w.w.q.1.n l l a 1.a 8 p 8 3 < < + < + < + + < + < + < + + < + + + o O o + o o o o o o o o o o o o o o o o o o o o o o o o o o o o o + + + 3 c w.1.1.<.<.<.y.i.i.5.3.3.3.3.5.3.w.w.<.1.3.w.y.<.w.y.i.<.1.<.<.1.<.<.5.3.3.3.3.3.3.3.5.<.<.<.3.3.<.w.<.<.<.<.4.3.5.4.4.4.4.4.4.4.4.4.4.4.3.1.a < + + + . .       X .     X X . . . . . . X X X   X   X X o O O O O O . . . . . . X X X X     . . . X   . * : / #.sXlXkXkXjXkXjXjXgXtX{ / w 9 9 9 = # # 9 9 = = # + , + # < , + + + + + + + + $ < < < < < 2 3 2 3 3 2 3 3 3 3 2 q e r r 5 e r r r r 5 5 r 5 8 5 5 3 3 5 3 y 8 8 8 5 5 8 t :.r.1.1.1.<.8.0.0.0.9.M.M.x.C.x.h.8.1.*.a a <.9.9.M.M.m.m.m.m.M.M.M.M.M.m.m.B.m.b.M.M.C.M.C.C.K.C.b.C.b.b.b.b.M.M.b.M.C.M.C.b.C.C.C.C.C.C.C.b.b.b.C.C.C.b.M.M.M.M.M.C.C.m.b.b.C.C.C.C.b.b.b.4.M.M.M.M.b.C.C.C.0.C.M.M.M.9.9.g.y.8 8 s 9 1 + + 9 w T ( @.-XsXkXkXkXkXjXjXLXLXUXBXkXjXjXjXjXkXjXkXjXjXjXlXlXkXlXjXjXLXLXLXLXUXkXkXkXjXjXjXZXLX",
"# @ @ @ @ * @ * * * * : D I I R R P R W +.pXlXlXlXlXlXkXkXkXjXkXlXsXsX$.( ( U 0 0 j g z c k k r k 8 8 8 a 8 3 2 2 $ < < + o + o + o + + o + + + o + + o o o + + o o o o o o o o o o o o o o o o o o o o o o o o o o o o o o o o o o o + o o o + < :.:.r.w.y.3.i.i.i.4.3.5.3.3.3.3.3.3.3.3.y.y.y.y.y.y.y.y.5.3.3.3.3.3.5.3.3.3.4.3.3.3.3.3.3.3.3.3.3.5.3.3.<.<.3.3.3.5.4.4.4.4.4.4.4.4.4.4.4.<.1.8 + o + O . .       . X     X . . . . . . . . . X   X X   O O O O O O X   X . . . . X X X       . O * * * : P o._.sXkXkXZXjXkXjXjXjXBXhXsX~.q 9 e e # + + + # = # + 1 9 + + + , < + + o + + + < < 2 2 < < 3 8 8 q 8 8 p 8 q 8 8 a k k 8 8 k 8 8 a t a k a c 1.c 1.1.c c 1.1.a *.1.a 1.1.1.w.w.r.y.8.8.8.0.0.M.9.M.9.9.9.9.9.8.3.1.a a a 1.6.C.M.M.m.m.m.M.M.M.M.M.M.M.M.m.m.m.M.C.C.b.C.b.C.C.C.K.C.b.C.b.C.b.C.C.C.b.K.C.C.C.n.C.K.C.C.C.C.D.C.C.b.C.C.b.M.b.b.C.C.b.C.K.C.C.b.K.C.b.b.b.b.M.b.M.M.C.C.b.C.m.M.b.9.9.9.h.p.1.r q 4 e < 9 s / / { @._.sXlXjXjXkXjXjXjXUXjXjXjXjXkXkXjXjXjXjXjXjXkXkXkXkXkXkXkXLXLXLXLXUXkXkXkXkXjXjXjXjX",
"# # @ @ * @ @ * * * * & - u u D d : M P R  .$.sXsXlXkXkXjXkXkXjXjXkXsX).+.( U 0 - 0 s g s q 3 < 1 < < < + + + o o o + o o o o o o o o o + o o + o + o o o o o o o o o o o o o o o o o o o o o o o o o o o o o o o o o o o o o o o o o + o o + + < t r.w.3.i.4.3.5.3.3.5.4.3.3.3.4.3.5.5.3.4.4.3.4.i.i.3.3.3.3.3.3.4.3.4.3.5.5.3.5.3.3.3.3.5.4.3.3.3.3.3.<.3.3.3.3.3.3.4.4.4.4.b.b.4.4.4.4.3.<.a 4 + + + o . .       . .       . . . . . . . . @ O O . O . O O O O X . X       X X X X . X X . O * - P P T [ $.sXlXkXjXZXZXkXkXjXkXBXBXkXdX`.) k s e # + + + + 1 + # # # # # # 1 1 $ + + < 4 2 3 3 p a 4 a a a :.l q.1.q.q.1.q.1.n r.1.a 1.<.q.1.q.q.1.q.1.p.d.d.w.p.p.d.f.f.6.3.6.<.<.8.<.8.3.f.g.f.f.0.b.M.b.M.b.9.0.0.0.6.6.1.1.n p a a 6.9.M.M.C.M.M.M.9.M.C.M.M.M.b.m.m.m.m.M.4.b.b.M.b.C.C.C.C.b.C.C.C.C.0.M.b.M.M.b.C.M.b.C.C.M.b.V.n.D.m.m.C.D.C.C.b.b.M.b.C.M.4.b.b.C.C.b.C.C.b.b.K.M.b.M.M.b.M.b.b.M.C.b.M.9.9.9.8.q.a q 4 q 4 0 z ) ( { { @.sXsXlXkXkXkXkXkXjXkXgXjXkXjXkXjXjXjXkXkXjXjXjXjXkXkXkXkXjXGXLXLXLXjXjXkXkXkXjXjXkX",
"# # # # @ @ @ * * * * * > > - : : : : : : D W O.qXsXlXkXkXkXjXjXjXlXsX).+.U w - = 9 = $ $ + + o o o o + o o o o o   o o o o   o o o o o o o o o o o o o o o o o o o o o o o o o o o + o o o o o o o o o o o + o + o o o o o o o o o o o o + + < 3 :.w.<.5.3.3.3.3.3.3.3.5.4.4.5.3.3.3.4.3.3.4.4.4.4.i.3.3.3.3.3.3.3.5.3.4.3.3.4.3.3.4.5.4.3.3.5.3.3.3.5.3.3.3.3.5.3.3.4.4.4.4.4.4.4.4.3.3.5.<.8 4 < + o   . .       . .       . . . . . . . . O O O O O O O O O O X X     o o X X X   . . . * - d R ( @.$.-XhXkXjXjXjXZXZXjXjXkXkXjXBXZXgX`.{ ) z q + + + + # # # # # # # # 1 1 4 8 p 8 4 4 p p 1.a a a a 1.p.q.d.y.w.d.h.p.a.h.8.d.y.f.g.f.8.f.8.8.h.0.0.x.g.9.g.g.0.0.f.g.0.f.0.8.0.8.8.8.0.g.g.g.g.C.M.C.b.M.M.9.0.0.0.<.1.1.1.a 8 4 a 1.3.0.M.C.C.M.C.M.M.M.M.M.M.b.m.m.m.m.m.M.M.M.b.C.b.m.C.0.C.b.b.C.C.C.4.M.b.M.M.b.b.C.M.b.C.m.C.m.C.C.m.b.C.C.C.m.M.M.M.M.M.b.M.C.C.b.C.b.C.C.9.C.b.M.M.M.M.M.C.C.C.9.M.M.b.9.g.h.w.c q q r s s z ) ( ' ( @.-XsXsXsXlXlXkXkXkXjXgXgXjXkXjXjXkXjXjXjXGXjXjXjXkXjXjXjXjXLXLXLXLXLXLXjXjXkXkXkXjX",
"# # # # # @ @ @ @ * * * * * * = > - : : ; : M W +.$.sXlXlXkXkXkXkXsXqX@.U - @ O O o X + o o o o o o o o o o o o   . .   o     X . . . X     o         o o + o o + + + + + + < + + + < + < + < + < + < + + < + < + + < + < + < + < + < 2 3 4 8 8 a <.p.3.3.3.3.4.3.5.4.3.3.3.3.3.4.3.3.4.3.4.4.5.i.4.i.i.3.3.3.3.5.4.3.3.3.4.3.3.3.5.4.3.3.3.4.3.3.3.3.3.3.3.3.3.3.3.3.4.4.4.4.3.4.4.4.4.3.3.1.8 8 < + + . . .       . .         . . . . . . . @ O O O . O O O O X X X X X       . . . . @ * - f ^ +._.sXsXdXkXkXjXkXkXkXkXjXjXjXkXjXjXZXgX-XY.) ) s + + o + + # # # # # $ 1 2 j c a a a 1.a x p.p.q.q.q.p.d.f.f.l.x.x.x.x.x.x.9.0.0.g.0.9.9.9.9.9.9.9.9.0.x.9.h.9.9.9.9.8.8.0.9.9.9.9.9.9.9.9.9.g.g.b.C.b.M.M.b.b.M.9.9.3.1.1.8 y 8 3 4 8 a 1.0.M.M.M.M.9.0.0.9.C.M.b.m.m.m.m.m.m.m.M.M.b.b.m.C.b.C.M.M.M.b.C.b.b.M.M.M.M.M.b.M.M.M.M.b.M.b.C.C.b.m.M.M.C.M.M.b.b.b.M.M.4.M.M.M.b.M.b.M.C.M.M.M.M.M.b.C.C.C.C.M.M.b.M.9.9.f.w.l r q k q q z / / / ) @._.sXsXsXlXlXlXjXjXjXkXkXjXkXjXjXkXjXkXjXZXLXZXkXjXjXjXjXkXLXLXLXLXLXZXZXZXjXkXjXjX",
"# # @ @ @ @ @ @ @ @ * * * * * * * * ; M : > : I Q +.$.sXlXlXlXlXsXtX( w @ . o o o o o o o o o o o o o o   X X   . . . X o o     o . . X   X   X . . . O + + # # < 2 < 2 3 3 3 3 q q 4 3 < 3 q q 3 q q q q 4 4 7 8 r r 8 8 r r k l a c l q.q.<.<.p.<.3.4.3.3.3.5.3.3.3.3.3.4.5.3.5.3.3.5.5.3.3.4.4.4.3.3.3.5.4.3.3.4.5.3.5.3.3.5.3.3.3.3.4.3.3.5.<.<.<.5.<.3.3.3.3.3.3.5.3.4.5.3.4.4.3.3.3.3.5.a 8 4 + + . . .     . . .         . . . . . . . . . O O @ O O O O X X X X . . . . . X O @ @ > u T @.).sXlXlXhXjXkXjXlXlXkXkXkXkXjXjXkXjXjXgX`.) ) ) g 2 + + + # # # # # 2 4 0 0 k x l l l 7.p.p.s.z.p.p.d.d.f.g.g.g.h.M.C.M.M.M.M.0.0.9.9.9.0.9.0.9.0.9.9.0.9.9.9.9.9.9.9.9.0.9.0.9.9.9.9.9.0.9.8.4.4.4.C.M.b.M.M.m.M.9.8.6.<.1.8 4 4 4 3 p a 1.8.9.M.b.M.9.9.0.0.9.C.M.M.m.m.m.m.m.m.b.b.M.M.M.b.M.b.b.C.M.M.M.m.m.M.b.b.b.M.M.b.M.b.4.M.b.M.m.M.M.M.b.M.M.b.b.M.M.M.M.b.M.M.M.b.M.M.M.b.M.b.b.M.M.M.M.b.b.b.M.b.M.M.4.9.9.h.p.l c r k q q k h g h { _.sXsXsXlXlXlXkXLXLXZXjXkXjXjXkXjXkXkXjXjXZXZXjXkXjXkXkXjXjXjXZXGXLXBXkXLXLXZXjXjXkX"
};
