/* XPM */
static char *atxt3[] = {
/* columns rows colors chars-per-pixel */
"500 500 256 2 ",
"   c #040301",
".  c #0A0502",
"X  c #0D0905",
"o  c #0D0B0A",
"O  c #120C05",
"+  c #140D09",
"@  c #16120B",
"#  c #1A140C",
"$  c #171108",
"%  c #1A1716",
"&  c #0F0E14",
"*  c #370C06",
"=  c #28150B",
"-  c #38150A",
";  c #251C17",
":  c #381A15",
">  c #280B06",
",  c #27221C",
"<  c #372619",
"1  c #382511",
"2  c #1A1A26",
"3  c #161A38",
"4  c #0A1335",
"5  c #251D27",
"6  c #1C2434",
"7  c #2A2624",
"8  c #292628",
"9  c #352B26",
"0  c #37332A",
"q  c #262936",
"w  c #2A343A",
"e  c #393636",
"r  c #342D34",
"t  c #1E201A",
"y  c #480C04",
"u  c #471509",
"i  c #581508",
"p  c #471A15",
"a  c #571B15",
"s  c #570D04",
"d  c #681609",
"f  c #781908",
"g  c #6D1B14",
"h  c #482718",
"j  c #582819",
"k  c #593519",
"l  c #4E2A0F",
"z  c #782517",
"x  c #653719",
"c  c #702E10",
"v  c #482925",
"b  c #582925",
"n  c #473629",
"m  c #573826",
"M  c #463A36",
"N  c #553736",
"B  c #682628",
"V  c #78272A",
"C  c #683726",
"Z  c #733632",
"A  c #631E25",
"S  c #734818",
"D  c #574738",
"F  c #504532",
"G  c #694929",
"H  c #714E2F",
"J  c #644923",
"K  c #0F1A44",
"L  c #1C2547",
"P  c #192E51",
"I  c #242949",
"U  c #2A3446",
"Y  c #353947",
"T  c #242C55",
"R  c #293459",
"E  c #343A57",
"W  c #152E67",
"Q  c #1C3168",
"!  c #2A3767",
"~  c #313C6A",
"^  c #211E46",
"/  c #4B3B46",
"(  c #733A45",
")  c #384454",
"_  c #374669",
"`  c #364976",
"'  c #2C4B6F",
"]  c #494848",
"[  c #554B45",
"{  c #58534A",
"}  c #474C55",
"|  c #585855",
" . c #4D5257",
".. c #675749",
"X. c #6F554C",
"o. c #766859",
"O. c #6E6555",
"+. c #475370",
"@. c #55696C",
"#. c #536976",
"$. c #797468",
"%. c #706F6A",
"&. c #615E61",
"*. c #3B4234",
"=. c #891705",
"-. c #941302",
";. c #9A1603",
":. c #941206",
">. c #A80D01",
",. c #B80A01",
"<. c #A71604",
"1. c #B61704",
"2. c #AC1E12",
"3. c #872617",
"4. c #902C11",
"5. c #AC2513",
"6. c #B12710",
"7. c #882729",
"8. c #97272B",
"9. c #972B33",
"0. c #8D3233",
"q. c #A82E31",
"w. c #AB3330",
"e. c #8E1F25",
"r. c #C91705",
"t. c #C81003",
"y. c #CA280C",
"u. c #CF2D12",
"i. c #CA362A",
"p. c #E4330C",
"a. c #8F5016",
"s. c #A95714",
"d. c #AF5214",
"f. c #966618",
"g. c #B26E0F",
"h. c #A86816",
"j. c #B67615",
"k. c #B46D14",
"l. c #93552C",
"z. c #8C502F",
"x. c #AD502F",
"c. c #976729",
"v. c #926933",
"b. c #AF702C",
"n. c #D1530B",
"m. c #E74F06",
"M. c #CB730C",
"N. c #CF7110",
"B. c #ED7306",
"V. c #E96B09",
"C. c #CB4D31",
"Z. c #CC742C",
"A. c #E77231",
"S. c #943844",
"D. c #A73748",
"F. c #B2394B",
"G. c #90504A",
"H. c #AF4C4D",
"J. c #8E6C53",
"K. c #B06F4E",
"L. c #867968",
"P. c #90776B",
"I. c #AC7269",
"U. c #A25C65",
"Y. c #CC514D",
"T. c #CB7152",
"R. c #CE7669",
"E. c #E76754",
"W. c #CD3948",
"Q. c #788775",
"!. c #B58730",
"~. c #B5831D",
"^. c #D68B17",
"/. c #DA9518",
"(. c #D18A0F",
"). c #E88A09",
"_. c #E99609",
"`. c #F49908",
"'. c #EA9416",
"]. c #EC8F14",
"[. c #DBA413",
"{. c #F1A80D",
"}. c #ECA813",
"|. c #D18E2C",
" X c #E79728",
".X c #EB9131",
"XX c #ECA92F",
"oX c #DAA42F",
"OX c #F9CA33",
"+X c #B28B4F",
"@X c #958977",
"#X c #908773",
"$X c #AE8F72",
"%X c #A99769",
"&X c #D0904E",
"*X c #E9954C",
"=X c #D6A650",
"-X c #ECAD50",
";X c #D59777",
":X c #CE8E6F",
">X c #CFB477",
",X c #E8A36D",
"<X c #D4C37D",
"1X c #F3C85A",
"2X c #395186",
"3X c #3A618A",
"4X c #465A88",
"5X c #536890",
"6X c #6B768E",
"7X c #6E97AB",
"8X c #718E97",
"9X c #65A6C9",
"0X c #93918A",
"qX c #A79988",
"wX c #B1988A",
"eX c #B5AA97",
"rX c #B2A893",
"tX c #B6B3A8",
"yX c #93A7AB",
"uX c #CE9A87",
"iX c #CFAF91",
"pX c #EBB594",
"aX c #EEB491",
"sX c #C7BAA7",
"dX c #D0B8AB",
"fX c #F0B9A7",
"gX c #E5988B",
"hX c #D8C588",
"jX c #F8C48D",
"kX c #EBC599",
"lX c #F8C897",
"zX c #FBD49C",
"xX c #E6CD8C",
"cX c #CCC4AB",
"vX c #CBC3AA",
"bX c #D4CAAD",
"nX c #D4C7AA",
"mX c #CBC6B5",
"MX c #D5CBB5",
"NX c #DBD4B4",
"BX c #DAD3B9",
"VX c #D8D1AE",
"CX c #FAD5A5",
"ZX c #E4D8B9",
"AX c #F1CBAA",
"SX c #F0E2B9",
"DX c #99B7C4",
"FX c #D7D0C6",
"GX c #E7D8C9",
"HX c #E6DACF",
"JX c #EDE5D3",
"KX c #F4F0E7",
"LX c #DFE0DC",
"PX c #B7C5C3",
"IX c None",
"UX c #897B8E",
/* pixels */
"IXIXIXIXIXIXIXIXIXIXIXIXIXIXIXIXIXIXIXIXIXIXIXIXIXIXIXIXIXIXIXIXIXIX% % 2 2 7 5 2 2 ; 2 2 % % 5 b g z e.f z e.=.z =.g e.f f f g d f f d f f d f =.z g z f f f z f 3.3.e.f =.3.=.f =.f f =.=.3.=.3.=.3.=.4.f 3.f z z z f d a a u - h C l.c.b.b.v.v.c.b.v.v.c.l.b.J.v.v.l.l.l.l.c.v.v.!.!.v.b.b.b.c.c.c.c.f.c.H H J J n k n n n n n n n J n m n k m G G J C C x J k J J S S S ~.c.f.f.f.c.c.b.h.j.N.Z.(.Z.N.g.k.N.M.M.g.M.M.g.M.N.^.N.).(.(.(./.[.}.[.|.c.S wXZXkX!.^./.^.(.(./.(.(.(.(.M.(.(.(.(.j.(.j.g.g.g.g.h.f.f.f.f.f.f.~.f.f.h.g.g.g.g.M.M.M.M.M.M.M.M.(.).B.).).M.M.M.(.(.g.g.g.g.g.g.h.s.a.s.s.s.h.d.d.d.s.Z.Z.C.C.d.d.x.x.d.x.x.x.s.x.d.x.x.x.l.a.x.x.0.x.S.H.q.x.w.0.0.9.w.w.w.q.q.q.q.q.q.w.H.H.F.F.F.H.D.D.S.0.S.S.H.G.G.Z b m C m m C G C C C G m m m v N ..O.| 9 ; = = ; ; ; ; ; ; ; j 5.1.1.y.y.u.C.i.y.u.y.u.q.w.i.q.5.i.i.i.Y.:XR.gXgXR.R.Y.R.gXF.W.w.i.i.i.i.6.Y.Y.i.i.W.R.Y.R.R.Y.Y.W.Y.H.Y.F.i.w.q.6.6.2.2.6.r.1.2.u.2.r.t.i.E.Y.W.e.4.h.|..XXXXXIXIXIXIXIXIXIXIXIXIXIXIXIXIXIXIXIXIXIXIXIXIXIXIXIXIXIXIXIXIXIXIXIXIX",
"IXIXIXIXIXIXIXIXIXIXIXIXIXIXIXIXIXIXIXIXIXIXIXIXIXIXIXIXIXIXIXIXIXIX2 2 5 2 % 2 % 2 % % % % % ; a f =.:.:.=.=.=.:.=.=.=.=.=.=.=.=.f =.=.=.=.=.=.=.=.=.=.f =.=.=.=.:.=.=.=.:.:.=.-.-.:.=.=.:.-.-.:.=.=.=.=.=.-.=.-.-.-.=.=.f d i i l p j z.c.b.b.b.j.g.b.b.j.b.b.!.b.!.!.~.!.b.h.~.~.~.h.~.~.j.g.j.f.h.b.~.S S S J J k J m k k F m k k k m m n k k G H S x J J H S S S S ~.f.f.f.h.s.h.g.g.g.g.M.M.M.M.M.M.M.g.N.M.M.M.n.M.g.j.M.M.N.(.(.(.(.(._.[./.|.f.v.nXZX$Xb.^.(.(.^.^.(.(.M.(.M.(.M.(.(.j.g.g.j.g.g.g.g.h.f.f.f.f.f.f.g.g.g.g.g.g.g.g.g.g.M.M.N.M.M.M.M.).).M.M.M.M.B.V.M.M.M.g.g.g.g.g.g.g.g.h.b.h.s.b.s.x.b.n.C.C.n.C.C.C.i.C.n.x.d.x.x.x.x.x.x.0.l.w.0.9.x.x.w.w.z.0.0.3.7.q.q.q.q.q.q.w.w.q.D.w.F.w.q.F.G.G.S.G.G.G.S.G.S.B m C G C b G G G G Z C m m N m N N { [ 9 ; = ; ; ; ; ; ; ; : a 2.6.r.1.1.r.i.i.i.i.i.u.i.i.i.i.w.i.Y.Y.Y.gXuXgXR.T.U.Y.gXY.R.Y.C.W.i.i.6.i.i.w.Y.;XR.Y.E.:XgXR.Y.i.Y.H.Y.U.w.R.R.q.i.i.2.2.6.i.i.i.Y.E.R.E.R.E.Y.5.4.6.x.|.*X.XIXIXIXIXIXIXIXIXIXIXIXIXIXIXIXIXIXIXIXIXIXIXIXIXIXIXIXIXIXIXIXIXIXIX",
"IXIXIXIXIXIXIXIXIXIXIXIXIXIXIXIXIXIXIXIXIXIXIXIXIXIXIXIXIXIXIXIXIXIX2 2 2 2 2 % % % 2 % % 2 % : d =.-.-.:.:.:.:.=.:.=.=.:.=.=.=.=.=.=.=.=.=.=.=.=.=.=.=.=.-.=.-.:.-.=.-.-.-.-.=.=.-.-.=.:.=.:.;.;.=.=.-.;.;.;.=.-.-.;.;.=.=.=.f d i i l l c a.b.h.b.j.b.b.j.g.h.k.b.g.j.b.j.g.g.g.g.g.g.g.g.h.g.h.h.h.f.S ~.f.S S k k J k J J k k k J k k m k k k k C J G S S S S S S f.f.f.f.~.h.h.s.g.h.g.M.V.M.V.M.N.M.M.M.M.M.M.M.M.g.g.M.M.N.M.(.M.(.(.(.(.[./.b.S $XZXsXv.h.^.(.(.(.(.~.j.g.M.g.g.j.M.g.g.j.j.(.~.~.~.j.j.f.f.f.f.f.f.g.g.g.g.g.g.g.g.g.g.M.M.(.N.M.V.M.B.B.(.B.).B.M.M.M.M.g.g.g.g.g.g.g.j.g.k.k.k.d.b.b.k.Z.n.C.C.C.C.C.C.A.A.C.n.h.d.d.d.x.x.d.l.9.x.9.9.9.w.w.w.0.x.4.0.q.q.q.q.9.w.w.w.q.q.w.F.w.w.0.D.H.G.G.G.G.G.S.S.0.Z Z C H H C C G H G G H C m m m v 9 9 M 9 ; ; ; ; ; ; = ; ; ; p 5.6.1.y.r.r.y.y.y.u.y.y.r.y.u.w.Y.E.C.x.Y.T.gXgXR.gXgXgXR.R.R.gXR.Y.Y.E.Y.i.i.C.Y.Y.Y.T.Y.iX:XR.w.i.Y.R.I.R.C.Y.gXR.i.W.R.Y.Y.Y.Y.;XgXR.gXR.R.E.Y.Y.6.w.8.H.|.oXIXIXIXIXIXIXIXIXIXIXIXIXIXIXIXIXIXIXIXIXIXIXIXIXIXIXIXIXIXIXIXIXIXIX",
"IXIXIXIXIXIXIXIXIXIXIXIXIXIXIXIXIXIXIXIXIXIXIXIXIXIXIXIXIXIXIXIXIXIX% 2 % % % 2 % 2 % % % 2 % ; g :.-.-.:.:.=.=.=.=.=.=.=.=.=.=.=.=.=.=.:.:.:.:.-.=.=.-.-.-.-.-.-.-.;.-.-.-.;.-.-.-.-.-.=.:.;.;.-.-.-.;.;.;.;.;.-.-.-.-.-.-.-.=.f f d i i i i a.b.j.k.h.h.g.g.j.j.h.j.j.j.g.g.g.g.g.g.~.h.f.f.f.f.f.f.f.~.S f.f.J J k k J J J k k m J J J J k k k k k k k S S x S S S a.a.f.f.g.g.g.g.h.h.g.M.M.M.M.M.M.M.V.M.M.M.M.M.M.M.g.M.M.M.M.(.(.(.(.(._.[.[.f.H vXVXwXz.f.(.(.M.(.(.M.(.M.M.(.j.g.M.~.(.(.~.j.j.b.h.b.b.c.b.f.f.c.f.~.f.b.j.k.g.g.g.g.M.M.M.(.M.M.M.M.M.(.V.M.).(.M.M.g.M.g.g.g.g.g.g.g.g.g.g.g.k.h.d.d.d.d.x.C.C.C.n.d.C.C.A.A.C.C.d.d.s.d.d.d.s.x.x.9.q.9.q.w.w.q.q.q.w.q.q.w.q.w.w.w.x.q.w.w.x.w.x.q.q.G.S.G.G.S.S.G.G.X.C G H H H H G C H G G G C C H G N v [ [ 9 ; ; ; ; 9 9 9 9 8 ; a 5.2.1.y.r.1.y.y.r.r.y.y.y.y.u.6.i.C.i.w.Y.T.R.R.R.R.R.U.U.R.gXfXY.F.Y.Y.Y.R.gXgXR.Y.Y.Y.Y.gXgXgXR.R.Y.gXR.R.R.gXpXgXT.Y.R.T.R.i.i.Y.Y.i.E.E.i.Y.E.Y.y.u.i.q.0.c.IXIXIXIXIXIXIXIXIXIXIXIXIXIXIXIXIXIXIXIXIXIXIXIXIXIXIXIXIXIXIXIXIXIX",
"IXIXIXIXIXIXIXIXIXIXIXIXIXIXIXIXIXIXIXIXIXIXIXIXIXIXIXIXIXIXIXIXIXIX2 % % % 2 2 2 2 2 2 2 % % : g :.-.-.-.-.:.=.=.:.=.=.=.=.=.=.=.=.=.=.:.:.:.:.:.:.-.:.-.-.-.-.-.-.-.-.-.;.-.-.=.:.:.-.;.-.:.-.;.-.-.-.;.;.;.;.;.-.=.;.;.-.;.-.=.=.=.f d d i i x b.b.h.g.g.h.g.h.j.g.g.g.g.g.g.g.g.g.g.f.f.a.f.a.S S S f.S S S J k k J m k k k k m J J J m k k k k k k k x x x S S S a.a.a.f.f.s.g.g.g.g.M.M.M.V.M.M.M.M.M.M.M.M.M.M.j.M.M.g.g.M.M.M.M.(.^.(.[.[.|.S L.bXVX$XS a.~.(.(.(.(.M.j.(.j.~.b.h.f.f.f.S a.S c a.c S S H l.l.v.H v.c.c.a.f.s.h.g.g.g.j.g.g.g.M.M.M.M.(.B.M.M.).).M.M.M.g.g.g.g.g.g.g.g.j.j.h.j.h.s.h.s.d.6.Z.C.C.C.x.d.C.C.A.A.C.A.C.i.d.d.x.d.d.x.x.x.q.q.q.F.x.w.w.w.w.w.w.w.w.x.q.w.q.q.w.w.l.x.w.x.w.H.D.G.G.S.S.G.0.Z Z Z H z.Z H G C G G C C C H H m v X.P.qX[ [ 7 ; ; ; , : , 7 ; b q.1.y.y.y.y.y.u.y.r.y.y.r.y.u.i.6.i.Y.i.R.R.R.uXR.F.R.gXuXgXuXgXR.Y.gXgXY.E.H.K.Y.q.w.W.Y.gXgXY.R.R.gXgXR.Y.fXgXgXR.R.R.U.R.H.i.i.i.w.i.i.i.i.i.u.u.t.u.u.i.4.0.IXIXIXIXIXIXIXIXIXIXIXIXIXIXIXIXIXIXIXIXIXIXIXIXIXIXIXIXIXIXIXIXIXIX",
"IXIXIXIXIXIXIXIXIXIXIXIXIXIXIXIXIXIXIXIXIXIXIXIXIXIXIXIXIXIXIXIXIXIX2 % 2 2 % % 2 2 2 % % 2 ; : g =.-.-.-.-.:.=.=.=.=.=.=.=.:.=.=.=.=.:.=.=.:.=.=.-.-.-.-.-.-.-.-.-.-.-.-.=.-.-.:.:.-.-.-.:.-.-.-.-.;.;.;.-.-.;.;.-.;.-.-.-.-.;.;.;.=.=.=.f d s i d v.b.k.g.j.g.g.b.j.h.h.j.j.h.g.g.g.f.f.S a.f.S S S S S S S J k m k m J k k k k k x x J J k k k k k k k k k S S a.S S a.f.f.f.g.g.g.g.M.(.B.B.).B.).M.M.M.M.M.M.M.g.M.g.g.g.g.M.M.N.).(./.}.XX/.j.H $XNXNX$Xv.f.j.(.(.j.h.h.f.f.a.S c c c f d c d d c f c d l j j k j k x c x H H S S S g.g.g.g.g.g.g.M.(.M.M.M.M.(.).).M.M.h.f.a.a.g.g.g.g.g.k.k.g.g.k.j.k.b.x.6.x.i.C.n.C.C.d.C.A.A.V.n.C.A.C.C.d.x.x.x.x.x.q.q.q.q.q.q.w.w.x.w.x.5.q.q.q.q.q.q.q.x.x.x.x.x.x.x.0.G.S.S.G.0.0.z.0.H Z S H H H H G H C G C H C p b X.X.X.N X.9 ; ; ; ; ; 9 ; , p 9.u.u.u.u.u.u.u.y.r.y.y.y.1.2.i.i.Y.C.i.Y.gXgXR.gXR.R.gXgXdXdXuXR.Y.U.T.W.i.Y.R.Y.Y.T.E.Y.R.R.R.R.Y.R.gXR.H.gXR.fXR.Y.R.R.R.i.i.F.R.W.i.W.i.i.i.r.p.t.t.p.r.6.w.IXIXIXIXIXIXIXIXIXIXIXIXIXIXIXIXIXIXIXIXIXIXIXIXIXIXIXIXIXIXIXIXIXIX",
"IXIXIXIXIXIXIXIXIXIXIXIXIXIXIXIXIXIXIXIXIXIXIXIXIXIXIXIXIXIXIXIXIXIX% % 2 2 % % % % % 2 2 2 2 p g =.-.:.=.:.=.=.=.=.e.=.=.=.=.=.=.:.:.=.:.=.=.:.-.-.-.-.-.-.-.-.-.-.-.-.-.-.=.=.:.:.-.-.-.-.-.>.;.;.-.-.-.-.-.-.-.-.-.-.-.-.-.-.-.=.;.;.-.-.=.f s y l a.b.k.k.b.j.b.h.j.g.j.h.g.g.g.f.f.f.S S S S S S S S S k k k k k k k k k k k k k k k k k k k k k G G J x a.a.a.S S a.f.f.f.h.g.g.g.g.N.B.).).M.B.M.V.M.g.M.g.g.j.g.g.g.M.M.M.M.(.(.(.(._.[./.f.H eXnXrXJ.K.c.a.a.a.S c c c c f 4.f f =.=.=.=.=.=.-.;.-.=.=.=.f f f f z f z c x x J S S S h.h.g.g.g.M.M.M.M.M.(.(.).).M.4.c c c c a.f.h.g.f.s.s.g.g.k.k.h.h.d.w.d.d.i.x.x.d.5.d.i.A.A.A.n.A.A.A.A.A.C.C.x.H.w.q.q.w.q.w.w.w.C.i.w.w.q.q.w.w.w.w.8.a.d.x.x.x.x.H.D.0.0.9.G.0.0.G.z.0.0.Z H G C H H H H H H G m h Z X.N v v N v 7 ; , ; ; 9 ; ; b q.u.u.u.i.u.r.i.u.r.u.i.i.2.i.E.W.w.Y.i.Y.uXgXY.gXuXU.R.R.R.gXfXgXY.W.i.W.w.F.Y.Y.R.Y.R.Y.R.Y.Y.H.F.F.R.:XY.R.H.gXK.w.Y.Y.Y.R.W.E.gXY.E.,XE.Y.Y.u.p.p.r.t.t.u.C.IXIXIXIXIXIXIXIXIXIXIXIXIXIXIXIXIXIXIXIXIXIXIXIXIXIXIXIXIXIXIXIXIXIX",
"IXIXIXIXIXIXIXIXIXIXIXIXIXIXIXIXIXIXIXIXIXIXIXIXIXIXIXIXIXIXIXIXIXIX2 2 % % % % % % 2 2 % % 2 p d -.:.-.:.=.:.=.e.=.=.=.=.:.=.=.=.=.=.=.=.:.:.:.-.-.-.-.-.-.-.-.-.-.-.-.-.:.=.:.=.=.=.-.-.-.:.:.:.-.-.-.;.-.-.-.-.-.-.-.-.-.-.-.-.-.;.;.;.-.;.-.=.f s s c f.b.k.b.~.j.g.g.g.j.f.g.g.g.f.f.S S S S k S l J k k l l l h k k k k J k k C J k k k k k k k k x x S l.a.a.a.a.f.f.s.f.h.g.g.g.g.M.M.).M.M.M.M.M.M.g.g.g.M.M.M.M.^.^.(.(.(.(.(.(.(._.)./.f.z.wXP.H S S a.f c c f f =.-.;.-.;.;.<.;.-.>.<.<.>.>.1.>.>.<.>.1.1.1.1.1.1.<.<.;.c c i l l a.f.h.g.g.g.g.M.M.M.M.M.(.M.c x S S k c S S a.f.a.f.a.h.g.g.g.j.h.s.s.d.d.d.x.C.x.4.4.3.6.A.A.V.A.C.C.n.C.C.C.C.C.w.q.w.w.F.W.w.w.w.i.w.q.q.q.w.x.x.x.x.4.d.C.b.C.x.x.x.x.x.x.0.0.0.0.x.0.0.z.z.Z C H G G H H G H C m X.H N N D [ N 9 9 ; ; 7 9 ; ; b 4.i.i.u.y.y.u.i.u.y.u.i.6.u.u.R.T.R.E.Y.Y.gXgXR.Y.R.R.Y.W.R.R.uXR.Y.w.E.:XR.Y.Y.R.R.Y.E.W.R.F.Y.gXY.T.R.R.Y.H.:XwXY.E.R.R.AX;XW.R.H.i.i.C.u.t.r.r.t.r.t.p.t.t.r.IXIXIXIXIXIXIXIXIXIXIXIXIXIXIXIXIXIXIXIXIXIXIXIXIXIXIXIXIXIXIXIXIXIX",
"IXIXIXIXIXIXIXIXIXIXIXIXIXIXIXIXIXIXIXIXIXIXIXIXIXIXIXIXIXIXIXIXIXIX2 % 2 2 % % % % 2 % % 2 2 : s :.:.:.:.:.:.:.=.=.=.=.=.=.=.=.=.=.=.:.=.=.=.:.-.-.-.-.-.-.-.-.=.-.-.-.-.-.=.:.=.=.=.=.:.=.-.:.-.;.;.-.-.;.-.-.-.-.-.-.-.-.-.-.-.-.-.;.>.;.-.-.;.=.=.d s j H j.j.~.j.h.g.g.g.f.f.g.f.f.f.f.f.S S S k k k l k k l l k k F k k J k k k k k k k k k k k k k k S f.f.f.a.a.f.f.f.f.g.g.g.g.g.j.M.M.M.M.g.g.~.g.g.g.g.g.(./.(././.(.^.(.(.(.(./.[.[.~.c.S C p i d f f =.=.-.>.>.>.>.>.>.>.>.>.>.>.>.>.>.,.>.,.,.,.,.,.,.,.,.,.,.,.,.,.,.>.<.4.3.i x S a.a.g.g.g.M.M.M.M.M.M.a.c c C x x x x a.a.a.a.a.a.h.g.j.g.g.s.s.s.d.d.C.C.C.x.l.0.3.4.d.Z.C.C.C.i.n.C.A.C.A.C.i.w.w.W.w.q.W.w.w.w.q.q.q.q.5.4.d.4.4.6.C.Z.Z.Z.x.x.x.x.x.x.x.x.0.x.H.x.z.0.Z Z G H H H S H H H G H z.H Z b / D N 0 M 9 ; ; : ; ; - :.6.6.u.1.u.i.u.y.y.y.r.y.W.i.T.Y.pXR.H.Y.gXgXgXuXR.R.R.R.R.R.R.Y.H.Y.R.gXR.R.H.R.Y.i.i.i.R.Y.w.Y.H.W.H.i.w.H.R.U.w.Y.R.Y.R.F.Y.R.Y.R.R.C.W.u.t.t.t.p.t.t.t.r.t.IXIXIXIXIXIXIXIXIXIXIXIXIXIXIXIXIXIXIXIXIXIXIXIXIXIXIXIXIXIXIXIXIXIX",
"IXIXIXIXIXIXIXIXIXIXIXIXIXIXIXIXIXIXIXIXIXIXIXIXIXIXIXIXIXIXIXIXIXIX2 2 % 2 2 2 2 2 2 % % 2 % p f =.:.:.:.=.:.:.:.=.=.=.:.=.=.:.=.=.=.:.:.=.=.=.-.-.=.-.-.-.-.-.-.-.-.-.-.-.-.=.=.=.=.=.=.=.-.:.;.-.>.;.-.-.;.-.-.-.-.-.-.-.-.-.;.-.-.;.;.-.-.>.;.;.;.4.f s l a.f.j.~.b.j.f.f.f.f.f.f.f.f.f.a.S S J J J k k k J n n h 0 n k J k G k k k k m k m J J k k k S a.f.f.f.f.a.f.f.g.f.g.g.g.g.g.g.M.M.M.M.g.M.g.g.g.g.g.j.(.(./.(.(.(.(.(./.(./.(.j.g.S g d f f =.-.-.<.>.>.>.>.>.>.>.>.,.>.>.>.>.,.,.,.,.,.,.,.,.,.,.,.,.,.,.,.t.t.,.,.,.,.,.1.<.4.l S S S a.h.g.M.M.g.M.M.g.c x x x x x C S a.a.a.a.a.a.h.b.Z.j.g.h.g.s.s.x.C.x.C.x.x.l.0.4.a.5.d.C.d.x.x.x.C.C.C.C.C.i.i.i.q.W.Y.i.i.i.w.w.5.x.x.w.x.4.a.a.C.Z.N.N.Z.Z.x.C.Z.C.x.x.x.x.x.x.x.l.z.z.Z G H H G H J J G H H H H G N N N N n 9 7 , ; ; ; v 5.y.1.r.t.y.y.r.u.u.C.2.t.C.E.R.H.R.R.R.uXgXgXfXgXgXgXgXR.gXgXR.R.R.R.R.Y.Y.fXgXR.uXw.i.C.R.;XR.F.q.w.W.Y.Y.R.uXF.R.R.H.Y.R.R.gXuXfXR.W.W.Y.W.r.u.p.t.p.t.t.p.t.IXIXIXIXIXIXIXIXIXIXIXIXIXIXIXIXIXIXIXIXIXIXIXIXIXIXIXIXIXIXIXIXIXIX",
"IXIXIXIXIXIXIXIXIXIXIXIXIXIXIXIXIXIXIXIXIXIXIXIXIXIXIXIXIXIXIXIXIXIX2 % % 2 2 % % % 2 2 2 2 ; p f -.:.:.:.:.:.=.:.=.=.:.:.:.=.:.=.:.:.=.=.=.=.:.:.-.=.:.-.-.-.-.-.-.-.-.-.-.-.=.=.=.=.=.:.:.-.-.;.>.>.-.;.-.-.;.-.-.=.=.=.-.-.-.-.-.;.;.;.;.;.;.;.;.;.<.;.=.d s S b.b.g.g.f.g.f.f.f.f.f.f.a.S S J J J k k k k k k n n F n n 1 n m n h h 0 v n n n k k k k S S S f.f.f.f.f.~.f.f.g.g.f.g.g.g.g.M.M.g.g.g.g.g.g.g.g.(.(./.[./././.(./.|.M.h.f.a.S z =.-.-.-.<.>.>.>.>.>.>.>.>.>.,.>.,.,.>.>.>.,.,.,.,.,.,.,.,.,.,.,.,.,.,.,.,.t.,.,.,.t.,.,.>.;.j l S S a.a.h.g.M.g.j.M.a.c x x j j x x C H a.a.a.a.a.h.b.b.Z.Z.g.g.g.g.n.C.C.Z.C.x.0.0.3.7.3.4.4.5.x.x.q.C.A.C.C.C.i.i.W.w.W.W.W.i.w.q.q.w.w.x.x.x.d.s.s.g.Z.N.N.Z.Z.Z.Z.Z.C.x.x.x.x.x.x.x.z.H C x G G C G G H J G H H H H N v M M v v 0 : ; ; ; = u 5.1.r.y.r.r.r.r.r.r.r.u.i.w.w.C.i.R.H.F.gXR.I.dXfXgXU.U.gXgXR.U.I.R.H.R.:XR.:XR.R.F.C.i.i.H.Y.Y.R.uXR.uXgXgXgXgXR.Y.R.R.uXgXR.dXK.gXgXY.i.F.Y.w.i.i.t.p.t.p.p.t.IXIXIXIXIXIXIXIXIXIXIXIXIXIXIXIXIXIXIXIXIXIXIXIXIXIXIXIXIXIXIXIXIXIX",
"IXIXIXIXIXIXIXIXIXIXIXIXIXIXIXIXIXIXIXIXIXIXIXIXIXIXIXIXIXIXIXIXIXIX2 2 & 2 2 % 2 2 2 % % ; ; a =.-.:.:.:.=.:.=.:.:.:.=.f f :.=.:.:.=.=.:.:.=.:.=.-.-.-.-.-.-.-.-.-.-.-.:.:.-.-.=.:.=.=.:.-.:.-.-.-.;.;.;.;.;.-.-.-.-.=.=.=.-.-.;.-.-.-.;.;.;.;.;.;.;.<.;.;.4.f i a.b.b.f.f.f.f.f.f.f.S a.S S S k l l l l l l l l 1 l l l h l 1 1 h < : < : < < < < n k k k S S S S a.f.f.f.g.f.f.f.f.f.g.g.g.M.M.g.M.g.g.g.g.g.j.(.[. X/./.(.(.g.h.f.a.c c f f -.-.;.>.-.>.>.>.>.>.>.>.,.>.,.>.>.,.,.,.,.,.,.,.,.,.,.,.,.,.,.,.,.,.,.,.,.,.,.,.,.,.,.,.,.>.<.d l l S S a.a.g.M.j.k.h.c j x C x j C j x x c S a.a.h.k.j.k.Z.j.j.g.g.g.N.C.C.A.A.x.0.a.7.0.z.a.0.3.3.3.3.u.A.A.C.C.i.C.W.w.w.q.w.i.w.w.w.5.x.x.4.x.d.x.d.s.Z.Z.M.N.Z.N.N.A.Z.C.x.s.x.5.x.x.x.z.C G H H C G G G G C G H H N N n n 9 v n 9 7 ; ; ; % p 8.y.1.r.r.r.t.r.r.y.r.y.y.i.Y.W.Y.Y.T.E.:XR.Y.gXfXgXgXR.gXR.gXgXgXpXgXR.Y.x.i.i.w.i.i.i.Y.Y.Y.Y.R.gX;XgX:XR.R.R.H.:XR.uXgXuXuXpXpX;XR.Y.Y.T.gXY.W.W.t.t.p.p.r.p.IXIXIXIXIXIXIXIXIXIXIXIXIXIXIXIXIXIXIXIXIXIXIXIXIXIXIXIXIXIXIXIXIXIX",
"IXIXIXIXIXIXIXIXIXIXIXIXIXIXIXIXIXIXIXIXIXIXIXIXIXIXIXIXIXIXIXIXIXIX2 2 % 2 % 2 2 % % 2 % % : d =.-.-.-.=.:.:.:.:.=.=.=.:.f :.=.:.=.=.=.:.=.-.-.-.-.-.-.:.:.-.-.-.-.:.-.-.>.;.-.-.:.=.-.=.=.-.-.-.;.;.>.;.;.-.;.-.-.-.-.-.=.-.-.-.-.-.-.;.;.;.;.;.;.<.<.<.;.>.;.f d a.c.f.f.f.f.f.f.a.S c c c l k c c l l i l c x l k l k j l c x S G C k h h , 7 , < n m k J S S S S f.f.f.f.g.f.f.f.S f.g.M.M.M.g.~.g.g.g.g.g.~.(.(.(.(.(.j.k.f.a.3.=.-.-.-.-.-.:.>.-.>.>.>.>.>.>.>.>.,.>.,.>.,.,.,.,.,.,.,.,.,.,.,.,.,.,.,.t.,.,.,.,.t.t.,.,.t.,.,.,.,.,.1.f 1 l S S S f.g.g.g.s.a.x x x B k j m j x C x x x S c.j.g.g.g.g.k.Z.k.g.Z.A.A.A.C.d.8.z.0.4.0.l.0.0.0.z 4.6.A.A.C.C.i.i.i.w.w.w.q.q.w.w.x.q.4.d.w.x.d.x.x.d.Z.A.Z.N.N.A.N.N.N.Z.C.C.x.d.Z.C.b.c.S x H G S H H H H G G H ..D N v M M 9 M v , ; ; 0 ; u 2.r.1.r.r.y.r.r.r.1.t.t.i.i.Y.w.C.Y.Y.Y.R.uXgXgXR.R.R.U.R.F.R.R.R.uXR.H.Y.Y.W.H.C.W.T.w.C.uX:XY.Y.I.gXR.H.R.R.R.T.R.F.Y.H.Y.H.R.R.Y.Y.Y.Y.Y.Y.w.i.i.r.p.p.t.t.p.IXIXIXIXIXIXIXIXIXIXIXIXIXIXIXIXIXIXIXIXIXIXIXIXIXIXIXIXIXIXIXIXIXIX",
"IXIXIXIXIXIXIXIXIXIXIXIXIXIXIXIXIXIXIXIXIXIXIXIXIXIXIXIXIXIXIXIXIXIX% 2 % 2 2 % 2 % 2 2 % % v f =.-.-.-.:.:.:.:.:.:.=.:.:.:.:.:.=.=.:.:.:.=.-.:.-.-.-.-.:.:.-.-.-.:.:.:.-.-.;.-.:.:.:.:.:.-.-.-.;.-.:.:.-.-.;.-.-.-.-.-.-.-.-.-.-.-.-.;.;.;.<.;.<.-.-.;.;.<.<.-.4.=.d S a.f.a.a.S S c c S a.a.s.f.a.s.f.a.s.d.d.d.n.d.d.s.d.a.d.s.a.a.s.s.a.S k h < ; < h j k J S S S S f.f.f.f.a.a.f.f.f.g.M.M.g.g.g.g.g.g.g.~.~.~.~.~.j.a.a.a.3.=.=.-.-.-.;.:.-.-.-.>.>.>.>.>.>.>.>.>.>.>.,.,.,.,.,.,.,.,.,.,.,.,.,.,.,.,.t.,.t.,.,.t.,.,.,.t.t.t.,.,.,.,.,.4.l 1 l S S S a.f.h.a.S x x C x x C j j C x C C c f.b.g.s.k.g.g.k.g.N.N.Z.N.n.A.n.d.0.0.a.a.0.z.a.0.4.0.4.w.A.A.C.A.C.C.C.q.F.w.q.q.w.5.x.w.x.x.x.x.x.C.Z.n.Z.A.Z.Z.N.N.Z.Z.Z.Z.Z.Z.b.d.Z.b.h.h.z.S H H H S z.H S G G H H ..N N M M M 9 0 : ; ; ; = p 2.1.r.r.r.u.y.r.r.r.r.y.Y.i.i.i.i.C.W.i.F.R.uXR.U.R.gXR.gXgXfXuXfXgXR.Y.w.Y.Y.Y.i.Y.Y.i.E.:XR.Y.R.R.uXR.Y.W.Y.F.R.R.R.F.Y.uXC.Y.Y.i.i.i.w.i.i.i.i.r.t.p.p.t.t.t.IXIXIXIXIXIXIXIXIXIXIXIXIXIXIXIXIXIXIXIXIXIXIXIXIXIXIXIXIXIXIXIXIXIX",
"IXIXIXIXIXIXIXIXIXIXIXIXIXIXIXIXIXIXIXIXIXIXIXIXIXIXIXIXIXIXIXIXIXIX% 2 2 % 2 2 2 2 % % % ; a f =.:.-.-.:.=.:.:.=.=.:.=.=.:.=.=.=.:.=.:.=.-.:.:.:.:.=.:.:.:.:.:.-.-.-.:.-.;.>.-.:.-.-.-.:.-.-.-.-.-.-.-.-.-.-.-.-.-.-.;.-.-.-.-.-.-.-.-.;.;.;.<.;.<.>.<.-.;.>.;.;.4.=.f c S S S S S S a.a.s.s.d.d.d.n.d.s.n.n.n.n.n.n.n.n.n.m.V.V.n.n.n.n.d.d.d.x.S x h : 9 h k k J J S a.a.f.a.S S f.f.f.g.g.M.g.g.M.M.g.g.g.~.~.~.f.f.S c d f -.;.;.-.-.>.<.:.-.-.>.<.>.>.>.>.>.>.>.>.>.>.,.,.,.,.,.,.,.,.,.,.,.,.,.,.,.,.,.,.,.t.t.t.t.t.t.t.t.t.t.t.,.,.,.4.l < l k S S S S a.c x j j m x C x j j m C C C Z z.h.h.s.s.b.g.h.k.N.Z.N.n.A.C.N.x.a.0.a.z.a.8.z.z.0.a.l.x.C.C.A.C.A.C.W.w.F.C.w.5.w.x.w.a.d.x.d.d.b.Z.Z.n.Z.Z.d.k.n.n.A.Z.N.M.N.n.s.s.d.d.d.s.l.z.z.S z.z.H H G H H H H Z n v n M M v M 9 ; = ; = j 5.1.r.r.r.r.r.r.r.r.r.u.i.C.T.C.u.i.i.C.R.R.R.R.Y.gXR.R.R.uXgXR.Y.Y.W.H.H.R.R.C.E.Y.Y.Y.T.R.Y.Y.R.I.R.R.R.H.:XE.Y.Y.Y.x.Y.Y.w.Y.i.i.6.6.i.u.y.y.r.r.t.t.p.r.p.t.IXIXIXIXIXIXIXIXIXIXIXIXIXIXIXIXIXIXIXIXIXIXIXIXIXIXIXIXIXIXIXIXIXIX",
"IXIXIXIXIXIXIXIXIXIXIXIXIXIXIXIXIXIXIXIXIXIXIXIXIXIXIXIXIXIXIXIXIXIX2 2 2 2 2 % & % % 2 % , j f =.-.-.-.:.:.:.:.:.:.=.=.:.:.=.:.:.:.:.:.:.:.:.:.:.:.:.:.:.:.:.:.;.;.-.>.;.;.-.;.-.-.-.-.-.-.-.-.;.-.-.-.-.-.-.-.-.-.-.-.-.-.-.-.-.-.;.-.-.>.<.<.<.<.<.<.<.;.<.<.;.;.=.=.f c c S a.a.4.s.s.d.n.d.n.n.n.n.n.n.M.V.m.n.n.n.M.V.V.B.B.B.B.V.n.n.n.n.n.N.j.x.S l < < 1 k S S S f.a.a.f.f.S S f.~.g.g.g.g.M.(.g.g.~.~.~.f.a.c d f =.<.>.>.-.>.-.>.-.>.-.:.-.-.>.>.>.>.>.,.>.>.>.>.,.,.,.,.,.,.,.,.,.,.,.,.,.,.,.,.,.,.t.t.t.t.t.t.t.t.t.t.t.,.,.,.1.<.i 1 1 k x S x x k x j j j B x C C b j j j C x C a.x.c.h.b.h.s.h.g.M.N.N.N.A.Z.Z.b.c c H 3.0.a.0.a.z.4.w.x.i.i.A.A.A.A.i.i.2.w.w.w.C.x.x.d.x.x.x.d.n.x.Z.b.d.0.l.Z d.N.N.Z.Z.N.N.N.k.d.N.k.s.d.c.z.z.a.S z.H S H H H z.H H G N n n N e < 9 ; ; = = j 5.r.r.r.r.r.r.y.1.y.y.u.y.w.:XY.2.w.T.H.F.R.Y.R.R.F.R.R.R.uXI.R.9.F.T.R.R.R.R.Y.T.C.i.i.Y.T.Y.E.Y.R.uXgXgXY.T.Y.w.i.C.Y.T.i.Y.i.y.T.R.i.i.u.t.u.u.y.r.t.t.t.t.t.IXIXIXIXIXIXIXIXIXIXIXIXIXIXIXIXIXIXIXIXIXIXIXIXIXIXIXIXIXIXIXIXIXIX",
"IXIXIXIXIXIXIXIXIXIXIXIXIXIXIXIXIXIXIXIXIXIXIXIXIXIXIXIXIXIXIXIXIXIX2 2 2 % 2 % % 2 2 % % : a f f -.:.:.-.-.:.-.-.-.=.:.=.=.:.=.:.:.:.:.:.:.:.:.:.:.:.=.:.:.:.:.>.:.:.:.>.-.-.>.;.;.-.-.:.-.;.-.-.-.-.-.-.-.-.>.;.-.-.-.-.-.-.-.;.-.;.-.;.-.>.<.>.<.;.;.<.<.>.-.-.-.-.=.4.f c c s.d.k.n.n.M.n.M.n.M.n.V.V.V.B.B.V.V.V.B.B.B.B.B.B.B.B.B.V.V.V.m.m.m.V.V.V.x.x - < h k J S S c.f.f.f.S f.f.g.g.g.g.g.M.(.~.~.~.f.f.a.c c 4.;.;.>.>.-.>.>.<.<.-.;.:.=.:.-.>.>.>.>.>.>.,.>.,.,.,.>.,.>.,.,.,.,.,.,.t.,.,.,.,.,.,.t.,.,.,.t.t.t.t.t.,.,.,.,.,.,.t.1.d = 9 v h j h h x j j m j j k C C m j j j C x C S a.l.l.l.a.a.x.s.h.j.Z.N.Z.N.Z.l.S x Z 4.4.a.4.4.a.4.4.x.x.C.C.C.A.A.C.C.i.C.x.x.C.x.s.5.a.s.s.x.x.x.l.0.T.;XiX$Xz.^.].N.M.N.N.N.Z.Z.Z.N.Z.b.d.x.l.z.z.H H z.H H H H H H H G D D N n < ; , ; = = i 5.y.r.r.r.r.r.r.1.r.u.i.C.i.w.w.C.Y.x.R.Y.:XR.R.R.E.R.Y.E.gXR.:XH.K.R.H.H.uXY.w.Y.i.x.E.:XR.R.Y.Y.Y.w.Y.Y.w.6.i.2.w.C.w.C.Y.Y.i.u.u.i.C.i.i.i.p.u.y.r.r.p.r.p.t.IXIXIXIXIXIXIXIXIXIXIXIXIXIXIXIXIXIXIXIXIXIXIXIXIXIXIXIXIXIXIXIXIXIX",
"IXIXIXIXIXIXIXIXIXIXIXIXIXIXIXIXIXIXIXIXIXIXIXIXIXIXIXIXIXIXIXIXIXIX2 2 2 2 2 % % % % % % ; j d f =.:.:.:.-.:.=.-.-.:.:.:.:.:.:.=.:.:.:.:.:.:.:.:.:.=.:.=.:.:.:.-.:.:.:.-.-.-.-.;.-.:.:.:.>.-.-.-.-.;.-.-.-.:.-.;.-.-.-.-.-.-.-.-.;.;.;.;.<.<.<.;.>.;.<.;.<.-.-.-.-.=.=.=.=.f 4.h.N.N.n.M.M.M.V.B.B.B.B.B.B.V.B.B.B.B.B.B.B.B.V.V.B.V.B.B.B.B.V.B.B.m.B.B.A.Z.z.h < 9 h k J c.c.f.f.f.f.f.g.g.g.g.(.j.(.~.g.f.f.S c f ;.<.<.>.-.>.>.>.>.<.<.;.-.:.:.:.-.-.>.>.>.>.>.>.>.>.>.>.,.,.,.,.,.,.,.,.,.,.,.,.t.,.,.t.,.t.,.,.t.t.t.t.t.t.t.t.t.t.t.t.,.f * ; < : h h v j v b m m j b C C B C C j x C x C x z.a.a.S a.a.s.d.k.Z.Z.Z.h.c.a.c c z.a.a.x.x.l.x.x.x.x.x.w.n.C.A.A.A.C.C.w.x.C.C.6.w.s.x.d.x.c.z.7.x.K.=X=XkXJXG.C..XB.M.M.N.Z.Z.Z.Z.Z.d.d.d.h.v.l.z.z.l.H H G H H H H H G G H m 9 , = = = = ; g 5.r.1.r.r.r.r.r.1.r.u.x.6.6.i.u.u.w.C.;XR.:XR.R.R.R.R.R.R.R.R.:XR.Y.R.Y.E.Y.i.q.Y.w.Y.T.Y.R.H.R.Y.Y.C.C.R.H.w.E.C.i.R.Y.Y.C.w.y.i.C.Y.Y.i.i.C.i.u.y.i.i.p.p.r.u.IXIXIXIXIXIXIXIXIXIXIXIXIXIXIXIXIXIXIXIXIXIXIXIXIXIXIXIXIXIXIXIXIXIX",
"IXIXIXIXIXIXIXIXIXIXIXIXIXIXIXIXIXIXIXIXIXIXIXIXIXIXIXIXIXIXIXIXIXIX5 2 2 2 2 2 % 2 % 2 % ; j i d f f :.=.-.-.-.-.:.:.:.:.:.:.=.:.=.=.=.=.:.:.:.:.:.:.:.:.:.=.=.-.-.:.:.-.-.-.-.-.;.:.:.-.;.;.;.;.-.;.-.-.-.:.:.;.;.-.;.-.-.-.-.-.;.;.-.-.>.;.;.;.;.<.>.;.;.-.-.-.-.-.-.;.;.;.=.4.N.N.N.M.M.M.M.M.B.V.B.B.B.B.B.B.B.V.B.V.B.B.B.B.B.V.B.B.V.V.B.B.B.B.B.B.V.A.V.l.j , < k k S S f.f.f.f.f.g.g.~.g.g.(.g.g.f.f.S d f ;.>.>.>.>.>.>.>.<.>.>.>.>.-.:.:.:.:.:.:.:.:.-.-.:.:.-.>.>.>.>.,.,.,.,.,.,.,.,.,.,.t.,.t.t.,.,.t.t.,.t.t.t.t.t.t.t.,.t.t.t.,.=.- ; < < h h h h v b b b b m m C B C C j b C C C C S G x x j x c S a.z.4.c S c x x x z.a.a.c.x.a.4.x.x.x.x.x.w.6.C.C.A.C.C.w.5.C.x.w.s.d.x.x.z.j x K.K.T.&X,XkXJXG.d.].).N.M.N.N.Z.k.N.k.d.d.k.s.c.l.l.a.S S H H H H H H H H G F m < , ; ; = , ; a 5.r.r.r.r.r.r.r.r.1.i.C.u.i.i.u.6.i.i.i.R.R.U.R.gXR.I.R.R.Y.F.Y.Y.x.W.Y.Y.i.Y.Y.Y.i.Y.Y.Y.Y.w.R.Y.w.Y.Y.Y.Y.Y.E.T.w.i.i.i.i.i.r.y.i.i.i.i.u.i.i.i.u.r.u.p.p.p.p.IXIXIXIXIXIXIXIXIXIXIXIXIXIXIXIXIXIXIXIXIXIXIXIXIXIXIXIXIXIXIXIXIXIX",
"IXIXIXIXIXIXIXIXIXIXIXIXIXIXIXIXIXIXIXIXIXIXIXIXIXIXIXIXIXIXIXIXIXIX5 2 2 2 2 2 % 2 2 2 ; < h y s s f d =.=.=.-.:.:.:.=.:.:.:.:.:.:.:.:.:.:.=.=.=.:.:.=.:.:.=.:.:.:.:.:.:.-.-.-.-.>.>.-.;.-.;.-.;.-.;.-.;.-.-.:.-.-.;.-.;.-.-.-.;.;.;.>.;.;.;.;.;.-.-.-.;.;.-.-.-.-.;.;.<.<.<.<.-.4.d.M.V.M.M.n.n.M.M.M.M.n.M.V.N.M.M.V.V.V.B.B.V.B.B.B.B.V.B.B.B.B.B.B.B.V.B.B.V.b.S = 9 h k S S f.f.f.f.g.g.~.(.~.g.g.g.a.c c 3.;.<.>.>.>.<.;.<.>.<.;.-.-.-.-.:.:.:.:.-.-.:.:.:.:.-.-.:.-.:.>.>.>.,.,.,.,.,.>.,.,.,.,.,.,.t.,.,.,.t.t.t.t.t.t.t.,.t.t.t.,.t.>.:.u = ; < < 9 h h h j v b j j b b m k C m b j C C C C j x b b b j x j c k c c x x C x c 3.a.z.a.4.x.x.x.x.x.w.i.w.2.5.y.C.E.a.4.w.s.x.a.x.x.x.k < b T.T.&X&X>XJXcXx N. X].V.N.Z.k.s.x.a.l.a.l.l.l.l.z.l.l.S S H G G J G G H G G J v < < ; = = = ; a <.1.r.r.r.r.r.t.1.y.u.i.u.u.u.i.u.i.w.i.gXgXR.R.Y.R.R.R.R.R.R.gXH.H.Y.C.Y.C.i.i.i.C.Y.Y.E.Y.C.Y.C.Y.Y.Y.C.C.Y.i.Y.C.i.C.C.C.i.y.r.r.u.y.i.u.i.u.r.r.p.t.t.t.t.p.IXIXIXIXIXIXIXIXIXIXIXIXIXIXIXIXIXIXIXIXIXIXIXIXIXIXIXIXIXIXIXIXIXIX",
"IXIXIXIXIXIXIXIXIXIXIXIXIXIXIXIXIXIXIXIXIXIXIXIXIXIXIXIXIXIXIXIXIXIX5 2 2 5 2 2 2 % 2 2 # < h * * y y s s d d f f f =.=.=.:.:.-.=.:.:.:.:.:.-.=.:.=.:.=.:.=.:.=.:.=.:.:.-.-.-.-.-.-.>.:.-.-.>.;.:.:.-.-.-.;.-.-.-.-.-.-.-.-.;.;.-.>.;.;.;.;.;.;.;.;.-.:.-.-.;.;.;.<.<.<.<.<.<.<.<.=.4.g.M.M.M.M.M.M.M.n.M.M.M.M.M.n.M.M.V.V.B.B.V.B.B.B.B.B.B.B.B.B.V.B.B.B.B.B.B.B.A.H 1 < h J S f.f.c.g.g.g.g.~.~.g.~.f.S d -.<.>.>.>.>.>.>.>.>.>.:.:.-.-.-.:.:.=.:.=.=.:.=.=.=.=.=.=.:.:.-.>.>.>.,.>.,.,.>.,.,.,.,.,.,.,.t.,.,.,.t.t.t.t.t.t.t.t.,.t.t.t.t.t.<.i = ; : < h v h v v h v j b b b b b b b m j C C C b j C C C B b C j C C C C C x x x k x c c x x c 3.7.0.x.x.w.w.q.w.5.w.x.w.4.4.4.a.x.d.x.z.n , G K.T.&X,XSXJXP.l. X'.].B.N.Z.s.x x h a c S z.c a.z.z.l.S S G m m D G J m C G D v < 0 = = = ; = u <.y.r.r.r.r.r.1.1.i.i.u.i.u.u.6.y.6.6.H.R.T.R.Y.R.R.R.R.gXgXfXZXgXY.Y.Y.i.u.C.i.C.i.W.R.R.E.Y.i.C.i.Y.T.Y.i.i.Y.i.w.i.u.i.i.i.y.r.y.y.y.i.C.u.y.r.r.u.r.t.t.r.r.IXIXIXIXIXIXIXIXIXIXIXIXIXIXIXIXIXIXIXIXIXIXIXIXIXIXIXIXIXIXIXIXIXIX",
"IXIXIXIXIXIXIXIXIXIXIXIXIXIXIXIXIXIXIXIXIXIXIXIXIXIXIXIXIXIXIXIXIXIX7 8 5 5 2 2 % % 2 % # 1 l l j i l i l i i u s s s d s d f :.:.-.:.=.-.-.=.-.=.:.=.=.=.=.=.:.:.:.:.:.-.-.-.-.-.-.-.:.;.-.-.-.-.-.-.-.-.-.-.;.;.;.-.;.<.;.-.-.;.;.;.-.<.-.-.>.-.:.>.:.;.<.<.<.<.<.<.<.>.<.<.<.>.;.=.5.n.M.n.n.n.V.M.M.n.V.M.M.M.M.V.V.V.V.B.B.B.B.B.V.V.B.V.V.V.B.B.B.B.V.V.B.B.B.B. Xz.1 < k S f.f.c.f.g.~.~.j.j.f.c.S c -.<.>.>.>.>.>.>.>.>.:.:.>.-.-.-.=.:.:.=.=.=.=.=.=.=.=.=.=.=.:.:.-.:.>.>.>.,.,.>.,.,.,.,.,.,.,.,.t.t.,.t.t.t.t.t.t.t.t.t.t.,.,.t.t.t.1.f > ; , < < v h v v v v h b b j m m j b b b b C C C m m b j C C C C C G C C C x k C H J.o.J.o.X.X.G b a g z 7.x.x.x.z.4.4.4.4.a.0.4.a.a.l.z.v 9 m :XT.,XZXGXwXl.A.].B.B.A.Z.a.l - l v.+X+X>X>Xz.c l.z.a.H S x k h G J x J m m m 0 < ; = = , ; : l 5.1.y.r.r.r.r.t.y.u.1.6.6.y.i.y.6.i.i.Y.R.R.R.R.R.R.R.H.Y.R.U.H.H.W.C.i.r.i.Y.i.u.i.x.Y.Y.Y.Y.w.6.6.i.Y.Y.i.C.C.i.i.i.i.i.i.i.i.i.y.u.C.Y.Y.i.r.r.r.r.t.p.r.p.u.IXIXIXIXIXIXIXIXIXIXIXIXIXIXIXIXIXIXIXIXIXIXIXIXIXIXIXIXIXIXIXIXIXIX",
"IXIXIXIXIXIXIXIXIXIXIXIXIXIXIXIXIXIXIXIXIXIXIXIXIXIXIXIXIXIXIXIXIXIX8 8 7 2 2 2 % & 2 % = l S S S c c c c k l l j c c i u y y s s f f -.=.=.=.=.:.:.=.=.:.:.=.=.=.:.:.:.-.-.-.-.-.;.-.-.:.-.;.;.;.;.;.>.;.-.;.;.-.-.-.-.-.;.;.>.;.;.;.>.>.;.;.-.:.:.-.-.>.<.<.>.>.<.<.<.>.>.<.<.<.<.;.=.d.M.n.n.M.M.M.n.n.n.M.M.V.M.M.M.V.M.V.V.V.B.B.B.B.B.B.B.B.V.B.B.B.B.B.B.B.B.B.B.Z.a.l l J S f.f.f.g.~.g.h.f.f.c f ;.<.<.>.>.>.>.>.>.>.:.:.:.:.:.:.:.-.:.:.=.=.=.=.=.=.=.=.=.=.:.:.:.:.>.>.>.>.>.>.,.,.,.,.,.,.,.t.,.,.,.,.t.t.t.t.t.,.,.,.t.t.t.,.t.t.t.1.=.u ; ; : 9 : h v v v v h h b j m b b b b v j j j b b m b b m C m C B C C C m v N L.rXvXFXFXFXFXFXmXtX$XL.H j c 0.x.q.4.0.0.a.0.3.0.z.z.4.a.n 8 n K.&XkXnX:Xb.Z.^.N.N.Z.a.c p G J.=X<X1X1XxXCX$XS l.a.a.z.G k h 1 h F F m m N n < ; , = % ; ; : i 2.1.y.r.r.r.t.r.r.u.C.y.u.y.u.6.6.6.Y.H.Y.:X;XR.T.R.:XR.;XR.R.R.R.i.C.i.y.u.i.i.i.6.Y.i.i.T.Y.Y.C.6.6.u.2.i.i.C.i.i.6.i.y.i.u.i.T.u.u.u.u.i.i.i.t.r.r.t.t.t.r.p.IXIXIXIXIXIXIXIXIXIXIXIXIXIXIXIXIXIXIXIXIXIXIXIXIXIXIXIXIXIXIXIXIXIX",
"IXIXIXIXIXIXIXIXIXIXIXIXIXIXIXIXIXIXIXIXIXIXIXIXIXIXIXIXIXIXIXIXIXIX2 8 7 7 2 2 % 2 % % # x a.a.S a.S a.c c c c g a.c.s.a.4.c d s s y s s f =.=.=.:.:.:.=.:.:.:.-.:.:.:.-.-.-.>.-.;.-.;.-.>.;.-.>.;.;.-.-.-.-.;.-.-.;.;.;.;.;.-.>.;.;.-.-.;.;.-.>.;.;.;.<.;.<.>.>.>.<.1.<.<.<.<.<.<.;.;.s.M.M.m.n.M.n.n.M.M.M.V.n.M.V.M.M.V.V.B.B.B.V.B.V.B.B.V.B.B.B.V.B.V.V.B.B.B.B.B.).(.S 1 k J f.f.f.f.f.f.f.f.c f <.<.<.<.<.>.>.>.>.>.-.>.:.:.:.=.:.:.:.=.=.=.=.=.=.=.=.=.=.=.=.:.:.:.:.:.:.,.>.>.>.,.,.,.,.,.,.,.,.,.t.t.t.t.t.t.t.t.t.,.t.t.t.t.t.t.t.t.r.<.a = ; 9 9 p : < < h v v h h v b b b b v b b m v v h j h v h h h h h h h v h D 0XmXFXFXFXFXmXmXFXMXFXGXFXMX0XZ g c 0.4.0.8.l.0.z 3.3.3.z H C 0 h X.R.$XJ.h.b.M.d.s.d.c j G +X>X<X1X1X1X1X1XSXGXJ.x a.l.z.J l m D h n n D m m < = 1 ; ; # = = : c 6.1.1.r.r.y.6.y.u.6.6.w.6.6.w.5.5.4.H.G.H.H.I.U.q.K.R.T.H.Y.Y.x.F.Y.C.w.u.y.6.u.y.i.C.Y.Y.T.K.H.w.y.6.u.i.i.i.i.i.i.i.i.r.t.y.i.Y.u.u.i.W.p.y.r.r.r.r.p.r.t.t.p.IXIXIXIXIXIXIXIXIXIXIXIXIXIXIXIXIXIXIXIXIXIXIXIXIXIXIXIXIXIXIXIXIXIX",
"IXIXIXIXIXIXIXIXIXIXIXIXIXIXIXIXIXIXIXIXIXIXIXIXIXIXIXIXIXIXIXIXIXIX2 2 7 8 2 % % % % % ; S a.4.S a.c c c j c a.S d s.k.N.g.g.d.a.a.c i u u s i d f f =.=.=.-.-.-.-.-.-.-.-.-.:.-.>.:.;.;.;.>.:.:.;.-.-.-.-.-.-.-.-.;.<.-.;.<.<.-.;.;.;.-.-.-.:.:.-.>.;.<.>.>.<.<.<.<.1.>.>.<.<.<.<.;.6.g.M.n.M.M.n.M.n.n.M.M.V.V.M.M.M.V.M.V.V.V.B.B.B.B.V.B.B.B.V.B.V.V.B.B.B.B.B.B.B.B.B.N.c l J f.f.f.f.f.f.S c f ;.>.<.<.1.1.>.<.1.>.>.;.-.:.-.-.:.:.=.:.=.=.=.:.=.-.-.=.:.=.=.:.:.:.:.:.-.>.>.>.,.,.>.,.>.,.,.,.,.,.,.,.t.t.t.t.t.t.t.t.t.t.t.t.t.t.t.t.t.t.1.g > : : < 9 : 9 < < < < v v b h v N M M [ ..O.%.L.&.@. .) *.F *.F [ F D v X.tXmXFXFXNXmXFXmXPXmXMXmXPXLXmXFXsXG.a B V z z 7.z.z c c g V Z G N n G z.S a.f.a.s.a.x j k +X>X1X1X1X=X1X-X=X1XAXJXnXv.S H S J j m n n v N M n h , = < ; ; = # ; = g <.1.t.y.r.y.6.i.6.5.5.a.9.3.x.H.0.a.G.U.G.H G.G.C 0.z.l.0.G.H.0.e.f 3.=.5.6.w.C.C.C.Y.w.Y.C.C.R.w.i.C.i.6.y.Y.i.W.i.u.y.u.i.u.i.i.u.r.i.i.r.t.t.t.p.t.t.t.p.p.p.IXIXIXIXIXIXIXIXIXIXIXIXIXIXIXIXIXIXIXIXIXIXIXIXIXIXIXIXIXIXIXIXIXIX",
"IXIXIXIXIXIXIXIXIXIXIXIXIXIXIXIXIXIXIXIXIXIXIXIXIXIXIXIXIXIXIXIXIXIX2 2 8 8 2 % % % % % = S a.a.a.a.f.f.f.a.i c f.c c g.M.h.g.g.k.s.c c l u i l i i i d d f f =.:.-.-.-.-.-.:.:.-.;.-.;.-.>.;.;.-.-.-.;.-.-.>.-.-.;.-.-.>.;.;.;.;.;.;.-.:.:.:.:.:.>.>.>.<.<.<.<.<.<.<.<.<.>.<.<.<.<.<.d.M.M.M.M.M.m.M.n.n.n.m.V.B.V.V.V.V.M.V.V.B.V.V.B.B.B.B.V.B.B.B.B.B.B.B.B.B.B.B.B.).).^.a.k S c.f.f.S S S x f ;.<.>.>.<.<.<.>.>.>.>.>.>.-.>.-.:.:.=.=.=.=.=.:.:.=.-.-.-.:.=.:.=.=.:.:.>.>.>.>.>.,.,.>.,.>.>.,.,.,.t.,.t.t.t.t.t.t.t.t.t.t.,.t.t.t.t.t.t.t.t.1.f - : : 9 < v : : : < v v v N / &.%.6X8X8X8X8X7XyX8X7X7X8X7X7X8X8X7XyX#Xo.qXtXFXFXFXPXBXPXBXFXPXPXFXFXFXPXPXFXtXX.b x V V z 3.V z x c B V C G G C S S c a.a.a.d k J.>X1X1X1X-X-X-X-X1X1X<XxXZXBXuXC x x k m m n n M n h < < < , ; ; ; = ; = = d 2.6.y.6.5.;.:.;.=.3.=.4.0.d.K.x.Z z.K.K.I.K.&Xb.v.K.I.x.x.K.+Xx.G.x.z g 3.9.w.x.x.Y.C.i.Y.C.C.C.C.Y.Y.C.i.i.C.W.i.u.u.u.u.r.t.u.u.u.p.i.u.r.p.t.t.t.t.p.t.t.t.t.IXIXIXIXIXIXIXIXIXIXIXIXIXIXIXIXIXIXIXIXIXIXIXIXIXIXIXIXIXIXIXIXIXIX",
"IXIXIXIXIXIXIXIXIXIXIXIXIXIXIXIXIXIXIXIXIXIXIXIXIXIXIXIXIXIXIXIXIXIX5 8 8 8 2 % 2 % % t 1 S a.a.a.a.a.c a.h.a.c a.a.c a.M.s.d.g.g.a.c S c S c c d l i d d s d d d -.-.-.-.-.-.>.:.-.;.;.;.>.:.;.;.-.-.>.-.;.:.>.-.;.;.;.;.;.<.-.>.;.-.:.:.=.:.-.-.>.<.<.<.<.>.<.>.>.<.<.>.<.<.1.<.<.6.n.V.M.n.n.n.M.M.M.M.n.M.B.B.B.B.B.V.V.V.B.V.V.V.V.B.B.V.B.B.V.V.B.B.B.V.B.B.B.B.B.).B.].d.l S a.f.f.H S c c ;.<.<.>.<.<.>.>.>.>.>.>.<.>.-.:.-.:.=.=.=.=.:.:.=.:.:.-.-.-.-.:.=.:.:.:.:.>.>.>.,.>.>.>.,.,.>.,.,.>.,.,.,.,.,.t.t.t.t.,.t.,.,.t.,.t.t.t.t.t.t.t.t.-.y : 7 9 < 9 9 : : v n M &.6X6X8X7X7X8X7X7X7X7X7X7X7X7X9X7X9X9X9X7X8X$.rXDXeXyXPXFXFXmXFXPXPXtXPXPXPXPXPXPXDXtX$.b x V Z 7.3.7.V x b B x C Z C x x z.a.4.S p G =X1X1X1X-X-X-X1X1X1X1X1XxXVXZXGXFXC h G J m v < 9 9 < v 9 < 0 h < ; = ; = ; = l 4.5.=.=.3.4.4.4.d.d.Z.A.A..X&Xs.S c.+XK.:X;X:X&X,X*X:Xl.z.b.,X*X,X*XT.Z.K.T.l.H.c 7.0.w.H.H.w.C.C.E.C.i.i.i.i.i.u.u.u.i.i.i.u.t.u.u.r.r.r.r.t.t.p.t.t.t.t.t.p.u.IXIXIXIXIXIXIXIXIXIXIXIXIXIXIXIXIXIXIXIXIXIXIXIXIXIXIXIXIXIXIXIXIXIX",
"IXIXIXIXIXIXIXIXIXIXIXIXIXIXIXIXIXIXIXIXIXIXIXIXIXIXIXIXIXIXIXIXIXIX8 5 2 7 8 2 % % % # 1 a.a.a.S c c c c a.h.a.c a.c c g.s.d.s.g.s.h.h.s.h.b.h.s.c j d c a.c d s s f =.:.-.-.-.-.>.;.;.;.;.-.-.;.-.:.:.;.-.:.-.-.;.-.>.;.;.-.-.-.-.:.-.=.:.:.=.-.-.;.<.>.>.<.>.<.1.>.<.<.<.>.<.>.;.d.M.M.M.M.M.n.M.M.M.M.n.n.V.V.V.B.B.B.B.B.V.B.V.B.V.V.B.B.B.B.B.B.B.B.V.B.B.B.B.B.B.B.B.].N.l J H c.H J S =.;.;.<.1.,.1.<.<.>.>.>.>.>.>.>.>.:.-.:.:.:.:.=.-.:.:.:.:.;.-.-.-.:.:.:.:.:.-.>.>.>.>.,.,.>.>.,.,.,.>.,.,.,.,.,.t.t.t.,.,.t.t.t.t.,.,.t.t.t.t.t.t.t.t.-.s : < < < < v 9 N [ @.6X7X7X7X7X7X7X7X7X7X7X7X7X7X9X7X7X7X7X7X7X7X8XQ.PXFXFXDXtXFXPXPXFXPXPXPXPXPXPXPXPXPXPXPXP.b C V Z z c z V B B k j x C x j k B x j x J.=X1X1X-X-X1X1X1X1X1X1X<XxXZXGXJXJXdXH h k m v ; < < , < 9 < ; ; ; ; = ; , ; ; = p g z x.b.Z.A.A..X.X X.X.X X.X.Xk.b.x.h.K.&Xx.s.b.&X*X=X*XZ.l.b.*X*X.X.X.X*X&X&XK.G.C Z H V c z q.H.w.i.i.C.y.p.u.u.i.i.Y.i.i.u.r.i.r.i.u.r.u.p.t.t.t.t.p.t.t.u.t.IXIXIXIXIXIXIXIXIXIXIXIXIXIXIXIXIXIXIXIXIXIXIXIXIXIXIXIXIXIXIXIXIXIX",
"IXIXIXIXIXIXIXIXIXIXIXIXIXIXIXIXIXIXIXIXIXIXIXIXIXIXIXIXIXIXIXIXIXIX5 8 8 8 7 % % t % # u a.a.a.a.s.a.a.4.a.g.s.c s.a.d a.d.g.d.g.a.a.a.a.a.c a.h.h.a.a.a.c b.b.l.3.g s s =.-.-.;.;.;.-.;.;.:.>.-.;.;.;.;.>.;.;.;.;.;.>.-.;.;.>.;.;.-.-.=.:.:.:.-.;.;.>.>.>.<.<.>.<.<.>.>.>.<.<.;.6.n.M.M.n.V.M.n.n.M.n.n.n.n.n.V.V.V.V.B.B.V.B.V.B.B.V.B.B.B.B.B.B.V.B.B.V.B.V.B.B.).B.B.B.].k.- k H v.S S 3.-.;.<.<.>.1.1.>.>.>.;.>.>.>.>.>.>.>.-.:.:.-.=.=.-.:.:.-.-.>.-.-.-.:.=.:.-.:.>.>.>.,.>.>.,.,.>.,.>.>.,.,.,.,.,.,.,.,.t.t.t.t.t.t.t.,.,.t.t.t.t.t.t.t.t.>.s * 9 9 : 5 M  .&.8X8X7X7X7X7X7X7X7X7X7X7X7X9X7X7X9X7X7X9X7X7X7X7XQ.0XFXFXFXFXmXPXyXmXFXPXFXPXPXDXtXDXPXDXDXFX@Xb j V 7.c c 3.V B j B j j b j j b B j G I.>X1X1X-X=X-X1X1X1X-X1X<XCXGXHXHXNXqXX.h p : < ; ; ; ; ; ; ; = ; = , % ; < 9 , = = - g 4.x.b.d.Z..X.X].].].].]..XZ.d.b.&X*X*X*X&X&X&XK.!.b..X*X*Xh.A..X.X.X.X-X,X,X&Xl.K.K.z.C j B a z z w.C.i.i.u.y.i.u.i.W.i.i.i.i.i.u.p.W.t.p.t.p.t.t.t.p.t.p.t.t.IXIXIXIXIXIXIXIXIXIXIXIXIXIXIXIXIXIXIXIXIXIXIXIXIXIXIXIXIXIXIXIXIXIX",
"IXIXIXIXIXIXIXIXIXIXIXIXIXIXIXIXIXIXIXIXIXIXIXIXIXIXIXIXIXIXIXIXIXIX5 2 8 8 2 % % % % # l a.a.s.s.a.a.a.a.a.s.g.S c f.c c s.s.s.4.c c d d c c c c s.g.j.g.c 4.b.Z.k.c.a.f d d f =.;.;.>.>.;.-.;.:.>.;.;.-.:.;.-.-.>.;.;.;.;.;.;.-.>.-.-.:.=.:.:.-.;.>.>.>.>.>.>.>.>.>.<.>.>.<.<.;.d.M.M.M.n.M.M.M.M.M.n.n.n.M.V.B.B.B.V.V.B.B.B.B.B.V.V.V.B.V.B.V.B.B.B.B.B.B.B.B.B.B.).B.B.].h.1 m J J S c -.-.>.1.<.<.<.>.>.;.-.>.>.>.>.>.>.>.>.>.:.-.=.:.:.:.:.:.-.>.>.-.;.-.:.:.:.:.:.:.>.>.>.,.,.>.>.>.,.,.,.,.,.,.,.,.,.t.t.,.t.t.t.t.t.t.t.,.,.t.t.t.t.t.t.t.1.d * < ; 9 &.6X8XyX7X7X7X8X8X7X7X7X7X7X7X7X7X7X9X7X7X7X9X5X7X7X7X7XQ.PXLXFXFXPXBXPXPXtXPXPXFXPXPXtXtXDXDXDXPXPX0Xv b V Z 3.g z C j j a b a a b B a a H K.=X=X=X=X-X1X1X1X1X-X=X>XhXGXJXFXwX..< = : ; : ; ; ; ; ; : ; = ; = ; ; ; ; ; , ; = = h l.*X*X.XZ.Z.x.N.].).).].].Z.a.4.Z.*X|.&Xb.b.|.*X*X&Xl.s.|.-X&Xk. X X-XaX&X+Xb.b.|.*X&X&X&Xv.H C Z g 0.w.5.i.i.i.i.i.u.i.C.W.i.i.u.p.u.u.p.t.p.t.t.t.t.p.t.t.t.r.IXIXIXIXIXIXIXIXIXIXIXIXIXIXIXIXIXIXIXIXIXIXIXIXIXIXIXIXIXIXIXIXIXIX",
"IXIXIXIXIXIXIXIXIXIXIXIXIXIXIXIXIXIXIXIXIXIXIXIXIXIXIXIXIXIXIXIXIXIX7 5 8 8 2 % % % # = c a.a.d.a.a.c 4.a.4.s.g.a.c f.a.d s.s.c c a.c c c c c a.a.4.a.M.M.s.c s.g.g.k.M.k.x.4.j d d =.-.-.;.;.;.-.>.-.-.-.;.;.-.;.-.;.;.;.-.-.-.;.;.;.-.-.:.=.:.-.;.>.>.<.>.>.>.>.>.>.>.>.>.<.<.6.M.M.n.n.M.n.n.n.n.V.n.n.V.B.V.B.V.V.M.V.V.B.B.B.V.V.V.B.B.B.V.B.B.V.B.B.V.B.B.B.B.B.B.B.).B.0.- k m k c =.-.>.<.<.1.>.>.<.-.>.<.>.>.>.>.>.>.>.>.-.-.:.-.=.:.:.:.:.:.:.>.<.-.-.:.:.:.:.:.:.>.>.>.,.,.>.>.>.,.,.,.,.,.,.,.t.t.,.t.,.t.t.,.t.,.t.t.t.,.,.t.t.t.t.r.,.1.d * , [ %.0X8X7X7X8X7X7X8X6X7X7X7X7X7X7X7X7X7X7X7X7X7X7X9X7X7X7X8X%.FXPXFXmXmXFXmXcXPXtXtXPXFXPXtXyXyXDXDXPXPX0Xv j Z 7.3.z x B b b b v b B B a j z.&X&X=X=X-X1X1X1X1X-X=X=XhXNXFXHXcX$.0 : ; : : ; , ; ; ; ; = ; ; = = = = % % = = = % ; = : h.Z.d.k.Z..X XA.N.Z..X X'.N.l.Z.*Xc.a.l.v.a.b.Z..X,X*Xb.&X,X*Xd.d..X,XK.l.Z.|.*X*X*XZ.&X,X>X&Xz.G.I.H.x.q.3.8.w.i.Y.i.u.p.r.u.u.u.t.r.u.p.t.t.p.t.t.t.t.t.p.t.t.IXIXIXIXIXIXIXIXIXIXIXIXIXIXIXIXIXIXIXIXIXIXIXIXIXIXIXIXIXIXIXIXIXIX",
"IXIXIXIXIXIXIXIXIXIXIXIXIXIXIXIXIXIXIXIXIXIXIXIXIXIXIXIXIXIXIXIXIXIX7 8 2 2 2 % % t # = S a.a.a.a.h.a.c c c s.s.a.f f.a.i a.S d a.S c a.h.f.a.c c.s.=.a.M.g.4.d.g.g.M.N.k.f.a.a.g i s d f -.;.-.-.-.-.-.-.;.-.>.-.;.>.-.;.>.;.<.;.;.;.>.-.:.=.:.:.-.:.-.<.<.>.>.>.>.>.>.>.>.<.-.n.M.M.M.n.n.M.M.M.n.M.M.n.M.V.n.V.V.V.V.n.V.V.V.B.V.V.B.V.B.B.V.B.V.B.B.B.V.B.B.B.B.).B.B.B.N.l = n n l c =.<.<.<.1.1.>.<.>.-.-.-.;.>.>.>.>.>.-.:.:.-.:.-.:.=.-.:.:.-.:.;.-.-.-.-.-.:.:.:.:.>.>.>.,.>.>.,.,.,.,.t.t.,.t.,.,.t.t.,.,.t.t.t.t.t.t.t.t.,.t.t.t.t.t.r.>.:.s 9 %.0X8X8X7X7X8X7X7X7X7X7X7X7X7X7X7X7X7X7X7X7X7X7X7X7X7X7X7X7XQ.0XFXFXPXPXFXFXBXMXmXPXPXPXPXFXPX7XDXDXDXDXPXtXv h C 0.Z 7.C c b a p a B b p j G.:X&X*X=X,X1X-X1X=X=X-X<XAXZXVXmX#XF ; < < < : < < ; , ; ; : : 9 v 9 h = = = = = = ; = = # - Z c d c s.|..X]..Xx.Z.*X.Xa.b.*Xl.a.K.&XaX:X+X&X!.&X,X&XK.*X-Xx.a..Xb.b.&XXX.X|.Z.c.c.x.x.b.:X&Xv.b.&XK.J.K.l.f f e.5.u.u.r.t.p.t.p.t.t.t.p.t.t.t.t.t.t.t.r.t.t.IXIXIXIXIXIXIXIXIXIXIXIXIXIXIXIXIXIXIXIXIXIXIXIXIXIXIXIXIXIXIXIXIXIX",
"IXIXIXIXIXIXIXIXIXIXIXIXIXIXIXIXIXIXIXIXIXIXIXIXIXIXIXIXIXIXIXIXIXIX8 8 7 5 % % % % % = S s.a.a.a.s.4.c c 4.h.s.a.d a.a.d a.c a.f.d a.f.s.s.s.c a.g.a.4.g.g.4.a.M.M.M.s.4.c c c c x i y s d =.=.=.:.:.:.-.-.-.-.:.:.;.;.;.;.;.-.-.>.-.>.-.-.-.:.;.-.-.>.-.<.<.>.>.>.>.>.>.<.;.6.M.M.M.M.n.M.V.M.M.n.n.M.V.n.m.V.V.n.n.n.n.B.V.n.V.B.B.B.B.V.V.B.V.B.B.V.B.V.B.B.B.B.B.B.).).h.- < n h l c -.<.1.1.<.>.<.>.<.;.<.;.;.<.>.-.>.;.-.-.-.=.-.-.=.=.-.=.-.:.-.-.>.-.-.-.-.-.>.>.>.>.>.>.>.,.,.,.>.>.,.,.t.t.t.t.,.,.,.,.,.,.t.,.,.t.t.,.t.,.,.t.t.t.t.>.=.d N #X0X8XQ.8X8X8X7X7X7X7X7X7X7X7X7X7X7X8X7X7X7X8X8X7X7X7X7X7X7XyX%.yXFXFXFXPXPXFXBXNXmXvXPXyXPXPXPXyX7XyXDXDXDXDX/ p C 0.3.C V B j j p B B p h G.K.&XT.&X=X&X*X-X=X=X=XxXSXVXrX#X| , : : < , < < < ; , ; ; , < v v h v h < < - ; > = ; = # @ > j h.&XA.x.a.Z..X.X.Xx.A.Z.a.K.|.K.K.&X&X$X|.*X*Xb.Z..X Xa.Z..X=Xa.Z.c.b..X-X&Xh.c.|.&X&X&Xs.l.=XT.c.&X:Xl.&X&XK.0.c s =.5.6.u.p.r.p.r.t.t.p.t.t.t.t.t.t.t.t.t.t.IXIXIXIXIXIXIXIXIXIXIXIXIXIXIXIXIXIXIXIXIXIXIXIXIXIXIXIXIXIXIXIXIXIX",
"IXIXIXIXIXIXIXIXIXIXIXIXIXIXIXIXIXIXIXIXIXIXIXIXIXIXIXIXIXIXIXIXIXIX8 8 8 8 2 % % % % l a.s.a.a.a.a.a.c S s.s.a.l c s.a.i S c a.a.l a.c d c f.a.4.g.s.c f.g.a.4.n.M.g.c c a.a.a.c a.S c d s s f =.:.=.:.-.-.-.-.-.>.;.;.>.;.;.>.;.;.;.;.;.-.-.:.-.-.-.;.-.-.:.>.<.>.>.>.<.<.<.n.M.M.n.M.M.M.n.M.M.n.n.n.n.V.n.V.n.V.n.M.n.V.V.V.n.B.B.B.V.B.B.B.B.B.B.B.B.B.V.B.B.B.B.B.B.B.a.= 9 n h a f =.-.<.>.<.>.<.<.;.<.;.<.<.<.<.>.>.>.;.-.-.-.-.=.=.=.=.=.=.-.-.-.-.-.-.:.:.>.>.>.>.>.,.>.,.>.,.>.,.,.,.,.,.t.,.t.,.t.,.t.t.t.t.,.,.,.,.t.,.t.t.t.t.>.>.f i ..@X0X0X8X8X8X7X7X7X7X7X7X7X7X7X7X8X8X8X7X7X7X7X7X8X7X8X7XyXDXyX%.| tXFXPXPXPXDXPXLXBXmXmXPX#XPXFXPXyX7X7XDXDXDXPXO.h B Z z x C j j b a A p h z.K.b.Z.T.T.K.K.&X=X=X=X>XAXbXL.F < ; , < ; , < ; ; : ; : , ; : b j k k h h m h p : - = = = # @ = b.*X XXX.Xb.Z..X`.}. Xb.a.s.|.l.c.c.c.c.s.s.h..Xb.b.XX*X4.b.XX*XZ l.a..X.X.X4.c..X*X*X&X,X&Xc Z.*Xv.!.*Xb.b..X*XT.K.z.z d 3.6.i.r.u.r.t.r.t.t.t.t.t.t.p.t.t.t.t.IXIXIXIXIXIXIXIXIXIXIXIXIXIXIXIXIXIXIXIXIXIXIXIXIXIXIXIXIXIXIXIXIXIX",
"IXIXIXIXIXIXIXIXIXIXIXIXIXIXIXIXIXIXIXIXIXIXIXIXIXIXIXIXIXIXIXIXIXIX8 8 8 2 % % % % # l a.a.a.a.a.s.4.a.a.s.a.c c a.d.c i S c a.a.u l c S c a.a.a.g.a.c s.g.a.a.g.s.c c f.j.a.a.a.c S 3.S c i i s =.=.:.-.-.-.-.;.;.:.-.-.;.;.;.;.;.;.;.<.;.-.-.-.-.-.;.-.-.-.;.>.;.<.<.;.;.n.n.M.M.n.n.M.M.n.M.n.n.n.n.M.m.M.M.n.n.M.V.n.n.V.B.V.B.m.V.V.B.B.B.V.B.V.V.V.B.B.B.B.).B.B.B.).c , 0 0 < j 4.=.=.<.<.>.>.<.<.;.<.<.<.<.<.>.-.>.<.-.-.-.=.=.=.=.=.=.=.=.=.=.-.=.-.-.-.:.>.>.>.>.>.,.,.>.>.>.,.,.,.,.,.,.t.t.,.t.t.,.,.,.t.t.t.t.,.t.,.t.t.t.t.,.>.f a { @X0X0X8XQ.8X7X7X7X7X7X7X8X7X8X8X7X7X7X7X8X7X7X7X7XyXyX0XyXtX0X} % ] FXFXFXPXPXDXPXPXmXmXmXtX$.PXPXtX7X7X7XyXDXyXyXo.p B C x C b j b A A v p z.H.T.T.T.T.T.b.K.K.+X=X=X<XxX@XD 9 < 1 : ; ; ; ; ; < = = 9 < = h j j k k k k j j j l : - = # = = = S s.s.Z.|..Xb.x.'. X.Xl.c b.&X3.z.s.b.|.*Xb.a.Z.a.s..X|.c d.XX*Xa.S h.-X-Xb.4.Z.XX.Xh.S a.!.l.b.-Xb.a.&X|.s.Z.s.s.h.b.T.x.B 7.4.5.u.p.r.r.t.p.t.t.t.t.p.p.t.t.t.IXIXIXIXIXIXIXIXIXIXIXIXIXIXIXIXIXIXIXIXIXIXIXIXIXIXIXIXIXIXIXIXIXIX",
"IXIXIXIXIXIXIXIXIXIXIXIXIXIXIXIXIXIXIXIXIXIXIXIXIXIXIXIXIXIXIXIXIXIX8 8 5 % % t % % ; k a.a.a.a.a.a.a.a.a.4.c c a.g.a.d c a.c a.a.l x s.h.S d c 4.g.a.c g.g.4.c g.4.c h.s.4.c a.a.h.b.a.a.c c c z s d =.=.-.:.-.:.>.>.;.;.;.;.;.-.<.;.-.<.-.;.-.-.-.-.-.:.:.-.-.;.-.<.<.-.6.n.M.M.n.M.n.M.M.n.n.n.n.n.n.M.n.M.V.M.V.V.B.V.n.n.M.V.V.M.m.V.B.B.B.B.B.B.B.B.B.V.B.B.B.B.B.B.A.l , 0 0 < l f =.;.;.;.<.<.<.;.;.<.<.<.<.<.<.<.>.;.;.-.=.=.=.=.=.=.=.=.=.=.f f f =.=.-.-.:.>.>.>.>.>.,.>.>.>.>.,.,.,.,.,.,.t.t.t.,.,.,.t.t.t.t.t.t.t.,.t.t.t.,.-.s j X.#X#X0XQ.8X8X7X7X7X8X7X8X8X8X7X8X7X7X7X8X7X8X8X8X8XyXyXrX0XqX&.6 2 & ) FXPXLXPXPXDXDXPXFXmXtXrXO.tXtXDXyX7X7X7XyXyXyX%.h B C C x B C j b a : Z K.T.Z.T.T.Y.T.T.K.K.b.&X=X>XxX%XD n 9 , : ; = : ; : , ; ; : ; h m j j k j j j j j k k k l 1 = = ; - z.&Xb.x.d..XT.a..X`.'.b.k b.|.x c b..X.X.X&Xa.c.l.Z..X|.c b..X.Xa.v.Z..X.Xd.a..XXX^.4.S c l.a.s.-XT.4.|.&Xx.Z.&Xc.x.4.c.K.H H z.g =.2.i.u.r.t.t.t.t.t.t.t.t.t.t.IXIXIXIXIXIXIXIXIXIXIXIXIXIXIXIXIXIXIXIXIXIXIXIXIXIXIXIXIXIXIXIXIXIX",
"IXIXIXIXIXIXIXIXIXIXIXIXIXIXIXIXIXIXIXIXIXIXIXIXIXIXIXIXIXIXIXIXIXIXq q 2 % 2 2 % % = S a.a.a.a.a.a.a.a.c a.a.s.s.g.c c a.s.c S a.l c g.g.c i l S g.a.c f.s.c a.a.c f.a.c a.g.k.k.b.Z.N.N.f.4.S a.a.i s f :.-.-.:.-.>.-.;.;.-.-.;.>.-.;.;.;.;.-.-.-.-.-.-.=.-.-.-.;.<.<.4.d.M.M.M.n.n.n.n.M.n.n.n.M.n.n.M.n.M.n.n.V.M.M.V.n.n.n.n.n.n.V.B.B.V.B.V.B.V.B.B.B.B.B.B.B.B.).].h.- 8 e e 9 p d f =.=.-.-.;.;.-.;.;.<.<.<.<.<.<.<.;.-.-.=.=.=.=.=.=.=.=.f f f f f =.=.:.:.:.>.>.>.>.>.1.>.>.,.>.>.>.,.,.,.,.t.,.t.t.,.t.t.t.t.t.t.t.t.t.t.,.>.-.s h Q.@X#X#XQ.8X8X7X7X7X7X7X6X8X8X7X7X7X7X7X7X7X7X8X8X0XrXrXqXqX0X] 4 4 4 4 ) FXFXPXPXPXDXDXPXPXmXmX0XH sXyXyXyX8X7X7X7X7X0X&.A A B j j b b b a - b G.R.E.Y.T.T.C.T.T.T.b.K.K.&X=X>XiXD n 9 < = ; = ; ; : ; ; ; : n k k k k k j j j j k k k m k k h h = - S c.|.,Xl.b.*Xa.N.].`.b.c |.b.c c a.|.|.&X|.l.b.b..X.Xw.a. X XZ.l.v.K..X.Xa.a. X].Z.c c.b.S C h.XXT.c Z.*Xc.l.b.Z.Z.j.x.a.S G z.Z c g f e.i.p.t.t.t.t.t.p.t.p.t.IXIXIXIXIXIXIXIXIXIXIXIXIXIXIXIXIXIXIXIXIXIXIXIXIXIXIXIXIXIXIXIXIXIX",
"IXIXIXIXIXIXIXIXIXIXIXIXIXIXIXIXIXIXIXIXIXIXIXIXIXIXIXIXIXIXIXIXIXIX8 t 2 % 2 % % % 1 S s.a.a.a.s.a.a.s.s.d.s.s.s.a.c a.s.s.a.c S l l c a.c l c s.s.S 4.g.a.d a.4.a.l.c h.g.g.d.4.4.4.s.s.Z.a.c c x.x.z s f =.-.:.:.-.-.-.>.;.>.;.;.;.;.;.;.;.;.-.;.-.;.-.-.:.=.-.<.<.<.d.M.V.M.n.n.M.M.n.m.V.n.M.V.M.M.M.M.n.n.n.n.B.n.n.M.n.n.n.n.n.m.B.B.B.B.B.B.B.B.B.V.B.B.B.).B.).].3.> 8 e e 0 p i f f =.=.-.-.-.-.-.;.;.<.<.<.<.;.;.;.-.=.=.=.=.=.=.f =.=.f f =.f f f =.=.:.:.:.>.>.>.>.1.<.>.>.>.>.>.,.,.,.,.t.,.,.,.,.t.t.,.,.t.,.t.t.t.,.,.=.i F #X@X#X#X#X8X0X8X8X8X6X8X8X7X7X7X7X7X7X7X8X8X8X8X8XqXqX$X@X@XL.Y 4 4 K K 4 U PXPXFXPXPXDXyXPXFXFXmXrX{ qXqXrXyXyX7X7X7X7XyX&.v b B b j a b b : j z.T.E.E.E.T.&XK.G.G.K.K.b.K.+X&X1X<X%XJ < 1 : : < ; ; ; ; : : h k j x k m k k k j k k j j k m k m v : 1 l z a.&X|.a..Xx.|.].].l.3.*Xb.Z c.b.s.c.h.b.h.b.*X*Xb.c j..X.XZ.c.b.b..X.Xa.4..X].Z.a.l.K.l.l.|.-XT.v.|.-Xc.4.s..X.XXX.X*Xb.a.c S l.l.d s f r.t.p.r.t.t.t.t.t.p.IXIXIXIXIXIXIXIXIXIXIXIXIXIXIXIXIXIXIXIXIXIXIXIXIXIXIXIXIXIXIXIXIXIX",
"IXIXIXIXIXIXIXIXIXIXIXIXIXIXIXIXIXIXIXIXIXIXIXIXIXIXIXIXIXIXIXIXIXIXq 7 2 % 2 % % % = S a.a.a.a.a.a.s.a.s.s.s.s.a.c c a.s.s.s.d c l l d i c a.f.h.c c s.g.c c a.c f.4.f.g.h.4.s.a.s.s.s.3.h.Z.4.c a.Z.k.a.d d =.-.>.;.;.;.;.;.;.;.;.;.>.-.;.<.;.;.;.-.;.-.-.-.-.-.<.-.4.d.M.M.n.M.n.n.n.n.n.n.n.M.V.V.n.n.n.n.n.n.n.n.n.n.n.M.B.V.n.n.M.V.V.V.B.B.B.B.V.B.B.B.B.B.).B.).N.c > q r Y r : i d f =.=.=.-.-.-.-.;.;.<.<.<.-.;.=.=.=.=.f f =.=.=.f f f f f =.f f f f f :.-.>.>.>.>.>.>.<.>.>.,.>.,.,.,.,.,.,.,.,.,.,.,.,.,.,.t.t.t.,.t.,.-.s D @X@XQ.#X#X0X0X0X0X0X8X8X8X7X7X7X7X7X7X7X8X8X8X0XyXqXqX%X@X@XQ.I 4 K K K K 4 P PXFXFXPXPXDXDXPXFXPXPXPXeXqX0XyXyXyX8X8X7X7X7X+.v p b a j p j p b H K.E.E.E.R.K.( N n m G l.K.K.K.&X=X<X>Xz.< , ; < < < ; : 1 h j C j k k j k k k k j k k k j k k k k m : - x &Xc.l.|.4..XZ.^.]..Xd.a.*X|.4.x.&X*X|.!.=X&X.X|.b.a.s.|. X*Xa.s.b.4.|..Xs.c Z..X.Xb.a.a.a.b.*X=Xh.b..X*X4.a..X.X X.X|..X.X|.x.S a.c.a.x z e.=.1.y.p.r.t.t.t.t.IXIXIXIXIXIXIXIXIXIXIXIXIXIXIXIXIXIXIXIXIXIXIXIXIXIXIXIXIXIXIXIXIXIX",
"IXIXIXIXIXIXIXIXIXIXIXIXIXIXIXIXIXIXIXIXIXIXIXIXIXIXIXIXIXIXIXIXIXIX8 5 2 % 2 % % @ 1 S a.a.f.a.a.a.a.a.c a.c c c c a.s.s.s.s.a.d S S l c S a.a.S d c g.a.f f.a.c s.c k.g.4.a.s.a.c a.c.l.4.Z.d.c a.N.N.M.s.f s f -.-.;.-.:.>.;.>.;.-.;.>.;.-.;.;.;.-.;.-.-.-.-.;.;.=.d.M.n.n.n.M.n.n.n.n.n.n.n.n.M.n.n.n.n.N.n.n.M.n.M.M.n.B.B.V.M.B.B.V.V.B.B.B.V.B.B.V.B.V.B.B.B.B.).].x + r w Y Y : i d f =.=.=.-.=.-.4.;.=.;.;.-.-.=.=.=.=.=.f f f =.=.f f f f =.=.=.f d f f =.-.-.-.>.>.>.>.1.<.>.>.1.>.>.,.,.,.,.,.,.,.t.,.t.t.t.t.,.t.,.1.;.a X.@X#X#X#X@X#X#X@X@X@X@X8X0X0X0X8X7X8X8X7X8XyXqXqXrX@X%X@X#X$.) 6 4 K K K K K K L yXPXPXPXtXDXDXDXPXPXPXPXPXtXtXyX0X0X8X8X8X7X7X .p p p b h p * l Z x.E.E.E.T.H M r 8 0 M N H z.K.K.&X=X-X>X#X1 = 1 < h : h j k b k j j m C m k j k k k b m k j k k k k m ; - b.XXZ.a.z.a.|.N.].`.^.a.a. XXXk.a.b.T.Z.b.&Xl.4.a.S c..X-X.Xs.a.Z.|.4.b..X.Xa.a.*X*X*X&X!.Z.*X=Xx.c j..X|.z s..X|.k.4.s.d.x.&X-XZ.3.c.b.a.a.x.x.4.;.r.r.t.t.t.t.IXIXIXIXIXIXIXIXIXIXIXIXIXIXIXIXIXIXIXIXIXIXIXIXIXIXIXIXIXIXIXIXIXIX",
"IXIXIXIXIXIXIXIXIXIXIXIXIXIXIXIXIXIXIXIXIXIXIXIXIXIXIXIXIXIXIXIXIXIX8 5 % % 2 % % % , l l c a.c l c c d c i c d d c S a.a.a.a.a.S c f.a.c c l c x 4.h.g.c c h.S a.s.S g.s.c h.a.c a.a.c s.a.s.b.c 3.n.M.M.M.g.4.d d =.-.-.;.<.-.-.;.;.<.-.>.-.;.;.;.;.-.-.-.-.=.=.=.4.g.n.n.n.n.n.M.M.n.n.n.n.n.n.d.d.n.g.n.g.M.d.M.n.d.k.M.M.N.N.V.N.B.B.N.N.B.B.V.B.B.B.B.B.B.B.B.).).].c = r e U U 9 u f f =.=.=.=.=.=.=.;.;.;.=.=.=.=.=.=.=.f f f f f f f f f f -.-.=.f f f =.=.-.>.<.-.>.>.>.>.>.>.>.<.,.,.,.,.,.,.t.,.t.t.,.t.t.t.t.t.,.>.=.B O.#X#X#X#X#X@X#X#X#X#X#X#X@X0X0X0X0XyXyX@XyX0X0X0X@X#X#X#X$.] 6 4 4 K K K K K K K K 6XtXPXPXDXDXDXDXDXPXPXPXPXPXPXPXtXyX0X5X5X7X7X&.h a p p p : : G.H.E.E.E.T.H 9 8 8 9 0 0 M M D G.K.&X=X-X<X%Xh = v n h h C C x j j j k C J.k k k k k j x k m k k k k k m - - z.|.|.b.a.b.Z.N.`. XZ.s.s.x..X.X|.Z.l.a.4.b.s.c s.j.|..X*Xb.c b..X.Xb.x.*X*XZ.c.l.b.*X,X.XA.&Xl.c d..XXXs.c Z..Xa.4.b.|.Z.A.x.Z.*Xb.a.b.c.4.b.*XZ.7.;.1.r.t.t.t.IXIXIXIXIXIXIXIXIXIXIXIXIXIXIXIXIXIXIXIXIXIXIXIXIXIXIXIXIXIXIXIXIXIX",
"IXIXIXIXIXIXIXIXIXIXIXIXIXIXIXIXIXIXIXIXIXIXIXIXIXIXIXIXIXIXIXIXIXIXq 2 2 2 2 % % % : - - u y s s i u i y i u u i u y u i c c c S j c S a.f.a.f.f.k.a.c d a.s.4.a.s.a.g.a.4.b.a.4.S a.a.a.a.g.k.4.c g.V.V.M.M.M.s.3.d =.-.;.;.;.;.;.;.;.;.;.;.;.-.<.-.-.-.-.-.-.f f d.M.n.M.n.n.n.n.n.M.g.d.d.d.a.a.4.S c l c i d l l i c c c a.l.a.s.d.Z.N.N.B.B.B.B.V.B.B.V.B.B.B.B._. Xj ; w U U U r u c f f =.=.=.=.=.=.=.;.-.4.;.=.=.=.=.f f f f f f f f f f =.=.=.-.=.f f f :.:.>.>.>.>.>.-.>.>.>.>.1.,.>.,.,.,.,.,.,.,.t.,.,.t.t.t.,.>.:.x o.#X#X#X#X#X#X@X#X#X#X@X@X#X#X#X#X@X#X@X%X%X%X#X#X@X#XL.&./ 6 4 4 K K K K K K K K K K +.yXtXDXDXDXDXDXDXPXPXDXPXPXPXPXPXPXrX8X5X6X7X#.: h p - - > C ;X&XE.E.E.C : = % $ = , 9 e e M G K.&X=X=X=X:XH < m h m C C x k j j j k m C k j k k k k k k k k k k k k n - x c.z.a.x.Z.b.^.].'..Xa.Z.|.a.s..X.X.X.XZ.j.j.|.=X*X*X.X|.s.c b..X.X.X|.s.b..X.X|.h.s.a.4.a.a.a.s.Z..X.XZ.c b.*Xb.c b.*X-X-XXX|.d.Z.*Xa.z.b.s.d..X.XZ.b.w.;.y.p.t.IXIXIXIXIXIXIXIXIXIXIXIXIXIXIXIXIXIXIXIXIXIXIXIXIXIXIXIXIXIXIXIXIXIX",
"IXIXIXIXIXIXIXIXIXIXIXIXIXIXIXIXIXIXIXIXIXIXIXIXIXIXIXIXIXIXIXIXIXIXq 2 % 2 2 % % ; : u u i i d d i i d i d d d d d d s s i i y y u y u l x S S a.c f c a.g.h.S f.h.4.g.s.c b.c a.S c 4.a.4.M.k.S 4.g.M.N.B.).N.N.b.4.d f :.-.-.;.-.;.-.;.;.;.>.;.;.-.-.-.-.-.f i d s.M.n.g.d.n.M.d.s.a.a.c i u * * - > * > > > $ > > > > > > > * > * * u c S k.N.N.^.B.B.B.B.B.B.).).)..Xc ; r w U U e - d f f =.=.=.=.=.=.;.4.;.=.=.=.=.=.=.=.f f f f f f f f =.=.=.-.-.-.=.f f =.-.>.>.>.>.>.>.>.>.>.>.1.1.,.,.,.>.,.,.,.,.,.t.,.t.t.,.,.-.s O.@X@X@X@X#X@X@X#X#X#X@X#X#X#X#X#X#X#X@X#X#X#X#XQ.Q.%.] 3 4 K K 4 K K K K K K K K K K 4 r yXyXyX7X9XDXDXDXDXDXDXDXDXPXyXPXPXtX7X8X5X7X%.: p p : : = m J.;XE.:Xz.* > = < ; = , , 9 w e e H %X:X+X!.J.H h h C Z x k k j j j k k k j k j j k x k k k k j k k k k h - S -XZ.b.x.k.N.].]. Xs.d. X.XA.a.a.k.|..X.XXX*X*X-X.Xb.f.c a.k..X.X X.X.XZ.k.Z..X.X.X^.Z.b.b.|.A.*X*X*XZ.a.a.*X.Xa.c &XZ.x.|.*X*XZ.a.*Xx.c !.b.h..X.X.X|.h.0.=.2.p.IXIXIXIXIXIXIXIXIXIXIXIXIXIXIXIXIXIXIXIXIXIXIXIXIXIXIXIXIXIXIXIXIXIX",
"IXIXIXIXIXIXIXIXIXIXIXIXIXIXIXIXIXIXIXIXIXIXIXIXIXIXIXIXIXIXIXIXIXIXq 5 2 % 2 2 % ; u u i i d d d f f d f f f f f f f =.f f f f d d i y y y i i l c S a.s.g.s.4.s.h.a.s.s.c f.4.4.b.b.h.4.a.N.f.c a.M.M.N.N.^.N.d.a.l.z s f -.-.>.:.;.>.;.;.;.-.-.-.-.-.-.-.=.d - l a.n.g.d.s.a.S c i - * > $ > $ $ O $ $ $ O > : = ; = $ O $ $ O O O O > O > - i d a.k.N.].).B.B.B.B.).^.c ; r w U U e 1 i f f =.=.f =.=.=.=.-.;.;.=.=.=.=.f f f f f f f d d f f =.-.-.-.-.=.=.:.=.-.>.>.>.>.>.>.>.>.>.>.>.1.1.1.<.>.,.,.,.t.,.,.t.t.,.1.<.s v Q.@X#X#X#X@X#X#XQ.%X#X@X@X#X#X#X#X#X#X#X#X$.%. .) w 2 4 4 K K K K K K K K K K K K K K K 4 %.yX8X7XDXDXDXDXDXDXDXDXDXyXyXDXPXDX7X7X6X8X&.: - p h - ; 9 p G.:XK.p = = : : - - - : = , e 0 H +Xv.z.z.H k j G C x j k k j j j j k j j k j j k k m j j k k k k k k k , J h.k.s.h.^..X X Xx.x.*XXX'..X.Xx.4.s.s.d.c.h.4.c a.c.z.l.b.*X.X.XXX.X.X.XZ.a.Z..X.X.X.X.X.X.X|.Z.b.a.a.s.f..X.Xa.S a.b.S a.Z.*X|.4.Z.b.a.b.x.a.Z.s.d.s.4.d.x.3.r.IXIXIXIXIXIXIXIXIXIXIXIXIXIXIXIXIXIXIXIXIXIXIXIXIXIXIXIXIXIXIXIXIXIX",
"IXIXIXIXIXIXIXIXIXIXIXIXIXIXIXIXIXIXIXIXIXIXIXIXIXIXIXIXIXIXIXIXIXIX8 2 2 t & % 5 ; p i i d d d f f f f f f =.=.=.=.=.=.=.=.=.=.=.f =.f d d s s i l c a.s.s.a.S 4.h.a.a.g.S a.a.c a.a.c a.N.k.4.a.a.k.M.M.n.4.a.x.s.a.d.4.d d =.-.:.;.;.;.-.;.;.;.-.-.-.-.=.f p = 1 c c.a.S c u - > > O $ = , 0 F F F { O.o.o.#X#X@X%X#XQ.#X#X#Xo...D n 9 # $ O $ $ > - a a.b.A.B.).B.B.].S ; q U U U Y 7 u f f =.=.f =.=.=.=.;.;.=.=.=.=.=.=.=.=.f f f d d d d =.=.;.<.;.-.-.:.:.-.-.>.>.>.>.>.>.>.>.>.>.>.>.>.>.>.>.>.,.,.,.t.,.t.t.1.<.d - &.0X#X@X#X#X@X#X@X@X%X#X@X@X#X#XQ.Q.Q.@. .) w 3 4 & 4 K K K K K K K K K K K K K K K K K K 4 w 8XyX7X9XDXDXDXDXDXtXtXyXyXyXDXDX9X7X7X5X8X@.: : p p p 5 8 9 v S.H C - : : p : = - : = # 0 e D J.x H H x C C C x j x m j j j k k j j j j k j k k k k k k k b k k m j = p 4.k.|..X.XXXZ.d.d..X.X X]..X.X*X|.b.l.c c a.c a.c a.l.x.+Xb.Z.Z.Z.Z.|..X*Xb.a.d.k.Z.b.Z.Z.b.a.S c s.Z.b.h..X.Xf.c z.b.&Xl.a.&X|.l.Z.b.a.Z.a.c s.s.b.N.d.d.l.c z IXIXIXIXIXIXIXIXIXIXIXIXIXIXIXIXIXIXIXIXIXIXIXIXIXIXIXIXIXIXIXIXIXIX",
"IXIXIXIXIXIXIXIXIXIXIXIXIXIXIXIXIXIXIXIXIXIXIXIXIXIXIXIXIXIXIXIXIXIX8 7 2 2 2 2 % : p i i d d d f f f f f =.=.f =.=.=.=.=.=.=.=.=.=.=.=.=.-.f f d i d s c S a.c c f.s.4.k.g.c z S a.l.s.b.b.a.S a.4.M.M.d.a.s.n.d.N.k.Z.j.a.d f =.>.;.-.>.:.>.;.-.-.-.-.-.f a 8 7 = - * * > > > = , n F H o.#X%X@X%X@X@X#X#X%X%X%X@X%X%X%X%X%X%X$XrXhXrX%X#Xo.{ 0 # $ $ > + * l l.N..X].].a.; 9 r U U U r - d d f =.=.=.=.=.4.;.-.-.=.=.=.=.=.=.=.f f f d d f f -.;.;.;.<.>.-.-.-.-.>.>.>.<.<.1.>.>.>.>.>.>.>.>.>.>.>.,.>.>.,.t.,.,.,.<.d * = | Q.#X#X@X#X@X#XQ.Q.Q.Q.Q.Q.%.Q.@.) U 4 4 4 4 4 K 4 K K K K K K K K K K K K K K K K K K K K 2 ] 8XyX9X7XDXDX9XyXyXrXtXyXyXyX9X7X7X7X6X5X .: : p h : : : 5 v b D J.UX0XwX0XO.= = - = = % n F C C G C C G x x x j x k x k j x k k k k k j k j x k k x j k k k k k v = k !.XX.XZ.Z.d.d.|..XZ.Z.Z.n.b.N.d.6.a.4.4.6.a.a.4.4.=.f f f f f f d 3.3.a.l.c.l.4.c z.z.4.l.b.x.b.Z. X.XZ.s.^..Xh.3.c.b.*X|.a.Z.b.a.A.c.a.K.a.c j..X.X.X.X.Xk.a.S IXIXIXIXIXIXIXIXIXIXIXIXIXIXIXIXIXIXIXIXIXIXIXIXIXIXIXIXIXIXIXIXIXIX",
"IXIXIXIXIXIXIXIXIXIXIXIXIXIXIXIXIXIXIXIXIXIXIXIXIXIXIXIXIXIXIXIXIXIXq 5 2 2 2 2 % , : u i d d d f f f f f f f =.=.=.=.=.=.=.=.=.=.=.=.=.-.-.-.-.=.=.=.f f d d g l a.h.c a.M.h.a.z c l.f.s.4.a.s.4.d.M.d.4.h.s.k.d.b.b.k.d.Z.b.c d =.-.-.;.;.:.:.-.-.;.=.=.i : q r , $ > = 1 F H $.@X%X%X%X%X#X#X#XQ.Q.#XQ.#X#X$.Q.#X#X#X#X%X#X%X%X%X%X%X>XrXhXhXrX%Xo.{ 9 = . O > u 3.h.|.z.= q w U U Y 0 - i d f =.=.f =.=.=.;.=.=.=.=.=.=.=.=.=.f f f f f f f =.-.;.<.>.<.<.>.>.>.>.>.>.<.<.<.<.<.<.1.>.1.>.>.<.<.>.>.>.,.,.,.,.,.,.=.* ; 2 3 ) ) @.@.@.| ) F ) ) ) ) K 3 4 4 4 4 4 4 4 4 K K K K K K K K K K K K K K K K K K K K K K 4 4 4  .yXyXyXDX9X9X7X7XtXtXyXDXDX7X7X' +.+.&.M p p - * p X.O.L.0XrXsXFXFXFXFXPXtXO.- = = = = < m x H C B x x x x j x k x k k x x j j j k j j k C k k k j k x k k j k n - x Z.b.a.a.a.x.d.x.a.4.=.;.:.;.;.2.5.;.<.5.6.6.4.6.5.5.6.5.4.;.=.=.3.d g d d f c c z c x S l.x.b.|.|. X.X^.h.d..X|.c b.b.x.b.z.c.a.x.|.a.b.b.c 3.Z..X]..X X X].A.l.IXIXIXIXIXIXIXIXIXIXIXIXIXIXIXIXIXIXIXIXIXIXIXIXIXIXIXIXIXIXIXIXIXIX",
"IXIXIXIXIXIXIXIXIXIXIXIXIXIXIXIXIXIXIXIXIXIXIXIXIXIXIXIXIXIXIXIXIXIXw 5 % 2 % 2 % % ; - i i i d i d i i i i d d d d f f f f f f =.=.=.=.-.-.-.-.-.-.-.-.;.=.f d s d a.c z s.b.Z.b.4.4.c z l.h.a.a.M.M.d.b.s.d.M.N.N.d.N.A.d.d.k.s.f =.:.-.-.-.-.;.;.;.=.d p 9 U q t = n ..Q.%X%X#X#X$.Q.$.O.O.....D F F F n *.n F F F { ..o.#X#XQ.#X#X@X@X%X%X%X%XiXeXiXiX@Xo.n ; O + > k m , q q w U U w 1 i d =.;.=.=.=.=.;.=.f =.=.=.=.=.=.=.=.f f f f f f =.-.;.<.>.<.>.<.<.>.<.>.>.>.>.1.<.<.<.<.1.1.<.<.1.>.>.>.>.,.,.,.,.,.,.<.d ; 3 4 K 4 4 4 4 4 4 4 4 4 4 4 4 K K K K 4 K K K K K K K K K K K K K K K K K 4 4 K K K K K K 4 4 4 K 4 2 O.8X8X8X@.#.5X6X#.Q.$.6XQ.8X5XyXPX%.9 v h : p L.sXFXHXGXLXLXLXLXLXPXPXPXPXeX..= = : = ; x Z C x c c x x j j x x k k x x x j k b j k k k j k k j j x m k k k k m 1 u S a.8.4.4.4.-.;.;.;.;.<.<.1.5.2.6.5.6.6.6.6.5.6.6.<.6.5.6.6.5.5.6.5.5.5.=.4.;.4.;.3.=.=.3.f 3.4.s.k.|.|.Z.4.b..Xb.a.b.b.a.c c s.*Xb.x..Xh.c s.&XZ.N.k.Z..X.X.X|.IXIXIXIXIXIXIXIXIXIXIXIXIXIXIXIXIXIXIXIXIXIXIXIXIXIXIXIXIXIXIXIXIXIX",
"IXIXIXIXIXIXIXIXIXIXIXIXIXIXIXIXIXIXIXIXIXIXIXIXIXIXIXIXIXIXIXIXIXIX] 8 2 2 2 2 2 % % : - i i i l i i i y y y y y y s i s d i d d f f f =.=.-.-.;.-.-.:.-.>.-.-.4.f f d d c 4.f.b.Z.k.b.s.a.S 4.g.N.d.d.h.s.b.d.d.k.d.d.d.A.N.s.Z.d.4.=.:.;.-.-.-.;.-.d p 5 r w w 0 ..#X#X@X#Xo...{ D F 0 , , ; # # # # # # # $ $ $ $ $ # ; , , 0 F D ..O.Q.%X%X%X%X%X>X>XrX<XvX%XO.w o O $ # w w w U U U , - d f ;.=.=.=.4.=.=.=.=.=.=.=.=.=.=.=.=.=.=.=.=.=.=.-.;.<.>.<.>.>.<.>.>.>.>.>.>.>.<.1.<.>.1.<.>.>.1.>.>.>.<.>.,.1.1.>.1.:.a 6 4 K K K K K K K K K K K K K K K K K K K K K K K K K K K K K K K K K K K 4 4 4 4 4 K 4 4 K 4 4 K K 4 4 8 w ] @.%.8XQ.%.}  .%.0XPXPX0XFXLXFXM b v v 0XGXJXJXLXFXFXPXLXPXPXPXPXDXPXDXtXF = = = - x C x C x x x x k j x k k k x x x k j x j j k k k k k j k b m k k k C k h u j c f f 4.4.<.<.6.<.6.1.6.<.5.6.<.;.=.4.;.;.3.=.=.=.3.8.a.8.8.w.5.4.5.5.w.4.5.6.i.5.5.6.5.4.3.f d z f f.Z.c.a.|.*Xa.x b.T.&X&X|.x.4.|.*Xb.c s.a.c c c c a.|. XXXIXIXIXIXIXIXIXIXIXIXIXIXIXIXIXIXIXIXIXIXIXIXIXIXIXIXIXIXIXIXIXIXIXIX",
"IXIXIXIXIXIXIXIXIXIXIXIXIXIXIXIXIXIXIXIXIXIXIXIXIXIXIXIXIXIXIXIXIXIX] w 2 2 2 8 2 % % ; - u l l i l i j j j j a a j i d d d i i u s s i s f f =.-.-.-.-.-.;.-.;.;.;.=.=.f d i i c c c a.4.a.s.h.M.M.s.s.s.b.d.s.k.C.Z.M.d.N.^.d.N.Z.d.d.4.:.-.-.-.-.f p , q q w e $.#X#Xo.D *.0 < , , @ # # # # # # # # # $ # # # # # = # # $ $ $ $ # # # t , F ..#X%X%X%X%X%X<X<X<XrXQ.F @ X t w U U U U 9 u d =.4.;.=.=.=.-.=.=.=.=.=.=.=.=.f =.=.=.=.=.=.=.-.-.<.;.<.>.>.>.>.>.>.<.>.>.>.>.>.>.>.>.>.1.>.>.>.<.<.>.<.>.>.>.>.>.;.f a 3 K K K K K K K K K K K K K K K K K K K K K K K K K K 4 4 K K 4 4 K K 4 K 4 4 4 4 4 4 K 4 K K K 4 4 3 I Q.yXmXFXHXGXJXLXFXHXLXJXLXFXtXLXFXLX0X0 o.tXFXHXFXFXFXFXPXPXPXPXPXDXDXDXDXDXPX$.1 > = p C C x x x x x x k x x j k j j k x x x k k j j k m k k k k k k k x m k m k a c f =.4.<.6.<.6.6.6.5.4.4.;.;.5.;.4.4.4.4.=.4.x.b.c Z $XwXuXiXuXI.I.U.z.z.z 7.3.8.8.4.6.6.5.6.;.;.4.4.f z 4.c c Z.*Xb.l.a.a.l.l.d.Z..X.Xa.S 4.c l.h.h.c f a..X.XIXIXIXIXIXIXIXIXIXIXIXIXIXIXIXIXIXIXIXIXIXIXIXIXIXIXIXIXIXIXIXIXIXIX",
"IXIXIXIXIXIXIXIXIXIXIXIXIXIXIXIXIXIXIXIXIXIXIXIXIXIXIXIXIXIXIXIXIXIX] 8 2 2 8 2 5 2 % ; 1 1 i l l l l l j j j j j c c c c c c c i c c i i y i d d =.-.-.-.;.-.:.<.;.<.<.-.=.f i y i c l.b.k.M.M.g.M.4.s.d.N.a.4.a.a.d.).Z.N.).d.N.].N.A.C.3.=.-.-.f a , q U w w *.$.O.D *.# $ # # # # # % ; # # # # # , 1 , 1 , 1 , , < M e n 9 , ; = # # % @ $ O t n O.%X%X%X%X%X>XrX<XeX#X{ *.w w U U U w : i 4.;.;.=.=.;.4.;.;.4.=.=.=.=.=.=.=.=.-.-.;.;.;.;.-.;.>.<.>.<.>.>.<.>.>.>.<.<.>.>.>.>.<.>.>.;.>.-.;.;.<.;.>.;.;.-.=.=.f h 4 K K K K K K K K K K K K K K K K K K K K K K K K 4 4 4 4 4 4 4 4 4 3 4 3 4 4 4 4 4 4 4 4 4 4 K K 4 ~ yXFXFXFXFXGXGXGXGXHXJXJXGXFXFXPXLXFXFXFX$.tXFXFXFXFXFXLXPXPXDXDXDXDXDXDX9XDXDXDXyXX.< - j C C x x x x C C x x x k k x j j j x k k k k j x k k k k k b m k k m m m h g 4.4.4.5.5.<.;.;.<.=.4.4.4.4.3.4.4.0.d.x.x.a.k.-X-XK.J.FXKXKXKXKXJXJXHXGXMXiX$XL.B a d f 4.w.q.5.5.4.<.2.4.f z d c l.&X=XZ.|.|.&X*X.XZ.a.a.l.a.b..X-X-XZ.a.c d..XIXIXIXIXIXIXIXIXIXIXIXIXIXIXIXIXIXIXIXIXIXIXIXIXIXIXIXIXIXIXIXIXIXIX",
"IXIXIXIXIXIXIXIXIXIXIXIXIXIXIXIXIXIXIXIXIXIXIXIXIXIXIXIXIXIXIXIXIXIXr 8 5 2 2 8 5 2 % ; h C x x u u u a j j i i d c c c c c c c c c c d j c l u a s s f =.-.:.>.<.;.;.;.<.;.;.=.f i i g x s.M.M.M.g.a.s.g.M.4.s.Z.s.d.B.N.d.N.N.n.].N.Z..Xn.=.=.f d < q q U U q 7 9 , $ $ $ $ $ # # = % , = 1 0 F { ..O.o.$.L.#X$.#X#X#X#X#X#X#XQ.$.O...| D 0 # # O X $ t *...Q.%XrX<X%X>XiXvX$.q U U U Y e < y f ;.;.4.=.;.;.;.;.=.=.=.=.=.=.=.=.;.;.<.<.;.;.;.-.<.-.<.<.<.<.<.<.<.<.<.>.>.>.>.>.;.-.-.-.-.=.=.f f f f f d d d d s y ; 4 K K K K K K K K K K K K K K K K K K K K K 4 4 & 4 4 & &   2 U R ~ +.+.+.+.~ I & & o & & 4 4 & 4 ^ 0XFXBXJXLXLXGXGXFXGXGXGXFXBXMXtXyXLXLXFXJXmXyXPXFXFXLXFXPXPXPXDXDXDX9X9X9X9XDXDXDXyXyX#XN b x C x B j x C x x j k x j C C x C x C k k k k k k B x k k j m k k j k m h C 0.4.;.=.4.-.4.4.a.4.4.4.a.a.x.a.4.4.4.d.d.s.-XXXXX-XK.rXJXLXLXJXKXKXKXKXKXKXKXJXGXsXqXP.G.B i d f f 4.5.6.2.5.4.4.c c l.Z.*X*XA.Z.l.c c Z.c.s..X.XZ.Z..X.Xx.4.^.IXIXIXIXIXIXIXIXIXIXIXIXIXIXIXIXIXIXIXIXIXIXIXIXIXIXIXIXIXIXIXIXIXIX",
"IXIXIXIXIXIXIXIXIXIXIXIXIXIXIXIXIXIXIXIXIXIXIXIXIXIXIXIXIXIXIXIXIXIX7 5 2 2 2 2 5 5 : j x l.a.a.a.d s u l j a i c c c c c c c c c c c c H !.v.F J.$.( p y s d :.-.-.;.;.-.;.<.<.<.-.f d s d a.g.M.d.4.s.k.N.a.d.|.s.a.M.M.k.N.N.N.].N.n.V.A.d.g j v 8 w q U U 6 @ @ $ $ $ $ $ # , 0 F [ { | O.O.o.o.o.$.$.$.$.$.$.o.o.o.o.o.o.o.$.L.$.L.@X@X#XL.O.F 7 $ O X @ , *...#X%X%X>XrX{ q U U U U w 9 - d -.;.4.=.;.;.;.=.=.=.=.=.-.=.-.;.<.<.<.>.<.<.;.>.;.<.<.>.>.>.<.1.>.>.>.;.;.;.-.=.=.f f d d d s s y y y y y u * y u * + 4 4 K K K K K K K K K K K K K 4 4 K L T K I & & o o o o &   q +.+.+.+.+.+.+.} / 2 o . o o o o & o &.FXFXHXGXFXFXFXBXmXmXNXFXmXFXFXyX0XFXFXSXJXLXPXtXFXFXFXFXFXPXPXDX9XDX9X9X9X9XDXDXDXDXPXtX[ x x C B x C C x C C x x B x C x x x k B k j j k k k k k k x k k b k j k j h j z z =.3.4.4.4.4.3.a.a.l.d.x.x.b.x.4.4.s.h..XXXXXXXXX-XK.rXFXJXHXLXJXJXJXKXKXKXKXKXKXKXKXKXFXtX$XJ.X.a d f :.;.5.6.q.4.c c a.a.4.S a.a.a..Xf.s.*Xg.4.c s.*XZ.s.Z.IXIXIXIXIXIXIXIXIXIXIXIXIXIXIXIXIXIXIXIXIXIXIXIXIXIXIXIXIXIXIXIXIXIX",
"IXIXIXIXIXIXIXIXIXIXIXIXIXIXIXIXIXIXIXIXIXIXIXIXIXIXIXIXIXIXIXIXIXIX2 8 2 8 2 8 5 9 C H a.s.s.s.h.f.S u u i j l l i c c c d c d d x S f.!.!.!...P.tXsXwX%.( : * s =.-.;.<.<.<.>.<.;.-.=.f d s f s.k.a.s.Z.Z.4.a.d.Z.d.k.n.B.N.N.).].V.A.m.n.Z.z v 8 q U U U U % $ $ # t 0 F { O.o.o.$.o.O...{ [ [ D M F F F n F F N n n n n m D D D [ ..o.Q.o.#X@X@X#XQ...7 @ o O $ # 0 F O.Q.w w U U U U Y e : i =.;.;.=.;.=.=.=.=.=.;.-.-.;.;.<.<.<.<.<.>.>.>.>.>.<.<.<.<.>.>.;.;.;.;.-.=.=.f d d s s s s s s s d d 4.4.l.x.G.z.c x j 2 4 K K K K K K K K K 4 K K 4 3 I R }  .+./ 2 . O X X X   & Y +.+.+.&.| } +.} U & . . o . .   o 7 0XFXFXHXFXFXmXmXBXmXmXmXbXmXmXPX| #XFXHXJXJXBXHXtXPXFXFXFXFXPXDXDX9XDX9X9X9X9XDXDXDXDXPXqXm x x k j j C C x x x x k x x C x C x x x C C k k k k k j j j k x k k k h p p j A 3.3.0.z.a.x.4.l.w.4.l.l.4.4.w.x.d.4.4.|.-XXXXX X XXX=XI.eXGXLXLXLXLXJXJXJXKXKXKXKXJXKXKXKXKXKXKXHXo.g l.z =.-.=.;.8.w.4.f 4.b.Z..XT.b..Xd.z.s.c c c c b.|.h.d.IXIXIXIXIXIXIXIXIXIXIXIXIXIXIXIXIXIXIXIXIXIXIXIXIXIXIXIXIXIXIXIXIXIX",
"IXIXIXIXIXIXIXIXIXIXIXIXIXIXIXIXIXIXIXIXIXIXIXIXIXIXIXIXIXIXIXIXIXIX2 8 7 5 2 ; 9 m z.a.s.d.d.s.h.g.h.S l u u i u a l c c d d c l S !.!.!.!.!.v.{ 0XtXdXdXsX0XU.b y y d =.-.;.<.<.<.;.;.-.4.f d d a.a.s.d.Z.k.d.N.b.d.n.^.N.M.n.].].n.A.N.n.Z.S 9 q w U U U q # t *.D %.L.Q.$.O.O.{ D F n h 1 < h h j j C C S a.l.l.x.l.l.l.l.a.a.H H S J H H ..o.o.$.#X@X#XO.F t O O X X # , 7 w U U U U Y e < i f ;.;.-.=.=.=.-.;.;.<.;.<.<.<.<.<.<.<.>.<.>.<.>.<.<.<.;.-.=.f f d d d d i s s s y s z a.x.x.Z.A.N.A..X.X.XA.x.s.s.b.K.8 4 K K K K K 4 4 4 4 4 4 4 R } } } } ] } ] ; . O O o . . o e @.+.+.+. .+. . .r . o o X o X . % @.PXLXFXMXBXtX0XQ.0XtXtXtXsXtX0XF *.tXHXJXJXGXFXLXPXPXFXFXLXLXLXPX9X9X9X9X9X9X9X9X9XDXDXtXL.b x x j j C Z x x x x C C x C x x x C x x C C x x b k k k C k k m k m k h h j j j z.3.0.x.x.x.x.d.0.0.4.4.d.4.4.4.4.d.Z.XXXXXX.X X X.XXX*XK.$XmXLXLXJXJXJXKXKXKXKXKXKXKXKXKXKXKXKXmXZ b.*XZ.s.4.5.3.=.3.x.4.4.d.b.*X|.d.*Xk.c a.h.*Xc.c h..Xh.k.IXIXIXIXIXIXIXIXIXIXIXIXIXIXIXIXIXIXIXIXIXIXIXIXIXIXIXIXIXIXIXIXIXIX",
"IXIXIXIXIXIXIXIXIXIXIXIXIXIXIXIXIXIXIXIXIXIXIXIXIXIXIXIXIXIXIXIXIXIX8 8 6 5 % , G l.f.a.s.d.s.s.s.s.g.g.a.c - * - - u l u d c a.!.!.!.!.!.!.~.Q.X...0XtXtXdXdXFXdX0XD : y d =.-.<.>.;.;.;.<.;.=.f d c s.s.N.N.d.d.d.Z.N.N.M.n.].).V.n.n.N.n.d.Z 8 q U w w U q e | %.o.O.D D F F n h h k G S z.c.h.b.Z.b.b.N.N.N.N.n.N.n.N.n.M.n.N.Z.Z.b.j.b.b.c.v.H H ..O.#X#X%X#X{ , O X O # w U w U U U U Y 7 - f ;.4.;.-.=.-.;.;.<.<.<.<.<.<.<.<.<.<.<.<.>.-.;.-.=.f d s s y y u i d c c H.z.V 3.b.|.Z.a.x.Z.A.].].`.`..Xa.d.Z.|..Xb.p 4 4 4 K K K 4 4 4 & & & 3 } } } } } } } } 5 . X X X o . o r &. .+. .+.+.+.} 9 . . . . . o o e 0XFXFXFXtX0Xe X % ) $.eXBXGXBXmXqXtXLXJXGXGXJXZXGXFXPXFXFXPXLXLXDXDX9X9X9X9X9X9X9X9XDXPXtXX.j j C j j x x x C x x C C k x x j j j j C x x x x x C k k k B k k j x C j j h j i x C 4.l.w.5.d.d.x.a.4.4.q.d.d.4.4.Z.oXXXXXXXXX XXXXX.X.X*XK.+X$XcXGXJXJXJXKXJXLXKXKXKXKXKXKXKXtXG.K.-XXX.XZ.x.x.d.4.4.3.=.4.4.=.s.Z.a.|.|.4.S &X*X|.c b..Xk.Z.IXIXIXIXIXIXIXIXIXIXIXIXIXIXIXIXIXIXIXIXIXIXIXIXIXIXIXIXIXIXIXIXIXIX",
"IXIXIXIXIXIXIXIXIXIXIXIXIXIXIXIXIXIXIXIXIXIXIXIXIXIXIXIXIXIXIXIXIXIX8 5 2 2 ; m a.a.s.s.d.s.s.s.s.d.s.g.k.h.a.l * - - - l x f.!.!.!.!.!.!.!.!.v.+X..P.0XyXtXtXsXdXFXdXtX&.p p d :.:.:.;.;.>.>.;.4.=.d c 3.h.N.N.d.d.d.g.n.N.].].).n.N.n.n.n.a.v q w U U w ) &.O...D F F v < h C S l.b.h.s.k.k.h.k.g.d.d.d.g.n.M.M.n.M.n.M.n.n.n.n.n.M.M.M.N.M.N.N.b.b.J.o.O.J.#X@X@X@X$.0 o 2 w U U U U U U ) 8 : d =.;.;.-.;.;.;.<.<.<.<.<.<.<.<.<.>.<.<.;.-.f d s i y y y j z.l.b.Z..X X.X&Xx.b.*X*XZ.4.a.x.x.d.Z.].`..Xd.d.].].A.x.c = 4 4 4 4 4 K 4 4 o o X o 2 } } }  .[ } } } 5 O . . O X . X r &.} +.+. .+.&.} r . X X X X X % &.rXFXFXyXO.t % @.Q.@XPXJXJXJXJXJXJXJXJXJXJXGXGXZXGXHXtXFXFXFXFXFXDXDX9X9X9X9X9X9X9X9X9X9X0XN j x k j j x B C x x x x j x C k x x j j x j j j j k k x j x x k k x x C j j j j j a j g c w.w.0.d.d.0.8.d.w.d.d.a.d..XXX X X X X XXX X X X.XXX=X+X+XwXwXnXGXGXJXJXKXKXKXKXZXeXL.v.&X1XXXXXXXA.s.d.C.C.a.4.f f =.4.;.a.c a.-X|.a.a.x.c a.Z.Z.s.*XIXIXIXIXIXIXIXIXIXIXIXIXIXIXIXIXIXIXIXIXIXIXIXIXIXIXIXIXIXIXIXIXIXIX",
"IXIXIXIXIXIXIXIXIXIXIXIXIXIXIXIXIXIXIXIXIXIXIXIXIXIXIXIXIXIXIXIXIXIX2 2 % ; j H a.s.d.s.s.d.s.g.g.s.d.g.h.g.b.f.S u - 1 u J b.!.!.!.!.!.!.!.!.!.!.K.X.L.0XqXtXtXtXtXdXFXdXwX( p s f :.:.-.-.-.<.;.-.-.=.d f k.^.N.N.M.N.B.]._.B.n.d.n.V.n.Z.H 8 q U w U w ) F F 0 1 h k x a.c.f.s.s.d.a.a.s.4.4.z 4.c c c 4.4.4.4.a.a.a.4.s.s.s.n.n.M.n.M.V.V.V.V.N.N.A.!.b.X.X.o.#X#X@X#X| q w U U U U U U w w , i =.;.;.<.;.;.<.<.<.<.<.<.<.<.<.<.-.-.=.d s y * * * p j C z.b..X.X].].).B.b.Z..Xx.w.a.a.4.a.b.x.d.B.].Z.d.A.`.^.d.Z.T.k & 4 4 4 4 4 & o   X . . ; } } }  . .} } } 8 . O O X o o . w +.+.+.+.&.&.+.+.w X o + X o . e #XPXFXFX] 7 | yXmXPXHXLXJXJXGXJXJXJXJXJXGXGXGXJXGXGXFX0XtXFXFXLXFXPXDX9X9X9X9X9X9X9X9X9X9X#.h j j B j j j x C x C x x C C C H C C C j j j j j j j k k k k B x C x C C k C Z j j j j l i c 3.x.a.4.4.a.0.6.6.d.Z..XXXXX X X X X X.X.X X X X X.X.XoX&X+XK.J.J.o.$.P.P.L.X.H G.&X-XXXXXXXXXXX.XN.d.d.C.C.x.4.=.=.-.4.5.4.d a..Xb.4.4.a.T..Xd.Z.|.IXIXIXIXIXIXIXIXIXIXIXIXIXIXIXIXIXIXIXIXIXIXIXIXIXIXIXIXIXIXIXIXIXIX",
"IXIXIXIXIXIXIXIXIXIXIXIXIXIXIXIXIXIXIXIXIXIXIXIXIXIXIXIXIXIXIXIXIXIX2 % ; h S s.s.s.s.d.s.s.s.g.g.d.s.g.g.g.g.g.h.a.k - - k v.v.!.!.!.b.!.!.!.!.!.+X+XX.X.G.0XtXtXtXtXtXdXdXPXwX( : s =.:.-.>.>.>.;.;.;.=.d d a.Z.N.M.N.N.B.V.n.n.n.n.n.N.b.v q U U U U w , = : l S S l.s.a.a.a.c c i a i l i l l i i i u i i u u u u u u l i l c 4.a.s.s.d.n.n.n.V.V.B.V.A.Z.c.G H O.Q.#X%.w q w w U U U U U e ; u f ;.;.<.<.<.<.<.<.<.<.<.<.<.-.f d s y y * * d c.b.x.c c.z.z d.N.).].'.M.Z.Z.d.b.Z.*X&X|.x.3.T.s.k..XN.x..X].N.&XA.l.j % 2 4 3 I U o   . o X . 5  . . .} } }  . .r . o X o o o . 5 +.+.&.+.+.+.+.+.w o o + o X @ | yXmXFX%.8 qXLXJXJXJXJXJXJXSXFXFXGXSXJXJXJXJXGXBXGXJXdXI.dXtXmXFXPXPXDX9X9X9X9X9X9X9X9X9X7XY j j C x x k j C C C x C C C C C z.H x C C x j j j j j B C k j B C k C C j x S l.c j x j j j l l d z 7.4.8.a.d.s.s..XXX.X X X X.X X X X X X X X X X.X.X X.X.X&X&X+XK.v.K.K.+X=X-XXXXXXXXXXXXXXX XA.d.n.n.n.C.x.x.x.4.4.5.6.4.d 7.&X&X|..X.Xk.Z.&Xb.IXIXIXIXIXIXIXIXIXIXIXIXIXIXIXIXIXIXIXIXIXIXIXIXIXIXIXIXIXIXIXIXIXIX",
"IXIXIXIXIXIXIXIXIXIXIXIXIXIXIXIXIXIXIXIXIXIXIXIXIXIXIXIXIXIXIXIXIXIX2 % : B a.a.s.s.s.s.s.s.d.s.d.s.d.s.s.s.g.g.k.k.f.S J l k k J S o.!.!.!.!.+X!.!.!.+XJ.H F O.0XeXtXtXtXtXtXFXdXwX( a f -.-.-.-.<.;.<.<.4.d i c d.M.k.s.n.n.d.n.n.n.n.N.a.9 q U U U w ; 1 k x a.a.h.s.a.a.c d i c l l x c a.f.s.a.f.f.a.a.f.f.a.S S S J x l 1 - - u i c a.x.k.N.N.V.V.B.B.B.A.Z.c.J D O.M q w w U U U U U U w , u c ;.;.<.<.;.<.<.<.<.<.<.=.d s y * * j S C l.|.*XZ.Z.4.l.x.b.0.a.V..X/.4.b.w.T.A.a.c 4.h.*Xx.s.T.4.N.k.Z.].].x.Z.d.s.d ; 8 e Y Y e % . X . X   5 ] ]  .}  . . .} 7 . . o o o o o % U | +.+.+.+.| &.Y o X + o X 8 Q.tXFXyX] tXJXLXLXLXHXFXBXHXHXBXBXFXGXZXHXJXZXGXGXZXJXsXU.gXiXtXmXFXFXDX9X9X9X9X9X9X9X9X9X8X9 h b x x j C C C C C C Z Z C C C C C B C C x j j j j C C C x j j x j C C b c V z.H j x k j j j j j j i c c 7.w.5.h.oXXXXX X X X X X X X X X X X X X X|..X.X X X X*XXX*X*XXX-XXXXXXXXXXXXXXXXX}.XX XM.n.C.C.C.C.x.C.d.4.-.5.6.5.d d a.b.k.b.|.*XZ.c IXIXIXIXIXIXIXIXIXIXIXIXIXIXIXIXIXIXIXIXIXIXIXIXIXIXIXIXIXIXIXIXIXIX",
"IXIXIXIXIXIXIXIXIXIXIXIXIXIXIXIXIXIXIXIXIXIXIXIXIXIXIXIXIXIXIXIXIXIX% ; v S a.s.s.d.s.d.s.s.s.s.s.s.s.s.s.g.g.g.s.h.g.g.~.b.b.H k h k c.!.!.!.!.!.!.!.!.!.+Xv.H M { L.rXtXtXdXdXdXFXmXI.B f -.-.-.-.-.;.<.<.-.=.d c s.N.N.n.V.n.n.n.n.n.k.m q U U U e 9 l S a.a.a.a.a.c c l k c S f.f.j.|.oX[. XXXXX}.XX[././././.[.oXXXXXXX=X=X!.H p - - u a c c s.M.N.V.V.B.V.B..XZ.b.G & 8 w w U U U U U U U 7 - d -.;.<.;.;.;.<.<.<.f s y * * u 3.b.|.l.l..X|.x.a.d.Z.Z.b.3.x.z.a.x.x.z.K.x.Z.a.0.a.4.0.b.|.4.T.a.d.k.C.`.Z.T.Z.Z..Xl.9 / ] Y ] e & . . .   o & q ) R T Y I I 3 4 & & & & & & & & 4 U E ~ ! +.E } Y X . o . & | yXtXPXQ.yXLXLXBXLXZXLXBXBXFXGXFXHXJXZXBXZXBXBXBXBXGXJX#XZ R.gXiXtXPXPXPX9X9X9X9X9X9X9X9X9X+.: v k C b C C C x C C C C C C C Z C C C C C C b C j b x C C x j j k j j C C x a.z.z.c j j j x j j j j j l i d c 3.s.|.*X.X.X X X X X X X X X X.X X X X|. X XoX.X X X X X X X X XXXXX X X X XXXXXXXXX.Xd.C.x.C.d.d.C.C.C.5.4.2.u.6.4.g c a.b.b.h.a.C IXIXIXIXIXIXIXIXIXIXIXIXIXIXIXIXIXIXIXIXIXIXIXIXIXIXIXIXIXIXIXIXIXIX",
"IXIXIXIXIXIXIXIXIXIXIXIXIXIXIXIXIXIXIXIXIXIXIXIXIXIXIXIXIXIXIXIXIXIX% : C a.a.s.s.s.s.s.s.s.s.d.s.d.d.s.s.s.d.d.s.g.g.(.(.(.^.oX!.c.S k n J H ~.!.!.!.!.!.!.!.+XJ.z.N N ( UXwXyXtXsXmXFXwXZ f -.-.-.-.-.-.;.;.;.=.d 3.d.N.N.n.n.n.n.n.n.l.9 w w e M n k a.a.a.a.a.c c l S a.f.f.~./././.[.[.[.[.[.[.[.{.}.[._._._.[.{.{.{.{.}.}.}.=XJ l v.z.x j u i c c a.C.A.V.V.V.B.N.Z.G ; q w Y U U U U U U q = l =.-.-.-.;.<.;.=.s y * y j l.Z. X'.Z.3.Z.|.4.x.T.Z.Z..X.XZ.3.b.x.a.s.x.b.T.x.x.b.a.h.b.c b.a.b.x.d.b.x.`.d.x.b.k. Xb.< / / ] Y r & X   o & & 2 4 3 4 4 4 4 4 4 4 K K 4 4 K K K K K K 4 4 4 4 4 3 2 & o &   8 0XtXPX0X0XFXJXFXBXFXLXBXFXFXFXBXHXJXSXGXGXBXGXBXZXZXHXNXD B D.R.gXgXtXtXDX9X9X9X9X9X9X9X9X8XM p b j b j C C C C C C C C C C Z G C H G C C C C b C C C C C x j j j j x C x x V 0.l.Z j j j j C j j j j j C x C g c h.Z.|.|.oX X X.X X X.X/.^./. X X X X X X X X X X X X X X X X.X X X X X XXXXXXXXX Xj.s.d.d.d.x.C.C.C.C.w.e.<.y.u.5.c c z.x.h.l.k IXIXIXIXIXIXIXIXIXIXIXIXIXIXIXIXIXIXIXIXIXIXIXIXIXIXIXIXIXIXIXIXIXIX",
"IXIXIXIXIXIXIXIXIXIXIXIXIXIXIXIXIXIXIXIXIXIXIXIXIXIXIXIXIXIXIXIXIXIX; h 4.a.s.s.d.d.s.d.g.s.d.s.s.d.s.s.s.s.s.s.g.g.g.j.(.(.(.~./.oX=X!.!.G J J S v.!.!.!.!.!.!.!.!.!.v.G m b ( O.P.qXeXiXP.b d =.-.-.-.;.-.-.<.;.f d c d.M.n.n.n.n.N.N.S q U w M k j a.f.f.a.S c l S f.g.|.[.[.[.[.[._._.[.[./.(.(.[._.}.{.}.[.[.{.{.{.{.{.}.[./.f.1 S oXoX-X|.b.f.S l i c a.h.M.N.B.B.V.|.m 2 w w U U U w U U w , u =.=.=.-.;.=.f y * u j l.&X.XB.)./.a.x.|.4.x.Z.4.S a.4.b.A.b.4.T.4.a.K.K.&Xx.b.b.l.|.b.c &Xa.b.b.a.x.d.).Z.4.b.s.s.z.: Y Y w q 2 & & 2 2 4 4 4 4 K K K K K K K K K K K K K K K K K K K 4 K K K K 4 4 2 2 % ] yXtXtX%.rXLXFXBXLXLXFXFXBXFXBXBXJXJXLXJXJXHXJXJXZXJXHX@XP.wXG.H.R.gXdXtXyXDXDX9X9X9X9X9X9X` 9 h b b j j C C C C C C x C C C Z Z C C Z C x C C b b m C C C C b x j j B C C V 3.0.l.z.j j j j x B j k x C S l.l.z.z.a.a.a.h.Z.|.oX.X X X X X^.^.^.^..X X X X X X X X X X.X X X X X X X X'. XXXXXXXXXXXA.d.d.x.C.x.x.C.n.C.C.x.z =.5.6.5.f a.T.&Xz.j IXIXIXIXIXIXIXIXIXIXIXIXIXIXIXIXIXIXIXIXIXIXIXIXIXIXIXIXIXIXIXIXIXIX",
"IXIXIXIXIXIXIXIXIXIXIXIXIXIXIXIXIXIXIXIXIXIXIXIXIXIXIXIXIXIXIXIXIXIX; j S a.a.s.a.d.s.s.s.g.s.s.d.g.g.s.s.s.s.g.g.g.g.(.g.g.j.(.(.(.(.oXoXoX|.H 1 l J D v.!.!.!.!.!.!.!.+X+XK.I.J.H Z G D N p y d =.-.-.-.;.-.;.;.;.f d 4.d.n.d.n.n.A.b.n q U 0 n k S a.a.c l l S a.h.(.(.(.(./.(.[.[.[./.~.h.j.(./.[.[._.[.{.}.{.{.{.[.[.[.[.~.S k = J !.XX}.}.XXXXoX!.c.S i d c d.N.V.N.B.b.v 7 w U U U U U U w , - d f =.=.-.f i - l c j c h.Z.).).N.c Z.x.l.K.z x a.b.Z.w.b.|.S &Xb.3.x.b.b.b.x..Xf.c V x.b.8..XZ.4.|.4.N..Xs.a.s.l.j = 8 3 3 4 4 3 4 4 4 4 K 4 K K K K K K K K K K K K K K 4 K K K K K K K K K K K K 4 4 3 6XyXFX8X#.PXLXGXHXFXBXBXPXFXBXGXBXJXJXBXFXFXHXJXJXHXHXrX@XFXGXdXI.wXgXdXmXmXPXFX9X9X9X9X9X9X/ v j b b j C C C j B x C C C C C Z C Z G C C C j b x B j x x C C C x x j x V C z.z.l.z.z.x x j C C x j x C c V z.x.z.z.z.z.z.a.a.f.b.|.|..X.X X.X X X/.^./. X^. X X'.^. X X XXX X.X X X X X.X.XXXXXXXXXXXoXn.d.C.C.d.C.C.n.C.C.C.x.g f 6.y.5.f a.l.j j IXIXIXIXIXIXIXIXIXIXIXIXIXIXIXIXIXIXIXIXIXIXIXIXIXIXIXIXIXIXIXIXIXIX",
"IXIXIXIXIXIXIXIXIXIXIXIXIXIXIXIXIXIXIXIXIXIXIXIXIXIXIXIXIXIXIXIXIXIX; m a.a.a.s.a.s.d.s.d.s.s.s.s.g.s.g.g.s.g.g.g.g.g.g.(.(.(.j.(.(.(.(.(.[.~.!.h < 0 9 h k S v.c.!.!.!.!.!.=XoX&X|.&X+X+X+XK.z.l d f -.-.-.-.-.;.>.-.=.d 4.s.s.d.n.Z.a.9 w U 8 v x H c l - 1 S S ~.~.(.(.(.(.[.(.[.[.(.~.f.H Z f.b.|./.[.[.[.{.{.[.'.~.f.S S G C H X.X.G b.[.}.}.{.}.}.OXoX!.S l i 4.g.N.V.N.b.: q w Y U U U U w q - d f =.f f y u S v.x.l.a.z a.N./.k.4..Xz.v.3.0.l.c b.-Xx.h..Xa.Z.b.0.c K.x.b.4.b.&Xx.v.x.4.Z. XZ.d.*Xd.d.A..Xk.f.a.u & 4 4 4 K 4 4 4 K K K K K K K K K K K 4 4 4 4 4 4 4 4 3 4 4 4 4 4 4 K 4 K K K K 4 4 K yXDXPX&.8XFXLXFXFXBXFXmXtXvXFXFXHXJXBXFXFXLXLXHXGXGXvXQ.mXJXLXZXBXcXPXFXFXLXPXLXPXDXyX8X0X .v h j j b C x C C b C k C C C C C C Z H C C C C C j C x b k C C C V C C x C V C S z.l.z.z.z x x x B C x C C c z.l.l.z.z.l.l.l.l.a.a.a.a.h.!.|.oX X X X X X X X/.'. X X^. X X X X X X X X X X X X.XXX XXXXXXX.Xd.x.C.C.n.C.C.C.C.C.C.x.f f 6.y.<.d a p B IXIXIXIXIXIXIXIXIXIXIXIXIXIXIXIXIXIXIXIXIXIXIXIXIXIXIXIXIXIXIXIXIXIX",
"IXIXIXIXIXIXIXIXIXIXIXIXIXIXIXIXIXIXIXIXIXIXIXIXIXIXIXIXIXIXIXIXIXIX: m z.a.a.a.s.s.d.s.s.g.g.s.s.d.d.g.s.g.g.M.~.g.~.~.(.(.(.~.~.(.(.(.(.(.~.k < e *.F F 0 0 < J H v.!.!.!.!.!.!.!.!.|.=XoX|.+X3.d d =.-.-.-.-.;.;.;.=.=.f a.s.s.n.C.m q U w r < k k l = = k S !.~.f.f.f.~.~./././.(.|.c.I.;X$XJ.l.!.|.(.[.[.[.[./.c.J H G.J.I.$XiXiX$XJ.H l.XX{.{.{.}.{.{.OX[.!.x l l s.M.N.Z.C ; w U U U U U w w ; i d d d y * x !.|..X|.&XZ.z a.b.s.a.*Xx.b.c b.l.c.Z.d.3.Z.Z.c |.Z.l.a.T.l.Z.b.a.3.3.c S b. X^.d.N.].].d.a.b.&Xb.J.M 4 4 4 4 4 4 4 4 4 K K K K K K 4 4 4 3 q 9 b N G H z.z.H z.v.X.X.N M r 5 3 4 K K K 4 T yXDXyX .0XPXHXFXLXLXmXmXtXtXFXFXFXJXLXFXLXFXFXFXGXtXO.@XLXBXBXLXFXFXFXFXFXPXFXFXFXFXtXrXUXH v j j j b C x C C C C C C C C C Z C Z H C C C C b C C C C b C C C C C c x C V C S l.l.z.l.C j j k C x x C c 7.z.l.l.l.a.a.a.l.a.a.a.l.l.z.c S c.!.&X.X X X X.X X X X X X X.X X X X X X|.^. X/. X X X XXXXXXXXXN.d.n.n.n.C.C.n.n.n.n.C.w.d 4.6.y.7.p p V IXIXIXIXIXIXIXIXIXIXIXIXIXIXIXIXIXIXIXIXIXIXIXIXIXIXIXIXIXIXIXIXIXIX",
"IXIXIXIXIXIXIXIXIXIXIXIXIXIXIXIXIXIXIXIXIXIXIXIXIXIXIXIXIXIXIXIXIXIX, j a.a.a.s.s.d.s.s.d.s.d.g.g.g.s.s.g.g.g.j.g.~.~.(.~.(.(.(.~.(.(.(.(.~.S 1 0 e *.*.F F ] F F n n J S !.!.!.!.b.!.!.!.|.|.+Xc.c d d =.-.-.-.;.;.;.;.4.4.f a.s.d.0.9 I U U q , < < < 1 < S f.f.J k k l l S h.!.c.f.l.K.uXiXiXuX%XK.+Xb.!.k.g.h.S C J.iXpXpXiXpXiXpXiXiXwXG h.}.{.{.{.{.{.}.OXXXXXS l c a.g.N.c.: r w w w U U U w ; - i d s * k c.x.3.4.a.0.Z.Z.c c a.c .Xx.l.3.b.|.3.c c l.|.3.4.oXx.b.b.c.x.4.K.c.x.s.Z.T.Z.k.s.b..X].'..Xb.Z h : ; 4 4 4 4 4 4 4 4 K K 4 4 4 4 4 2 n H K.K.T.&X*X.X*X*X*X.X.X.X.X*X*X*X&X&XK.b.X.M U ^ L ) 0XDX0X#.yXPXLXFXFXmXPXLXPXyXtXmXLXLXFXFXFXLXLXFXyX| O.NXZXFXBXFXFXBXPXLXFXPXPXFXFXFXFXsXP.C p b j b C m m C C C C j Z Z Z Z Z Z H G Z k x C C C C C C C C C C C x B C C C x 0.a.l.l.z.C j j C B C x x 3.l.z.l.z.a.a.a.a.a.l.a.a.a.c.c.a.k h l c f.b.oX-X*X.X.X.X.X.X X X X X X X X X X X X.X XXXXX XXXXX-XA.n.n.n.n.C.n.n.n.C.n.n.C.x.f =.6.5.i Z Z IXIXIXIXIXIXIXIXIXIXIXIXIXIXIXIXIXIXIXIXIXIXIXIXIXIXIXIXIXIXIXIXIXIX",
"IXIXIXIXIXIXIXIXIXIXIXIXIXIXIXIXIXIXIXIXIXIXIXIXIXIXIXIXIXIXIXIXIXIX; a 7.a.s.s.d.s.s.d.s.s.s.s.s.d.d.g.g.g.g.g.g.(.(.(.(.g.g.g.M.(.~.(.(.[.f.l 0 e M Y F *.*.] { { D F J n n S v.J.J.!.!.|.!.|.|.S c d d f =.:.;.;.;.;.;.=.=.c s.a.C q U w U w q 7 8 9 , l S ~.~.l 0 H m l 1 u l l G P.$XuXiXuXuXuX$XI.I.+Xv.G H J.uXiXiXiXpXuXiXiXaXaXiXiXH a.[.}.{.{.{.{.{.{.{.OXoXa.k l S g.Z.H 9 w w w U U U w 8 * d s * x b.4.x.|.b.l.c 4.b.b.c c c b.b.l.b.c l.K.J.b.x.c c Z.Z.a.N.|.a.l.a.c c a.l.a.a.c c x.x.d.s.x.z.x - % 2 4 4 4 4 4 4 4 K 4 4 4 4 4 5 F G.T.-X.X X.X'.'.].].).).).).).).].].].|.b.Z.XX-X-X=X=X%XJ.J.8X0X0X8XyXPXLXFXFXFXFXFXmXtXtXtXmXPXLXFXLXLXPX0X| ..tXGXLXFXLXBXBXLXFXFXFXFXFXFXFXmXmXsXJ.m p j j b m B C C C b C C C C C G Z Z Z Z C C C C C C C C C Z C C C C C C C Z Z c z.z.l.a.x.Z a j x C C C S l.z.z.l.a.z.a.a.a.l.a.a.a.c.x.b.K.z.l H J u l k S b.b.Z.&X&X.XXX.X X.X X X.X X X.X X X X X XXXXXXXXXXXA.C.C.C.C.C.n.n.n.A.A.A.C.8.f 4.3.i V V IXIXIXIXIXIXIXIXIXIXIXIXIXIXIXIXIXIXIXIXIXIXIXIXIXIXIXIXIXIXIXIXIXIX",
"IXIXIXIXIXIXIXIXIXIXIXIXIXIXIXIXIXIXIXIXIXIXIXIXIXIXIXIXIXIXIXIXIXIX% 9 G a.s.s.s.d.d.s.d.s.s.d.s.s.h.g.g.g.g.g.~.g.(.(.(.g.(.(.j.g.~.(.[.~.f.0 e e F F F Y w F F | | O.{ D D F n h l S H c.c.!.T.a.d c c d f =.-.;.;.;.;.;.=.f c m 0 w U U U U U w w 9 = 0 f.!.H l O.J.X.J m F k h F J.wXuXuXuXuXuXuXuXwXuXuXuXpXpXiXiXiXiXgXuXgXiXiXaXaXiXG.v.[.[.}.{.{.{.{.{.{.{.}.~.v.1 l f.s.b.b e w U w U U U q ; u * B K.a.l.b.s.a.l.a.c.x.s.b.c S 4.c.z.b.Z.a.4.c c 4.l.b.Z.4.b.Z.|.S a x a.u u y y i i g g d d d y u ; 2 4 4 K 4 K K 4 K K K 4 4 4 9 z.K..XXX.X`.`.`.].].).).).).].).).).).]. Xk.k.K.z.b.-XXX}.XXXX-X,X0XeXmXtXyXtXFXFXFXFXFXFXFXtXtXtXPXPXFXtXtXyX@.| ..rXGXGXLXBXBXLXHXHXBXFXFXtXtXPXFXmXtXtXP.b h h j j m C b C C x b C C C C Z C H Z Z C C C C C C C C C C C C Z C C x C Z Z 7.z.l.x.l.l.x h C x x x C z.l.l.a.a.a.0.l.a.a.z.l.a.x.s.d.b.K.z.v.+X+X!.v.H H S a.a.a.c.h.b.|.|.|..X.X.X.XXX*XoXXX*XXX-XXXXXXXXX-XA.C.C.C.C.C.d.C.A.A.C.A.A.E.0.d g B K.0.IXIXIXIXIXIXIXIXIXIXIXIXIXIXIXIXIXIXIXIXIXIXIXIXIXIXIXIXIXIXIXIXIXIX",
"IXIXIXIXIXIXIXIXIXIXIXIXIXIXIXIXIXIXIXIXIXIXIXIXIXIXIXIXIXIXIXIXIXIX2 7 h 4.a.s.d.s.s.g.s.s.s.d.s.h.g.g.g.g.g.g.g.g.g.~.(.(.g.j.g.g.~.~.~.h.S 0 M e e e ) F e *.*. .| | O.| | { D F F n h l x H v.S c c c c d f =.-.-.-.;.-.=.d j n w U U w U U U Y ) e 1 J !.!.H J +X#XP.P.O.G H ..D D J.$XuXuXuXuXuXuXuXiXuXiXiXuXiXiXiXuXiXiXiXiXgXaXaXiXX.v.!.[.[.{.{.{.{.{.{.{.}.|.!.J # x a.h.z.v e w U U w U w ; > * b.b.a.Z.a.c g z.d.l.a.c T.l.s.x.c Z c K.|.Z.b.h.b.b.l.j z.l.V c i s i i d d f c =.=.:.4.2.5.=.d v 8 4 4 4 K K K K K K 4 4 4 9 z.&XXXXX'.`.].].].`.].).].^.(.]. X].].'.'.Z.a.&XaXCXuXH b.XXXX{.XXXX-X$XeXZXAXbXnXMXMXmXmXmXFXyXyXDXqXyXrX$.[  . .&.| rXGXGXGXNXLXBXFXGXFXFXmXPXtXDXtXPXPXtXtXP.m v h j b b C C C C C C C C C C C C H H G Z Z C C C Z C C C C Z C C C x C C C C z.z.z.z.l.Z a j C x x V z.z.l.a.a.l.0.8.a.a.a.a.l.a.a.l.l.b.h.c.v.|.-X-X-X-X-X=X*X+Xb.b.v.f.a.l.s.h.b.c.b.f.h.b.b.b.b.!.Z..X.X*X&XZ.x.x.C.C.x.d.C.C.C.A.A.C.T.T.B p H :X=XIXIXIXIXIXIXIXIXIXIXIXIXIXIXIXIXIXIXIXIXIXIXIXIXIXIXIXIXIXIXIXIXIXIX",
"IXIXIXIXIXIXIXIXIXIXIXIXIXIXIXIXIXIXIXIXIXIXIXIXIXIXIXIXIXIXIXIXIXIX2 % , h a.a.a.s.s.s.s.g.s.s.s.g.g.~.g.g.g.g.g.g.g.g.(.g.f.f.g.g.g.g.h.S l < 0 e M *.M F *.e *.] | | | | | | | { { { F F F F m j l i l c f d d f =.-.;.;.=.d v 8 U U U U U ) ) ) ) w 1 f.!.!.k J.P.J.@XrXsX$X..F m N 9 N J.$XwXuXiXuXuXuXuXuXuXuXuXuXuXuXiXiXiXpXaXgXpXpXv.H ~.[.[.{.{.{.{.{.}.{.}.}.~.H # - x f.c.k 0 w U U U U w t + j b.c Z.N.g c 4.l.l.c x.S &Xx.a.|.k.a.c c S a.z.S j l y u s y s d f f =.;.;.<.6.1.1.<.1.1.t.r.5.a r 4 4 K K K K K K K 4 4 9 v.&X-X X].`.].].].].'. X].].|.S c l.Z..Xb.b.l.G.;XAXlXzXzXpXJ.z.~.XXXX}.-X$XI.pXfXfXAXZXGXmXtXtXtXyXyXyXyXrXQ.@.6XtX%. .$.JXGXFXGXFXPXFXFXLXFXFXPXFXtXyXDXDXPXtXtXL.b h h b b B C C C C C C C C C C C Z G H G H H G V x Z Z C C C C C C Z Z C C x x c c z.l.z.k h B C C C 0.l.z.a.a.z.0.z.a.a.z.a.a.a.a.d.s.x.b.l.v.v.oXoXXXoXXXXXXXXXXX=X=X,X*X&X&X=X!.b.l.a.S a.c j x x C z.a.l.z.z.z.z c z.7.c c 7.4.z z f z z.c j k l.-X1XIXIXIXIXIXIXIXIXIXIXIXIXIXIXIXIXIXIXIXIXIXIXIXIXIXIXIXIXIXIXIXIXIXIX",
"IXIXIXIXIXIXIXIXIXIXIXIXIXIXIXIXIXIXIXIXIXIXIXIXIXIXIXIXIXIXIXIXIXIX% 2 ; ; k a.a.s.d.d.g.g.g.g.g.g.g.~.g.g.h.g.f.g.g.g.f.f.a.a.S S S S S l h 1 : 9 e e e e e e *.F D | | &.&.| O.&.O.&.| | O.{ D n h l l i l i s i f =.-.-.f d v r Y U U U Y } ] ) ) 0 n c.|.c.x I.K.J.%X$XsXvXsXrXP.O.n : r [ P.qXwXuXuXuXuXuXuXuXuXuXuXiXpXpXiXpXiXiXpXpX%XJ S [.[.{.}.}.{.{.{.{.}.OX~.J ; n h c f.H n w U U w U U 8 > H l.4..Xd.z.a.v.b.a.3.Z.c Z.b.a.A. X|.l.c l l k p y * y i d f =.;.<.<.<.<.1.1.,.1.t.1.r.1.r.1.z : 3 4 4 4 K K K K K 4 q H &X-X'.].`.`.`.].`.].s.S c b.|.x.I.P.H z.J.G.P.uXkXlXlXlXlXlXlXAX;Xv.j.XX{.XX!.K.pXaXpXpXAXAXZXmXtXyXtXDXDX0XQ.| yXFXPX} { mXZXFXBXGXBXBXFXBXBXFXFXFXDXtXDXDXDXDXyXyXJ.j h h b b m C C C C C C C C C C C C C V Z z.H Z Z G Z Z C C Z Z Z G Z B Z C Z 0.C x z z.x j j C C x Z z.x.z.a.a.z.l.z.z.l.a.l.a.z.z.a.l.c.l.v.v.!.oXXX=XoXXXXXXXXXXXoXXXXXXXXXXXXXXXOX-X=X=X=Xb.j G.z.H Z Z Z V C B V B j j C x H s.c.c.z.a.S z.l.b.*XXXXXIXIXIXIXIXIXIXIXIXIXIXIXIXIXIXIXIXIXIXIXIXIXIXIXIXIXIXIXIXIXIXIXIXIX",
"IXIXIXIXIXIXIXIXIXIXIXIXIXIXIXIXIXIXIXIXIXIXIXIXIXIXIXIXIXIXIXIXIXIX2 2 ; ; - k S a.s.s.h.g.g.h.g.g.g.g.h.a.a.s.h.g.s.g.f.f.f.a.f.f.f.f.f.c.c.S k 0 < 0 e e e e e e *.F { | | @.&.| | | | | &.&.| D F k G G k u u y y d f =.=.i : r Y Y Y U )  .} } } 9 n c.~.f.z.R.K.G.I.X.P.$XsXsXsXsXqXD , 9 [ L.P.wXuXuXuXuXuXuXuXuXuXsXiXgXiXgXgXpXpXaXpXJ.l f.[.}.}.{.{.{.{.{.{.}.~.1 7 *.0 k S a.G 0 w U U U U 8 = k c s. XZ.x.h.c c z k.b.c |.b.4.Z.).M.b.a.S x j d d d =.=.<.<.1.1.<.1.1.1.r.1.1.t.r.,.r.r.1.2.y 4 4 K K K K K K K 4 v +X-X}.{.`.].`.`.`.`._.|.l h v j c G.pXCXCXlXkXAXzXzXlXlXlXlXlXlXlXzXzXiXH h.}.XX|.z.I.+X;X;X:X;XwXuXqXeXeX0X6X0 5 &.PXPX8XY 0XPXBXFXGXBXBXFXFXFXFXPXPXPXDXDXDXDXDXDXyXqXX.p h b j B m b C C C C C C C C C V Z C C Z H H H V Z Z Z Z V Z z.z.Z 0.Z 0.H z.z.z.0.7.z.j h C C C H l.l.l.a.a.l.0.l.l.l.l.a.a.a.a.l.l.l.x.l.l.b.!.oXXXoX|.oXXXoXoX X X XXXXXXXXXXXXXXXXXXXXXOX-Xz.H.G.G.H.H.Y.F.F.F.U.G.B C K.:X=X,X-X1X1X1X-X-X1X-XXXXXXXIXIXIXIXIXIXIXIXIXIXIXIXIXIXIXIXIXIXIXIXIXIXIXIXIXIXIXIXIXIXIXIXIXIX",
"IXIXIXIXIXIXIXIXIXIXIXIXIXIXIXIXIXIXIXIXIXIXIXIXIXIXIXIXIXIXIXIXIXIX2 2 5 8 : l a.s.s.s.g.g.g.g.g.g.g.f.a.a.g.M.M.g.g.g.(.(.|.|.[.(./.[.(.[.oXoX|.!.J 1 7 e *.e e e w e e D [  .| &.O.| | | | | | { F F J.J.J.H G b u y s f d j 9 Y ] } / Y } } } } ) 9 J !.c.S v.:XK.T.:XK.v.o.L.qXrXiXeXD ; , ; M L.P.@XwXuXuXuXsXuXiXuXiXpXpXpXiXiXiXiXpXpXiXP.h c.oX}.{.}.{.{.{.{.[.S 0 *.0 0 n k x G m w U w U w r # p B f.].k.0.|.b.b.Z.Z.3.a.|.x.a.j.s.a.c l i d f -.-.;.<.1.1.1.1.1.1.1.1.t.r.r.r.r.r.1.r.t.2.g 5 4 K K K K K K 4 4 X.=XXX{.{.`.`.`.`.`.`.`.].f.k L.iX$XJ.uXlXlXlXlXlXlXlXlXlXlXlXlXlXlXlXlXlXCX+X0.|.{.XXb.l.b.K.T.+X|.Z.T.K.+XI.K.H v = } 0X0Xe  .tXFXFXFXFXBXFXFXPXDXPXtXDXDXDXDXDXDXyXyXrX%.v p h b b b b x C C C C Z C Z Z G H C C C C C Z Z C Z Z Z Z H z.z.z.z.z.z.0.z.z.z.z.z.z.j p h x C x 0.x.l.l.l.z.l.8.l.l.0.z.a.a.a.l.z.z.l.z.a.v.+X&XoX-XoX|.|.XXoXoXoXXXXXXX.XXXXXXXXXXXXXXXXXOX-Xl.H.D.0.9.F.F.W.W.Y.Y.S.V V z.x.x.b.|.&XXX-XOXOXXXXXXXXXXXIXIXIXIXIXIXIXIXIXIXIXIXIXIXIXIXIXIXIXIXIXIXIXIXIXIXIXIXIXIXIXIXIXIX",
"IXIXIXIXIXIXIXIXIXIXIXIXIXIXIXIXIXIXIXIXIXIXIXIXIXIXIXIXIXIXIXIXIXIX% 2 8 8 ; l a.s.h.h.g.g.g.g.g.g.f.S x Z.M.M.M.M.M.g.(.(.(.).(.(.(.(.(.(.(.(./.[.oXH 1 0 e e *.e F ] *.e F F { | | | | | | | | { F F J.v.K.K.K.J.G.G j d i h r /  . .{  .} ] }  .} 9 J v.c.x H.R.K.T.R.;X$XI.X.o.$XsXqX0 ; $ + # 9 ..P.@XuXuXuXuXuXiXiXiXpXiXpXiXiXpXpXiXaXfXfX$Xv l./.{.{.{.{.{.{.[.f.0 0 *.0 e 0 - : h w w w U U q ; l l s.].N.c l.Z.b.h.3.4.!.b.c l.S c i s d =.;.<.<.1.1.1.1.1.1.1.t.,.,.1.r.r.r.t.r.r.t.1.1.=.: 4 4 K K K K K K 5 v.-XXX{._._.).).`.`.`.).). Xc.m $XCXzXzXlXlXlXlXlXlXlXlXlXlXlXlXlXlXzXlXlXkXkXiXG..X`.}.}..X.X.X.X.XN..X.XA..X X.X.X*XK.C 9 5 e 0XtXFXPXmXPXPXPXPXPXDXDXDXDXDXDXDXDXyXtXyXP.N p h v b b C m C C C C C C Z G G Z H Z G Z Z Z Z C C Z G H z.z.z.l.z.z.l.z.x.z.z.l.z.l.z.B h j C V Z z.x.l.l.z.z.0.z.z.z.a.l.z.l.a.l.l.l.z.a.a.K.+X&X&X=X=X|.|.oXoX.XoXoXXXXXXX XXXXXXXXXXXXXXXOXOXT.0.H.S.9.q.F.W.Y.E.gXR.D.F.Y.W.W.W.q.x.s.b.oXXXXXXXXXXXXXIXIXIXIXIXIXIXIXIXIXIXIXIXIXIXIXIXIXIXIXIXIXIXIXIXIXIXIXIXIXIXIXIXIX",
"IXIXIXIXIXIXIXIXIXIXIXIXIXIXIXIXIXIXIXIXIXIXIXIXIXIXIXIXIXIXIXIXIXIX2 2 5 7 < x a.s.h.g.g.g.g.g.g.g.S c h.N.V.M.M.M.M.(.M.(.M.(.(.(.(.(._.(.(.(.^.(.[.=Xc.h 0 *.e ] { | ] e *.*.*.F { | | &.| | &.{ F F v.K.v.v.v.J.J.J.v.S j 9 e [ ]  . .] [ } } } } 0 k c.z.x K.T.T.T.R.T.:X:XI.J.J.wXqX0 , # + M O., F o.qXuXuXuXuXiXiXiXiXiXiXiXaXaXaXpXpXgXpXpX$Xn J ~.}.{.{.{.{.OX!.l 9 0 e e 0 0 = # 9 w w q q q , h l c  XB.b.a.c c S a.b.c.l j l y s d =.;.<.1.1.1.1.1.1.1.1.1.1.,.t.1.1.r.1.1.1.1.1.1.1.1.s 4 4 K K K K K 4 & J.-X}.{._.).).).).).).).).].|.m H kXlXlXlXlXlXlXlXlXlXjXlXlXlXlXjXlXlXkXaXiX$XP.@XH '.{.`.`.`.].].].`.`.`.`.].].'.].]..X*X|.b.m / 0XtXtXPXPXPXDXDXDXDXDXDXDXDXDXyXDXDXyXtX$.N v h b j C m C C B C C Z Z C C C Z H C C Z G Z C Z Z C Z H z.z.z.z.z.l.z.z.z.z.l.l.l.z.z.z.x a b H z.0.l.l.a.0.z.l.z.a.a.a.l.l.z.a.a.a.a.z.l.a.a.b.!.!.|.=X=X&X&X|.|.XXXXXXXXXX XXXXXXXXXXXXXXXXXXXXX=X0.0.D.F.W.W.E.gXgXfXgXD.F.W.W.W.W.i.w.q.8.a.b.XX-XXXXXOXIXIXIXIXIXIXIXIXIXIXIXIXIXIXIXIXIXIXIXIXIXIXIXIXIXIXIXIXIXIXIXIXIXIX",
"IXIXIXIXIXIXIXIXIXIXIXIXIXIXIXIXIXIXIXIXIXIXIXIXIXIXIXIXIXIXIXIXIXIX8 6 , , k S s.s.s.g.g.g.g.g.~.f.x a.M.M.M.M.M.B.M.V.M.M.M.M.M.M.M.(.).(.(.(.(.(.(.[./.!.H F e ] ] } F *.*.*.F F { { O.| &.O.@.{ F D H K.v.z.H H H v.K.J.H F ] ] ] } [ ] ]  . . .} e < H H C :XT.K.T.T.T.:X:X:X;X+XJ.X.0 , # & F L.9 # M o.wXuXuXuXiXiXiXiXgXiXiXpXpXiXiXgXpXaXaXpXI.1 S [.}.{.{.{.{.XXJ , e e e e e 8 O % q q q w q % h k c h.^.^.M.M.|.j.b.a.u * u s d =.;.<.<.1.1.1.1.1.1.1.1.1.1.1.1.1.1.,.,.1.>.<.<.<.-.5.z ; 4 K K K K 4 4 t +XXX}.{.{.).).).).].).'././.|.v.F uXzXlXlXlXlXjXjXlXlXlXlXlXlXlXkXxXiXuX$XJ.J.$.o.X.K.XX`.`.`.`.`.].`.`.`.`.].].].].].].].]..X*X.XJ.o.qXtXtXDXPXyXyXyXyXyXDXDXDXDXDXtXtXeXqXD : v m b B C C C Z C G Z Z Z C V C C C Z C C Z Z Z Z Z Z G Z Z z.z.l.l.l.z.z.z.z.x.x.l.z.z.Z p h m z.z.l.z.z.3.0.z.z.l.z.a.l.l.z.l.z.z.4.l.l.z.a.a.b.K.!.+X&X&X&X&X|.oXoXXXXXXXXXXX X.XXXXXXXXXXXXXXXXX-XH.V F.Y.W.W.R.gXaXfXpXH.W.W.W.W.W.W.W.w.q.8.3.a.j..XXXXXIXIXIXIXIXIXIXIXIXIXIXIXIXIXIXIXIXIXIXIXIXIXIXIXIXIXIXIXIXIXIXIXIXIX",
"IXIXIXIXIXIXIXIXIXIXIXIXIXIXIXIXIXIXIXIXIXIXIXIXIXIXIXIXIXIXIXIXIXIX8 7 9 k S s.s.g.s.g.g.g.j.j.f.S c k.M.M.M.M.M.M.M.M.(.M.(.(.M.N.M.).(.(.).(.).(.(.(.(.[.oXb.J ] ] } { ) *.F F { { { ..O.&.| O.| D F v.c.v.H G H H H H v.v.D [ [ ] ] ] [ ] | { { } / , k n j K.K.T.T.R.R.R.R.:X:X;X;X$XG.n , % % 0 9 ; 9 [ $XuXuXuXiXpXfXpXiXpXiXpXiXpXpXpXpXaXpXiXpXH k ~.{.{.{.{.{.oXJ , 0 r e e e e % & q w w w w 5 l S k c h.Z.Z.j.x.a.j - * y d =.4.<.<.<.1.1.1.1.1.1.1.1.1.1.1.1.,.>.<.-.;.:.=.f f d d a : 4 4 K K K K 4 5 !.OX{.{.{.`.).).).).]./.j.b.z.x H ;XzXlXlXlXlXaXjXjXjXlXlXlXlXaXpX$X%XP.o.o.$.o.$.%...b.'.`.`.`.`.].`.`.`.`.`.].].].].].].].].].]..X*XI.o.yXPXDXDXDXyXDXyXDXDXyX9XyXyXyXtXwXG.b p n C C C b m C C Z C Z C C Z C C C C Z Z Z z.z.H Z Z H H Z Z z.z.z.z.z.z.z.z.z.z.z.z.G C C C j b S z.l.z.z.l.l.l.a.0.z.z.a.z.l.z.l.S 4.a.l.l.l.a.+X+X+X+X&X&X&X&X&X|.oXoXoXXXXXXX X XXX X X.XXXXXXXXX*XG.0.H.Y.W.E.gXfXgXaXfXR.W.W.W.W.W.W.W.W.W.W.q.7.3.d..X-XIXIXIXIXIXIXIXIXIXIXIXIXIXIXIXIXIXIXIXIXIXIXIXIXIXIXIXIXIXIXIXIXIXIX",
"IXIXIXIXIXIXIXIXIXIXIXIXIXIXIXIXIXIXIXIXIXIXIXIXIXIXIXIXIXIXIXIXIXIX6 8 0 k a.h.s.g.g.g.g.g.g.j.f.S f.M.M.N.M.M.M.M.M.M.M.M.B.(.M.M.(.(.M.(.(.(.(.(.).[.(.[.[.oXv.F ] }  .F F *.{ { { { ..| O.@.| &.{ F H !.v.H H H H H H H H H G [ [ ] [ } [ | |  .} ] 0 ; : h m Z 0.K.:XR.R.:X:X:X:X;X;X;X$XU.n ; 9 %.$.0XD @XuXuXiXiXpXfXfXdXiXpXiXpXpXaXiXpXiXaXpXpX$XJ ~.{.{.{.}.[.h.1 , 0 r e e r r 7 % 8 w w w w 7 : S a.c c a.z c l p u - s f 4.=.<.<.<.<.<.1.<.<.1.1.1.1.<.;.>.-.;.7.0.z.G.I.I.wXwX$XN : 4 4 4 K K 4 4 2 +XOXXX{.{.`._.).).).).^.|.H k X.@XsXzXlXlXlXjXlXjXjXaXjXlXlXlXgX$XP.L.o.o.$.$.$.$.$.%.D +X X`.`.`.`.}.].`.`.`.`.].].].].].].).`.].].].^.&XX.%.0XyXDXDXDXDXDXyXyXDXyXyXyXrXiXU.I.C b C C C B C C C C V C C C C C G G Z C Z G Z z.z.z.Z Z H H Z Z z.z.l.l.l.0.z.K.z.z.j a G.;XpXiXC b z.z.l.l.z.7.H l.z.a.z.l.z.x.z.a.z.z.H z.l.l.l.a.b.+X+X&X&X&X+X+X&X&X|.oXoX XXXXX.X.X.X-X X X XXXXX-XK.H.T.Y.E.W.gXfXfXaXfXfXgXW.W.W.W.W.W.W.W.W.W.F.q.q.8.4.|.IXIXIXIXIXIXIXIXIXIXIXIXIXIXIXIXIXIXIXIXIXIXIXIXIXIXIXIXIXIXIXIXIXIX",
"IXIXIXIXIXIXIXIXIXIXIXIXIXIXIXIXIXIXIXIXIXIXIXIXIXIXIXIXIXIXIXIXIXIX7 8 9 k S s.s.s.g.g.h.g.j.f.c a.k.M.M.N.M.B.M.M.M.V.M.M.M.M.M.B.M.M.(.(.(.(.(.(.(._.[.[.[.}.+XD ] } ) { *.{ { { { ..O...| O.&.O.| F H H v.l.z.H H H H H H H H ] [ [ [ [ ] | [ ] ] ] ) e 0 e N C 7.T.R.R.R.R.:X;X:X;X:X;X;XuX$XJ.M o.wX$.{ wXiXiXiXgXpXdXqXJ.J.P.$XwXuXiXpXaXpXaXpXpXiXG oX{.{.{.}.[.J # 7 e 0 r 8 7 % ; 8 w w w w w 8 : l.a.a.S S l.a.x l u i =.=.;.<.<.<.<.<.<.<.;.;.;.;.=.=.3.7.G.I.;XnXGXJXKXKXKXKXKXKX| 4 4 4 K K K 4 t J.OX}.{.{.`.`.).).).).^.Z.H N L.$XwXwXiXkXpXkXkXaXlXlXlXjXlXlXpX#Xo.o...[ D F 0 0 9 0 7 = H .X'.`.`.`.`.`.`.`.].].].].].`.B.`.B.].].].].].b.h e %.Q.rXPXDXDXDXyXyXyXyXyX0X0XU.Y.R.Z p C C Z m C Z C C C C C Z C C Z Z C C Z C z.z.z.z.H H Z 0.G G H.x.z.z.H B Z z.B B J.:XpXlXzXpXC Z l.z.z.z.B j j C H z.z.z.z.z.a.z.z.C x Z z.l.l.a.b.+X+X+X&X+X+X+X&X&X=XoXoX X X X.X.X.X*X|. XXXXXXX*Xv.H.U.R.E.E.gXfXfXaXfXfXfXE.W.W.W.W.W.W.W.W.W.W.F.D.q.q.w.IXIXIXIXIXIXIXIXIXIXIXIXIXIXIXIXIXIXIXIXIXIXIXIXIXIXIXIXIXIXIXIXIXIX",
"IXIXIXIXIXIXIXIXIXIXIXIXIXIXIXIXIXIXIXIXIXIXIXIXIXIXIXIXIXIXIXIXIXIX7 5 8 h S a.s.f.g.h.f.g.h.f.c f.M.M.M.M.M.M.M.M.M.V.M.M.M.V.V.M.M.M.(.(.(.(.(.(.(._.[.[.[.{.oXO.D  . .] ] { { { { | O.O.O.O.O.O.| F J o.v.c.v.G G H z.z.X.H H D [ [ [ [ [ | { [ ] ] ] } ] / N Z G.:XR.R.:XR.:X,X;X;X;X;X:X:X;XuX$XP.P.O.P.eXdXdXiXaXfXwXv 9 r N D D X.J.$XiXpXpXpXpXiXG.!.{.{.}.OX~.1 t 7 , 7 , 7 7 8 Y Y w q w w w w 1 b.c.a.l.a.c a.j u i =.-.;.<.<.<.;.;.;.=.=.=.=.=.=.4.z H FXJXJXKXKXKXKXKXKXKXKXKX0X6 4 4 K K 4 4 6 v.1X}.{.{.{.{._.).].).).].l.v N ..o.o.o.L.o.L.J.%XaXaXaXjXlXlXzXuXL...e % % % @ ; o , @X@XL.M S |.XX].`.`.`.`.].'.'.].`.B.`.].].B.`.].].]..Xb.= # 0 ) Q.yXtXDXDXyXyXyXyX0X$.I.Y.W.W.D.p m Z Z C C C C C C G Z Z G H 0.H Z V Z Z H 0.H z.H G.G.H z.Z G.l.l.z.B C X.z.I.gXlXzXlXaXlXgXZ H z.l.S H :X>XG.l G G j x z.l.x.l.H b m m C x.x.l.c.+X+X+X&X+X+X+X+X+X&X|.oXoX.X|.oX.X*X*X|..XXXXXXX&Xz.G.S.H.Y.gXgXfXfXaXfXfXfXgXW.W.W.W.W.W.W.W.W.W.W.F.F.w.8.IXIXIXIXIXIXIXIXIXIXIXIXIXIXIXIXIXIXIXIXIXIXIXIXIXIXIXIXIXIXIXIXIXIX",
"IXIXIXIXIXIXIXIXIXIXIXIXIXIXIXIXIXIXIXIXIXIXIXIXIXIXIXIXIXIXIXIXIXIX7 8 5 9 k a.a.a.f.f.j.h.S c S s.M.M.V.M.M.M.V.M.M.M.M.M.M.M.M.M.M.g.g.M.(.(.(.(.(.(.(._.{.[.XXH *.] ] ) { { | { { | | &.O.O.| O.| F J H v.v.v.G G v.v.J.K.J.H H [ [ [ [ [ [ [ ]  .[ ] ] ] / M H I.:X:XR.,XR.R.:X:X,X;X;X:X;X;X;XgX;X$X#XqXdXdXgXfXfXiX[ F { ..{ [ [ [ N D J.wXuXiXpXiXX.b.{.{.{.{.f.1 0 0 q e e e Y ] ) Y Y w w w w q , l.|.s.|.j.a.x u d =.;.;.<.<.;.<.;.4.=.=.=.f 4.4.a.&X&Xv.J.qXFXJXKXKXKXKXKXKXKXPXU 4 4 4 K K 4 4 9 +X}.{.{.{.{.{.).).).B.).|.H X.O.$.o.o.o...O.O.O.H I.kXlXaXlXlXlX$X0 ; O + + r 8 w 8 @XJXJXJXrXZ x b..X'.`.`._.`.`.`.].].).].].].].].].].].].T.= & # t e $.yXtXrX0X0X0X0XL.I.R.W.Y.Y.H.B j Z C C C Z x C Z Z Z z.z.l.Z Z G H Z Z C x Z H z.z.z.H Z z.l.l.l.Z H :XaXpXlXlXpXjXaXaXaX>Xl.G.x.0.Z ;XjXkXlX$XH b a j C l.0.l.S b o.P.x l.c.z.l.T.&X+X&X&X+X+X%X+X+X|.|.-X|.|.|.&X&X&XA..XXXXX-X+XB B Z I.H.H.I.aXaXaXaXaXfXgXE.W.W.W.W.i.W.W.W.W.W.i.F.F.w.IXIXIXIXIXIXIXIXIXIXIXIXIXIXIXIXIXIXIXIXIXIXIXIXIXIXIXIXIXIXIXIXIXIX",
"IXIXIXIXIXIXIXIXIXIXIXIXIXIXIXIXIXIXIXIXIXIXIXIXIXIXIXIXIXIXIXIXIXIX8 8 5 7 < k S S a.a.a.S c c a.g.M.M.M.M.M.V.M.M.M.M.M.n.M.M.M.M.g.g.g.g.j.(.(.(.(.(.(.(.{.[.[.v.D ] ] { { {  .| { { | | @.O.@.| O.J J H v.v.v.c.H H H +XJ.v.H H H X.X.{ [ { { [ [  .} } ] / n G.:X,XR.;X,XgX:X;X:X;X;X;X;X;X:X:X;X;X:XP.iXdXdXiXiXfX$XX.o...P.wXqX@Xo.D v v v o.$XiXiXX.c.}.}.{.}.~.l F *.F ] ] ]  .] ] ) Y U U U w w 7 S N.h.Z.k.S u d =.;.;.<.<.<.;.=.=.=.f 4.4.4.4.4.^.XXXXoX&Xz.H X.&.$.qXqXqX@X$.) 6 4 4 K K 4 4 o n oX}.{.OX{.`.`._.).].).].b.N O.o.o.O.O.O.{ { ..{ O.$.kXpXlXlXaXzXJ., ; o + o 8 e +.yXFXJXBXvXrX#X= h |. X}.].`.`.`.].].).).).].].].].].].]..Xb.% 2 3 2 t e %.0XP.L.X.&.X.U.R.Y.W.W.Y.Y.S.a C C C G Z C C C V G Z z.l.Z Z Z Z H Z Z Z H z.z.z.z.z.H G.G.z.a.Z uXlXlXlXaXaXaXaXaXaXaXaXaXaX:X:XuXjXjXaXaXjXpX:XI.H G z.l.z.C H sXZXJ.z.b.l.b.&X+X&X&X+X+X$X$X$X+X+X&X&X|.T.Z.&X&X&XZ..XXXXXXXc.j N ( U.U.U.( U.R.gXgXfXfXfXgXW.W.W.W.W.W.W.W.W.W.q.W.w.w.IXIXIXIXIXIXIXIXIXIXIXIXIXIXIXIXIXIXIXIXIXIXIXIXIXIXIXIXIXIXIXIXIXIX",
"IXIXIXIXIXIXIXIXIXIXIXIXIXIXIXIXIXIXIXIXIXIXIXIXIXIXIXIXIXIXIXIXIXIXq 8 7 7 , < h l l l c l l S g.g.g.n.M.M.M.M.M.M.M.M.M.M.N.N.M.g.f.s.g.g.g.M.(.(.M.(.(.(.[.[.oX!.D ] ]  .{  .{ ] { { O.Q.O.O.O.O.| ..J H v.v.v.v.H H z.v.v.H H H H H X.X.[ X.X.{ {  .} } ] ] N z.R.,X,XR.;XE.,X:X;X:X;X;X;X;X;X:X;X:XI.$XsXdXfXdXiXfXJ.$X$XJ.J.P.rXeXsXeXO., ; ; n X.@XD c.[.}.{.}.[.S J F } } } } } } } Y Y w w U w w 8 C !.s.Z.a.i i =.=.;.;.4.;.;.;.=.f 4.4.c 4.4.4.g.|. X X XXXXX=Xb.v.z.H H J.+XJ 6 4 4 K K 4 4 o O J oX{.{.OX{.`.`.).`.).).].v.9 D D e 7 # $ O , D 0 0 ..iXzXaXaXlXCXP.o.0X, o + % w &.rXmXeXO...o.P.@XH j b.oX'.`.`.`.`.].].`.`.].].].B.].].]..Xz.2 3 3 4 3 8 q / ] M r n X.x.Y.Y.W.W.W.Y.H.b j Z Z C C C C V Z G C V C Z G Z 0.z.z.z.z.z.z.H G z.H z.z.z.z.Z :XlXaXpXaXaXaXaXaXaXlXlXlXjXlXlXlXlXjXaXjXjXjXjXjXjX:XH H z.z.m P.GXJXuXS l.l.K.+X+X&X&X+X+X$X$X%X+X&X&X&X&X&X&X&XZ.T.&X|.oXXX-Xv.b N B Z Z G.G.Z G.U.I.gXgXfXfXR.F.F.W.W.W.W.W.W.W.F.q.9.q.IXIXIXIXIXIXIXIXIXIXIXIXIXIXIXIXIXIXIXIXIXIXIXIXIXIXIXIXIXIXIXIXIXIX",
"IXIXIXIXIXIXIXIXIXIXIXIXIXIXIXIXIXIXIXIXIXIXIXIXIXIXIXIXIXIXIXIXIXIXr r r 8 7 7 < h l S c.f.s.h.g.g.g.M.M.M.V.M.V.M.M.M.M.M.M.M.h.S x x S g.g.j.(.(.(.(.(.(._.[.[.!.H { @.Q.O.O.%.| | &.Q.Q.&.%.Q.....O...J H c.c.v.z.H c.H G H H Z H X.X.X.X.X.X.{ [ [ [ ] / / M G.:X,XR.;X;X,X,X:X;X;X:X:X;X;X;X;X;X$XP.wXdXdXgXiXpX$XI.;X;XuX$XJ.o.0XsXdXO.; % # < ; n < l.[.[.{.{.XXz.v [ } } } ) ) ] } Y e w w Y w w r < G a.h.c i f ;.4.;.;.;.=.=.f 4.4.4.4.4.4.4.a.|./. X X XXXXXXXXX-XXX-X-X-X-Xv.q 4 4 K 4 2 o o o J OX}.{.}.{.`.`.).).).(.^.H O + + . t , X , qXBXrXe ; rXzXaXaXlXCX$X$.sX] & # 8 e 8 9 n v N J.$XkXCXkXJ.C z. X].].`.`.).].].`.].].].].].]..XZ.k 2 3 3 3 3 2 % 8 8 2 3 Y [ G.U.F.i.W.Y.W.Y.Z a C G Z Z C C C Z Z Z Z C Z Z 0.z.z.z.z.l.z.l.Z G.K.H G G z.Z J.fXaXaXaXaXaXaXaXaXaXpXlXjXlXlXzXlXlXjX<X,XjXaX1XaXjXjXJ.b H X.v P.HXJXpXz.l.l.+X&X&X&X&X&X+X$X$X%X+X+X&X&X&X&X&XA.T.Z.|.&XoXoX-Xv.Z O./ N / N ..X.X.X.U.wXuXpXfXgXR.Y.W.W.W.W.W.W.W.F.S.8.9.IXIXIXIXIXIXIXIXIXIXIXIXIXIXIXIXIXIXIXIXIXIXIXIXIXIXIXIXIXIXIXIXIXIX",
"IXIXIXIXIXIXIXIXIXIXIXIXIXIXIXIXIXIXIXIXIXIXIXIXIXIXIXIXIXIXIXIXIXIXe r q r r 9 < k S f.k.k.g.g.g.g.g.g.M.N.M.M.M.M.M.M.M.M.M.g.a.S K.I.v.a.g.(.~.g.(.(.(.(.(.[.[.|.H { ..Q.Q.%.$.#XQ.$.Q.%.$.Q.O.....O...H z.v.c.v.z.H H H H H H H H G.X...X.X.X.] { { [ ] ] / M H :X,X:X;X;X,X:X;X;X;X,X;X;X;X;X;X;X$XwXuXdXdXaXfXpXI.:X:X:X;XuX:X+XX.$XmXD = $ , { , ; 1 H [.[.{.{.OXf.p D [ } ) ) ) ) ) Y Y w U w w U r - j f.f.i =.;.;.<.;.=.f d =.4.c c c =.4.4.4.Z. X/./././.'.oXXXXXXX}.XXXXoXoX..4 4 4 K 4 o o & + v.OX{.{.{.}.`._.).).B.).|.l & + + + ] %.) O.GXGXBX#X; $XCXjXjXlXCXwX[ #X| ; # 5 9 n X.%X$XpXAXlXlXlXlXCXpXJ.f. X'.].].).B.`.].].].].].].]..Xz.9 2 3 K 3 3 2 2 4 3 3 3 3 e J.H.w.F.W.W.Y.W.F.B j z.Z C C C Z Z z.H Z V C H Z z.z.z.l.l.l.l.Z %XiX$Xz.C Z K.pXaXaXaXaXaXaXaXfXaXjXlXfXkXpXkXpXpXpXaXaXjXaXpXlXjXxXjXP.v ..&.&.P.JXJXSXI.x K.&X&X&X&X&X+X$X$X%X$X$X+X&X&X&X&X|.T.&XZ.|.|.|.oX-Xz.m rXqXM M M [ [ N N X.U.wXuXgXfXgXfXE.W.W.W.W.Y.F.F.D.8.8.IXIXIXIXIXIXIXIXIXIXIXIXIXIXIXIXIXIXIXIXIXIXIXIXIXIXIXIXIXIXIXIXIXIX",
"IXIXIXIXIXIXIXIXIXIXIXIXIXIXIXIXIXIXIXIXIXIXIXIXIXIXIXIXIXIXIXIXIXIXr r r r e v k S a.h.k.g.s.s.g.g.g.g.M.M.M.M.M.M.M.M.M.M.M.g.c.c.%XuX:Xl.s.~.g.M.j.g.M.(.(.[.[.|.v.D ..O.Q.Q.Q.Q.Q.O.$.%.%.%.Q...O.O.O.J H v.v.v.c.H H G H H H H H z.G.X.X.X.X.{  .[ [ [ ] ] M X.R.;X,X;X;X;X;X;X;X;X;X;X;X;X;XuX$X$XwXdXdXdXpXfXgXI.;X;X:X;XuX;XuX$XI.rX$.7 $ ; $.M O # S [.}.{.{.}.c.- G [ ] } } ) ] ) e e Y Y Y U U w , k S c d 4.4.;.;.=.d i c 4.c c 4.4.4.4.4.h. X'. X^./././.[.[. XXX[.XX X X!.0 4 K K 4 & o & & ; K.XX{.{.{.{.`.)._.B.B.).Z.h r & o o 8 } yXGXJXVXvXtXM X.lXaXjXlXlXiX9 M 9 9 X.$XiXpXpXlXlXlXjXjXaXaXjXzXCXnXH |.].].].].B.`.].].].].].]..Xb.h = 2 3 L 3 3 3 4 3 4 3 3 3 q U.H.Y.i.W.W.Y.W.F.0.j H Z Z V C C H H Z S Z C G S z.l.l.l.l.l.z.H ;XlXuX;X;XaXfXlXaXaXaXaXaXaXaXaXlXlXpX:XJ.X.X...D H X.X.X.X.J.P.$X:XI.X.v M  .$.qXJXGXSXbXG.K.:X&X+X+X+X+X$X$X$X$X$X$X&XT.&X&XT.Z.Z.Z.|.|.|.oX-Xl.N wXwXM , 9 r M M N / [ X.wXiXgXfXfXgXY.W.W.Y.gXY.F.H.9.7.IXIXIXIXIXIXIXIXIXIXIXIXIXIXIXIXIXIXIXIXIXIXIXIXIXIXIXIXIXIXIXIXIXIX",
"IXIXIXIXIXIXIXIXIXIXIXIXIXIXIXIXIXIXIXIXIXIXIXIXIXIXIXIXIXIXIXIXIXIXr r M M M 0 h S a.s.h.d.d.s.s.g.d.g.M.g.g.g.g.M.g.g.M.g.M.M.h.J.:X;X;X+XS g.g.(.g.g.M.(.(.[.[.(.~.H ..Q.$.$.Q.$.#X$.$.Q.%.$.O.....O.O.H G v.c.v.v.z.z.z.H H H H z.z.X.X.X.X.{ [ { [ [ [ [ [ N B I.;X:X;X;X;X;X;X;X;X;X;X;X;X;XuXuX$XeXdXdXiXdXfX:XI.;X;X;X;X;X;XuXuXuX$XJ.e % # 7 0 # # k ~.[.}.[.oXf.- Z X. .} } } ] ] *.e Y Y Y U U U 8 l x l =.;.;.;.f i j c c f c 4.4.c 4.4.a.|. X X/.^./. X X X[./.[./. XoXoXv.3 K K 3 &   o & + # H [.{.{.{.{.{._.).).).).|.X..., @ 2 w ) $.GXNXrXqXqX, X.lXlXjXlXlXuX< D $XiXkXlXlXaXpXaXaXaXaXaXaXjXlXzXzXkXv.|. X`.`.B.`.B.].].].].].].].b.* + & % 4 3 L 3 4 3 3 K ^ K L G.H.Y.W.W.W.w.W.Y.H.V C Z Z H H 0.Z Z C Z Z S Z 0.z.l.z.l.z.z.z.z.iXaXjXlXlXjXaXaXaXaXaXaXaXaXaXaXlX:XH M r r r r U r w e Y I r M / / M Y r Y  .6X0XHXJXSXJX$XP.:X+X+X+X+X+X$X$X+X$X$X%X+Xb.&X&XT.&X&X|.&X|.oXXX-Xv.b %...M 9 9 r r M M / [ / ( wXfXfXfXfXgXY.E.R.gXgXY.D.7.7.IXIXIXIXIXIXIXIXIXIXIXIXIXIXIXIXIXIXIXIXIXIXIXIXIXIXIXIXIXIXIXIXIXIX",
"IXIXIXIXIXIXIXIXIXIXIXIXIXIXIXIXIXIXIXIXIXIXIXIXIXIXIXIXIXIXIXIXIXIXe M F / e < l c a.s.g.s.d.s.g.g.g.g.g.g.g.g.g.g.g.g.j.M.M.j.b.J.:X;X;X;Xv.a.g.g.g.g.(.(.(./.[.(.(.|.v.O.o.J.L.$.Q.L.$.$.%.$.O...O.O.o.H H f.v.v.v.v.c.v.H l.z.H z.G.G.X...{ X.[ [ [ [ / ( [ F N I.:X;X;X;X;X;X;X;X;X;X;X;X;X;XuX$XwXsXdXdXfXfXaXK.;X;X;X;X;X;X;XuXuXuXuXI.X.; # ] %.[ ; G j.[.[.[.!.S l z.H { } }  . .} Y e e Y Y Y Y U r = y i =.=.=.d u c 3.c c c c c c 4.c 4.M./. X X X X X X X XXX[.[. X XXX|.F 4 K K 4 & o & % # # 1 !.OX{.{.{.{.{._.).).`.|.H %.N e ] Y Y  .P.#XX...0 + G kXkXaXjXzXpXn o.AXzXjXpXaXaXaXaXaXjXjXjXjXjXjXzXzXhXl.oXXX].).].).B.].].].].].]..XA.p = & & & 3 3 3 3 3 3 K ^ K K / H.Y.Y.W.W.W.W.Y.Y.F.a H H z.0.l.H Z Z Z C C Z z.l.H.l.z.z.l.z.+XpXaXaXaXpXaXaXlXlXjXkXaXuXaXlXlXwXZ M Y Y Y Y U R U I I U I U U U I E Y E Y ) +.$.GXJXSXSXnXJ.:X$X$X$X+X%X$X$X$X$X+X+X+X&X&X&X&X*X-X*X*XoXoXXX-Xc.J.sXqX[ : 9 r [ [ ^ N / N / P.fXfXfXfXfXgXR.Y.gXfXgXD.9.0.IXIXIXIXIXIXIXIXIXIXIXIXIXIXIXIXIXIXIXIXIXIXIXIXIXIXIXIXIXIXIXIXIXIX",
"IXIXIXIXIXIXIXIXIXIXIXIXIXIXIXIXIXIXIXIXIXIXIXIXIXIXIXIXIXIXIXIXIXIXe M F ] 0 < k a.a.s.s.s.s.s.g.g.g.g.g.g.g.g.g.g.g.j.g.g.g.b.c.S K.;XuX;XI.a.g.g.g.g.M.M.(./././.(.[.oX!.v.o.o.$.%.#XL.$.$.O.O.....O.Q...H c.v.c.v.v.c.v.c.H z.z.z.z.X.X...[ [ X...[ [ [ [ [ D n G.;X;X;XgX;X;X;X;X;X;X;X;X;X;X;X@XeXdXiXgXpXfXiXI.;X;X;X;X;X;XgXuXuXuXgXaXuXX.< v qXsXL.G |.[.[./.S l J v.G... .} } } ] Y e Y Y Y Y w U r ; y d =.f s u c c c c c 4.c c c c c d.|. XoX X X X X/. X/. X X X X XXX+Xr 4 K K & & o % % @ # ; c.}.{.{.{.[.{._.).).).|.b n n / e r 0 n D D X.L.o.: D pXjXlXlXlXkXH P.lXzXaXaXaXaXaXaXaXjXjXlXjXjXlXzXCX>Xv.XX X`.`.].`.].].].].].].]. X.XS = @ & % % 2 2 3 3 4 3 K L K q G.Y.Y.Y.Y.W.W.W.Y.Y.Z b Z H H H C C Z Z Z Z G z.l.l.z.l.l.G.K.uXpXaXaXjXjXpXaXaXpXuXI.X.D X.$XuXX.Y / E U I U q q q I U U U I U Y Y U U U R E +.%.SXJXSXSXJX@X$X$X$X$X$X$X$X$X$X$X$X+X+X+X&X&X&X=X=X=X&XoXoXXX=Xz.I.GXGXfXUX( M M [ L.P.X.J.G.I.fXfXAXfXlXfXU.X.G.$XuXR.H.H.IXIXIXIXIXIXIXIXIXIXIXIXIXIXIXIXIXIXIXIXIXIXIXIXIXIXIXIXIXIXIXIXIXIX",
"IXIXIXIXIXIXIXIXIXIXIXIXIXIXIXIXIXIXIXIXIXIXIXIXIXIXIXIXIXIXIXIXIXIXM D ) M 0 v S a.a.g.s.d.s.g.s.s.g.g.g.g.g.g.g.j.k.h.f.a.f.h.l.z.$X;X;XgXgXl.a.j.g.M.g.M.(.).(./.(.(.[.oX!.v.o.Q.$.$.$.o.%.O.O.....O.O.O.J H f.v.f.v.f.f.v.!.v.l.z.X.X.{ ..[ [ X.X.N { X.[ D D M H ;X;X;X;X;X;X;X;X;X;X;X;X;XgXuX$XiXdXdXdXfXfXuXI.uX;X;X:X;X;XgXgXuXiXgXgXaXpXI.D X.sX#Xv.~.oX/.a.j H v.l.z... .} } } ] } Y Y Y Y Y U U U < s c f s u c 4.c c 4.c 4.c c c 4.a.Z. X/.oX X/././././././. XXX X XXXv.3 4 4 4 & & o & @ & @ # H }.{._.{.{.{.).).).)..Xk n J.L.P.P.+X$X$X>XpXCXAX] D pXpXlXlXlXlXK.$XlXlXlXaXaXjXaXaXaXjXjXlXlXjXzXCXAXJ.b.XX'.].].).`.].`.].].].].].`..X*Xb $ + # # % 2 3 3 ^ 3 K L K 3 ( W.W.W.W.Y.W.Y.W.W.H.a x Z S Z C C C C Z Z C b Z 0.z.l.K.K.:X,XjXaXaXaXjXaXaXuX@X| ] ]  .] / [ e Y Y U q r q q q U U U U U U Y Y Y U U I U _ } #XGXJXSXSXJX$X$X$X$X@X@X$X$X$X$X%X$X$X+X&X&X&X=X&X&X+X|.oXoX=X&Xz.wXGXAXGXAXfXwXX.X.dXdXdXgXI.iXAXAXfXfXfXAXU.N / N N ( G.H.IXIXIXIXIXIXIXIXIXIXIXIXIXIXIXIXIXIXIXIXIXIXIXIXIXIXIXIXIXIXIXIXIXIX",
"IXIXIXIXIXIXIXIXIXIXIXIXIXIXIXIXIXIXIXIXIXIXIXIXIXIXIXIXIXIXIXIXIXIX] ] ] M n k S f.s.g.d.s.g.s.d.g.g.g.g.g.g.g.k.h.S j B z.K.K.:X;X:X;X;XuXuXI.x f.j.g.M.g.g.(.).(._././.[.oXoXv.o.#X%.$.#XQ.o.O...O.O.o.#XH H v.f.f.f.c.f.f.c.v.l.l.G.X.X.X.X.X.X.X.X.X.X.[ [ [ N D :X;X;X;X;X;X;X;XgXuXuXuX;XuXuXP.wXdXdXiXfXpXI.uXuX;X;X;X;XgXgXgXgXaXaXgXgXpXfXiXP.D F v.!.|.c.l H c.c.l.l...|  . .} }  .] } ] ] Y Y U Y 9 u d i - l 4.4.4.4.4.c c c c 4.4.d.|./.oX XoX/././././. X/. X|. X XoXl.2 4 2 @ % % @ o % @ @ = J OX}.[.{.{.{.).).).).^.G P.iXpXAXlXkXlXlXlXlXlXAXD N pXjXjXlXlXCX$X$XkXlXaXaXaXjXaXaXjXjXjXjXlXzXzXzXkXG.&X}.`.).).`.`.].].].].].].].].`..Xb.: = # & & & 2 3 K K 3 L K 3 / Y.Y.E.Y.Y.S.V S.H.H.0.j G Z C Z Z C G G C G.J.G.H v.I.:X,XaXaXjXaXaXaXpXpX$XO. .}  .+.+.} } Y Y U I q q q q q q q U q w Y I Y U I U Y E Y } #XcXGXJXSXSXJXnX+X$X$XqX@X%X$X$X$X$X$X$X$X&X:X&X&X&X:X&X+X+XT.K.&XG.uXGXfXfXGXfXGXdXwXsXdXdXuXI.fXfXfXfXfXfXpXJ./ / / / N N ( IXIXIXIXIXIXIXIXIXIXIXIXIXIXIXIXIXIXIXIXIXIXIXIXIXIXIXIXIXIXIXIXIXIX",
"IXIXIXIXIXIXIXIXIXIXIXIXIXIXIXIXIXIXIXIXIXIXIXIXIXIXIXIXIXIXIXIXIXIX] ] ] F n m a.s.s.s.s.s.s.d.h.g.g.g.g.M.g.g.f.j j G.$X;X:X;X:X:X:X:X;X;XuXuXH J f.g.M.M.M.M.(.(._.[././.(.~.c.X.#X$.$.0X@X#Xo.X.O.O.$.#XO.H H f.f.f.f.f.v.c.v.v.z.z.X.X.X.X.[ X.X.X.H H H D [ N N I.;X;X;X;XuXuXuXuXuXuXuXuXuXuXwXwXwXuXwXdXwX$XgXgXuXuX;XgXuXgXaXpXaXaXaXaXfXfXfXfXG.m +Xl.l.S H l.v.v.v.l.H | | +.} } } } } } } ) Y U Y 0 - i u h c 3.c 4.c c c c c c c 4.M. XoX X X/.'./.^. X X X/./. X/. X|.b.m n n ; # % @ & % % o t G XX[.{.{.{.`._.).).).'.S $XlXjXlXlXlXjXlXjXlXlXnXn X.fXlXjXjXjXzX$X$XlXlXaXaXaXaXjXaXjXjXjXjXjXlXlXzXkXv..X'.'.`.].`.].].].].].].].].].].].*Xl.= @ @ & & % 5 3 3 K K K K E H.Y.Y.W.Y.Z v v N 0.( p B Z Z G Z H Z Z X.;XpXkXaX,X,X,XaXjXaXaXaXaXaXpXL.| +.+.+. .| &.} } E Y Y q w q q q q q q q q q I I I Y E _ E / 0XmXGXJXSXJXJXSXSXZX@X$X$XqX0XqX$X$X$X$X$X$X$X$X:X$X:X:X+XK.z.H a.z.z.Z wXSXfXfXGXfXfXfXGXfXfXfXI.uXfXAXfXfXfXfXuXJ.I.O./ / [ / N IXIXIXIXIXIXIXIXIXIXIXIXIXIXIXIXIXIXIXIXIXIXIXIXIXIXIXIXIXIXIXIXIXIX",
"IXIXIXIXIXIXIXIXIXIXIXIXIXIXIXIXIXIXIXIXIXIXIXIXIXIXIXIXIXIXIXIXIXIX] ] ] F 0 k a.f.s.s.s.d.s.s.s.g.g.g.M.g.g.j.S 1 X.$XI.J.J.H D N X.J.;X;XuX$XD 1 l a.h.M.M.M.M.(.(.(.(.(.(.~.S D $.L.#X#X0X0X0Xo.O.O.L.@XO.H v.v.c.c.c.f.v.c.c.v.l.z.X.X.X.X.X...H H H H H H D F n G.uX;X;X;XuXuXuXuXuXuXuXiXiXgXiXiXuXwX$X$XJ.I.gXgXgXuXuXgXgXpXpXaXaXaXfXaXfXfXfXiXH H v.S H z.l.l.l.l.x.v.z.[  . . .] } } } ] } ] Y Y Y e 1 - p k c d d c c c c c c c 4.h.|././././.^./././././. X X/. X X X XoX|.b.!.G % o @ o % & & , v.}.{.{.{.{.{._.).`.`. Xz.$XzXjXjXlXaXjXjXlXlXlXpX< J.lXlXlXlXjXlXuX+XlXlXaXaXaXaXaXjXjXaXjXaXjXjXzXzXhXc. XXX`.`.`.`.].].]..X].].].].].].]..X&Xk + # $ + & & 3 3 3 K 4 K ^ H.W.W.Y.G.N } / F ] N < h C Z Z H 0.z.H J.iXkXlXlXlXjXlXpXpX$X$X:X$X:XI.X.+.+.+.%.0XdXnXqX&./ Y } / U q q 8 q q q q q q I I Y E ~ +.+.UXGXJXJXSXSXSXJXJXJXSXP.$XwXqX0X0X$X$X$X$X$X$X$X$X$X$X%XJ.z.G.v.K.:XT.I.G.wXGXfXfXfXfXfXfXfXfXfXfXuXfXAXfXfXfXfXfXI.P.GX0Xv M [ [ / IXIXIXIXIXIXIXIXIXIXIXIXIXIXIXIXIXIXIXIXIXIXIXIXIXIXIXIXIXIXIXIXIXIX",
"IXIXIXIXIXIXIXIXIXIXIXIXIXIXIXIXIXIXIXIXIXIXIXIXIXIXIXIXIXIXIXIXIXIX] ] M F 9 k a.s.s.g.d.s.s.s.s.g.g.g.g.g.g.k.x 0 ..[ n = ; $ ; , 0 X.:XgXiXP.0 , 1 c h.g.M.M.(.(.(.(.(.(.~.f.k ..$.L.#X#X@XrXqX0X#XL.L.P.o.D H v.v.f.c.f.v.v.l.l.v.z.H X.X.X.G.G.H H H z.H Z H D N H uX;X;XgXuXuXuXuXuXuXuXiXuXiXiXiXuXuXuX$XI.uXaXgXgXuXuXuXgXaXaXaXaXaXaXaXfXfXfXI.H z.z.z.z.l.l.l.l.l.x.c.v.z.D [ } } } } } }  .} ) Y ) Y 9 , < < - - 1 l u l j c c c c h.|./. X X|. X/. XoX XoXoXoX XoX X XoXoXoXXX=X!.D t o % % # % 0 !.{.{.{.{.{.{._._.`.`. Xa.P.zXjXjXjXjXjXjXjXlXzX$X: wXlXlXlXlXlXlXaX:XlXjXaXaXaXjXjXjXaXjXjXjXjXjXjXCXiXc.XXXX_.`.`.`.].`.}.].].].].].].].].]..Xl.# @ # # & 2 & 3 3 3 4 K ^ ( Y.Y.E.0.n e 0 r F ] n v C Z Z z.z.G.G.$XpXaXlXlXpXpXiX@Xo.( N N M [ / / } | I.iXlXlXlXAXAXL.] ] / I q 8 q q q q q q q Y Y E E +.+.&.MXJXJXSXSXJXJXSXJXJXJX@XL.tXqX0X0X$X$X$X%X$X$X$X$X$X+XG.H b.&XT.T.R.E.T.G.wXGXfXfXfXfXfXfXfXfXfXgXuXAXlXfXfXfXfXiXI.uXdXX.v 8 9 M [ IXIXIXIXIXIXIXIXIXIXIXIXIXIXIXIXIXIXIXIXIXIXIXIXIXIXIXIXIXIXIXIXIXIX",
"IXIXIXIXIXIXIXIXIXIXIXIXIXIXIXIXIXIXIXIXIXIXIXIXIXIXIXIXIXIXIXIXIXIX*.] ] F 0 J H a.s.s.s.s.s.s.g.s.g.g.g.g.g.f.h 7 ; 8 F [ 8 @ + + @ F :XuXiX@X0 < t l S g.M.M.(._.(.(.j.h.f.k F O.L.#X#X@X0XwXwXqXqXqX@X#X#XH H z.v.v.l.l.c.c.b.b.l.z.G.X.G.S.G.G.z.z.z.z.H H H D M b $XuX;XuXuXuXuXuXuXiXuXuXiXgXuXiXuXuXiXiXiXpXpXiXgXgXgXgXgXgXaXaXaXaXfXfXfXfXuXH z.l.z.z.z.l.v.l.v.v.v.b.v.v.z.D [ ] } }  .} } }  .} } ] F F ] e *.F n < 1 u u 1 1 u l S f.!.b.j.~.b.b.+X!.j.j.|.j.!.j.~.~.!.~.b.~.b.f.H 0 o @ % # = G XX{.{.{.{.`.`.`.`.{.`.'.l.J.lXlXjXlXjXjXjXjXjXzXP.h iXzXlXjXlXlXlXlX>XjXlXjXjXjXjXlXjXjXjXjXjXjXlXzXCX$Xb.XX{.`.`.].`.`.`.].].].].].`.].].].]..XH.v @ # & > & % 2 3 3 4 K K / Y.E.Y.C e D J.o.D n 7 p C H H z.z.G.G.;XkXlXlXiXP.O.[ M Y Y Y Y Y E Y q Y L.pXlXlXaXaXlXAXiXI.X.M q q q r U r q q q I / E E ~ +. .eXJXSXJXJXJXJXJXJXGXJXJX$Xo.qX0X0XqX$X%X$X$X$X$X$X$X#Xz.v.R.&XT.T.T.T.:XR.z.wXGXfXfXfXfXfXfXfXfXfXuXfXCXfXfXfXfXAXuXgXfXdXI.N : 7 9 r IXIXIXIXIXIXIXIXIXIXIXIXIXIXIXIXIXIXIXIXIXIXIXIXIXIXIXIXIXIXIXIXIXIX",
"IXIXIXIXIXIXIXIXIXIXIXIXIXIXIXIXIXIXIXIXIXIXIXIXIXIXIXIXIXIXIXIXIXIXM D F F e n H a.a.s.h.s.s.s.s.s.g.g.g.g.f.k = , [ #XtXtX[ , 9 % + D uXuXiX$XO.$.M ; x f.g.M.(.(.(.M.f.S k F { $.Q.#X#X0XwXrXwXqXwXrXeXwXUXJ.Z z.v.l.l.l.c.h.b.v.l.v.l.z.G.G.H H z.z.H z.H H H D N n I.uXuX;XuXuXuXuXiXgXgXuXiXuXuXuXuXiXiXiXiXiXiXpXgXgXgXgXgXgXfXaXaXaXaXaXfXfXJ.Z z.l.z.l.z.z.z.x.v.v.l.b.c.z.z.G...[ [ }  .) }  . .} }  . . . .} ) ) }  . .] F M 0 h h x x z.l.l.l.G.x.z.v.z.H.H.z.G.x.K.x.b.b.b.K.c.c.c.H n $ # & = !.XX{.{.{.`.`.`.{.`.`.`.'.b.X.zXlXlXlXjXjXjXjXlXCXJ.n kXlXlXlXlXlXjXzXaXlXjXjXjXjXjXjXlXjXjXlXlXlXlXCXCX$Xb.XX`.`.'.].`.].`.].].).`.`.].].].].'..Xz.h + % # % # & & 3 3 3 3 3 r Y.E.F.v M L.xX<X<X$XJ.h b Z H Z z.x.I.iXlXpX$X&.] ] } Y Y Y Y E Y Y U q M I.aXjXaXaXaXjXlXfXiXdX%.M q U E Y E Y Y U Y Y E +._ } P.HXJXJXSXSXJXJXJXGXAXSXZX@Xo.wX0X0X0X0XwXwX$XwX$X%XJ.z.K.:XR.T.T.T.T.R.:XR.z.wXAXAXAXGXfXfXfXfXfXdXgXAXAXfXfXfXfXfXgXfXfXfXfXuX( : 2 [ IXIXIXIXIXIXIXIXIXIXIXIXIXIXIXIXIXIXIXIXIXIXIXIXIXIXIXIXIXIXIXIXIXIX",
"IXIXIXIXIXIXIXIXIXIXIXIXIXIXIXIXIXIXIXIXIXIXIXIXIXIXIXIXIXIXIXIXIXIXe e M e e 0 m z.a.a.s.s.s.s.s.g.g.g.h.S k 1 , < #XrXeXcXrX| 9 % % X.uXgXuXqXo.tXO.+ - a.s.g.M.(.).h.J F ..%.%.$.$.o.P.0XwXqXeXeXqXwXwXUXwXP.X.z.v.b.l.l.c.x.b.c.l.l.v.J.G.z.H H z.z.z.z.z.G H G M n G.wXuX;XuXuXuXuXiXuXuXuXiXiXiXiXfXiXiXiXiXiXgXgXpXpXaXfXaXaXaXaXfXaXaXaXfXI.m z.l.z.z.l.l.z.z.z.l.v.z.l.v.l.l.z.z.X.{ }  .} ) } } }  .} }  .} _  . .} } } } } ] N ..J.I.I.K.:X;X;X:X;X*X;X;X,X,X;XgX:X;X:X,X,X-X-X-X-XXX-X!.1 t = H XX}.{.{.`.`.`.`.`.`.`.`.'.!.H jXjXjXjXjXjXjXjXlXlX..J.CXlXlXjXlXlXzXlXaXlXjXjXaXjXjXlXjXlXjXjXlXzXzXCXCX#Xb.XX{.{.`.{.`..X`.`.`.B.B.].].].`.].'.Z.x = & # @ @ @ $ + % 3 3 3 3 r H.Y.S./ F +X=X=X-X=X>XH j G G G Z z.$XpXpXJ.F ) E } E Y Y E Y U I U U r N uXlXaXjXjXaXfXzXlXuXlXfXqX/ U E ) E ~ E ~ E E ~ +.+.&.nXGXSXSXSXSXSXJXHXiX$XrXiXo.$.wX0X0X0X0X0XwXwX$X#Xo.v.K.T.T.T.T.T.&XR.R.H.H C rXGXAXfXfXfXfXfXfXfXuXpXfXfXfXfXfXfXgXpXfXfXfXfXfXfXI.b X.IXIXIXIXIXIXIXIXIXIXIXIXIXIXIXIXIXIXIXIXIXIXIXIXIXIXIXIXIXIXIXIXIXIX",
"IXIXIXIXIXIXIXIXIXIXIXIXIXIXIXIXIXIXIXIXIXIXIXIXIXIXIXIXIXIXIXIXIXIX] M e e e e < G a.a.s.d.s.g.s.g.g.f.J l C G.J.H n ..#XeXsX..# % ; X.iXgXuXwX[ o.{ = - l a.h.M.(.^.f.H o.%.%.%.%.%.$.P.rXrXwXwXtXrXrXwXwXwXwXJ.z.z.l.x.l.l.b.v.b.v.l.b.v.z.H H H H z.H H z.H H D N 9 H $XuX;X;XuXuXuXuXuXuXwXP.P.L.X.X.$XiXiXiXpXiXiXgXaXaXaXaXaXaXaXaXfXfXfXiXN G l.l.z.z.z.l.z.x.z.z.v.x.l.c.c.z.z.z.v.X.] } } } } } )  . .}  . .}  .@.+.+. .} } } ] X.P.I.:X:XR.:X:X;X:X:X:X,X:XR.,XR.:X:X:X:X*XXXXXXXXXXXOX1Xv.1 k oX}.{.{.{.`.`.`.`.`.`.`._._.|.H iXjXjXjXjXjXjXaXjXlXX.[ fXlXlXjXjXjXzXlXaXlXlXaXaXjXjXjXjXjXlXjXlXzXzXCXCXJ.!.{.{.{.`.`.{.'.XX`.].].].].B.].].]..Xk.h % @ # & $ $ % % % 2 3 K 4 : F.Y.Z F ..=X=X=X=X=X:XG.h C Z G H H I.wXL.] Y ) ) Y U w U Y Y Y I U Y r N iXlXjXaXjXjXzXCXkXuXaXpXAXwXY r Y R / +._ ~ +.+.+.&.iXCXCXSXSXSXSXJXJX$XP.qX@XP.o.0XqX0X0X0X#XqXwXwXL.X.K.R.&XT.T.T.R.R.K.z.V A p N iXZXfXGXfXfXfXfXGXfXR.gXfXfXfXfXfXfXgXpXfXaXaXfXaXpXfXgXJ.IXIXIXIXIXIXIXIXIXIXIXIXIXIXIXIXIXIXIXIXIXIXIXIXIXIXIXIXIXIXIXIXIXIX",
"IXIXIXIXIXIXIXIXIXIXIXIXIXIXIXIXIXIXIXIXIXIXIXIXIXIXIXIXIXIXIXIXIXIX| ] M e e e 0 n J S a.a.g.g.h.g.f.a.1 m $X:X:X:XJ.Z N D ..h 9 9 ; X.iXiXiXuX[ = ; m K.J.l a.g.M.~.H O.@.&.&.&.O.&.%.0XrXrXwXwXwXqXeXeXUXwXwXP.z.z.v.v.l.v.l.x.c.v.l.z.H H H G G H G H H z.H G N M 9 M I.uXuXuXuX;XuXuX$X( p h p p * - : P.iXiXiXpXgXaXaXaXfXgXfXaXaXfXaXaXfXJ.j z.l.z.z.z.z.z.l.z.z.z.v.x.l.l.v.l.z.z.z.H Z D  . .}  . .)  . .} } ) } +. .}  .} ] ] { J.K.T.R.R.R.R.T.R.:X:X:X:X:X,X,X,X:X,X,X;X*X-XXXXXXXXX}.OX!.h +X}.{.{.{.`.`.`._.`.`.`.`.`._. Xz.uXzXjXjXjXjXjXjXaXCX$Xv J.lXlXjXjXlXjXlXaXkXjXjXjXjXjXjXjXjXlXlXlXzXzXCXCXG.|.{.{.{.`.{.`.`.].].`.`.].].].].].]..Xx : @ % % % # # % & # % 3 K K r S.G.n F ..>X=X=X=X&X&XK.h G H z.H Z N { / } E / Y I U I U Y U U Y Y E M Z uXjXaXjXjXaXCXSXSXiXiXaXaXfXuX..r q Y E E _ / ~  .tXCXzXSXSXSXJXJXJXSX..o.qXqX0X0X8X0X0X0X0X0XqXqXL.J.K.T.T.T.T.T.R.Y.z.7.Z B b j N uXfXAXfXfXfXAXAXAXFXfXuXgXfXAXfXfXpXfXfXfXaXaXaXaXaXfXfXaXIXIXIXIXIXIXIXIXIXIXIXIXIXIXIXIXIXIXIXIXIXIXIXIXIXIXIXIXIXIXIXIXIXIX",
"IXIXIXIXIXIXIXIXIXIXIXIXIXIXIXIXIXIXIXIXIXIXIXIXIXIXIXIXIXIXIXIXIXIX&.{ F e e M e 9 1 k S f.f.s.g.h.f.S l G.:XR.R.:X;X:XT.U.z.U.I.I.N J.iXiXiXiXP.o.$X>XpXpXJ.c f.g.g.H | O.O.&.&.| O.$.0XwXrXqXwXqXwXwXwXwXyXuXwXJ.G.l.v.v.l.l.c.v.l.z.H G H H D D H G H H z.z.G v e e M J.uXuX;XuX;XuXuXJ.= m C m J k J h v wXdXpXpXpXaXpXfXfXfXfXaXaXpXpXaXwXA Z l.z.z.z.z.x.z.z.l.z.z.z.l.l.z.l.c.v.l.z.H D [ ] ]  .} } } } }  .+.} } } } } } ] ] ] [ U.K.T.R.:XT.R.R.:X:X:X:X;XE.,XE.;X;XE.;X*X*XXXXXXXXX}.[.OX!.h =X}.{.{.`.{.`._.`.`.`.`.`.`.`.'.c.$XlXjXjXjXjXjXjXjXlXzX;XX.;XjXlXjXlXlXlXaXjXjXaXjXjXjXjXjXlXjXlXzXzXzXCXkXH |.}.{.`.`.`.`.`.].].).].].`.B.`.]..Xx.k = @ % # % % # % @ % % 2 3 ^ q G.D M D +X=X=X=X=X&X&XJ.j C Z Z G C N /  .} E Y U r w I w U I U w Y E X.z.$XlXjXjXjXlXCXAXJXfXuXaXaXaXfXpX$X/ r U U Y / %.iXCXlXlXCXSXJXJXJXJXGXo.o.yX0X0X0X0X0X0X0X0X0XwXL.v.T.&XT.T.T.R.K.z.z B V z.B j a Z eXAXAXfXfXAXAXGXAXAXAXAXiXuXfXfXfXfXfXfXfXaXaXaXaXgXaXfXfXIXIXIXIXIXIXIXIXIXIXIXIXIXIXIXIXIXIXIXIXIXIXIXIXIXIXIXIXIXIXIXIXIXIX",
"IXIXIXIXIXIXIXIXIXIXIXIXIXIXIXIXIXIXIXIXIXIXIXIXIXIXIXIXIXIXIXIXIXIX&.| { *.e F F 0 , = - c a.f.s.s.f.f.S J.:XR.:XR.R.:X:X:X:X:X:X:XG.J.pXgXgXdXuXuXpXgXpXpX;Xk a.h.h.H O.@.| &.| &.8X$.0XqXrXwXwXqXwXyXwXwXwXuXuXJ.G.l.l.x.x.v.l.l.z.H G G H D D D G H S l.c.x.H 9 e e M X.I.uXuXuXuXuXuXP.: J k J J J J J h G wXdXdXgXpXiXdXdXdXfXaXfXfXfXpXZ B z.l.z.l.l.z.z.l.z.v.l.l.z.x.x.z.a.l.c.l.z.H C F M M ] } }  .} } )  .} } } ] } } ] ] ] X.K.K.T.T.T.T.R.R.:X:X:X:X:X;X;X,X;X;X,X*X:X:X*XXXXXXX[.[.oXv.J oX{._.`._._._._.`.`.`.`.`.`.`._.c.P.lXjXjXjXjXjXjXjXjXaXkXiX;XkXlXlXpXlXaXjXjXlXjXjXjXjXjXjXlXlXjXzXzXzXCXxXz.b.}.{.`.`.].'.'.`.`.`.).].`.].].]..Xc m 9 # % # # % # & @ $ % & 3 3 K / M F o.=X=X=X>X,XK.+Xz.j Z G Z G v r Y / E e Y U Y Y w w I U U Y E / I.J.J.aXaXaXjXlXAXAXJXHXiXaXaXaXaXaXfXpXuXP.P.0XiXAXzXlXlXlXCXSXSXSXJXJXGXJ.%.0X0X0X0X0X0X0X0X0XqXP.G.R.T.T.T.T.T.H.z i j b B B V B j b I.AXfXfXfXfXfXAXGXGXAXAXAXfXpXfXpXgXfXfXfXaXaXaXaXaXfXfXfXIXIXIXIXIXIXIXIXIXIXIXIXIXIXIXIXIXIXIXIXIXIXIXIXIXIXIXIXIXIXIXIXIXIX",
"IXIXIXIXIXIXIXIXIXIXIXIXIXIXIXIXIXIXIXIXIXIXIXIXIXIXIXIXIXIXIXIXIXIX| |  .] e e F F 0 t # 1 x f.f.f.f.f.a.v.I.:XR.R.R.R.R.R.:X:XR.:XG.L.iXfXpXfXuX;XgX;XaXkXhXz.S j.b.H | | | |  .&.Q.$.L.0XwXwXwXwXqXwX0XwXwXuXuXJ.G.v.x.H.v.z.H z.H H D D G G H H H H l.b.b.b.z.v r r r N J.uXuXuX;XuXuX$Xv k J k h < F J F h G.sXiXdXdXwXJ.&.X.D ..X.G.P.X.A B H z.z.z.l.l.l.z.l.c.l.z.l.v.z.l.0.z.z.z.0.Z C N M M Y ] } ) } ) } } }  .} } } ] ] ] D X.K.K.T.T.T.:X:X:XE.:X:X:X:X:X:X;XgX;X;X:X;X=XoXXXXXXX[.XXoXv.G XX{.{._._.`.`._.`._._.`.{.`.`.'.b.v.xXjXjXjXjXjXjXjXjXjXjXlXlXfXaXaXaXlXlXjXlXlXjXjXjXjXjXjXzXjXlXlXzXzXzXkXv.c.'.`.{.`.`.].].].).B.`.).].].].*Xa.a H F , # $ O & @ @ @ # % & 3 3 K e r D %X>X-X=X,X-X&XT.z.C G H C N v 9 / Y w r w Y Y Y Y I U Y Y ) E } iX;XJ.aXaXaXjXlXCXSXSXJXnXiXfXaXaXaXaXkXzXCXlXlXlXlXlXlXlXzXAXCXSXSXSXJXZXX.%.0X0X0X0X0X0X0X0X0XP.G.I.T.T.T.T.x.Z d i a j B g V A b j v U.fXZXfXAXAXAXGXHXGXGXGXGXAXAXfXiXfXfXfXaXgXgXaXaXaXfXfXfXIXIXIXIXIXIXIXIXIXIXIXIXIXIXIXIXIXIXIXIXIXIXIXIXIXIXIXIXIXIXIXIXIXIX",
"IXIXIXIXIXIXIXIXIXIXIXIXIXIXIXIXIXIXIXIXIXIXIXIXIXIXIXIXIXIXIXIXIXIX| | ] D e 0 e *.*.0 1 = l S f.f.f.f.v.l.K.:XR.R.R.:XR.:X:X:X:X:Xz.G.dXfXdXfXiX;X;X;XaXpXkXP.S f.c.J { @.@.|  .| Q.#X#X0X0XwXwXqXwXwXwXeXuXuXuXI.X.G.l.J.z.z.H H H D D D D D G D G S c.d.k.b.x.C v r r M X.I.uXuX;X;XuXuXN h J k h > = k F m / P.qXUXX.X./ X.&.O.&.[ r ; : B Z 0.Z z.z.z.z.z.z.z.G.l.l.l.l.z.0.z.7.7.Z Z Z Z N N M / } ) ) }  .}  .} } }  .] ] } ] [ J.K.K.T.:XR.T.R.R.:X:X:X:X:X:X;X;XR.,X;X;X;X&XoXXXXXoX[.XXoXv.J oX}.{._._.{._._.`._.)._.`.`.).`.Z.H pXlXjXjXjXjXjXjXjXjXpXjXlXlXlXpXjXlXzXlXjXjXjXjXjXjXjXlXlXzXlXlXzXzXCXzXJ.l. X{.{.{.).`.`.).B.B.`.`.].`..Xx.l J.%Xo.| F , % # # % % % ; % 5 w U w e O.=X-X-X=X=X=X&XK.G.C G H C 9 0 r Y Y Y Y U U U Y U U Y Y E _ R &.gXaXK.:XaXaXlXlXCXZXGXJXAXpXaXaXaXaXaXaXaXjXlXaXlXjXlXlXzXlXlXCXCXSXSXJXvX{ $.0X0X0X0X0XyX0X0XP.J.I.R.T.T.T.z.c i j j j B z 9.H.B a A p X.fXZXGXAXGXAXfXfXfXFXAXAXAXAXfXpXfXaXfXgXgXgXaXaXfXfXfXfXIXIXIXIXIXIXIXIXIXIXIXIXIXIXIXIXIXIXIXIXIXIXIXIXIXIXIXIXIXIXIXIXIXIX",
"IXIXIXIXIXIXIXIXIXIXIXIXIXIXIXIXIXIXIXIXIXIXIXIXIXIXIXIXIXIXIXIXIXIX| { ] Y 0 e e e e e e 9 1 k S f.f.f.f.S v.:XR.R.:X:X:XR.R.:X:XR.z.X.iXdXdXdXiX;X;X,XpXpXkX>Xk a.H k ] | @. .] } %.0X0X0X0X0XwXwXuXUXwXdXdXuXuXqXX.X.z.z.G.H H X.H D D D D D F G x l.x.d.h.Z.b.z.n 0 e e v U.uXuX;X;X;XuXJ.v k k n = $ 9 | L.X.X.X.X.%.UXwXtXtXdXtXtX0X/ 5 a 0.Z Z a.z.z.l.x.l.x.z.z.l.v.l.0.0.l.8.0.Z Z m C N N M ] ] ) } } _  .} }  .}  .} ] ] ] ..J.K.K.I.R.T.R.R.T.:X:X:X:X:X;X;X;X;X,XR.,X,X,X*XoXXX}.[.XXXXb.J !.'.[._._._._._._._.)._.{.`._.`./.x ;XzXjXjXjXjXjXjXjXjXjXjXjXlXlXlXlXkXCXzXjXlXzXjXjXjXjXzXzXzXjXlXzXzXCXCXJ.k /.}.{. X`.`.`.`.].].`.`.'..Xz.j I.$X%X#X#X#XQ.H F F 0 0 M M F e *.] e D %X=X-X-X=X=X=X&XK.K.H B H b 9 8 q w Y / Y Y Y Y U E E E +.~ ~ / wXaXaXR.+XaXaXjXzXSXJXZXSXZXpXpXaXaXaXaXjXlXjXlXjXjXjXjXzXzXzXlXlXCXAXJXJX%X| 0X0X0X0X0X0X0X0X0XO.J.I.R.T.T.z.a j h j j j A 3.Y.Y.D.A a p Z fXAXAXAXZXuXK.H.H.K.R.pXAXfXfXaXfXfXfXgXgXaXaXaXaXfXfXaXIXIXIXIXIXIXIXIXIXIXIXIXIXIXIXIXIXIXIXIXIXIXIXIXIXIXIXIXIXIXIXIXIXIX",
"IXIXIXIXIXIXIXIXIXIXIXIXIXIXIXIXIXIXIXIXIXIXIXIXIXIXIXIXIXIXIXIXIXIX . .) e e e e e e e e e 0 = l S f.f.f.~.G K.:XT.R.:XT.:XR.R.R.R.G.H $XiXuXuX$X:X;XgXaXpXkXiXJ H H 0 *.) ]  .} ] &.UX0X0XqX0XUXwXwXtXtXtXdXuXuXwXJ.H H G.G.G.z.X.D D F F F D H z.h.b.k.N.N.N.b.c.m r r e r H $XuX;X;X;XuX$Xb n k m < # ; %.rXwX0X0X0XwXtXsXsXdXtXuXdXdXwXv p C 0.7.0.z.z.x.l.z.z.z.z.x.v.l.z.0.l.z.z.0.Z C m N M [ ] } ] } } } }  .} }  .} } ] ] ] X.K.K.K.T.T.:XR.:XR.:X&X:X:X:X:X:X;X,X:X,X,X,X,X*XoXXX[.oXoXoX!.k z.oX_.(._.[._.'._._._._.`.`._._.'.l.K.jXlXlXjXjXlXjXjXjXlXlXlXlXlXlX:Xz.J.pXzXlXjXjXjXjXjXlXzXzXlXjXlXzXCXCX#Xl oX}.{.}.{.XXXX].`.].].]..Xc h P.%X%X#X$.$.$.@X0X@X#XQ.#XQ.L.$.$.o.| 0 [ +X-X-X-X-X-X&X&Xb.T.l.c C m r 8 q r Y Y Y Y Y Y E E } +.~ ! ( I.gXaXpXgXI.aXlXlXlXSXGXZXSXCXpXpXaXaXaXaXjXjXjXjXjXlXjXlXlXzXzXzXzXzXCXJXJX$.%.0X0X#X8X0X0X0X%.D N D z.J.K.G.a p a a a j j B 9.Y.Y.Y.0.p a C iXZXAXZXAXH.8.w.w.w.9.T.fXfXfXfXfXfXfXaXaXaXfXaXaXaXaXfXIXIXIXIXIXIXIXIXIXIXIXIXIXIXIXIXIXIXIXIXIXIXIXIXIXIXIXIXIXIXIXIXIXIX",
"IXIXIXIXIXIXIXIXIXIXIXIXIXIXIXIXIXIXIXIXIXIXIXIXIXIXIXIXIXIXIXIXIXIX] } ) e e e e e *.e e 0 e 7 # 1 S f.f.!.J l.:XR.R.R.R.:XR.R.R.R.I.J.$X:X;XwXuXuXgX>XaXpXpXiXD n < 0  . .]  .} } &.0XqX0XqXqXwXeXwXtXdXdXdXwXuXwXL.G H H G.m G F D D F N F G z.b.Z.^.A.A.N.N.b.h.S 9 r e r n J.:X;X:X;XuXuXX.l k n n 9 # 8 &.%.%.L.P.I.UXP.L.%.J.X.qXdXdXU.p Z 7.V 0.7.0.l.8.0.z.x.z.l.v.l.0.a.z.l.z.0.H C m N N  .] ] } } }  . .} } )  .} ] ] ) D G.K.I.I.T.T.:XR.R.:X:X:X:X:X:X:X,X:X:X;X;X;X;X,X,X=XoXoXoXoXoX=Xv.l b.|./.(.(.(._._.).).)._.`._.`.'.b.Z aXlXzXlXlXlXjXjXjXjX;XI.iXuX:XC d d Z :XlXjXjXlXjXlXjXlXzXzXjXjXzXzXCX$Xk .X{.{.`.{.{.XX`.`.].].*Xa.1 #X%X@X#XQ.Q.$.$.#X#X@X#X#XQ.Q.%.$.P.$.{ n ..+X-X,X-X=X=X&XT.Z.T.K.H j v 8 8 8 8 r Y Y E Y E / ` } E Y / uXgXaXaXfXgXI.gXjXjXlXSXSXSXJXJXAXfXaXaXaXlXlXjXjXjXjXjXlXlXlXzXzXlXCXCXCXJXcXO.#X0X0X8X6X0X0X&.X.G.U.I.I.G.H B v p j a p a a V H.Y.Y.Y.H.A p b uXAXAXGXAXH.3.6.6.w.w.w.R.aXfXfXfXfXaXaXaXaXfXfXfXfXfXfXIXIXIXIXIXIXIXIXIXIXIXIXIXIXIXIXIXIXIXIXIXIXIXIXIXIXIXIXIXIXIXIXIXIX",
"IXIXIXIXIXIXIXIXIXIXIXIXIXIXIXIXIXIXIXIXIXIXIXIXIXIXIXIXIXIXIXIXIXIX] *.) Y e e e e e e ) ) e 0 t # 1 S f.c.S J :X:X:XR.R.:XR.R.R.:X:X:X:X;X;XgXuXuX;X;X;XpXkXkXJ ; 9 ]  .) )  .} }  .$.yXrXqXqXUXwXwXwXwXdXdXuXuXuXP.N H H X.D D D D D F C m H l.k.V.B.].A.N.Z.N.k.l.b r e e 9 D $X;X:X$XuX;XI.< < 1 : ; % + 2 / | [ X.&.[ / / / / X.wXdXFXX.p Z Z 0.a.V 0.0.0.0.0.x.z.l.x.l.l.z.l.0.z.z.Z Z Z N / ] } ] }  .} } } } } )  . .] ] ] X.J.K.K.I.T.R.R.:X:X:XR.:X:X:X:X:X:X:X:X:X:X;X,XgX,X,XoX|. X[.oXXX+Xk k v.f.h.~.(.(.(.)._._.).).).).).b.k $XlXjXlXjXjXaXaXjXlX$XS 4.z.z.=.;.;.f x ;XzXjXjXlXjXjXjXzXzXlXjXzXzXSX@Xk oX}.{.{.`.`.{.{.}.}..X0.l H +X#XQ.Q.Q.Q.Q.Q.Q.#X#X#XQ.$.%.$.L.L.$.{ *.o.=X,X-X-X-X*X&Xb.K.K.H.z.b v r q q q r / Y / E E ) _ T E J.uXgXgXfXgXaXaX:X;XaXjXlXCXSXGXJXGXCXaXaXaXaXjXlXlXjXjXjXjXlXlXlXlXlXzXCXSXSXJX@X| 0X0X0X8X0X0XO.o.I.T.T.K.K.K.H b b a j j j j A 9.Y.Y.Y.Y.Y.D.a b $XGXAXAXAXG.4.6.w.6.5.5.F.R.fXfXfXfXfXaXaXfXfXfXfXfXfXfXIXIXIXIXIXIXIXIXIXIXIXIXIXIXIXIXIXIXIXIXIXIXIXIXIXIXIXIXIXIXIXIXIXIX",
"IXIXIXIXIXIXIXIXIXIXIXIXIXIXIXIXIXIXIXIXIXIXIXIXIXIXIXIXIXIXIXIXIXIX] e e w Y e e e Y e e e e r % % 1 S f.c.a.G K.:XR.R.R.R.R.R.R.I.:X;X:X;X;X;X;X;X;XuXiXiXaXpXF , ]  .} } ) } } }  . .&.Q.0X0XwXwXwXyXwXdXdXdXuXuX$XX.N H H D D D D G F M F H b.Z.V.B.A.A.N.N.N.k.c.H n r e r r J.:X$X$X;X;XuXX.n m n : % o o + % ; 9 n e / [ N / P.iXdXsXv B Z Z 0.3.7.0.0.a.l.l.x.c.x.l.l.l.z.z.z.z.G Z Z N N ] ] } } } }  .} }  .} }  .} ] ] / X.J.K.I.K.T.T.R.R.R.R.E.R.:X*X;X;X:X:X:X:X:X:X,X,X,X,X*X|..XoXoX-X-X=XH m l l l J a.j./.'._.]._.).).).^.a.H jXlXlXaXjXaXjXlXlXH.5.5.4.4.5.6.6.5.f z.aXlXjXlXjXjX1XzXzXzXjXzXzXCXo.l.XX{.{.{.{.`.{.`.}.XXZ.l J %XL.$.Q.$.%.Q.Q.Q.$.Q.Q.$.Q.%.%.$.L.L.o.] 0 J.=X-X-X-X*X*X&XT.K.z.C Z j 9 9 r  .o.e Y ] E / E Y E ( wXfXaXgXgXfXgXaXfXR.R.pXlXAXAXZXZXSXSXAXaXaXaXaXaXlXlXjXjXjXlXzXzXCXCXCXCXSXSXSXGX| %.0X0X8X8X0XL.X.$XR.R.R.R.K.K.K.C b p j j a j B H.Y.Y.Y.Y.Y.W.V p U.AXAXAXAXU.4.5.w.5.w.w.w.T.fXfXfXfXfXfXfXfXfXfXfXfXfXI.IXIXIXIXIXIXIXIXIXIXIXIXIXIXIXIXIXIXIXIXIXIXIXIXIXIXIXIXIXIXIXIXIXIX",
"IXIXIXIXIXIXIXIXIXIXIXIXIXIXIXIXIXIXIXIXIXIXIXIXIXIXIXIXIXIXIXIXIXIX) ) e ) ) ) ) Y Y ) w 0 0 , , , < k f.f.H k +X;XR.R.R.R.R.R.R.:X:X:X;XuX;X;X;X;XgX;XiXaXaXiXF F  .} }  . .} } } } } }  .%.0X0X0X0XUXwXwXdXdXeXuXuXP.D H H H D D D D N M G v.b.N.V.]..XN.M.N.N.k.c.H N M r e r N P.:X$X:X:X;XuX$XwX$X@XP.X.9 , ; # ; 8 r / M / ( wXdXiXH p Z Z V V a.z.l.c.l.x.l.l.v.z.v.v.l.l.l.z.z.H D N M [ { ] ] ]  .} } } } } } } } } ] ] [ J.K.K.I.K.K.K.R.R.:X:X:XR.:XR.:X;X;X:X:X:X:X;X:XR.,X,X,X,X*X-X,X-X=X-X-X&X+X!.H J n k h.|.^.)._.).).N.^.b.x $XlXjXjXlXaXaXlXaXz.5.1.6.u.u.i.w.5.3.c z.aXlXjXlXlXlXzXzXjXjXzXSXiXk b.XX{.{.}.{.}.`.`.{.*Xc G +X#XL.$.%.%.Q.$.%.$.Q.$.Q.$.%.$.$.$.L.$.o.F F +X-X-X-X-X-XT.T.T.z.p v H N N M r X.wXJ.0 r M / / X.$XgXfXaXfXaXaXaXgXgXaXuXU.iXlXCXAXkXkXdXpXaXaXaXaXfXlXlXlXjXjXjXzXzXzXCXCXCXSXSXSXJXeX] #X0X8X8X#X0XX.U.R.R.T.T.&XR.T.K.G.j a a p a j 7.Y.Y.Y.Y.Y.Y.Y.F.g X.ZXGXAXAXR.8.w.q.6.6.6.5.H.gXfXfXfXfXgXfXfXfXfXfXfXI.V IXIXIXIXIXIXIXIXIXIXIXIXIXIXIXIXIXIXIXIXIXIXIXIXIXIXIXIXIXIXIXIXIXIX",
"IXIXIXIXIXIXIXIXIXIXIXIXIXIXIXIXIXIXIXIXIXIXIXIXIXIXIXIXIXIXIXIXIXIX) ) ) ) ) ) Y e 8 , < n F m J J J S S f.x C :X;X:X:X:XR.R.R.:X:X:X;X;X:X:XgXgX;X;X;X;XpXjX:Xh , 0 r e ] } ] }  .} } }  .@.%.0X0XUXUXwXwXwXdXdXwXuX$X..H D H D D F D F F J z.b.M.V.A.A.s.N.Z.b.h.S H m M r r r e ..$X:X$X;X;X:X$X;XuXwXuXuXwXP./ # ; 5 r e / / P.uXdXP.p C B C Z z.z.c.l.v.c.z.l.l.z.z.l.z.H z.z.z.z.D [ ] ] ] } } ] ] ]  .}  .} }  .} } } ] / { J.K.K.I.I.K.K.K.&X:X:X:XR.:XR.:X,XE.,X;X:X:X;X;X,X;X,X,XR.,XE.,X,X&X|.*X=XOX-X=X+Xv.k p S g.M._.].).).(.^.l.G pXzXjXjXaXjXlXaX0.6.1.<.<.;.4.;.=.c f i J.jXlXlXjXjXzXlXjXzXzXCXo.C  X{.{.{.{.{.{.{.}.}.!.k J.+X+XQ.$.Q.o.Q.$.%.Q.Q.$.$.o.o.%.$.$.L.o.| F D +X-X-X-X-X*XA.E.E.G.h P.P.N v v v X.gXpXuXI.@XuXuXgXfXpXgXaXgXaXaXaXgXaXaXpXI.K.:X:X:X+X;XaXaXaXaXaXaXlXlXlXlXlXjXjXzXzXzXCXCXCXJXGXSXJXL.&.0X0X0X0X0X0X[ I.:XR.K.T.I.R.T.T.R.Z j j a a a w.Y.Y.Y.Y.Y.Y.W.Y.0.B iXGXAXZXuXc 4.q.5.5.w.w.T.fXfXfXfXaXaXfXfXfXfXfXR.Z A IXIXIXIXIXIXIXIXIXIXIXIXIXIXIXIXIXIXIXIXIXIXIXIXIXIXIXIXIXIXIXIXIXIX",
"IXIXIXIXIXIXIXIXIXIXIXIXIXIXIXIXIXIXIXIXIXIXIXIXIXIXIXIXIXIXIXIXIXIX) ) ) Y r 8 < < h F G H G a.S S f.H x x l X.:X:X:X:X:X:XR.:X:X;X;XI.H z C l.I.>X;X;XaXaXaXP.C C G m n < h 0 e }  .} }  .| O.6XP.%.P.UXUXwXtXdXuXwXwXJ.N H H D D D F F F F z.b.N.N.A.N.d.b.b.x.a.H H N M M r e r N G.$X:X:X$X:X:X$X$X$X:XuXwXo., + % 5 5 r [ X.I.dXsX/ A z.V z.z.z.z.z.z.z.l.l.l.z.l.l.z.H G H H H [ [ ] ] ] ] ] ] } ] ] } } } } ] ] ] ] ] ] D X.J.K.K.H.K.K.H.K.R.R.:XR.R.;X:X:X:X,X,XR.;X;X;X;X;X:X,X;X,XgXgX,X:X&XT.b.|.XXXXXXXX=X%XJ 1 a.g.(.].).).]./.|.z.J.lXjXjXjXlXlX:Xz.5.;.;.;.;.=.=.f f d a K.zXzXlXjXjXjXlXjXzXzX$Xm Z.XX{.{.{.{.{.{.`.'.XXa.k +X+X!.#XQ.Q.Q.$.o.$.Q.$.Q.Q.Q.$.%.$.P.L.$.D *...>X-X-X-X,XA.A.E.T.z.m 0XeXX.v v N Z :XfXaXfXfXaXpXaXaXpXaXaXaXfXfXaXaXaXaXpXI.U.+X:X>XpXzXlXlXaXlXzXlXlXlXlXzXlXjXlXlXzXCXCXCXSXSXSXJXBXO.$.0X0X0X0X0XUX[ I.I.I.I.J.L.K.T.R.:XK.j p j j g H.Y.Y.Y.Y.Y.Y.Y.Y.H.0.I.AXZXAXAXI.z.0.H.T.R.gXpXfXfXfXfXfXaXfXfXfXfX:XS.B B IXIXIXIXIXIXIXIXIXIXIXIXIXIXIXIXIXIXIXIXIXIXIXIXIXIXIXIXIXIXIXIXIXIX",
"IXIXIXIXIXIXIXIXIXIXIXIXIXIXIXIXIXIXIXIXIXIXIXIXIXIXIXIXIXIXIXIXIXIXE e r 9 < h G G a.a.a.a.a.a.a.S a.H l 1 k $X;X:X:X:X:X:X:X:X:X:XK.z f 3.z z 7.K.;XuXpXpX;Xz.a.l.l.l.l.z.H C k n ..&.| | | @.%.%.%.%.#X0XqXtXdXgXwXuXUXZ D D D D D D D n m v.T.C.Z.Z.M.j.h.f.a.H G D M M r r e r 9 X.U.wXuX:X:X:X:X$X$XuXuXP.; + @ % 7 r M X.G.wXdXP.p S.z.z.l.z.l.l.z.z.l.l.l.l.l.l.l.H G D F J F F [ ] ] ] ] ] ] } ] ] ] ] } ) e ] ] ] ] ] ] X.H.H.x.x.H.H.v.K.T.T.R.:X:XR.:XR.,XE.;X;X;XgX;X;X;X;X;X;X,X;X;X;X:X&XT.T.b.*XXXXXoX=X%Xo.l l f.j.|./.(.).].^.|.H $XlXlXlXlXzX;XC 4.2.1.<.;.=.=.f f s G.zXzXzXjXjXjXzXjXzXzXpXk S  X X`.{.{.}.XXXXXXXXb.h v.=X+X+X%XQ.Q.$.Q.o.$.$.$.#XQ.$.%.$.$.L.L.o.F 0 J.=X=X-X-X*XA.A.E.*Xz.D eXFXO.v N V X.G.pXpXpXaXgXfXaXaXaXaXaXaXaXgXaXaXaXaXaXgXgXaXlXlXlXlXzXlXlXlXzXlXlXlXlXAXlXlXlXlXzXCXCXSXSXSXJXJXrX..#X0X0X8X0X0X6X| P.P.UX0XUXP.P.H.T.:XT.z.j j g 7.H.Y.Y.Y.E.W.Y.Y.Y.W.S.X.nXAXAXAXAXfXpXpXfXpXfXfXfXfXfXfXfXaXfXfXfXR.S.b A b IXIXIXIXIXIXIXIXIXIXIXIXIXIXIXIXIXIXIXIXIXIXIXIXIXIXIXIXIXIXIXIXIXIX",
"IXIXIXIXIXIXIXIXIXIXIXIXIXIXIXIXIXIXIXIXIXIXIXIXIXIXIXIXIXIXIXIXIXIXM v v m S z.a.S S a.a.a.a.a.a.a.a.H 1 = O.:X;X:X:X:XR.:X:X:X:XK.3.3.3.3.3.3.3.0.:XiXaXpXJ.a.a.f.f.f.s.s.b.d.x.z.Z G [ { { | @.@.@.@.%.0X0XqXtXdXwXuXI...D N D D D F M M N z.b.Z.Z.N.k.b.a.a.G G D m M e e e e M r M G.J.$X$X$X$X$X$XwXP.L.v + + % ; 9 8 M ( U.dXdX/ b z.z.z.z.l.l.l.v.l.v.z.H S G x B j h l h n l h m 0 *.] ] ] ] ] ] ] ] } ] *.e M / ] ] ] [ G.H.H.x.H.G.H.G.K.K.R.R.:X:X&X;XgX,X,X;X;X;X;X;X;X:X:X:X:X;X,X,X:X:XT.T.T.T.oXXX[.[.=X!...J 0 N a.h.|.^.^.].^. Xb.G $XlXlXjXlXlXG.z <.1.1.<.=.f f f j >XzXzXzXjXjXjXjXlXzXzX%XJ !.XX}.}.}.XX&Xb.b.+Xl.u k +X&X+X+X+X#X$.o.Q.Q.$.#XJ.L.#XQ.%.%.$.L.L.o.0 v +X-X*X,X,XA.A.E.E.E.H J.dXmX[ M N H.0.S.gXpXaXaXgXgXaXaXaXaXaXaXgXgXaXaXaXaXaXaXfXaXaXaXlXlXlXlXzXzXAXCXCXAXlXlXlXlXfXzXCXCXCXSXJXSXJXSXo.O.0X0X8X0XqX6X8X$.6X6XUX0X6XUXUXG.K.T.&XK.C B a 0.Y.Y.Y.Y.Y.W.Y.Y.Y.Y.V B uXAXAXZXZXAXfXfXfXfXfXfXfXfXfXfXfXfXfXfX:XD.H.V a B IXIXIXIXIXIXIXIXIXIXIXIXIXIXIXIXIXIXIXIXIXIXIXIXIXIXIXIXIXIXIXIXIXIX",
"IXIXIXIXIXIXIXIXIXIXIXIXIXIXIXIXIXIXIXIXIXIXIXIXIXIXIXIXIXIXIXIXIXIXC H z.a.S a.a.a.S a.S S S S S S G k = ; P.;X;X:X:X:X:X:X:X:XT.7.3.3.3.=.:.4.3.z.uXaXpXuXH z.a.l.f.f.s.d.d.s.b.Z.x.l.c Z X.D ] { | @.%.$.0X0X0XeXwXwXuXX.[ H D F C F M M m H l.l.b.b.b.s.S G G D D N N e e e e e e r D J.I.qX$X@X@XP.o.N , > + # 2 r r 5 v ( uXdXP.: z.G.z.z.z.v.v.z.l.z.x l k x S l.b.b.|.&X|.&X+X|.!.H 9 0 ] F } ] ] ] } ] ] e M M M ] ] ] / G.H.x.H.H.G.G.H.K.K.K.R.&X:X:X,XE.,XR.;X,X;X;X;X;X:X;X:X;X;X,X,X;X:X&XT.T.K.*XXX[.oX!.H H H ..N v k z.b.|.|.|.|.K.X.D $XlXlXlXzXiXS =.1.6.<.-.f f s z.lXzXlXjXjXjXjXjXlXzXpXF v.XXXX X}.XXc.0.m j - - k K.&X!.!.+X+X#X$.Q.#X#X#XJ.J.K.J.J.%.$.L.L.L.[ 9 H >X-X-X-X-XA.E.A.E.T.X.P.mXFXM M Z T.Y.0.U.aXaXaXaXaXaXaXaXaXaXaXgXaXaXaXaXaXaXaXaXaXaXaXlXzXCXCXzXCXCXCXCXlXAXlXCXfXlXCXCXCXSXSXJXJXJXbX..#X0X0X8X0XyX8X8XUX6XUX0X6XUX6X6XUXJ.K.T.K.V j g D.Y.Y.W.W.Y.Y.Y.Y.Y.H.A A U.AXAXZXfXfXfXfXfXfXfXfXfXfXfXfXpXAXiXU.S.D.H.G.V a IXIXIXIXIXIXIXIXIXIXIXIXIXIXIXIXIXIXIXIXIXIXIXIXIXIXIXIXIXIXIXIXIXIX",
"IXIXIXIXIXIXIXIXIXIXIXIXIXIXIXIXIXIXIXIXIXIXIXIXIXIXIXIXIXIXIXIXIXIXa.a.a.a.S S a.S S S J l k l 1 - - = ; M $X;X:X:X=X:X:X:X:X&Xl.=.3.=.=.=.4.4.3.K.aXpXpXJ.j m C a.z.c.c.h.d.s.b.N.N.N.b.a.K.:XJ.X.D D %.%.L.@X0X0XwXwXeXP.H D D F D N N n n m C C l.b.l.S G H G D N N e e r e e e e 7 : D &.J.o.J.P.P.P.o.N ; + # 5 r r e N I.dXeXM v z.z.l.l.c.l.l.Z j c x v.!.|.oXXXXXXX}.{.}.XX}.}.oXoXv.n 7 ) ) ] ] ] ] ] ] r M M M ] ] M X.G.H.x.x.H.H.H.H.K.K.R.T.R.:X:X;X,X,X:X;X;X;X;X;X;X&X:X,X:X:X;X,X,X&X:XT.T.Z.|.XXoX!.c.H ..H H H H M h h k k j j h < 9 n $XkXjXzXCXpXz.=.<.6.=.=.f j ;XzXzXzXlXjXjXjXzXzXkXJ.m &XoX XXXXXoXc.:X&X:X+X+X%X+X|.!.=X=X!.+X#XQ.o.#X#X+X:X;XK.J.J.L.L.L.o.n 1 J.,X*X*X*X*XE.E.A.A.T.D 0XFXsXM M 0.Y.E.H.V I.aXaXaXaXaXaXaXaXaXaXfXaXgXaXaXaXaXaXaXaXaXlXzXzXkXuX;X:X:XK.iXCXAXlXzXlXCXCXCXCXJXJXJXJXJX$XF #X@X0X0X0X0X0X0XyX6XUX0X6X8X6X6X0Xo.G.T.T.H p V H.Y.Y.Y.Y.Y.Y.Y.Y.Y.9.a b X.dXAXAXAXAXfXfXfXfXfXfXfXfXfXfXfX;XU.( G.H.H.H.H.B IXIXIXIXIXIXIXIXIXIXIXIXIXIXIXIXIXIXIXIXIXIXIXIXIXIXIXIXIXIXIXIXIXIX",
"IXIXIXIXIXIXIXIXIXIXIXIXIXIXIXIXIXIXIXIXIXIXIXIXIXIXIXIXIXIXIXIXIXIXa.l.f.S S J S k l - * * > : : 9 : 9 9 v I.:X:X:X:X:X:X:X:X:Xx.g f =.=.4.4.3.0.;XaXpXwXA p : - u a C l.b.h.h.d.N.N.Z.A.x.k.Z.=X>X=X#X....%.P.0X0X0XqXwX$XX.N D D D D F n M m N J H v.z.H H G F D N M e e e r e e e e : ( X.o.P.wXwXqXP.L.M = + % 8 r n N G.uXiXJ.9 G.l.z.v.l.z.H l S S b.|././. X}.{.`.{.`.`.{.`.{.{. Xb.|.|.n 8 ) ] } ] ] ] M r M v M M M M X.H.H.H.x.H.H.K.K.I.R.:X:X:X:X;X;X;X:X,X,X;X;X,X,X=X&XR.;X;X:X;X;X;X&X:XT.T.b.|.oXoX!.z.G H H H H H ..N N M N m v M / [ M n uXlXlXlXzXaXz.f ;.=.f d z.zXzXjXjXjXzXjXlXzXpXP.: : J.|.|.XXXXb.&X=X=X=X&X=X&X&X=X=X=X|.=X%X@X#X$.#X#X+X*X*XE.K.K.J.L.$.O.< m :X-X*X*X*X*XE.E.A.A.K.[ 0XHXtXM N 0.Y.E.E.D.Z gXfXaXaXaXaXaXaXaXaXgXaXaXaXaXaXaXaXaXlXzXzXpXK.l.x.b.x.C.x.x.:XAXlXAXlXAXCXCXCXSXSXSXSXZXF *.%X@X0X8X0X0X0X0X6XUXyXUXUX8XUX6X8XL.X.K.R.z.p V H.Y.Y.Y.Y.Y.Y.Y.Y.D.g A B Z I.nXAXZXAXAXfXfXfXlXAXfXfXfXgX$XI.UXU.D.Y.H.H.H.G.IXIXIXIXIXIXIXIXIXIXIXIXIXIXIXIXIXIXIXIXIXIXIXIXIXIXIXIXIXIXIXIXIXIX",
"IXIXIXIXIXIXIXIXIXIXIXIXIXIXIXIXIXIXIXIXIXIXIXIXIXIXIXIXIXIXIXIXIXIXf.f.a.S k l u - * - - = = v b v v v v v O.$X:X:X:X:X:X:X:X:X:X7.d z 3.3.3.z x.gXaXpXo.: v v - = * - l c z.b.b.N.n.Z.Z.n.N.k.b.=X,X,X;X$XX.X.L.0X0XqX0XwXJ.X...D D F F F F F N H z.l.H H D m m N D N M r r r e e e M 5 O.qXsXiXiXeXwXP.X.0 # # ; r M N Z I.iXwXN J.J.v.l.l.l.z.l.b.=Xc.!.XX'.}.`.`.`.`.`.`.`.`.`.`.`.Z.b. XXX!., e ] } } ] ] r n M M M M M D G.H.H.x.x.H.K.K.K.$X:X:X:X:X:X:XR.;X;XE.;X;X;X,X,X:X&XR.&X:X:X:X,X:XT.&XT.b.b.b.oXoX+XH H H H H H H G H H H G X.H N ] }  .Y M >XzXlXjXzXaXG.f f d d $XzXzXjXjXlXlXjXzXlX$XG H C h z.!.|.|.c.&X&X&X|.&X|.|.=X&X&X=X=X-X=X+X#XL.L.K.+X*XT.T.E.:X$XL.o.] < z.,X=X*X*X*XA.A.A.E.E.K.D eXFX@XM m D.Y.E.E.R.( U.gXaXaXaXaXaXfXaXgXgXaXfXaXfXaXaXaXaXlXzXaXK.s.x.C.C.C.C.C.x.b.fXCXAXAXlXlXAXAXSXSXSXJX%Xn J %X@X0X0X0X0X0X6X6XUXUXUXUX6XUXUX0XUXO.K.:Xl.l B D.Y.Y.Y.W.Y.Y.Y.Y.0.a j B B Z I.eXAXAXAXAXCXAXfXdXuXuX$XqXwXwXiXuXI.H.Y.Y.Y.Y.IXIXIXIXIXIXIXIXIXIXIXIXIXIXIXIXIXIXIXIXIXIXIXIXIXIXIXIXIXIXIXIXIXIX",
"IXIXIXIXIXIXIXIXIXIXIXIXIXIXIXIXIXIXIXIXIXIXIXIXIXIXIXIXIXIXIXIXIXIXf.f.S l - - - - - - : = - < v v v v v v N J.$X:X:X:X:X:X:X:X:XK.c s d f d g $XaXfXuXb p v v < > = = - * u c x.|.N.N.N.N.N.N.M.d.&X-X1X,X>XJ.H P.0X0X0XqX@XX.D D D D n n v n C G H z.H H F F N Z [ / N r r r r e Y / M X.wXiXiXuXqXqX&.D 7 @ & 5 r 0 N H wXuXP.0XHXJ.C z.S l.|.XXOXoXf.oX`.`.`.`.`.`.`.`.`.`.`.`.`.`.Z..X'.}.-Xm ; *.} } ] ] e v M M M M N ..G.H.H.w.H.H.K.K.K.:X:X+X&X:X:X:XR.,X;X,X;X;X;X;X;X;X&X:XT.K.R.&XT.K.T.T.T.Z.x.b.|.b.b.H G H H H H H H X...H z.z.v.D ]  . . .F N wXlXzXzXzXlXI.C x J.lXzXjXjXlXlXzXzXaX$Xm H >X>X:X+XS k H |.&X&X&X|.oX=X!.=X&X&X|.=XoX=X+X+X+X+XK.&X*XE.E.E.;X+X#X%.0 l &X,X*X*X*X*XA.A.A.A.E.H.C #XqXD M v x.Y.E.E.;XU.Z ;XgXaXaXaXaXaXaXaXaXaXgXfXfXfXaXaXaXlXpXb.x.C.C.C.C.C.n.C.C.H.fXAXlXAXCXCXCXCXCXSXJXZXQ.O.Q.%X%XQ.@X0XyXUX7X6X6XUXUXUX6XUXUX0X6Xo.G.R.H.i a S.Y.Y.Y.Y.W.Y.Y.H.V a j j b j B H J.qXuXuX$XI.I.I.$XP.0XwXwXqXqXiXuXH.H.Y.Y.Y.IXIXIXIXIXIXIXIXIXIXIXIXIXIXIXIXIXIXIXIXIXIXIXIXIXIXIXIXIXIXIXIXIXIX",
"IXIXIXIXIXIXIXIXIXIXIXIXIXIXIXIXIXIXIXIXIXIXIXIXIXIXIXIXIXIXIXIXIXIXS k l - - - - - - - - : = 1 v v v v v v 0 N J.:X:X:X:X:X:X:X:X:XK.z.B B C I.uXpXpXG.: v v v h - > > : p b b d l.Z.Z.N.N.N.N.N.N.h.&X,X-X,X,X:XX.&.qXqXwXP...F m D n < h G l.H S c j x m m n N N [ X./ e e e e e Y r r : %.P.P.P.[ / &.n ; @ # 9 r v B S.:XwXP.dXtX{ v z.S oXXX{.{.[.s. X{.`.`.`.`.`.`.`.`.`.`.`.`.`.^.|.}.}.j.z., r ] ] ] e M n v M M M N H H.H.D.x.H.x.H.H.K.I.I.+X:X:X:X:X;X:X:X;X;X,X,X,X;X;X;XT.T.T.K.T.T.T.T.T.K.b.x.K.b.b.z.X.H X.H H X.H H H H z.G.l.v.v.D ] ] ] } ] D %XkXlXzXzXzXiX,XjXzXzXlXzXlXzXxXiXK.F h %X<X,X,X=Xb.l.&X*X&X&X=X=X=X=X=X!.|.|.&X=X=X=X+X+X+X+X&X*X*X*XA.E.:XJ.o.{ 0 H -X-X*X-X-X*X*XA.A.E.A.E.z.H ..v v A Y.Y.Y.Y.gXwXb I.gXaXfXgXaXaXaXgXfXfX:X:X:X;XfXaXlXiXK.x.x.C.n.C.C.C.C.C.C.T.aXAXAXlXAXCXAXCXCXSXJXiXvXrXv.+X%X%X%X%X0XUXUX6XUX6X6X7X6X6X6X0X6X&.H :XI.a b A S.Y.Y.Y.Y.Y.Y.0.A a B j b B A j b b Z X.J.$XgXfXiXwXwXrXeXrXwXwXsXI.H.H.H.H.IXIXIXIXIXIXIXIXIXIXIXIXIXIXIXIXIXIXIXIXIXIXIXIXIXIXIXIXIXIXIXIXIXIX",
"IXIXIXIXIXIXIXIXIXIXIXIXIXIXIXIXIXIXIXIXIXIXIXIXIXIXIXIXIXIXIXIXIXIXh : : > - - - - - - u : - - v v b v v v < v N J.$X:X:X:X:X:X:X:X;X;X;XwXiXpXaXaX$Xb v v v v v : > = v A v b b A z x.Z.N.N.Z.N.Z.k.b.&X1X,X,X1X,Xz.$.qXeXwXX.n F F < l b.&Xb.a.|.Z.c.c.0.h ; : v m m N M r r e e e e M D [ o.L.qXqXX.M 9 % + 5 9 0 b C G.:XG.o.$.r e m x =XOX{.}.}.j.f.'._.`.`.`.`.`.`.`.`.`.`.`.`.`.`.^.^.M.h.|.k 7 Y ] ] M r v n M M v N H G.D.w.x.H.H.H.H.H.I.+X%X:X:X;X:X;X:XR.,X,X,X,X,X,X;X:X&XT.T.T.T.T.T.T.T.T.Z.K.K.K.v.l.H X.J.H H H H H H H z.l.b.b.c.H N ]  . .} { v X.iXzXlXzXzXzXzXlXjXzXzXzX>X$XH h < X.xX1X,X=X=X*X=X*X*X&X*X-X=X=X=X-X&X=X|.&X=X=X=X+X+X&X&X*X*X*X*XA.T.K.L.O.*.< v.1X-X-X-X-X-X*X*XA.E.E.E.E.R.H.z.Z 0.Y.Y.Y.R.GXwXA S.uXgXaXaXfXaXgXaXfXfXU.J.:XI.P.$XiXJ.z.x.x.x.d.n.b.C.C.C.x.T.fXzXlXlXAXlXAXAXCXSXZXrXZXvX+X+X%X+X%X%XQ.@X8X0XUXUXUX6XUX6X5X5X6X6XG.:XT.B a a V H.Y.Y.Y.Y.F.V a B a j j j B B j a Z H I.fXfXfXfXdXwXrXwXrXrXrXtXiXU.D.H.S.IXIXIXIXIXIXIXIXIXIXIXIXIXIXIXIXIXIXIXIXIXIXIXIXIXIXIXIXIXIXIXIXIXIX",
"IXIXIXIXIXIXIXIXIXIXIXIXIXIXIXIXIXIXIXIXIXIXIXIXIXIXIXIXIXIXIXIXIXIX: h h > - - - - - u u - - > : v b v v p : : : v G.$X:X:X:X:X:X:X:X;X;X;X;XgXpXpXJ.h v v v v v < > v N b A v b b b c d.Z.N.N.N.Z.Z.N.b.,X,X-X-X,X>XK.J.uXiX..M N v x &X|.|.a.Z.^. X^.^.Z.v.k G H J H H v 9 e r e e e $.mXMXGXMXFXmX$.M ; @ # 8 e v b Z K.I.N M e r $.qXC OX}.{.}.}.f.j.`.`._.).`.`.`.`.`.`.`.`.`.`.`.`.'.|.M./.XXH < e ] } M r 9 n n M n N Z z.w.F.H.H.H.H.H.K.K.+X&X:X&X&X:X:X;X,X;X,XgX;X;X,X;X:X:X:XR.K.T.T.T.T.K.T.T.T.b.b.b.c.X.G.G.H H H H H z.z.l.b.b.b.Z.K... .} } [ [ H X.H :XjXlXzXzXzXzXzXzXzXzXL.v n F F >X1X1X1X=X*X*X*X*X&X&X&X*X=X=XXX=XoX&X&X=X=X=X-X|.&X&X&X&X*X*XE.E.$XJ.$.| 0 n =X1X-X-X-X-X-X-X-X.X*XA.A.E.Y.E.E.T.Y.Y.Y.Y.uXHXI.N U.G.aXgXaXaXaXaXaXaXfX:XK.>XgX;X%XJ.H z.x.s.h.Z.-X1XZ.d.x.x.R.fXAXAXlXAXAXCXAXSXJXnXiXSXiX#X+X%X+X%XQ.%X8X8X8XyXUX6XUXUX6X7XUXUX6XP.:X&X0.j b B 0.Y.Y.Y.Y.S.A a j j a b B B b j b B C P.fXfXfXfXfXfXuXeXwXwXwXqXuXwXZ Z A IXIXIXIXIXIXIXIXIXIXIXIXIXIXIXIXIXIXIXIXIXIXIXIXIXIXIXIXIXIXIXIXIXIX",
"IXIXIXIXIXIXIXIXIXIXIXIXIXIXIXIXIXIXIXIXIXIXIXIXIXIXIXIXIXIXIXIXIXIX: v - - - - - - l u p - - > : v v v v : - - p : < X.+X:X;X:X:X:X:X:X:X;X>XgXiX:XC h v v v v v v : v b v b b v b b j c l.Z.N.N.A.A.M.d.b.=X=X-X-X-X,XJ.H wXJ.F < l S x.|.b.h.^.^.).).).^.|.S &X-XoXoX=Xv.- = : 9 e r o.MXZXBXdXmXmX{ ; + @ ; M N b Z S.K.X., w w ] FXeXc.}.{.{.{.}.h.|.{.`.`.`.`.`.`.`.{.{.`.{.{.`.`.`.`.'.N.'.XXv.N M ] } [ n v M n M M N X.S.w.w.H.Y.T.Y.H.H.K.&X&X=X=X&X;X;X;X;X;X;X;X;X;X;X;X,X:X:XT.T.T.T.T.T.T.T.K.T.K.b.b.v.z.z.J.X.H H X.z.l.v.b.b.b.Z.|.Z.H [ } } ] n $XkX$XH J.>XpXCXzXzXzXzXxXJ.F M O.F J.1X1X1X-X-X*X*X*X*X&X*X&X&X&X|.&X=X=X|.=X=X|.=X-X&X+X&X&X*XT.E.E.:XJ.%.%. .*.S 1X1X1X-X-X-X-X-X1X-X-X*X*XE.E.A.E.E.Y.Y.Y.Y.AXLXP.( I.G.I.gXaXaXaXaXaXaXfX:Xv.&X=XiXnXFXsX$X:X:X-X,X1X1Xb.w.x.w.:XlXAXfXAXAXAXAXCXSXGXiXdXZX%X!.+X+X+X%X%X0X0X8X6XUX5X5X6XUXUXUXUX6X6XI.:X:Xl.j B b 7.H.Y.Y.F.7.p j j j j j j j j j B B a G.fXfXfXfXfXfXeXeXiXtXtXsXdXdXP.a A IXIXIXIXIXIXIXIXIXIXIXIXIXIXIXIXIXIXIXIXIXIXIXIXIXIXIXIXIXIXIXIXIXIX",
"IXIXIXIXIXIXIXIXIXIXIXIXIXIXIXIXIXIXIXIXIXIXIXIXIXIXIXIXIXIXIXIXIXIX: : - - - p u : p p h u - - * v v v p * p p p : = - C J.$X;X;X:X:X:X;X;XgXgXuXG.p v v v v v v : * b b A v b b b b b j g a.Z.N.N.A.N.N.k.b.=X=X=X-X1X,XJ.H #X..1 v.|.b.s.d.|.^.).).^.].).|.a.|.XX[.}.}.oXm v [ r ; ; M tXFXdXcXMXmXF + $ @ 9 M b B 0.z.G.b r Y *.rXJX@Xb.}.}.{.}.|.h. X`.`.`.`.`.`._.`.`.{.{.{.{.{.{.`.`.`.`.{./.v.n M ] ] M n v M n M N N 0.9.F.H.Y.Y.T.K.H.K.K.&X&X=X=X=X&X,X:X;X:X;X;X;X;X;X;X;X:X:X:XT.R.T.T.T.T.T.T.K.K.K.b.b.l.G.G.G.H H H v.l.b.b.Z.Z.Z.Z.&XH ] } } M o.jXlXlXaX$Xo.+X>XzXzXCXpXH F [ D O.k >X1X1X1X-X-X*X&X*X*X&X&X&X&X&X&X&X&X=X=X=XoX=X=X-X&X&XK.&X&X&X&XT.K.o.%.@.*.0 !.1X1XOX1X-X1X-Xb.oX-X-X,X=X*XA.E.E.E.C.Y.Y.Y.fXKXJ.S.I.H.z.R.aXaXaXfXgXaXaXuXk z.+X=XpXJXKXKXGXhX>XiXCXSXx.5.x.w.K.lXfXfXlXlXAXCXCXSXVX$XAXZX@Xv.+X+X+X%X#X0X$.#XUXUX5X7X6XUXUXUX7X5X6XG.:X:XG.g j j g 9.H.Y.S.g a j A j j j a a j j j B A X.pXfXfXfXgXdXdXtXeXsXdXMXdXFXdXX.b IXIXIXIXIXIXIXIXIXIXIXIXIXIXIXIXIXIXIXIXIXIXIXIXIXIXIXIXIXIXIXIXIXIX",
"IXIXIXIXIXIXIXIXIXIXIXIXIXIXIXIXIXIXIXIXIXIXIXIXIXIXIXIXIXIXIXIXIXIX- * - : u : - - - u p p - - > r v v * p p p u - ; n D D H J.:X>X;X:X:XgXgXuXI.h v v v v v v p : : p b b v v b b v b b a g a.b.N.N.Z.Z.N.k.Z.;X=X,X=X%X;XJ.J.X.c ~.^.).^.M.^.).).).).).).^.a.!.}.}.{.}.oXS o.mXsXqXL.[ ] P.sXMXGXsX9 + $ # 9 / b V z.H.H p e ] qXJXFXO.oX{.{.{.}.|.f.{.`.`.`.{.`.`.`.`.`.{.{.{.`.`.`.`.`.`._.{. Xx < r M M M n n M n M N H S.S.D.H.H.Y.H.K.K.K.K.&X&X*X-X-X-X-X=X:X:X:X:X,X:X;X;X;X:X:XR.R.T.T.T.T.T.K.H.H.x.K.b.b.J.z.J.J.H H H v.b.b.b.Z.Z.Z.Z.Z.z.[ { ] ..pXzXjXlXlXlXuXJ.J.+XiX$XH F { { ..D c.1X1X1X,X-X-X*X*X*X&X&X*X&X&X&X&X&X&X=X&X=X|.|.=X=X=X&X&X&X*XT.&X&XJ.$.@.| F n +X1XOXOX1X1X1X!.S a.c.=X-X1X-X*XE.E.E.W.Y.E.Y.fXHXG.z.K.H.l.H.gXaXaXaXaXfXaXpXJ.m b.=X,XAXGXFXKXJXJXHXKXiXx.x.x.9.:XkXfXaXCXAXAXCXSXJXiXuXCXZX%XJ.+X+X+X#X#X0X$.#X@X6X6X5X6X6XUXUXyXUXUXG.:XT.H.C j b g 7.x.H.7.i a j b j j B j j j j B Z G.G.iXfXfXpXI.dXdXdXdXfXiXsXwXqXiX@XA IXIXIXIXIXIXIXIXIXIXIXIXIXIXIXIXIXIXIXIXIXIXIXIXIXIXIXIXIXIXIXIXIXIX",
"IXIXIXIXIXIXIXIXIXIXIXIXIXIXIXIXIXIXIXIXIXIXIXIXIXIXIXIXIXIXIXIXIXIX= * - - u p u u - - u - u - * * v p : p * p u = M O.o.L.O.D X.J.:X;X;X;XpX$XN < v v v M v v : = : : b b b b b v b b v A y d 4.k.N.N.N.N.Z.c.o.v.v.+X+XJ.J.J h f.|.)._.'.'.].)._.]._.).]. Xs.f.}.{.{.{.}.c.H nXmXsXMXrXM e { $.L.{ ; # % ; M N B z.x.K.b 9 &.qXGXJXeXa.OX}.{.{.OXs.k.`.`.{.`.`.`.{.{.{.{.{.`.{.{.`.`.`.`.`.`.{.|.x 1 M M M M n n n M n N X.0.q.w.x.H.H.H.H.K.K.T.T.:X&XoXXXXX-X-X=X&X:X:X&X&X,X:X:X:X:X&XT.T.K.K.T.T.H.H.x.x.K.b.b.b.l.G.J.G.G.z.J.b.Z.Z.Z.Z.Z.Z.b.z.[ F F >XzXjXlXjXlXjXjXiX$XJ.H F { O.O.{ ..F =X1X1X1X-X-X-X-X*X*X*X*X*X*X&X&X&X&X&X=X&X=X=X=X=X=X=X=X*X&X&X&X&XJ.$.%.@.] *.H -XOXOXOX1X1XjXH J { J J +X=X,X,X*XE.E.A.Y.Y.Y.fXFXG.G.K.K.K.G.U.uXaXaXaXaXfXfXuXH H K.=XkXGXqXeXFXLXJXdXK.a.x.l.a.$XlXfXfXAXAXAXAXSXnX$XnXCXSX%X+X+X+X+X%X#XL.P.#X#X6X5X5X6X5XUXwX0XUXL.J.T.T.G.B B B a j 0.0.A p b j a a a a j j j a B 7.G.G.iXfXfXuXP.eXFXfXGXGXGXAXAXFXdXP.N IXIXIXIXIXIXIXIXIXIXIXIXIXIXIXIXIXIXIXIXIXIXIXIXIXIXIXIXIXIXIXIXIXIX",
"IXIXIXIXIXIXIXIXIXIXIXIXIXIXIXIXIXIXIXIXIXIXIXIXIXIXIXIXIXIXIXIXIXIX- - - - u p h p u u u u p p : > : : : * p u : v O.o.$.$.L.o...m G P.uX;X@XH : < v v v N v : > : : * v b b v v b b b b b * y a c s.Z.N.N.Z.x S +X=X>X=X>X>Xv.l b.^.[.'.}.XX'.).).'.].`.).b.l.S /.OX[.}.}.oXJ iXcXsXtXsXL.M } ] r ; # # ; 5 M b Z x.x.K.p L.dXGXGXGXP.c.OX{.{.}.}.l.j.`.`.{.{.{.{.{.`.`.`.{.{.{.{.`.`.`.`.`.`.{.|.x 1 M M M M n n n n n N Z 9.q.q.x.x.H.K.T.T.T.T.T.&X&X&X*XXXXXoX-X=X&X=X&X&X:X:X:X&XT.K.T.K.T.H.K.K.K.H.H.H.x.x.b.c.l.z.z.z.z.v.b.b.b.Z.A.T.Z.Z.b.z.D < J.zXjXjXlXjXjXjXlXlXlXpXJ...L.L.O.{ e +X1X1X1X1X-X-X-X-X-X*X*X-X,X*X*X&X&X&X&X&X&X|.=X=X=X&X&X|.T.&X&X&XK.J.%.&.{ F < b.OXOXOX1X1XSX>XH H F { F J H l.K.=X*XA.E.E.W.Y.fXsXZ H.T.H.K.K.v.K.iXaXaXaXaXfXfX:XD z.&XiXZXdX..N X.X.G.0.0.x.l.7.;XAXfXfXfXlXAXCXSXuXuXZXAXSX%X+X+X!.Q.!.+X@X#X#XL.L.6X5XUX7XUXUXUX0X$.G.:X:XG.B B b j A g B a j j j b G.I.I.:XI.U.0.B V G.U.iXfXfXwXwX@XwXeXdXFXdXdXuXwXwXP.J.IXIXIXIXIXIXIXIXIXIXIXIXIXIXIXIXIXIXIXIXIXIXIXIXIXIXIXIXIXIXIXIXIXIX",
"IXIXIXIXIXIXIXIXIXIXIXIXIXIXIXIXIXIXIXIXIXIXIXIXIXIXIXIXIXIXIXIXIXIX- = = - - u p u p p p p p p p * > : p y u p : D o.$.o.$.o.o.P.$XP.J.J.P.$Xo.= : v b b v v : : : : * v A b b b b b b b b p : u u j a.j.Z.s.v.%X>X,X-X=X,X,Xv.S |.Z.(.|.|.Z. X].).]._.].^.a.l.J h.}.}.}.{.[.J qXnXsXsXsXsXL.M ] e ; ; # ; v N N z.x.b.H v tXGXGXGXBX[ !.}.{.{.}.oXa.j.{.`.{.{.`.`.`.{.`.`.{.{.{.{.`.`.`.`.`._.`. Xx = v M M n n n n n N D S.q.D.w.w.x.H.Y.T.T.T.T.T.T.&X&X&X.X|.oXoX*X&X=X=X=X&X:X:XT.T.T.T.Y.Y.K.K.T.T.T.K.K.K.H.K.b.v.l.l.z.l.K.b.b.Z.Z.Z.Z.&X&X+XH h X.kXzXjXjXjXjXjXjXjXlXjXjX#XO.L.o.O.] J 1X1X1X1X1X-X-X-X-X-X-X-X-X*X*X*X&XT.&X&X&X&X&X=X=X=X|.T.T.T.&X:XK.o.$.%.@.] *.F =XOXOXOX1XzXzXX.J.$XO.F O.H D G S z.T.E.E.E.Y.R.fXeXX.b.T.T.x.K.H.H K.gXaXpXaXpXfXpXI.G b.&XpXJXtXN N J.J.x.0.a.V Z ;XAXfXCXlXlXAXAXfXuXhXAXCXSX@X+X+X+X+X+X%X@XJ.#XL.P.6X6X6X6X5XyXUX0X$.G.:XK.x.z j j j j A i a b j G.uXfXfXfXfXfXlXpX:XI.H.I.gXfXfX$XdXfXwXwXwXuXuXwXuXfXZXfX0XIXIXIXIXIXIXIXIXIXIXIXIXIXIXIXIXIXIXIXIXIXIXIXIXIXIXIXIXIXIXIXIXIXIX",
"IXIXIXIXIXIXIXIXIXIXIXIXIXIXIXIXIXIXIXIXIXIXIXIXIXIXIXIXIXIXIXIXIXIXv : - - - u u p p u u p p u : - - - : u p u n o.$.$.o.L.P.$XuXiXdXfXpXpXAXo.> ; v v v v : > : : : * : b b b b b b b b b v * - u p a S c.S +XiX=X,X,X>X1X,XH z.b.S x.Z.b.a.Z.].).]._.].].b.|.c.a.[.}.[.{.}.b.o.vXsXsXsXsXiX$.M ; & # % , M M Z K.b.b.C [ BXGXGXGXeXk oX}.{.{.{.[.S ^.{.{.{.`.`.`.`.`.{.{.{.{.{.{.`.`.`.`.`.`.`. XC ; M M M n n n n N D H 0.q.w.w.w.x.H.Y.Y.T.T.T.T.T.T.T.&X.X*XoXoXoX=X-XXX=X=X&X:XT.T.T.Y.H.K.K.K.K.R.T.K.K.K.K.b.Z.b.b.l.l.b.b.c.b.Z.C.C.C.Z.&XI.k H pXlXjXjXlXjXlXjXjXjXjXzXjX%XX.o.O.| F +X1X1X1X1X1X-X-X-X-X-X-X-X-X-X*X*XT.T.&X&X&X&X&X&X=X=XT.T.Z.T.T.&XJ.O.@.@.| { n z.1XOXXX1XjXSXhXJ #XrX%XQ.{ J J { F J J a.K.E.Y.R.fXwXH K.T.T.K.x.K.J.Z I.fXaXaXaXfXfXaXH.v.K.&XpXKXqXo.sXAXgX:XI.G.G.pXCXfXfXCXAXCXzXiXiXAXCXCXVX+X+X!.Q.oX+X%X+X#XQ.Q.#X$.Q.@.6X8X@X#X0XJ.K.:XK.z.B A A A A A V A A / gXfXfXfXfXfXfXfXfXfXfXfXgXfXfXdXI.iXAXfXfXfXfXfXfXfXfXfXAX:XIXIXIXIXIXIXIXIXIXIXIXIXIXIXIXIXIXIXIXIXIXIXIXIXIXIXIXIXIXIXIXIXIXIX",
"IXIXIXIXIXIXIXIXIXIXIXIXIXIXIXIXIXIXIXIXIXIXIXIXIXIXIXIXIXIXIXIXIXIXv < - - - u u u p p p p p p - - - - p p u : ..P.L.P.P.P.wXeXuXuXgXiXpXfXwXv + : N v v v : : : p p : * b b b v b b b b b b : * p v v b C S >X>X+Xv.H S J.K.k v.b.a.oX.XXXc.k.].).)._.].].Z.Z.!.c ~.}.}.{.}.oXG sXdXsXsXsXvXsXrX, @ # # 8 M n H b.b.c.p P.GXGXFXGX#Xz.XX{.{.{.OX~.S /.`.{.{.{.`.{.`.{.`.`.{.{.{.{.`.`.`.`.`.`.`.oXx : v M M n n n n N N 0.9.D.w.w.F.x.Y.Y.T.T.T.T.T.T.T.T.T.&X&X*XXXoXXXXXXXoX=X-X:XT.Y.K.K.K.H.z.Z Z Z Z X.J.K.K.K.Z.Z.b.b.b.x.b.b.Z.Z.Z.x.H.T.K.H D iXzXlXjXjXjXjXlXlXjXjXjXjXjX>XX.O...F H OXOXOX1X1X-X-X-X-X-X-X1X-X-X,X*X*X*XT.*X&XT.T.&X&X&X&X&XT.T.T.T.P.O.%.@.@.| ] < !.-XOXOXOXCXSX#XH qX%X%X%X%XQ.F F F { ..F k 0.x.R.GXP.0.K.x.b.T.K.x.K.z.Z $XaXaXaXaXfXfXuXl.K.+XI.AXJX0XeXAXAXCXfXpXiXlXfXfXCXfXCXCXpXiXkXkXCXSXVXo.+X%X!.%X!.!.+X%X+Xv.%X#X%XQ.$.#X%X%X#XP.I.T.T.z.B b p A ( V D.D.A S.gXfXfXfXfXfXfXfXfXfXfXfXfXfXfXfX$XfXfXaXfXfXfXfXfXfXfXfXfXwXIXIXIXIXIXIXIXIXIXIXIXIXIXIXIXIXIXIXIXIXIXIXIXIXIXIXIXIXIXIXIXIXIXIX",
"IXIXIXIXIXIXIXIXIXIXIXIXIXIXIXIXIXIXIXIXIXIXIXIXIXIXIXIXIXIXIXIXIXIXv v : * p p p u p p p p p - - p : : p p - N J.L.L.P.wXuXuXuXuXiXiXpXpXfXJ.; > : / b v * : : * : : * * b b b A b v b b N v * : v v v v h G J.H x x C C m k * v.v.f..XXX&Xx.s.'.].`.).].].N.b.oXS f.[.[.{.}.oXG @XnXsXsXsXnXbX@X# $ # # 8 e n v.b.b.S h tXGXBXBXMXD c.{.{.{.{.}.c.c }.`.{.{.{.{.{.`.`.{.`.`.`.`.{.`.`.`.`.`.`.`.oXx ; v M n M n n M D H 0.w.D.q.F.F.x.x.Y.T.T.T.T.T.T.T.T.T.&X&X&XXXXXXXXXXXXXXX-X:XT.H.K.H.G.C Z J.$X$XI.J.H Z z.K.K.b.Z.b.b.b.k.j.Z.b.b.z.S.I.H m :XlXjXlXjXjXjXjXjXlXlXjXjXjXzX>XJ.O.D F !.OXOXOX1X1X1X1X1X-X-X-X,X1X1X-X*X*X*XT.&XT.&XT.|.&X&X&X&XT.T.K.I.L.%.| @.@.| F k =X1XXXOX1XSXVXH #X%X%X#X%XyXtXQ.Q.O.F { { F m Z wXGXP.z.Y.b.T.b.K.K.c.J.z.z.:XpXaXaXaXfXfX$Xv.K.+X>XJXBXrXfXfXfXlXAXAXfXfXlXAXCXAXkXpXnXkXlXCXCXxX+X+X=X+X+X%X!.!.J.+X+X!.%X%X%X@X%X%X@XP.P.I.R.K.G.B b A A ( 9.F.U.( U.FXfXfXfXfXfXfXfXfXfXfXfXfXfXfXuXqXfXfXaXfXfXfXAXlXfXfXfXAXuXIXIXIXIXIXIXIXIXIXIXIXIXIXIXIXIXIXIXIXIXIXIXIXIXIXIXIXIXIXIXIXIXIXIX",
"IXIXIXIXIXIXIXIXIXIXIXIXIXIXIXIXIXIXIXIXIXIXIXIXIXIXIXIXIXIXIXIXIXIXv v p - - p p p u p p p u * h v p : p : : ..L.L.qXuXuXuXuXuXuXuXiXfXpXuXm > : > v A 5 > * = - * : : * v b b v b b b A b v > : v v v v h k k k S G C x x k - S a.a.x.l.a.l.a.^._._.`.].]. Xd.b.S k ~.[.}.}.OXb.O.nXnXsXsXnXsX[ X @ $ + 8 M J !.|.b.B X.MXMXMXZXtXJ /.{.{.{.{.XXa.a.XX`.`.`.{.`.{.{.`.`.`.`.`.`.`.`.`.`.).B.N.N. XJ > r n M M M v v D H 9.q.F.D.i.F.F.F.Y.Y.T.T.A.T.T.T.T.T.T.&X*XXXXXXXXX-X-XXX*XT.x.b.K.z.b J.iXCXCXCXCXCXkXuXJ.k S v.Z.Z.b.b.Z.s.s.a.G.J.eXHX$.o.CXzXjXjXjXjXlXlXjXjXjXjXjXjXjXiX#X..D k -XOXOXOXOXOXOX1X1X-X-X-X1X,X-X,X-X*X&XT.:X&XT.T.T.&XT.&X&X&X:XP.$.%.%.@.@.&.*.0 H -X1X-X1XzXJX@XO.rX%X#XQ.Q.#X%X%X#X#XO.F ]  .M G.uXfXX.G.T.T.T.T.x.K.l.l.U.H H $XgXaXaXaXfXpXK.v.K.+XnXJXdXiXfXfXAXlXCXfXfXAXCXAXpXiXiXhXkXAXCXCXhXv.!.%X!.+X!.%Xv.!.#X+X+X!.+X+X%X%X%X%XP.K.T.R.T.H.V A b B ( S.S.S.D.U.fXfXfXfXfXfXfXfXfXfXfXfXfXfXfXuXwXGXAXAXfXCXAXfXAXAXAXAXAXnXIXIXIXIXIXIXIXIXIXIXIXIXIXIXIXIXIXIXIXIXIXIXIXIXIXIXIXIXIXIXIXIXIXIX",
"IXIXIXIXIXIXIXIXIXIXIXIXIXIXIXIXIXIXIXIXIXIXIXIXIXIXIXIXIXIXIXIXIXIXv v v - * - * * * * * - - : v v v : : - < %.0XwXuXuXuXuXeXuXuXuXiXfXpX:X< > : ; : : = * : > - - - : - p N b b b b b b p * * p v v v b v v C G x x C C C k l v.|.|.b.b.^.|.^._.).].].`.].{.Z.k.c.k f.[.[.{.{.|.J tXnXdXsXvXqX, O @ + @ 8 M v.|.!.c.p P.MXMXBXGX@XS /.{.{.{.{.XXx x.}.{.`.`.`.`.{.}.`.`.`.`.`.`.`.`.`._.N.^.^.N.oXx = M n M v n M N G S.q.w.F.F.w.w.w.w.Y.Y.T.T.T.T.T.T.T.K.K.&X&X*X-X-XXXXX-XXX=XT.x.K.z.m I.lXCXlXzXlXzXzXzXCXCX$Xz.z.l.h.b.Z.b.z.$XrX$X0XmXFXFXL.kXjXjXjXjXjXlXlXjXjXjXjXjXjXlXjXJ.{ F v.1XOXOXOXOXOXOX1X1X,X1X-X,X-X-X,X-X*X*X*X&XT.T.T.T.T.T.&X+X:XP.$.&.@.@.#.@.@.*.< L.,X1X1X-XCXBXO.#XyX#XQ.Q.Q.%X#X#X#X#X#X{ M ] m K.pXsXB H.T.T.T.T.K.K.K.z.z.z.G.H I.gXaXaXaXfXgXz.v.K.:XJXGXdXfXAXAXAXAXfXfXzXAXpXiXiXiXkXkXAXCXCX>Xv.+X+X!.%X!.v.v.!.%X!.+X+X+X%X%X%X%X%XJ.K.K.:X:XI.Z B 4XF.( ( &.&.( UXUXUXDXgXdXfXfXfXfXfXfXfXfXfXfXI.@XdXdXiXkXfXdXAXAXVXAXfXMXnXIXIXIXIXIXIXIXIXIXIXIXIXIXIXIXIXIXIXIXIXIXIXIXIXIXIXIXIXIXIXIXIXIXIX",
"IXIXIXIXIXIXIXIXIXIXIXIXIXIXIXIXIXIXIXIXIXIXIXIXIXIXIXIXIXIXIXIXIXIXv v p - - G v.K.v.l.J = : ; ; v 9 : = = 9 o.rXiXuXuXuXuXuXuXuXuXiXpXfX@X1 : * > > : v p : : : - - u : p N b N A b b v * - : : v b v v v b C C C x G C H j j +X/.(././.^.].).)._.`.`.`.].].]. X XS S [.{.[.{.oXH #XnXdXvXsX..O O + + # 8 F b.j.b.S h rXMXnXGXZXX.c.XX}.{.{.}./.l j.{.`.`.{.{.`.`.}./.N.{.`.`.`.`.`.`.).^. X XZ..Xx % M n M M n v m H 0.9.w.w.w.F.F.i.Y.Y.Y.Y.T.Y.T.T.T.K.K.&X&X&X*X.XXX XXXXXXX&XT.b.H.C K.kXlXlXjXjXjXjXlXlXlXzXCXkX:Xl.a.z.l.H sXJXHXtX0XrXtXLX#XkXlXlXjXjXjXjXjXjXjXjXjXjXjXzXpXX...F oXOXOXOXOXOXOXOX1X1X1X1X-X-X-X*X-X-X*X*X*X*X&XT.T.T.T.&XK.L.L.$.%.%.@.@.@.@.+. .0 G &X<XxXlXZX<Xo.rX%XQ.Q.@XQ.Q.@X#X#X@XQ.F ) F z.R.fXqXm H.T.T.x.K.K.x.v.K.K.z.l.G.G.R.gXaXaXfXfX$XH J.K.iXJXBXsXnXAXAXlXAXAXAXpXwXiXiXiXAXzXkXCXSX#XH +X+XoX+X%X!.%X!.!.Q.+X+X%X%X%X%X#X%XJ.U.I.I.o.[ | 4X5X5X4X4X5X6X5X5X4X5X5XUX5XUXUXPXdXfXfXfXfXfXdXJ.H J.+X&X:X=X=X&X,X*X+X&X:X:XIXIXIXIXIXIXIXIXIXIXIXIXIXIXIXIXIXIXIXIXIXIXIXIXIXIXIXIXIXIXIXIXIXIX",
"IXIXIXIXIXIXIXIXIXIXIXIXIXIXIXIXIXIXIXIXIXIXIXIXIXIXIXIXIXIXIXIXIXIXv v h D F v.=X=XoX=X+Xl n D 9 < ; ; , e D &.qXiXuXuXuXuXuXuXuXuXpXfXfXG.- - * b X.UXuXwX$XJ.F m h l p - v b b b b v * : : - : v v v v v b C C G S C x S l J !.j.(.).).'.).).)._.].].`.`.].].].`.b.l ~.[.[.{.XXb.X.sXnXbXrX0 $ # + o % < H ~.j.b.l ..sXMXMXGXMXF ~.{.{.{.{.}.!.u ^.`.{.`.{.{.{.{.}.Z.x.k.].`.`.`.`.`.].).'.'.|.oXx = e n M M M N D X.9.q.F.w.F.q.w.w.w.C.Y.Y.C.C.K.Y.K.K.K.K.b.T.&X&X.XXXXXXXoX&X&XT.H z.pXzXjXjXjXjXjXjXlXjXjXjXlXlXzXpX$XJ.h qXJXHXmXQ.0XqXtXLXP.pXlXlXjXjXjXjXjXjX1XjXjXjXjXlX>Xo.o.v.1XOXOXOXOXOXOXOX1X1X1X,X-X-X*X*X*X*X*X*X*X&XT.T.T.&XT.I.L.%.%.@.@.@.#.@.#.#.+.#.O.{ J H %XxXVXJ.#XrX@XQ.Q.Q.Q.Q.rX#X%XqX&.) ] N H.E.fXP.Z T.&XT.T.K.x.H.l.z.G.z.z.K.K.K.:XaXaXaXfXfXI.H J.+XnXJXmXuXfXAXAXCXAXiX%XrXiXsXkXzXzXCXCXCXJ.G &X=X+X!.!.!.%X!.!.%X+X%X%X$X#X%X#X%XG.0.G.( 6X5X5X6XUX5XUX5X4X5X4X4X5X4X5XUX5X5X5XUXUXgXfXfXfXfXfXG.v.,X-X,X,X-X-X-X-X-X-X-X,X-XIXIXIXIXIXIXIXIXIXIXIXIXIXIXIXIXIXIXIXIXIXIXIXIXIXIXIXIXIXIXIXIXIXIX",
"IXIXIXIXIXIXIXIXIXIXIXIXIXIXIXIXIXIXIXIXIXIXIXIXIXIXIXIXIXIXIXIXIXIXb v o.$Xo.H oXXX[.[.!.k L.qXo.n ; 5 9 0 [ &.L.iXuXuXwXuXuXuXuXuXpXpXiXm u B J.uXpXfXfXAXCXfX%XH +X&XG.B v N b b v * * - - p * p v v v b j x G H x C S G h G b.g.M.(.^.'.).).)._.`.].`.`.`.`.`.].(.S S [.[.[.}.|.F rXdXnX#X# $ # + + # < v.|.~.a.h P.MXMXMXGXqXS [.OX{.{.{.}.v.l oX{.{.`.`.`.`.{.|.|. XZ.k.'.`.{.`.`.).)._.'.N.oXk # n M M M M n N z.w.q.q.F.w.w.w.w.F.x.C.Y.Y.x.H.K.K.K.T.T.T.Z.|.*X.X*XXXXX-X=X*XK.G uXzXlXjXjXlXjXjXjXlXlXlXlXlXlXlXzXCXiX[ cXJXFXqXtXFXrXrXtXJ.uX>XjXlXjXjXjXjXjXzXjXjXjXjXlX<XJ.{ =XOXOXOXOXOXOXOXOXOX1X1X1X-X-X*X*X*X*X*X*X&X*XT.T.K.T.K.I.$.%.@.%.@.@.@.@.+.#.+.#.Q.Q.$...F J ..F @XrX@XQ.Q.%X8XQ.Q.%X$XQ.F Y F H R.E.AXJ.0.T.R.R.Z.K.b.K.K.z.v.K.K.l.x.K.H.I.gXaXaXfXiXJ.H I.iXGXJX@XP.wXfXMXwXJ.L.@X$XqXiXkXzXCXCXpXD H +X+X+X~.Q.%X!.%Xv.!.%X%X@X0X0XQ.O.{ / N +.6X5X5X6X5X5X5X5X5X5X5X5X5X5X5X4X5X5X9X5X5X2XUXfXfXfXfXfXU.+X-X-XXXXXXXXX-X-X*X-X-XXX-XIXIXIXIXIXIXIXIXIXIXIXIXIXIXIXIXIXIXIXIXIXIXIXIXIXIXIXIXIXIXIXIXIXIX",
"IXIXIXIXIXIXIXIXIXIXIXIXIXIXIXIXIXIXIXIXIXIXIXIXIXIXIXIXIXIXIXIXIXIXb v P.iX$XX.!.[.[.}.!.X.wXiXqXM , M F e e O.o.%XeXrXwXuXuXuXuXuXiXpX@Xu l J.gXpXpXaXfXfXaXfXiXv.-XOXOX=X#X%XI./ - * p u p p p p r v b v B C H S x S z.x 1 l S h.j.^.|.'.^.)._.)._.`.].`.`.{.`.]. Xb.k ~.[.[.[.oXJ #XvXvX..@ # $ o @ = J !.!.!.S 1 $XBXMXGXBX..c.}.{.{.{.{.OXc.c XX`.`.`.`.{.{.}.Z.|.}.}.|.|.'.`.`.`.).^.]..XZ.oXx % M M ] F n N H S.q.q.F.w.w.q.w.F.Y.Y.C.Y.Y.x.K.K.b.K.T.&XZ.|.Z.|..X*X-XXXXX-X*Xl.H jXlXjXjXlXlXjXjXjXjXlXlXlXlXjXlXlXzXI.[ rXtXrXeXLXHXvX] O.0XtXwX$XaXjXjXjXjXjXjXjXjXjXjXzXpXJ.H 1XOXOXOXOXOXOXOXOXOXOX1X1X-X-X-X*X*X*X*X*X*X*X*XT.T.T.b.#XO.Q.Q.@.Q.@.#.@.` #.#.#.8X8XQ.Q.Q.%.O.Q.#X@XQ.Q.Q.Q.Q.8X#X0X@X| e F M H.E.,XAXP.G.T.E.T.T.K.K.K.K.K.v.K.K.Z.K.K.H.z.U.uXaXaXfX;XH o.$XiXHXGXL...X.o.X.L.L.L.P.$XAXCXCXCXAX$Xb I.$X+X&X!.+X+X+X+X%X+X#X@X0X0XQ.] } } ] +.5X6X5X5X5X5X5X5X5X5X5X6X5X5X5X5X4X5X5XUX5X5X5XUXdXfXfXfXfXI.+XOX-XXXXXXXXXXXXX.X.X.X.X.XIXIXIXIXIXIXIXIXIXIXIXIXIXIXIXIXIXIXIXIXIXIXIXIXIXIXIXIXIXIXIXIXIXIX",
"IXIXIXIXIXIXIXIXIXIXIXIXIXIXIXIXIXIXIXIXIXIXIXIXIXIXIXIXIXIXIXIXIXIXv p J.iXiXJ.S oX[.}.oXJ.rXiXwXO.9 F ] *.0 O...#XeXrXwXuXuXuXuXiXiXuXX.h G $XaXaXaXpXfXaXaXfXwX!.OXOXOXXX+XuXfXuXC - u p p p p p p v v b C G S x x z.z.k < l S h.(.^._.].].).).).).`._.].`.`.`. Xb.z.J a.[.[.[.[.c.O.nXsXM $ # # @ @ 1 H ~.~.c.- N eXMXFXGXtXJ !.{.{.{.{.}.OXk z.}.`.{.{.`.`.`.'.x. X'. XA.Z.{._.`.`._.C.x.d.|..Xk > M M ] M M n H 0.D.q.F.Y.Y.W.H.Y.C.Y.Y.H.H.H.K.K.K.+X&X&X|.A.Z..X|.XX-X-X-X-X&XS :XzXjXjXjXjXjXjXjXjXlXlXjXjXlXjXlXlX;XP.FXtX#X#XFXLXFXFX{ %.FXKXGXsX+XxXjXjXjXjXjXjXjXjXjXlX;XJ #X1XOXOXOXOXOXOXOXOXOXOXOX-X-X-X-X*X*X*X*X,X*XR.T.T.K.K.+XJ.Q.O.@.@.3X#.@.@.#.5X#.#.8XQ.Q.Q.Q.#X0XQ.Q.Q.Q.Q.%X#XQ.Q.#X%X$.] ) F H E.E.gXBXX.H.E.E.T.T.x.K.K.l.x.x.x.T.T.&Xb.v.G.H X.;XfXfXaXJ...J.@XsXJXdXX.N N O.P.L.L.#X>XAXCXCXiXP.H #XZXdX+X&X!.+X+X+X+X#X%X@X0X0X#.] +.4X+.E +.5X5X5X5X5XUXUX5X5X4X4X5X9X5X5X5X4X5X5X5X5X9X5X4XUXfXfXfXfXI.b.-XXX-XXXXX-X.XXX-X.X.X.X.XIXIXIXIXIXIXIXIXIXIXIXIXIXIXIXIXIXIXIXIXIXIXIXIXIXIXIXIXIXIXIXIXIXIX",
"IXIXIXIXIXIXIXIXIXIXIXIXIXIXIXIXIXIXIXIXIXIXIXIXIXIXIXIXIXIXIXIXIXIXv v J.iXuX$XJ ~.[.}.!.o.iXuXuXP.9 F *.F { O.F { #X%XrXwXwXuXuXuXrX$.D F G.rXaXaXaXfXfXfXaXfXiXv.XX}.{.XX+X;XfXaX$Xm p p p p p p p v v m x S S G x z.z.h 1 h H S /./.^.'.).].).).]._.`.`.`.'..XZ.C.S l l !.[.[.[.!.J sXqX, # # # # # k ~.!.b.S = o.nXMXFXBX@XH oX{.{.{.{.OX[.l c.XX`.{.`.`.`.`.}.Z.f.^.|.Z.}.`.`.`.`.`.]..X|./.|.k # D M M ] M N G.H.F.w.q.w.Y.Y.Y.Y.Y.Y.W.Y.H.H.K.K.K.&X&XZ.Z..X.XA.]. XXX-XXX-XK.G >XaXjXjXjXjXjXjXjXjXlXjXjXlXjXjXlXlX#XiXLXFXL.{ sXFXFXsX{ $.0XFXNXJXwX;XjXjXjXjXjXjXjXjXlX>Xo.k >X1XOXOXOXOXOXOXOXOXOXOXOXOX1X-X-X*X*X*X*X*X*X*X*XR.K.K.I.P.Q.@.@.@.@.3X#.#.4X5X#.@.' Q.8X#XQ.8X0XQ.Q.8XQ.yXyX#XQ.Q.0X@X..*.*.M K.E.E.fXdXZ H.E.T.T.K.K.T.K.v.l.l.K.T.:X:X&XI.J.m m Z $XiXpX$X( X.J.$XcXJXeX{ [ X.L.P.#X$XnXAXpX>XX.P.sXZXZXnX+X+X!.+X+X+XJ.P.P.0X0XQ.} @.#.4X+.E +.5X4X2X2X4X5X5X5X5X2X5X5X5X5X5X5X4X5X5X9X5X5X5X4XUXfXfXfXfXwXb.XXXX-XXXXX-X.X.X.X.X.X.X*XIXIXIXIXIXIXIXIXIXIXIXIXIXIXIXIXIXIXIXIXIXIXIXIXIXIXIXIXIXIXIXIXIXIX",
"IXIXIXIXIXIXIXIXIXIXIXIXIXIXIXIXIXIXIXIXIXIXIXIXIXIXIXIXIXIXIXIXIXIXv N I.uXiXuXH S oXXX!.L.>XuXuX$X..X.o.{ { | ..{ o.#X@X@XqXwXrX@XP.J F J.o.uXiXaXaXaXfXaXaXaX;Xv.oX{.{.XX+XiXaXaXiXG.u p p p p p p v h C C C S x C l.C v < J c.f.f.[.'.).'. X).].).)._.].`.Z.l.b..X.XS l J [.[.[.oXJ ..O.# # t # @ # H !.a.f.S : $XnXMXBXMXo.!.}.{.{.}.{.OX[.d b.|. X'.`.'.{.`.{.`.^.b.x./.{.`.`.`.`.`.).`.`.`..Xj # M M F [ [ ..G.D.w.w.F.F.w.w.H.H.Y.Y.H.x.H.K.K.K.+XK.&XT.|..X X]. XXXXXXXXX-XS K.aXjXjXjXjXjXjXjXjXjXlXjXlXlXjXjXlXjXJ.sXFXHXeXD qXPXFXQ. .&.*.#XmXmXo.$XzXjXjXjXjXlXxX;XaXI...F #X-XOXOXOXOXOXOXOXOXOXOXOXOXOX1X-X*X*X*X*X&X&XT.T.U.J.J.L.o.@.Q.@.@.@.@.@.#.#.#.3XQ.3XQ.Q.8X0XQ.Q.Q.#XQ.Q.@XyX@XQ.Q.0X%XO.F F H R.E.,XAX$XB T.R.T.T.T.K.T.x.l.x.T.T.&XT.T.&XR.z...o.H N X.G.qXO.[ X.J.rXFXJX0XX...$.#XP.$XiX$X$XP.rXNXSXNXZXfXK.+X!.+X+X#XL.6XUX0X8X@.%.@.` 4X+.R _ 2X5X5X5X5X5X5X5X5X4X5X5X2X2X4X5X4X5X6X5X5X5X5X5X4XUXAXfXfXuXv.-XXXXXXXXXXX.X.X*X.X.X.X.XIXIXIXIXIXIXIXIXIXIXIXIXIXIXIXIXIXIXIXIXIXIXIXIXIXIXIXIXIXIXIXIXIXIX",
"IXIXIXIXIXIXIXIXIXIXIXIXIXIXIXIXIXIXIXIXIXIXIXIXIXIXIXIXIXIXIXIXIXIXv N $XuXuXiXJ.G !.oX!.J.wXuX;XuX$X@X#X..D F D @.Q.$.| ] { Q.Q.{ o.O.F #Xv.$XiXpXaXaXpXpXaXpX$X!.}.{.}.oX>XpXaXaXpXP.p p p p p p p p j C x C x x S l.k F h J v.b.a.N.]. X|.k.s.k. X`._._.`. Xl.Z.'. Xb.S l f.[.[.oX!.t t # # # # # 1 v.!.J l h n eXbXMXMXsXH |.}.}.{.{.}.}.b.l b.l.x.x.d.^.}.{.`.`.`./. X{.`.`.`.`.`.`.).`.`.]..Xj + n ] D ] N X.H.w.q.w.F.F.w.x.H.Y.Y.Y.H.x.K.K.+X+XK.+X&X|.Z..X].].].-XXXXXXX&Xk ;XjXjXjXjXjXjXjXaXjXlXjXjXjXlXjXjXjXlXJ.wXFXHXtXo.@XeXtX0XFXFX$.*.{ %.O.#X+XaXjXjXjXlX;XJ.%XMXLXFXwX+X1XOXOXOXOXOXOXOXOXOXOXOXOX1X-X-X*X*X*XR.I.K.v.J.o.o.L.$.%.@.@.@.@.@.@.#.@.@.#.3X5X#.@.@.8XQ.Q.8XQ.Q.Q.yXQ.Q.8X0X%X%XJ.F M J.gX,XaXGXI.Z K.T.T.T.K.T.T.x.b.K.T.*X&XT.T.*XT.G P.P.P.L.X.X.D [ [ D X.J.iXHXFXL.D X.L.#XL.o.P.sXNXZXZXZXNXNXvX+X!.!.+X#XP.%.6XUX6X$.tXqX+.4X4X4XE _ 5X5X5X4X5X5X4X4X5X4X5X5X5X4X5X2X5X5X5X5X5X5X5X5X4XUXfXAXfXiXv.=X-XXXXXXX.X.X.X.X.X.X.X.XIXIXIXIXIXIXIXIXIXIXIXIXIXIXIXIXIXIXIXIXIXIXIXIXIXIXIXIXIXIXIXIXIXIX",
"IXIXIXIXIXIXIXIXIXIXIXIXIXIXIXIXIXIXIXIXIXIXIXIXIXIXIXIXIXIXIXIXIXIXv ( uXuXuXuX$Xm b.=XJ.P.;X;XuXuX;X;X$XL.F *.{ F J Q.e 0 F *.n F D D D L.Q.$XpXaXaXaXgXpXaXaX$X!.}.OXoX&XaXiXiXaXpXI.a u u p p u p p b C x x x x a.H n D n G c.a.b.^.^.N.s.Z.Z.x.|.].)._._.].Z.d.XX Xa.|.z.k ~.[.[.!.1 $ = ; # # # 1 !.c.l 1 = ..dXdXMXMXqXz.[.}.{.}.[.oX|.k l Z.|.XXXX.X^.{.{.{.{.`.`.{.`.`.`.`.`.`.).).].`.`.^.j + e ] ] M M X.H.q.q.q.F.H.F.x.x.Y.Y.Y.b.K.K.K.+X&X+XT.T.|..X.X].B..XXX-XXX1Xv.J pXjXjXjXjXjXaXaXjXjXlXlXlXjXjXjXjXjXzX$XP.MXFXeXwXbXrX0XFXLXHXLX#X] 0XFXGXP.+XlXjXjXpXJ.P.cXJXKXKXsXv.OXOXOXOXOXOXOXOXOXOXOX-X-X1X-X-X*X*X*X:XI.X.G.o.O.%.$.$.%.%.@.@.#.#.Q.@.@.@.Q.3X5X3X#.#.Q.Q.Q.8XQ.Q.yX@XQ.Q.Q.0XyX%X0X..M G 0.x.R.iXX.0.T.T.T.T.b.T.K.b.H.K.T.*X*XT.T.T.K.H @X#XP.L.P.P.#X#XL...G o.@XsXJXFX$.[ ..o.o.sXZXZXZXZXZXAXZXBXhX!.+X+X+X+XP.6XUXP.&.tXFX0X+.4X4X4XI ~ 5X5X2X2X4X5X5X2X5X5X4X2X4X4X2X5X5X5X5X6X6X4X` 2X4X&.wXfXfXfXJ.v.-XXXXXXX-X.X*X*X.X.X*XE.IXIXIXIXIXIXIXIXIXIXIXIXIXIXIXIXIXIXIXIXIXIXIXIXIXIXIXIXIXIXIXIXIXIX",
"IXIXIXIXIXIXIXIXIXIXIXIXIXIXIXIXIXIXIXIXIXIXIXIXIXIXIXIXIXIXIXIXIXIXh J.uX;XuXuXwXH H =X!.L.uXuXuX;X;X;XuX@XF ) O.{ { O.7 D #XO.0 n F { H ..L.%XiXpXaXaXiXaXaXpX$X!.}.XX|.>XiXiXiXaXpXP.p u p u u u p a G C x C C x H G m F n z.S b./.).).k.b..X'.d.k.].`.`._.).`.s.b.b.l.XX!.h S [.[.[.J # t t # # 1 S !.S = 1 - #XdXMXbXcXo.c.}.}.}.k.S h a c l.Z.^.'.{. X'.{.{.{.`.`.`._._.`.{.`.`.`.).^.B._.`. Xk + M ] ] M [ G.H.q.w.w.w.H.H.x.x.H.H.H.K.K.K.K.&X&XT.+X&X|..X.X.X].].-XXXXXXXJ o.kXkXjXjXjXaXjXjXjXjXjXlXlXlXjXjXaXjXlXpX$XsXmX0XiXkXJ.cXHXFXFXFXyX%.FXJXKXqXP.;XJ.o.J.M o.FXLXJXmXo.v.OXOXOXOXOXOXOXOXOXOX-X=X,X-X-X*X*X*X*X$XJ.X.o.o.O.O.$.@.%.@.#.@.+.8X' @.@.8X8X' 3X3X#.#.@.@.Q.Q.Q.Q.8X@X%XQ.@X@X@X@X@X0XqX@XL.H m B j z.T.T.Z.T.K.T.K.x.K.K.T.*X*XZ.T.T.J.H $X#X#XL.L.L.#X#XP.J.[ ..o.wXMXKXdXL.D D sXZXNXZXZXAXZXZXVXZXvXo.+X+X+X#XP.P.&.M 0XGXFX8X4X4X4X4XE ~ 5X2X2X4X4X5X5X2X5X5X5X5X5X5X5XUX5X5X5X5X4X2X2X~ 4X+.UXdXfXfX$XG b.-XXXXXXX*X.X*X*X*X&X:XIXIXIXIXIXIXIXIXIXIXIXIXIXIXIXIXIXIXIXIXIXIXIXIXIXIXIXIXIXIXIXIXIXIX",
"IXIXIXIXIXIXIXIXIXIXIXIXIXIXIXIXIXIXIXIXIXIXIXIXIXIXIXIXIXIXIXIXIXIXm I.uX;X;XuXiX+XH +X!.P.;XuXuXuX;X;XuX%X{ *.{ D D | 0 O.O.*.0 *.F F F o.J.$XgXpXaXaXiXaXaXaXK.!.}.XX+X;XaXaXaXaXiXJ.p p p u u u p j G G x x x S z.G n 1 k c a./.).(.].Z.d.].'.|.s.N.`.`.`._.{. Xa.C |.'./.a.1 c.oXoXk $ = # # 1 J !.!.x 1 = 9 qXsXbXMXsXF c.}.{.oXS = J K.|.'.].|.}.}./.^.XX{.{.{.{.`._.`.`.`.`.`.`.N. X'.N.N.|.j + / { { / X.G.D.q.w.H.x.x.x.H.x.H.H.K.K.K.K.K.b.&X&Xb.Z.Z.^..X.XB..X-XOX-X=Xk K.lXjXjXjXjX1XjXjXjXjXjXlXlXlXlXlXaXlXlXlXiX#XqXL.kX;XL.FXFXmXmXmX0XQ.FXJXJXO.N #XmXBXsX{ n L.tXqX{ F &X1X1XOXOXOXOXOXOX1X=X=X%X=X-X-X*X*X*X*XI.J.X.o.o.O.&.%.Q.Q.#.@.@.@.#.Q.@.' 8X#.@.Q.#.Q.3X8XQ.8X8X8XQ.rX0XyXyX%X@X@X0X@X@X0X%X%XwXI.z.V K.R.T.T.T.K.T.T.b.K.T.R.&XT.b.Z.R.I...L.J.$.L.P.#XL.P.#XL.O.[ O.P.sXHXKXdXX.N vXZXZXZXZXZXAXVXNXZXrXv.+X!.+XQ.o.| v P.dXGXBX6X4X4X4X4XT ~ 4X~ 5X4X2X5X2X2X5X5X4X5X5X5X5X5X5X5X4X4X2X4X4X5X4X~ &.iXfXfXfXJ.S &X-X-X-X-X-X*X*XK.$XfXIXIXIXIXIXIXIXIXIXIXIXIXIXIXIXIXIXIXIXIXIXIXIXIXIXIXIXIXIXIXIXIXIXIX",
"IXIXIXIXIXIXIXIXIXIXIXIXIXIXIXIXIXIXIXIXIXIXIXIXIXIXIXIXIXIXIXIXIXIXX.$XuX;X;X;XiX$XH +X+X#X:X;X;X;X;X;XuXwXo.n { D D D 0 $.F { Q.F F O.o.#XI.;XaXaXaXpXgXpXpXpXv.|.OXoX+XiXpXaXgXgXiXH u p p p u p p b H C C x x S l.k n l b.!.j.(.).).). Xd.Z..Xb.l.N.`.`.`.{.{.}.j.h.XX_./.!.k < oX!.1 # ; = = k f.~.j.c.n = D eXdXbXMX0Xh |.}.{.OXoXS 1 f. X'.'.Z.Z.|.Z.b.}.{.{.`.{._._.`.`.`.`.`.].Z.].].].M.|.k + M | { [ X.G.9.q.w.H.H.x.x.H.H.H.b.K.K.K.T.K.&X&XT.Z.Z.Z.Z..X].].XXXXXX-Xb.h ;XjXjXjXjXjXaXaXjXjXjXjXjXlXlXjXlXjXjXlXlXAXo.P.qXpXuX@XHXmXtXmXmX&.%.tXPXtX[ | HXKXKXLX&.[ 0XmXtXtXL.=X1X1XOXOXOXOXOXOX1X1X+X%X%X+X=X+X|.,X*XR.J.X.o.o.O.&.Q.@.@.#.@.@.#.' #.#.#.8X8X#.%.Q.Q.Q.8X8X8X0X8X0X@X0XyX%X@X0XqXqXyX0X@X%X%X$XuX;XR.;XE.T.T.T.T.T.K.H.T.&X:XT.&XT.l.:XZXbXrX@XL.J.o.o.J.o.L.P.L...D o.$XbXHXJXwX..sXBXZXAXZXZXZXAXZXZXP.G K.+XP.J.O.N X.dXGXZXtX4X5X4X4X4XT _ 4X` 5X5X2X2X2X4X4X4X4X4X4X4X4X4X5X5X5X2X4X4X` +.5X+./ @XfXfXAXpXJ.G.b.+X|.&X&XK.K.J.iXAXIXIXIXIXIXIXIXIXIXIXIXIXIXIXIXIXIXIXIXIXIXIXIXIXIXIXIXIXIXIXIXIXIXIX",
"IXIXIXIXIXIXIXIXIXIXIXIXIXIXIXIXIXIXIXIXIXIXIXIXIXIXIXIXIXIXIXIXIXIXJ.uX;X;X;X;XiXuXJ.b.+X#XwX;X;X>X;X;X;XuXP.F F F { D *.O.9 { O.n { O.P.uXiXaXaXiXpXiXpXpXaXiXJ.oXXXoX>X;XgXgXpXaXuXH - u u u p p p C G C C C C l.H j h a.|.^.(.B.(.).).'.Z.a.s.j.|.'._.`.`.{.`.}.}.}.{._.(.S k ~.oXS # , # # 1 S f.~.j.b.k = o.dXdXMXMXJ.x oX{.{.{.OXOXS i Z.`.'.Z.b.b.s.N.{.`.`.`._._.).).`.`.`.).].N.].].^.Z.|.j + F  .[ [ G.G.9.q.w.x.H.x.x.x.H.b.b.b.b.b.b.K.|.Z.|.Z.Z.Z.N.B.].].XXOXXX-Xv.G kXlXjXjXaXjXlXlXaXjXjXjXjXjXlXjXlXlXjXlXlXaX@XGXMXuXlXP.tXsXtXPX%.0XtXtXqXyXP.o.mXHXBX#X$.LXKXKXKXKX@X=X1X1XOXOXOXOXOXOXOX1X1X<X<X>X%XK.K.&X&XK.K.o.o.o.O.$.Q.@.@.@.#.3X#.3X3X5X+.#.#.@.Q.Q.#X$.$.Q.#X8X#X#XQ.#X%XrX%XrXrXrXrXrXqX%XtXrXuXgXgXgX;XE.R.:X&XR.K.Z.T.T.*XT.T.T.x.$XZXNXZXBXMXnXeX0XP.L.o.L.P.o.[ D o.iXBXJXJX@XP.MXZXZXZXZXZXZXZXiXv k X.J.J.L.X...sXGXGXGXtX4X5X4X4X5XT +.4X~ 5X5X5X5X4X4X4X4X4X4X4X4X5X5X5X4X2X2X5X~ ` ` ~ 4X/ o.iXfXfXfXfXiX$XJ.G x G @X$XpXiXR.IXIXIXIXIXIXIXIXIXIXIXIXIXIXIXIXIXIXIXIXIXIXIXIXIXIXIXIXIXIXIXIXIXIX",
"IXIXIXIXIXIXIXIXIXIXIXIXIXIXIXIXIXIXIXIXIXIXIXIXIXIXIXIXIXIXIXIXIXIX:XuX;X;X;X;XuXiX+X+XJ.#X;X;X;X;X;X;X;XuXuXL.*.*.{ D 8 F 0 D | F J %XpXpXpXgXgXuXpXgXaXpXaX;X+XoXXX!.>XuXiXgXgXpXuXm u u u p p p l S S C G C x z.G l h j.^.(.(.(.).).].]..Xd.N./.)._.`.`.`.`.{.`.`.`._.^.f.k ~.oX!.l t , # # l v.h.j.j.f.l : $XcXdXMXsXm z.XX{.{.{.{.OX+X= b.`.`.`.}.}.'.}.{.`.`.`.`.).(.`.`.`.`._.).N.`.'.N.^.|.j O M [ [ X.G.G.S.x.x.H.H.x.x.x.b.b.b.b.b.b.b.b.Z.Z.Z.N.N.N.N.B.].].*X-XXX-Xm J.lXjXjXaXaXaXaXjXjXjXjXjXjXlXlXlXlXjXlXlXlXaXiXJXGXeXkXiXP.@X@X| rXLXJXJXJXtX%.#XrXmXrXe tXKXLXKXJXHXJ.=X1XOXOXOXOX1XOX1X1X1X1X1X<X<X>X%X+XK.K.J.J.J.o.O.&.$.Q.@.#.#.3X' 3X3X` #.@.&.{ *.e D H O.O.o.o.O.o.O.O.D { O.$.#XqXrX@X%XrXrXwXP.P.J.U.X.X.G.z.J.K.K.T.T.T.&X:XT.Z.T.K.$XAXNXNXNXVXbXVXZXZXBXrXP.P.P.O.D [ P.sXFXKXGX$.0XZXZXZXZXZXSXVX..: h k H $.X...rXGXZXGXZXyX#.6X4X4X4XR +.4X~ 4X5X5X5X4X4X4X4X4X2X4X4X4X5X4X4X2X~ 4X~ 2X4X4X~ / X.wXfXfXfXfXAXAXfXP.C X.FXcX$XK.w.IXIXIXIXIXIXIXIXIXIXIXIXIXIXIXIXIXIXIXIXIXIXIXIXIXIXIXIXIXIXIXIXIXIX",
"IXIXIXIXIXIXIXIXIXIXIXIXIXIXIXIXIXIXIXIXIXIXIXIXIXIXIXIXIXIXIXIXIXIXuX:X;X;X;X;XuXaX+X+XJ.J.;X;X;X;X;X;X;X;X;XwX#X| D F 0 9 F o.o.o.uXiXgXuX;XgXuXgXiXaXiXpXpX:X!.XXXX!.;XuXiXaXaXaX$Xa u y p u p p j z.C x x G S z.x - a.^.'.M.M.(.)._.].).]. X].).).)._.`.`.`.`.`.`.`./.a.1 c.oXoX!.1 ; # $ 1 J c.h.j.h.S - n rXcXcXMXqXh !.}.{.{.{.}.|.j k  X`.`.`.`.`.`.`.`._.`.`._.).).].`.`.`._.).N.]. Xk..X.Xk > M { [ X.G.z.9.0.S.G.G.H.x.b.b.b.b.b.b.b.Z.Z.Z.Z.N.Z.N.N.V.B.).'.-XXXOX=Xl $XjXaXjXaXaXaXaXaXaXjXjXjXjXlXlXlXlXjXjXlXlX>XwXLXHXiXkXCXjXuX$.$.HXJXJXJXJXKXqXrXHXKXKXtX0XFXFXLXJXmXH =X1X1XOX1X1X1X1X1X1X1X1X1X>X<X<X<X>X#XJ.G.J.J.o.O.&.Q.Q.Q.#.#.3X#.3X#.#.%.{ h D J.+XiX<XjXzXxXzXzXAXCXVXVXeXvX$Xo.H X.Q.%X@XL.X./ E / / E R Y / M / D X.I.R.;X&XT.T.T.T.I.MXZXZXZXVXZXVXnXVXZXVX#X#X#XP.X.N o.rXdXHXKXdXX.sXZXZXZXZXZXsXv a 0.x C D X.@XGXZXZXAXGX0X4X5X4X4X4XR ~ 4X~ 4X5X5X5X5X4X4X4X2X2X4X4X5X4X4X4X4X~ 4X4X~ ~ 4X+.E / P.fXfXAXfXfXfXuXG.Z X.HXdXz.9.6.IXIXIXIXIXIXIXIXIXIXIXIXIXIXIXIXIXIXIXIXIXIXIXIXIXIXIXIXIXIXIXIXIXIX",
"IXIXIXIXIXIXIXIXIXIXIXIXIXIXIXIXIXIXIXIXIXIXIXIXIXIXIXIXIXIXIXIXIXIXuX;X:X:X;X;X;XiX+X+Xv.O.%X;X;X;X;X;X;X:X;XuX;X$X$X$X@Xo.D D o.$XpXuXuXuX;X;XuXgXgXpXiXpXpXI.!.XXoX+X;XuXgXaXgXpXI.a u u p p p u x G x C S S S H u j b. X^.(.).).).).).).).).).).).).(._.`.`.`.`.{.`._.S - !.[.oXH t t , # 1 S j.k.k.f.S : O.sXcXnXnXo.x XX}.{.{.{.XXS l b.'.`.`.`.`.{.`.'.}.'.'.{.}.(.g.k.'.`.`.`.`.N.^.Z.d. X Xj > M { [ G.G.z.0.0.z.G.z.H.K.b.b.b.b.b.b.b.Z.Z.N.N.Z.^.B.M.N.B.). X-X-XXXv.k iXaXjXaXjXaXaXaXaXaXaX1XlXjXlXlXlXlXjXlXlXlX;X@XLXFXsXpXlXlXAX$XqXJXJXJXJXKXJXLXmXJXKXKXFX$.tXmXFXHXqXG.=X-X1X&XK.v.l.H z.v.v.v.+X%X>X%X<XhX>X#XX.o.O.O.O.%.Q.Q.Q.Q.Q.5X` ` +.%.X.k G.;XgX,X,X-X,X,X1X1X,X,X1X1XzXCXSXSXAXnXwXJ.N N / E ~ ~ ~ ~ ~ ! ! I U E E } / ..K.I.*X&X*Xb.G P.MXSXZXBXbXnXnXnXZXZX@X#X#X#XL.[ N $XsXGXJXKX0Xo.nXZXZXZXZXrXj q.C.w.B v @XZXZXZXZXZXMX6X4X5X4X4X4XE ~ +.~ 4X4X4X4X4X4X4X2X2X2X~ 2X4X4X2X4X2X` ~ 4X5X4X2X4X+./ J.sXAXfXfXpXI.x.0.0.X.HXsX7.5.6.IXIXIXIXIXIXIXIXIXIXIXIXIXIXIXIXIXIXIXIXIXIXIXIXIXIXIXIXIXIXIXIXIXIX",
"IXIXIXIXIXIXIXIXIXIXIXIXIXIXIXIXIXIXIXIXIXIXIXIXIXIXIXIXIXIXIXIXIXIXuX;X:X;X;X;XuXpX%X+X%XJ #X;X;X;X;X;X;X;X;X;X;XuX;X;XuXuX$X%X$XiXgX;X;X;X;X;XuXuXgXgXuXpXpX&X|.XXoX+XiXiXgXgXgXiXJ.p p p p p * * C G C C C S S h u l./.'.).).M.(.).).).).).).).).).)._._._.`.`.`.{.{.[.c.1 h.[.oXJ # t t # k f.j.k.k.f.k 1 @XsXnXMXsXN v.XX{.{.{.}.!.l z.l.Z.N.].`.{.{.`.'.b.h.b.'.XXh.a.b.Z.'.`.`.`.`.].Z.N.]./.j + r { { o.G.G.S.0.z.l.G.J.K.b.b.b.Z.b.k.Z.Z.Z.N.N.^.^.B.N.N.N.M. X-X-XXXS H pXlXjXjXjXjXaXjXjXjXjXaXlXjXjXjXlXaXlXlXlXlX;XJ.cXMX0XuXzXlXlX%XqXJXHXJXJXJXJXFXmXJXJXLXFX%.tXFXLXmXO.J.G.J.v.H H J.P.L.%XI.J.H m H H J.#X$XvX>XL.O.O.O.O.O.Q.Q.Q.#.3X#.` +.| D n v.+X&X&X*X*X*X-X-X-X-X-X-X-X-X-X-X1X,XlXzXCX@XN I ~ _ +.+.~ R ! ! ~ T I _ _ _ _ } ] [ J.:X:X&Xh = ..bXZXZXBXnXZXVXZXZXeXL.@X@XL.o.D $.eXdXGXKXKXP.qXAXZXZXAXJ.g 6.u.i.8.B dXGXZXZXZXZXFX%.+.5X4X4X4XR ^ ~ 4X4X4X2X2X2X2X2X4X2X2X` ' ~ ~ 4X4X+.2X~ ~ ` ~ 4X5X4X .G.I.iXuXI.G.w.w.w.9.S.HXnX3.6.u.IXIXIXIXIXIXIXIXIXIXIXIXIXIXIXIXIXIXIXIXIXIXIXIXIXIXIXIXIXIXIXIXIXIX",
"IXIXIXIXIXIXIXIXIXIXIXIXIXIXIXIXIXIXIXIXIXIXIXIXIXIXIXIXIXIXIXIXIXIXuX;X;X;X;X;X;XpX:X+X+XJ H $X:X:X;X;X;X;X;X;X;X;X;X;X;X;X;XuX;X;X;X>X;X;X;X;X;X;XuXuXiXiXpX+XoXXX|.+XuXiXuXuXgXpXJ.- u p : - p b C x C C C S m - S |.^._.(.M.).).).).).).).).).).).)._.`.`.`.`.`.{.`.[.(.l S OX!.1 @ # # ; J h.j.j.f.S k n rXdXdXvXrXG oX{.{.{.{.[.k C b.b. X Xb.].{.{.`.'.Z.*X&Xb.XXs.S oXZ.Z.{.`.`.`.`._._.).^.k O 9 [ ..o.o.G.S.z.z.G.z.z.l.b.b.b.b.b.k.b.Z.Z.N..X^.V.B.M.M.V.N.XXXXXX=Xk J.pXaXjXjXjXaXaXjXjXjXaXjXaXjXjXjXjXlXjXlXlXlXkXJ.&.qX0X$XkXlXCX$X@XGXGXJXGXGXKXmXqXBXLXLXsXsXKXHXsXqXP.I.;XiXfXZXCXSXCXCXSXCXSXAX>X#X..J ..o.$XiX#Xo.O.| O.Q.Q.Q.Q.#.#.' ` @.] n H K.T.&X*X*X*X*X&XXXXXXXXXXXXXXXXXXX-X-X,XjX$X[ E ^ R ~ T T ~ ! T ! ! E ^ ~ _ ' +.` ' ) } ..G.K.h % # [ nXZXZXVXZXZXZXBXcXJ.#X#XP.L.{ [ 0XsXMXHXKXFX#XeXAXZXdXH 5.u.y.y.w.V iXGXZXZXZXZXdX| 4X5X4X4X4XE E 4X4X4X2X2X2X2X2X4X2X~ ~ ~ 2X` ~ +.~ ~ ` 4X4X2X4X4X5X5X+.H H G.z.9.q.w.i.w.5.G.JXnX7.6.i.IXIXIXIXIXIXIXIXIXIXIXIXIXIXIXIXIXIXIXIXIXIXIXIXIXIXIXIXIXIXIXIXIXIX",
"IXIXIXIXIXIXIXIXIXIXIXIXIXIXIXIXIXIXIXIXIXIXIXIXIXIXIXIXIXIXIXIXIXIXuX;X;X;X;X;X;XpXiXJ.+XG k o.#X:X;X;X;X;X;X:X;X;X;X;X;X;X;X;X;X;X;X;X;X;X;XgX;X;X;X;XgXaXpX&XoX}./.!.uXgXiX;XiXpXI.- : u - j b b H G G H S C u S ^.^.).).).M.M.).).).).).).).).(.).).`.`.`.`.`.{.`.`.[.[.S J oX~.t @ $ $ k f.j.j.h.J l k ..eXnXvXnX#Xz.XX{.{.{.}.c.: b.x.|.XXXXb.N.}.`.`.|.Z.XX|.b.XXf.a.|.*Xb.N.`.`.`.`.).).).|.j > 5 M ..o.o.o.G.z.H z.H z.v.l.b.b.b.j.b.Z.Z.Z.N.Z.^.N.M.M.B.N.M. XXXXX|.h $XlXlXjXaXaXjXjXjXjXjXjXlXjXjXjXjXjXlXjXjXlXlXlXuX..tXGXnXfXlXCX$XL.MXJXJXGXLXJXqXP.dXrXtXHXLXJXMXwXkXAXAXzXzXCXAXzXCXCXCXCXCXCXCXSXSXVX$X..[ o.#X$.o...O.O.Q.Q.Q.Q.Q.#.` #.@.e G +Xb.b.Z.*X*X&XZ.Z..X.X.XXX-XXX-XXXOX-X-X1X:XD +.~ R T ^ T ! ~ ~ ^ ! ~ R I E ` ` ` ' ` ` ` / o.qXv ; = > ..sXZXZXZXZXAXNXbX#X#X#X#XL.O.N L.iXdXGXJXKXsX#XsXMXP.3.w.p.y.u.i.4.J.BXZXZXZXGXsX} 4X5X4X5X4XT ~ 4X4X2X2X2X2X4X2X2X2X2X2X' ~ ` ~ +.~ ~ ~ 2X4X4X4X4X5X6X5X[ B 0.w.i.i.i.y.u.8.J.KXbX8.6.u.IXIXIXIXIXIXIXIXIXIXIXIXIXIXIXIXIXIXIXIXIXIXIXIXIXIXIXIXIXIXIXIXIXIX",
"IXIXIXIXIXIXIXIXIXIXIXIXIXIXIXIXIXIXIXIXIXIXIXIXIXIXIXIXIXIXIXIXIXIX;X;X;X;X;X;X;XiXuXo.v.!.H J H Q.+X:X;X;X;X:X:X;X;X;X;X;X;X;X;X;X;X;X;X;X;X;X;X;X;XgXaXaXgX|.[.}.oX!.rXiXgXgXgXiXJ.: : : p b b b H G G G x l S |.(.).(.).M.B.).).).).).(.).).).M.(._.`.`.`.`.`.`.`.`.{.[.h.l !.H # # # 1 H ~.j.j.a.- h m P.sXbXcXvXX.!.}.{.{.}.|.l x =X|.x.|.x.b. X{.`.}.Z.b.XX|.Z.oXS a.j.b.x.N.`.`.`.`.).).).^.h # , F o.%.O.$.X.H H v.F H z.l.c.b.b.b.Z.Z.Z.Z.Z.Z.N.N.M.B.B.).N..XXXXXb.v ;XlXjXjXjXpXaXjXjXjXjXjXjXjXjXjXjXjXjXaXjXlXlXzX%Xo.BXLXBXfXlXlXiX..rXJXJXJXHXvX$XkXfXO.sXLXLXJXrXuXzXkXlXlXlXlXlXlXlXCXCXlXlXAXCXAXCXCXSXiXX.N O.O.......$.0XQ.Q.Q.Q.' ' #.} F J.K.b.b.|.&X&X&Xb.b.b.Z.|.A.A..XXX*X.XXX*XT.G.+.~ ~ ! ~ ~ ~ ! ~ ~ T ! ! ~ ^ R _ ` ' ' +.` ' +.yXsXn = ; = ; [ eXVXZXNXAXZXGXqXL.@X#XL.J.N ..@XsXdXGXJXKX0XX.O.B w.u.y.u.u.u.6.Z rXZXZXZXHXqX} 4X6X4X4X4XT ~ 2X4X2X2X2X2X2X4X2X2X4X4X2X~ ` Q ~ ~ ! ~ 2X2X4X4X4X5X5X5X| B w.i.i.6.6.6.u.8.J.KXdX7.u.u.IXIXIXIXIXIXIXIXIXIXIXIXIXIXIXIXIXIXIXIXIXIXIXIXIXIXIXIXIXIXIXIXIXIX",
"IXIXIXIXIXIXIXIXIXIXIXIXIXIXIXIXIXIXIXIXIXIXIXIXIXIXIXIXIXIXIXIXIXIX;X;X;X;X;X;XuXiXiXH H =XoX!.!.O.H +X$X;X;X;X;X;X;X;X;X;X;X;X;X;X;X;X;X;X;X;XgX;XgXuXgXgX>X!.}.}.oXK.uXiXuXgXgXpXI.l - p v b b B Z G H G j x b.^.).(.).(.(.(.).).).).).).).).).M.j._.`.`.`.`.`.`.`._._.[.!.h k k # # = J f.g.k.f.p = n b @XdXnXsXeXv. X{.{.{.}.f.- h.XX'..Xx.x..X{.`.{.}.s.a.b.K.!.|.S c S b.].`.`.`.`.`.`.).).|.l > 9 D $.O.O.O.X.X.H ..F G H H c.b.b.b.b.Z.Z.Z.Z.Z.N.N.M.N.M.(.^. X XXXz.m pXlXjXjXjXaXaXaXjXjXjXjXjXjXjXjXjXjXjXlXjXlXlXlXI.o.GXHXMXuXlXzXlX:XL.@XqX$XwXpXAXCXiXwXKXGXHXcXI.fXlXlXlXlXlXlXlXlXlXlXlXlXlXlXCXzXCXCXCXCXwXb ....O...O.%.Q.Q.Q.Q.8X#.' ` *.*.o.J.J.b.K.T.K.b.K.b.b.K.Z.T.Z.&X*X*X*X,XK./ } _ ~ R I T R E ~ ~ ~ T ! ! ~ ^ R ~ ` ' ` ' ` ` _ 0XGXX.$ = ; % ; ..sXZXVXNXvXGXrXo.#XL.L.#X{ n o.wXiXAXGXKXJXX.v V w.u.y.u.y.u.i.8.J.ZXGXZXGX0X_ 5X5X5X4X4XT ~ 2X2X2X2X2X2X2X4X2X2X2X2X2X~ ` ! ~ ` ~ ~ 2X2X2X4X4X5X6X5X+.Z 8.w.6.6.u.i.i.q.J.KXmX7.6.y.IXIXIXIXIXIXIXIXIXIXIXIXIXIXIXIXIXIXIXIXIXIXIXIXIXIXIXIXIXIXIXIXIXIX",
"IXIXIXIXIXIXIXIXIXIXIXIXIXIXIXIXIXIXIXIXIXIXIXIXIXIXIXIXIXIXIXIXIXIX;X;X;X;X;X;XuXiXwXH !.oX[.[.[.oX!.~.J.$XuX;XuX;X;X;X;X;X;X;X;X;XuX;X;X;X;XgX;XgX;XuXiX>X+X|.[.{.oX+XuXiXuXgXgXpXI.- - v b b b m S H G j j h.^.).(.).).(.).(.).).).).B.).).).^.g.h._.`.`.`.`.{.{._././.~.!.J = = # # 1 H f.f.f.S 1 : v v P.dXdXsX$Xb.[.{.{.}.oXl c  X`.`.`.].^.'.`.`.{.{. XZ.Z.l.oX|.k k Z.}.`.`.`.`.`.`.).).).|.h = 9 { %.@.@.O.o.H G D F F { H v.c.b.b.b.b.Z.Z.Z.Z.N.N.V.M.N.N.'.].]. Xk J.jXaXaXjXjXaXaXaXjXjXjXjXjXjXjXaXlXaXjXjXlXjXlXzX$Xo.HXGXMXwXlXlXlXlXkX;X>XiXlXzXzXzXuXmXJXHXBXP.uXlXaXlXlXaXlXlXlXlXlXlXlXlXlXlXfXCXCXCXCXCXkXJ.F X...X...O.%.Q.Q.Q.Q.' ' ' U F D D G ..G H H G.J.G.z.G.J.z.v.l.z.G.z.G m } +.~ ! T ^ ^ T R E ~ ! ! ! ~ ~ T T +.' ` ` ' ' ' _ 0XFXeX, $ = ; = ; ..sXnX#XX.nXMXX.L.#XL.qXrXM [ P.wXiXGXHXKXmXN V w.y.y.y.y.y.u.w.G.nXGXZXZX%.} 4X5X4X4X4XE ~ 2X4X2X2X2X2X2X4X4X2X2X2X~ ` ~ ! ! ~ ~ ~ ~ 2X2X4X4X5X5X5X+.C 7.i.i.u.6.i.5.7.H HXdXZ 5.i.IXIXIXIXIXIXIXIXIXIXIXIXIXIXIXIXIXIXIXIXIXIXIXIXIXIXIXIXIXIXIXIXIXIX",
"IXIXIXIXIXIXIXIXIXIXIXIXIXIXIXIXIXIXIXIXIXIXIXIXIXIXIXIXIXIXIXIXIXIX;X;X;X;X;X;XuXuXI.H =X[.[.[.[.[.[.[.v.v.$XwXuX;X;X;X;X;X;X;XuX;X,X;X;XgX;X;X,XuX;X:X:XK.H !.}.{.oX+XuXiXiXuXgXpXI.- * j v b b C H H j u c.|.^.^.^.(.(.).(.M.(.).).).).).).).).g.s.[._.{.`.{.`./.|.b.v.I.v.S = @ # = k f.f.f.S n , > = ; P.dXsXsX#Xb.oX{.{.XXf.- l. X`.`.`.`.`.`.`.`.{.`.{.'.}. XXXj.c a.^.{.`.`.`.`.`.`.`.).]./.k = 9 O.@.@.@.%.O.O.{ |  . .@.O.O.v.c.j.!.b.Z.Z.Z.Z.N.N.N.M.M.V.B.).].Z.l $XlXaXjXaXjXpXjXjXaXjXjXjXjXjXjXaXaXjXjXjXjXlXaXzX$XX.FXLXMXiXlXlXlXlXlXlXlXlXlXlXzXkXo.dXKXFXP.I.AXlXzXzXlXaXlXlXlXjXlXlXlXlXlXlXlXlXCXCXCXCXCXwXm O.....O.O.@.&.@.+.#.8X` ' _ *.O.{ ] F F M F F 0 F F D D F N ] D [ [ [ Y E ~ T R I T R R ~ ~ ! Q ~ ! Q ~ ~ ^ +.` ' ` ` ' ` _ @.BXGXL.> = ; ; = , { z.l h @XGXP.o.#XL.@XMXwXD X.wXiXfXGXJXKXwXB q.u.u.y.y.u.m.w.0.iXGXGXMX[ +.5X5X4X4X4XT E 2X4X4X4X2X2X2X2X2X2X2XQ ` ` ~ 2X~ ~ ~ ! 2X2X4X4X2X4X5X6X4X[ z w.w.5.w.q.3.7.Z qXwXG.H.6.IXIXIXIXIXIXIXIXIXIXIXIXIXIXIXIXIXIXIXIXIXIXIXIXIXIXIXIXIXIXIXIXIXIX",
"IXIXIXIXIXIXIXIXIXIXIXIXIXIXIXIXIXIXIXIXIXIXIXIXIXIXIXIXIXIXIXIXIXIX;X;X;X;X;X;XuX;XH o.oX[.[.{.{.{.}.}.oX!.v.P.$X;XuX;X;X;X;X;X,X;X;X;X;XuX;X;X:XI.v.v.b.|.oXoX{.}.oX+XuXuXiX;XuXiXJ.p * v b N b m C l k b.|.^.^.a.s.^.(./.M.M.B.).).).).).).).).h.s./._.{.{./.|.b.H U.wXdXiXH = # # = G f.f.J : 0 [ | &.O.L.X.&.O.N S h.[.}.oXj p |.}.`._.).).`.`.`.`.{.`.`.`.{.{.}.k.S f.(.{.`.`.`.`.`.`.).)._.^.J = 9 &.@.@.@.@.O.&.| | @.@.@.%.o.o.~.!.Z.b.N.N.N.Z.Z.N.M.M.M.B.B.B.`.k.b uXjXaXjXjXjXaXjXaXaXaXaXjXjXjXjXjXlXjXjXlXlXlXlXlXpXX.rXJXdXuXzXlXlXlXlXjXlXlXlXlXlXiXo.sX#XX.$XlXzXaXlXlXaXaXlXlXfXjXlXzXlXlXlXaXlXlXAXCXlXAXCXdXm ..O.O.O.O.&.O.| | @.Q.4X' ' ) Y / } / *.e M M e e M M Y / / / ] ] { { E ! ! ! ~ ^ T ~ _ ~ ~ R ! ! ~ ~ ~ ' L _ ' ' ` ' ' +.' +.MXGXsXM $ ; = ; ; - V 0.0.z.MXtXO.#XL.#XsXBXL.D P.rXiXfXJXKXJXG.3.u.u.u.y.u.u.u.w.uXHXHXdX] 4X4X4X5X4X4XT ~ ` 2X2X4X2X2X2X2X2X2X~ ~ ` ~ 2X2X2X~ ~ ~ ~ 2X4X4X2X2X5X5X5X+.C 8.5.4.4.V 0.H.$XuXdXdX;Xx.IXIXIXIXIXIXIXIXIXIXIXIXIXIXIXIXIXIXIXIXIXIXIXIXIXIXIXIXIXIXIXIXIXIX",
"IXIXIXIXIXIXIXIXIXIXIXIXIXIXIXIXIXIXIXIXIXIXIXIXIXIXIXIXIXIXIXIXIXIX;X:X;X;X;XiX>X%XH !.oX[.{.{.{.{.{.[.}.}.+X!.X.+X$X;X;X;X;X;X;X;X,XuX;X;X:X+Xv.|.=XXXXXXX}.}.}.oXb.$XuXgXgXuXiXiXP.p - : b b v < - C b..X|.^.h.s.|.b.4.k.).M.(.).).).).).).^./.l.l.[.[.[./.j.S Z wXdXsXsXdXqX9 @ # 1 G f.S m L.dXFXHXHXFXFXtXL.D < h k S !.c.- S XX}.`.`._._.`.`.`.`.}.`.`.`.'./.XXf.S f.~.{.`.`.`.`.`.`.).).].'.a.1 0 | @.@.@.@.@.@.@.@.@.#.@.@.O.J.v.b.Z.b.M.N.N.N.N.).).).B.B.).).`.k.G pXjXaXaXjXjXaXjXaXaXjXaXjXjXjXjXjXjXjXjXjXlXlXlXlXkXJ.P.mX@XiXzXlXlXlXlXlXlXlXzXzXCXuXdXJXrXiXAXlXlXaXlXaXlXaXaXaXaXaXaXjXlXlXlXlXlXCXAXCXAXAXCXnXF [ o.o.o.o.%.O.O.@.@.#.5X+.' }  .[ / [ ] [ / ] / / ] | |  .|  . .&.P.P./ ~ ! ! ~ T ^ E ~ ~ R ~ ~ Q Q ` ~ ` L E +.' ' ` ` ' ' @.tXSXBXrX0 = = = : g w.i.i.3.$XBXO.#XP.@XnXGXtX[ ..@X;XuXAXJXKXdXV 6.u.u.u.y.u.u.5.$XGXGXsX] 4X5X4X4X5X5X^ ~ ~ 4X4X4X2X2X2X2X2XQ ~ ~ ~ 2X2X2X` 2X~ 2X~ 2X2X4X2X2X4X5X4X+.B z c x.I.:XiXAXZXGXGXAXAXgXIXIXIXIXIXIXIXIXIXIXIXIXIXIXIXIXIXIXIXIXIXIXIXIXIXIXIXIXIXIXIXIXIXIX",
"IXIXIXIXIXIXIXIXIXIXIXIXIXIXIXIXIXIXIXIXIXIXIXIXIXIXIXIXIXIXIXIXIXIX;X;X;X;X;X;X;XJ.D oX[.{.{.}.{.{.}.}.}.}.oXoXv.G O.%X;X;X;X;X;X;X;X:X+XK.!.oXXXXXXX{.{.{.}.{.[.c.+XuXuXiXgXuXiXiXJ.h : = : = - k c.!..X^.^.|.s.j.|.b.a.N.(.M.(.).).).].].Z.a.|.c.l./.(./.b.B L.eXfXdXdXwXtXdX@X, t < J H k P.JXKXHXFXFXHXJXJXKXHXqXF h 1 1 1 : h._.{.`.`.`.'.].`.`.{.}.{.`.`.Z.b.Z.G S S j.{.`.`.).`.`.).).`._.'.c.= 0  .@.@.@.@.@.@.@.@.@.@.@.@.O.J.K.b.b.Z.N.M.Z.Z.N.).).B.).).`.`.].s.J.pXjXaXjXjXjXaXaXaXaXjXjXjXjXjXaXjXjXjXlXlXlXlXjXlXkXwXsXtXX.uXzXlXlXlXlXjXjXlXzXlXlX$XBXJXdXzXaXlXlXlXlXlXlXaXaXlXzXlXlXlXlXlXaXlXlXAXCXCXCXCXAXdXG D o.o.J.L.o.o.O.O.@.@.5X' ' } ] / ( / [ X.X.| [ | | | &.&.&.| X.| &. .R ~ T T ! ! T R ! ! ! ~ ~ ~ ~ Q 2X2XP U +.' 3X' ' ` ` ' #XZXSXGXqXM < : z q.i.u.y.w.7.X.F P.qX0XsXZXBXo.F L.%X=X,XCXJXKXI.;.6.y.u.y.y.u.6.I.ZXGXtXE 5X4X4X4X4X4XT ^ 2X2X2X4X2X2X2X2X2XQ ~ ~ ~ 2X2X2X2X~ ~ ~ ! ~ 2X2X2X2X4X5X5X4X/ X.wXAXGXJXGXGXfXGXGXGXSXAXIXIXIXIXIXIXIXIXIXIXIXIXIXIXIXIXIXIXIXIXIXIXIXIXIXIXIXIXIXIXIXIXIXIX",
"IXIXIXIXIXIXIXIXIXIXIXIXIXIXIXIXIXIXIXIXIXIXIXIXIXIXIXIXIXIXIXIXIXIX:X;X;X;X;X;X:XX.!.oX}.{.{.{.{.{.{.}.{.}.[.}.oX+XG H $X$X;XuX:X+X+X+XoX*XXXXX}.{.{.{.{.{.{.}.|.v.$XuXuXuXgX;XiXiXP.h - - h x c.b.|.^.^.^.N.b.a.|.Z.a.b.^.(.).).).).N.A.b.x.a.b.z.a.(.j.z.H wXfXfXdXsXI.o.J.wXsXL.= < J J h tXJXHXdXeXI.dXGXHXHXJXKXmXO.9 = = l |.'.`.{._.'.'.N.^.`.{.{.`.`.'.^.|.oXS l x h.{.`.`.).`.`.`.B.`._.'.b.= r  .@.@.@.@.@.@.@.@.@.@.@.@.o.J.b.b.Z.|.M.Z.Z.Z.^.].).).).).`.`.].z.$XpXaXaXjXjXjXjXjXaXaXjXjXaXjXaXlXlXjXjXjXlXlXlXlXjXkXiXHXJXeX:XzXlXlXlXlXlXlXlXlXzXkXP.ZXJXiXlXaXlXlXlXlXlXlXjXlXaXaXlXaXlXlXlXlXzXCXlXCXlXCXlXCXfX..N $.L.L.P.P.o.O.Q.| @.Q.8X#.@.X.X./ / ( / ]  .} }  .] } { | ( ( X.o.] ^ T ! ! ! ! ! ! ! ! ! ! Q ~ ! ~ ~ ~ _ P ' ` ` ' ` ` ' ` %.NXZXGXsXG g 7.i.i.u.y.p.p.C.z h X.@Xo.L.I.$Xo.n X.%X;X-X,XaXJXBXa.6.6.p.y.6.y.5.$XZXGXwX/ 4X4X5X5X4X4XT Q 2X2X4X2X2X2X2X2X2XQ ~ ~ 2X~ 2X2X2X~ ~ ~ ~ ~ 2X2X4X` ~ ~ ~ +./ P.GXGXSXAXZXnXuXuXfXGXGXGXIXIXIXIXIXIXIXIXIXIXIXIXIXIXIXIXIXIXIXIXIXIXIXIXIXIXIXIXIXIXIXIXIXIX",
"IXIXIXIXIXIXIXIXIXIXIXIXIXIXIXIXIXIXIXIXIXIXIXIXIXIXIXIXIXIXIXIXIXIX:X:X;X;X;X;X#XH !.XX{.{.{.{.{.{.{.}.{.OX[.[.[.=X+XJ ..#X%X+X!.&XXXXXOX}.{.{.{.{.{.{.{.{.[.}.!.+XrXuXuXuXpXuXwXo.n 1 k H v.b.j.^.^.|./.].j.a.a.Z.l.f.^.^.M.(.).).).k.x.Z.|.b.l.C c.b.S J.dXdXdXfXwXo.U.dXwXU.wXtX&.= : p 9 0XFXiXG.X.S.U.wXuXdXHXHXKXFX%.q > l !._.`.}.}.(.j.^.^.'.'.{.`.{._.}.Z.|.J k S f.XXZ.N.].].`.`.`.`.`.[.~.t t @.@.@.@.@.@.@.#.@.@.@.@.@.o.J.b.b.Z.N.Z.Z.Z.N.)._.)._.).B.B.`. Xz.:XaXjXaXjXjXjXaXjXaXaXaXjXaXhX+Xb.;XlXlXlXlXjXlXlXaXpXsXGXGXHX@XaXjXzXlXzXlXlXlXzXzXpXP.HXGXkXlXlXlXlXlXlXlXaXaXaXlXfXlXlXlXfXlXlXlXAXlXfXCXCXCXAXfXX.D o.#X#X#XL.$.o.%.O.&.Q.0X0XL.&.X./ ( / / / E / } } / (  .( X.( G.I.] I T R ! ! ! ! ! ! ! ! ! ! ! ! ! ~ ~ ~ ^ ~ 2X` ` ` ` ` ' %.MXGXrXH z w.i.p.p.u.u.p.u.p.i.z h Z z.w.8.7.C v D P.:X=X-X,XlXJX$X2.6.y.u.6.u.4.%XZXGX0X} 4X5X5X5X4X4XU U ! ` 4X2X2X2X2X2X2XQ R ! 2X` ` 2X~ Q ~ +.! ~ +.2X~ ~ ~ 2X~ E / P.GXGXZXAXSXAXdXwXI.wXdXAXIXIXIXIXIXIXIXIXIXIXIXIXIXIXIXIXIXIXIXIXIXIXIXIXIXIXIXIXIXIXIXIXIXIX",
"IXIXIXIXIXIXIXIXIXIXIXIXIXIXIXIXIXIXIXIXIXIXIXIXIXIXIXIXIXIXIXIXIXIX:X;X;X;XuX:XX.S =X}.{.{.}.}.}.{.{.{.}.{.{.{.}.}.oXoXH J +X!.oXXXXXXX{.{.{.{.{.{.{.{.}.{.{.OX+X%XiXuXiXiX$XH n l J l.a.a.f.^.^. X X^.^.^.^.Z.s.Z a.^.^.^.M.).(.).].^.x.|.^.Z.x j S C I.dXfXdXdX@X/ P.dXHXHXuX%.wXdXL.; ; e %.0XJ.X.G.G.S.G.G.U.I.fXHXKXFXUX5 - f./._.'.(.h.Z.}.'.^._.`.`._.`.{.|.b.G m x h.XXk.Z.Z.'.`.`.`.`._.[.oXt t  .@.@.@.@.@.@.@.@.@.Q.@.@.O.o.v.b.|.Z.M.j.M.N.N.B.B.).).B.`.`.Z.z.pXaXaXjXjXjXjXjXaXaXaXjXjXjX:Xv.c.c.K.aXzXlXjXjXlXjXkXiXHXGXGX%XiXzXlXlXlXlXlXlXpXiXI.o.JXGXAXlXlXlXlXlXzXlXlXzXlXlXlXlXlXlXlXlXlXCXlXCXlXCXCXAXCXiXH D o.#X%X@XJ.o.$.%.o.$.Q.$.$.$.L.J.X.X.( } / ( ( ( ( ( ( ( ( X.X.G.X.Y ^ T R R ~ ! ! ! ! ! ! ! ! ! ! ! ~ ~ ~ ^ ! ~ ` ` ` ` ` ` &.eX@Xm 3.w.u.u.u.u.u.p.p.i.i.i.w.j 0.i.n.i.u.x.j v [ P.v.+X,X1XCXHXx.2.6.y.6.u.5.$XGXBX&._ 4X4X4X5X4X` U 3 ~ ~ 2X2X4X2X2X2X2X! T T ~ ` 2X` ` T E _ T ~ ~ ~ ! ! ~ ~ +.+.E P.fXfXAXfXfXGXJXGXfX$XI.$XIXIXIXIXIXIXIXIXIXIXIXIXIXIXIXIXIXIXIXIXIXIXIXIXIXIXIXIXIXIXIXIXIXIX",
"IXIXIXIXIXIXIXIXIXIXIXIXIXIXIXIXIXIXIXIXIXIXIXIXIXIXIXIXIXIXIXIXIXIX:X;X;X;X;X$Xm v.XX{.{.{.{.{.{.{.{.{.{.{.{.{.}.}.[.oX=XH %X=XXXXX}.}.{.{.{.{.{.{.{.{.{.{.{.[.b.$XiXiX$XX.v < l c.|.|.|.f.j. X'. X].(.^.^.^.^.|.^.Z.^.^.N.).N.B.).'. Xb.d..XZ.x > A wXdXdXdXiXU./ @XdXFXfXfXfXI.o.eXdXo.% e %.o.G.G.H.H.G.S.S.( ( U.uXHXJXLX0X, l !._._.|.b.j. X`. X^./.`._.`.{.}.!.x k k f.|.Z. XN.|.`.`.`._._.}.=X*.t  .@.@.@.@.@.3X@.@.Q.' @.@.O...z.b.Z.Z.Z.h.k.Z.N.N.B.).).`.).].h.J.aXaXaXjXjXjXjXaXaXaXaXjXlXlXK.a.=XXXf.z.$XlXlXjXlXaXlXsXFXFXGXrXjXlXlXzXzXlXAXfXZXFXtXF eXsXCXlXlXzXlXlXlXlXlXlXlXlXjXlXlXlXlXlXlXlXlXAXlXAXCXCXAXiXX.X.$.o.$.L.o.$.O.o.o.$.%.%.O.$.o.L.L.X.( ( ( ( ( X.( ( ( ( / / [ X.X.Y I T T T T ! ! ! ! ! ! ! ! ! ! ! ! T R ^ T ' ` ` ` ` ` _ ) N j 4.w.u.u.p.y.p.u.p.p.i.u.u.w.z w.p.p.p.p.i.4.j n ..X.H :X,X<XJXuX5.6.y.y.6.5.;XHXMX] +.5X4X4X+._ E q R ` 2X2X~ 2X2X2X2X2X4X~ ! T T ` ` ` ~ I +.^ E ! R ~ ~ ~ ! 2X2XE &.dXAXZXfXuXfXGXHXJXGXMXuXIXIXIXIXIXIXIXIXIXIXIXIXIXIXIXIXIXIXIXIXIXIXIXIXIXIXIXIXIXIXIXIXIXIX",
"IXIXIXIXIXIXIXIXIXIXIXIXIXIXIXIXIXIXIXIXIXIXIXIXIXIXIXIXIXIXIXIXIXIX;X;X;X;X;XJ.v !.}.{.{.{.{.{.}.{.{.{.{.[.[.[.}.[.oXoX=Xv.!.!.|./.oX}.{.{.}.{.{.OX{.{.{.{.}.OX+X@XwXJ.F k f.b.a.|.|./.|.s.Z. X/.N.(.(.(.^.^.).(.^.(.^.^.(.|.^.^.).)./. Xs.l.H b X.wXdXdXdXwXX./ wXdXdXdXdXdXfXfXUXX.UX@X< r &.X.X.G.G.S.N v v A A ( ( uXGXJXLXL.= S |._.'. X|.Z. X|.Z.^._._.`.{.}.!.x < h S l./.{.].b.^.`.`.).(._.oXJ t  .@.@.@.@.@.@.#.@.@.@.@.@.@.O.o.v.Z.b.b.h.b.|.Z.N.M.B.).).).`.a.J.lXjXjXjXlXaXjXaXaXaXaXjXaXiXx +XXX-X-X|.l.K.aXzXlXlXkXfXBXGXFXwXlXlXlXlXlXkXZXJXJXHXsXD G.iXlXlXlXlXlXlXlXlXlXlXlXlXlXlXlXlXlXlXlXlXfXCXCXzXzXAXAX@XN O.$.o.o.L.o.o.O.$.%.L.Q.o.o.J.L.L.J.G.G.G.G.X.S.G.( &.( N M / [ N H M q ^ R R ! ! T R ! ! ! ! ! ! ! ! ! ~ ~ ^ L _ ` ' ` ' ` _ M j 4.w.u.p.u.u.y.y.y.p.p.u.u.u.d.e.u.p.p.p.p.p.w.3.x N $.X.v.;X,XAXJXH.6.u.y.y.4.iXJXeXM +.4X5X_ E I ^ E +.4X+.~ 2X~ ` 2X2X` ~ ~ ` ~ ! ~ ` ` ~ ^ _ ~ ~ 4X! 4X4X4X` ~ ` _  .eXGXAXAXdXwXuXfXGXGXJXHXIXIXIXIXIXIXIXIXIXIXIXIXIXIXIXIXIXIXIXIXIXIXIXIXIXIXIXIXIXIXIXIXIXIX",
"IXIXIXIXIXIXIXIXIXIXIXIXIXIXIXIXIXIXIXIXIXIXIXIXIXIXIXIXIXIXIXIXIXIX:X;X;XuX$XZ k !.}.}.}.{.{.{.{.{.[.{.{.[.{.[.[.oX!.!.v.J H !.~.!.~.[.}.}.{.{.{.{.{.{.{.}.}.|.H F F k c.!.|.b.a.Z.|.Z.|.a.Z.].(.M.).).^.^.^./.(.(.).M.(.a.l.l.s.^.'.).].b.z.k X.uXdXdXiXUXv ( eXdXdXdXdXdXdXfXfXAXI./ ] 7 q ..X.z.0.S.( X.X.X.X.D v b ( wXAXJXHX{ < f.'._.'.}. Xk.^. X'.'._.`.{.}.!.k 0 < S c..X'.|.s.'.`._.(._._.oXJ t { @.@.3X@.@.@.#.@.@.@.@.@.#.@...c.b.b.v.J.v.b.Z.N.M.B.).B.`.].c $XfXjXjXlXjXjXjXaXaXaXjXlXaXK.C K.p x -XXXXX!.z.uXzXlXlXkXsXBXBXP.fXlXlXzXpXNXHXHXHXsXwXfXfXlXlXlXlXlXlXlXlXlXlXlXlXlXlXlXlXlXlXlXlXlXlXzXCXlXzXAXfXL.v &.o.o.o.o.o.o.o.o.o.o.$.o.o.o.J.o.L.G.G.G.G.G.G.G.X.( / v M ] D H U.N I R ~ E ~ ~ T ^ ! ! ! ! ! ! ~ ~ ~ ~ ` ~ 6 R ` ` ` ` _ ) v 8.i.y.u.y.y.n.p.y.y.u.p.y.y.u.q.8.u.p.p.p.p.p.y.w.w.j X.P.H J.-XaXJXfX8.6.6.6.8.uXGXqXM +.4X+.I q I ^ ~ +.~ Q ! ! ` ! 2X~ 2X~ ~ ` ` ` ` ` ` ` T ^ +.~ ~ ~ 2X4X4X4X! ~ ~ } wXGXAXAXZXGXiXwXdXdXGXGXIXIXIXIXIXIXIXIXIXIXIXIXIXIXIXIXIXIXIXIXIXIXIXIXIXIXIXIXIXIXIXIXIXIX",
"IXIXIXIXIXIXIXIXIXIXIXIXIXIXIXIXIXIXIXIXIXIXIXIXIXIXIXIXIXIXIXIXIXIX;X;X;XuXI.v k &X}.[.[.}.[.{.{.{.{.{.{.[.[.[.!.!.O.O...+X=XOXoX=X=X!.[.}.{.{.{.{.{.}.}.}.|.S - k z.!.|.|.|.b.a.a.l.s.a.a.|.^.^.^.(./.^.^..X.X^.^.M.(.N.a.b.c.a. X].).^.b.C X.eXdXdXeXP.N P.dXdXdXdXdXfXuXuXfXfXdXfXwX0 = 9 { X.z.0.Z X.P.FXGXGXdXX.p b S.wXZXKXsXn x ^._.`.{.}._.'.`.`.`._.{.}. Xj.m 0 n a.!.Z.|.x.^.'.`.).(.[._.XXH t  .@.@.@.@.@.@.@.@.@.#.@.@.@.@.| X.J.J.J.J.G.H.Z.N.N.B.`.).`.^.C uXaXaXaXlXlXjXjXaXaXjXaXaXiXm v.H . + c.XX{.XX&Xm I.lXlXzXwXqXwXP.zXzXzXkXdXGXHXGXiXwXpXCXlXlXlXlXlXlXlXlXlXlXlXlXlXlXlXlXlXlXlXlXlXlXlXzXCXzXCXAXuXX.N J.o.J.o.O.o.o.o.Q.#Xo.o.J.o.L.L.o.L.X.G.G.S.S.S.H.X.M r M F N H H.K.N U / _ ~ T E ~ T T ! ! ! ! ~ ~ ~ ~ ~ ` _ R T ` ` ` ` _ F C 6.u.y.u.y.y.y.u.y.y.p.u.y.u.i.t.2.u.p.p.p.p.p.y.i.x.7.N P.P.v.*X-XCXJXI.5.6.6.w.dXFXo.M #.4X4XT q Y I T T R +.+.~ ` ~ ! 2X~ 4X2X2X~ 2X` ` ` ` ` ^ ^ T ~ ~ 2X! Q +.~ ` ~ +.P.FXSXAXAXAXGXfXfXdXiXfXIXIXIXIXIXIXIXIXIXIXIXIXIXIXIXIXIXIXIXIXIXIXIXIXIXIXIXIXIXIXIXIXIXIX",
"IXIXIXIXIXIXIXIXIXIXIXIXIXIXIXIXIXIXIXIXIXIXIXIXIXIXIXIXIXIXIXIXIXIX;X;X;XuXJ.: k |.}.[.[.[.[.[.}.{.{.[.}.[.[.oX!.Q.Q.{ { !.+XoX|.=X+X!.oX}.{.{.{.{.{.{.XX!.S k H +X|.|.^.^.^.^.^.|.|.|.|.^.^.].].^.^.^.].'.'.^.).(.M.N.M.a.Z.|.d.A.].^.Z.C X.iXdXdXqXX.N UXdXdXiXdXdXfXdXwXwXdXdXfXfXFX0X; : H X.z.0.H N 0XLXFXJXJXmX9 = b G.uXGXKX0X< c.'._.{.{.`.`.`._._.).}.XX}.b.k 0 n f.|.Z.x.Z.'.`.`.).).(.[.}.!.t *.#.@.@.@.@.@.#.@.@.@.@.@.@.@.@.O.O.L.J.U.G.U.Z. X).`.`.).].Z.H pXaXaXjXjXlXjXjXjXaXaXaXaX:Xh &Xv.= = !.XX{.{.|.: = J.pXAXkXP...I.zXlXCXiXqXeXqXP.$XpXzXlXlXlXlXlXlXlXlXlXlXlXlXlXlXlXlXzXlXlXlXlXlXCXlXzXCXzXCXAXI.X.[ J.o.J.J.J.o.o.o.Q.#Xo.o.$.o.J.L.o.o.o.G.G.G.S.G.X.N M ] N F H G.H.H./ Y E R R ^ ^ T E T ~ ! ! ~ ~ ~ ~ T ^ T +.) I _ ` ` `  .F z.y.y.u.y.y.y.y.y.u.y.y.y.y.p.u.q.2.p.p.p.p.p.p.i.u.i.x.b X.%X&X*X,XaXJXMX0.5.5.K.BXBX[ ) #.5X4X+.T 6 E R R +.+.~ ~ +.+.T ~ 2X~ ~ ~ ~ ~ ` 2X~ ` ` ~ ~ ~ ` 2X~ T ~ ! ~ ~ ~ 4X6XsXGXAXfXGXZXAXZXAXdXiXIXIXIXIXIXIXIXIXIXIXIXIXIXIXIXIXIXIXIXIXIXIXIXIXIXIXIXIXIXIXIXIXIXIX",
"IXIXIXIXIXIXIXIXIXIXIXIXIXIXIXIXIXIXIXIXIXIXIXIXIXIXIXIXIXIXIXIXIXIX>X;X;X:XN h S ~.[.[.[.{.{.{.{.[.{.[.[.[.=X%X%X!.S J { { O.v.o.J.%X+XoX}.}.{.{.}.}.[.~.S k v.b.b.|.^.(.(.M.M.(.M.Z.^.^.^.].^.].^. X'.].^.].].^.).^.^.|.a.N. Xh.j.^.Z.S [ eXdXdXP.[ ..I.dXdXdXdXdXdXiXP./ %.eXdXfXfXfXAXP.< H z.z.z.0.b 0XtX0XtXFXLX] . : N I.pXJXFXN S |.'.'.{.{.`.{.`.'.Z.b.|.j.c.k < 0 S |..X|.)._.].).).).(.[.[.!.t ' @.@.@.@.@.@.@.@.@.@.@.@.@.@.@.&.O.J.U.U.U.J.Z.N.B.`.`.`.].b.G.aXaXaXjXjXjXjXjXaXxXaXaXkXJ.h oX-X&X!.XX{.{.XX*Xk > l K.pXCX$XH pXzXzXpXJ.N o.o.$XfXlXlXlXlXlXlXCXlXlXlXfXlXlXlXlXlXlXlXlXlXlXlXlXAXCXCXCXCXAXAXpXL.N X.J.G.J.J.J.J.J.#X#X#XJ.L.L.o.o.J.L.J.J.G.U.G.G.G.N M ] D [ X.z.x.K.H.v q ^ U ~ ~ ~ E ! T ! ! ! ! ! ~ ! ^ ~ T T _ I _ ` ` ` } m 4.6.y.y.y.y.u.u.y.y.y.u.y.u.u.u.q.e.p.p.p.p.p.p.i.6.6.w.x D J.:X*X*X,XzXKX:X3.z I.HXsXM } 4X4X4X+.+.T 3 U E +.~ ~ ~ ` +.~ ` 2X` 2X~ ~ ~ ~ ~ ` ` ~ ~ ~ ~ 2X2X~ Q +.~ R ! 2X4X4XeXGXGXfXdXAXAXAXZXGXdXIXIXIXIXIXIXIXIXIXIXIXIXIXIXIXIXIXIXIXIXIXIXIXIXIXIXIXIXIXIXIXIXIXIX",
"IXIXIXIXIXIXIXIXIXIXIXIXIXIXIXIXIXIXIXIXIXIXIXIXIXIXIXIXIXIXIXIXIXIX;X;X;XI.h p S ~.[.[.{.[.{.{.[.[.{.[.[.oX>X%X!.!.!.+X+XJ H O.H ....v.!.[.OX}.}.oXc.S x c.b.b.h.S j.(.(.(.(.(.^.^.^.(.N.M.).^.^.Z.^. X^.).).).^.^.^.^.Z.3.Z.|.s.h.|.l.( wXdXdXUXX.J.eXdXdXdXiXdXdXtXX.N o.X.L.dXdXfXfXfXeXZ v.f.l.z.C M 0X0X$.qXeXtXe X O 1 G.;XZXKXqXk Z.Z.^.XX{.{.{.`.XXs.l.c.l.c.k 9 < S ^.{._._.).).).'.).(._.[.|.< *.@.#.@.@.@.@.@.&.&.@.@.@.@.@.@.@.$.U.U.U.I.H.b.A.).).).`.].4.K.pXpXaXjXjXlXjXjXaXjXpXpXpXm x *XXXXXXXXX{.}.XXXXoXb.+Xv.U.uXJ.J.iXzXCX%XP.P.wXAXlXlXlXlXlXlXlXlXlXlXlXlXlXlXlXjXlXlXzXlXlXlXlXlXlXlXCXzXCXCXCXAXiXX.N J.J.J.J.J.J.J.P.J.J.L.#XP.J.J.X.J.J.J.G.U.U.U.G./ M  .[ M H l.K.T.K.z.9 q 3 I T T T T / ! T ~ ! ~ ~ ~ ~ ^ ~ ~ T I U I _ ` `  .n z 5.6.u.u.y.y.y.y.y.y.u.u.u.u.i.8.e.y.p.p.p.p.p.r.q.:.8.B v z.b..X.X*X,XJXHXG.a $XJXqXe +.4X4X4X+.+.+.E 3 I E ~ +.4X` 4X~ 2X2X2X~ ` ~ ~ ~ ` ` ` ~ ~ 2X` 2X2X~ Q ~ ! ~ 4X4X4X4XUXHXHXGXfXdXdXiXfXAXAXIXIXIXIXIXIXIXIXIXIXIXIXIXIXIXIXIXIXIXIXIXIXIXIXIXIXIXIXIXIXIXIXIXIX",
"IXIXIXIXIXIXIXIXIXIXIXIXIXIXIXIXIXIXIXIXIXIXIXIXIXIXIXIXIXIXIXIXIXIX;X;X;XX.: h k h.[.[.[.[.[.{.{.[.[.[.oX%X+X!.c.~.[.oXoXoXoXoXoXoX+Xf.S oXOXXXoXc.l J J h.oX|.b.a.|.(.N.(.(.(.^.N.^.^.^.^.^./.|.a.0.h.Z.|.].].).^.).^.^.d.l.d.a.a.z.H wXdXtXI.P.qXdXdXdXiXdXdXiXUX( ( wXdXUXX.U.dXdXdXfXqXC b.g.f.z.G M #X#X#XrX0X$.] % X > G :X,XGXHXH H Z.oX|.}.{.{.{. Xb.XXoXb.c.k 9 9 S |.].).).).).'. X/.(.(.(.oXJ q @.@.@.@.@.O.&.O.&.@.@.Q.@.&.O.o.P.U.U.U.U.U.b.N.B.B.).)..Xc $XiXpXlXjXjXjXaXaXaXaXpXpXiX< a.XXXX`.`.XXXXXX}.XXXXXXXX.XG.G rXmX$XzXnXo.GXnXuXCXzXlXlXlXlXlXlXjXfXlXlXlXlXlXlXlXlXlXlXlXlXlXlXlXlXlXlXlXCXlXCXCXuXN / o.o.G.J.J.J.J.J.J.J.J.$X$XJ.G.G.J.J.J.J.J.U.G.N M [ F N H G.K.:X;XI.X.9 q 5 6 ^ ^ T ! ~ T T ! ~ ~ ~ ~ ~ T ^ ~ ` T 3 I _ ` ` +.N c 5.6.y.6.6.y.u.u.p.y.y.u.y.u.u.2.e.r.p.p.p.p.p.p.2.z V N v G b.*X.X*X,XaXJXwXZ rXGXL./ +.+.4X4X4X+.+.+.Y ^ E R ~ +.~ ~ ~ ~ 2X2X2X~ ~ Q T R ~ ` ~ ~ ~ ~ ~ 2X2X2X4X4X4X4X4X4X4X5XyXGXGXGXHXAXuXwXAXZXIXIXIXIXIXIXIXIXIXIXIXIXIXIXIXIXIXIXIXIXIXIXIXIXIXIXIXIXIXIXIXIXIXIX",
"IXIXIXIXIXIXIXIXIXIXIXIXIXIXIXIXIXIXIXIXIXIXIXIXIXIXIXIXIXIXIXIXIXIX;X;X$Xv = - l f.[._._.[.[.[.[.[.[.[.+X%X!.!.[.[.[.[.[.[.oXoXoXXXXXoX!.O.=X!.J k c.!.a.S b.b.a.h.|.(.^.(.^.|.^.^.^.M.^.^./. X Xa.Z.Z.d.s.h.|./.].^.^./.|.N.|.!.z.J @XdXdXuXUXwXdXdXiXdXdXdXwXX.N o.eXdXdXdXP.} P.sXdXdXO.l |.(.h.a.G n &.$.$.0X0X$.Y @ o O l +X&XnXJX0Xk |.XX|.|.{.{.{.|.b.oX/.c.H k 0 < S ^.]._.).)._.'.].).)._._.oXG , @.@.@.@.O.&.&.O.O.o.O.o.o.O.o.U.U.U.U.I.U.U.b.N.V.).).].Z.x iXpXpXjXjXjXlXjXaXaXaXpXhX;Xp l.XX{.`.`.|.l.b. X}.XXXXXX.XZ.m dXLX$XCX:XJ.KXGXuXfXjXlXlXlXlXlXlXlXzXlXlXlXfXlXlXlXfXlXjXlXlXlXlXlXlXzXCXlXCXzXCXAXP.v X.J.o.J.J.J.J.J.J.J.J.J.$X$XI.J.J.U.G.G.J.J.U...M ] F M z.K.K.:XiX$XJ.M 5 5 5 ^ T ~ ` ~ ~ T T ! ! ~ ~ ~ 2X~ T ^ ~ _ _ q E ` ` +./ B w.6.y.y.y.y.y.y.y.u.y.y.u.y.u.8.3.6.p.p.p.p.p.u.8.V B C 9 F v.|..X.X*X,XCXGXJ.sXMXo.} #.+.4X4X4X4X4X+.I I E E T E ~ ~ ~ 2X2X2X` T T ~ E ~ T E ~ 2X~ 2X~ 2X2X2X2X2X4X4X2X4X4X4X+.UXwXdXfXGXdXwXdXMXIXIXIXIXIXIXIXIXIXIXIXIXIXIXIXIXIXIXIXIXIXIXIXIXIXIXIXIXIXIXIXIXIXIX",
"IXIXIXIXIXIXIXIXIXIXIXIXIXIXIXIXIXIXIXIXIXIXIXIXIXIXIXIXIXIXIXIXIXIX;XuXG.< = - u a.[.[.[.[.{.[.[.[.oX+X%X%X!.|.|.[.[.[.[.[.[.[.[.[.XXoX!.H J l k c.~.|.c.S l.S l.b.|.b.b.b.b.b.b.b.Z.|.^.|.^. XZ.a.!. X|.Z.a.Z./.N.(.).^.(.^.|.b.k P.dXdXuXwXuXdXdXdXdXdXwXU./ ( wXdXdXdXiXdXdXUXX.UXdXsX0 - c.M.j.f.z.m D #X%.Q.#X%.% o O O - b.oX,XHXHXJ.!.*XZ.b.'.{.`.^.z.|.oXf.H l 0 9 S M.).`.`._._._._.'./.(.(.oXz.t @.@.@.@.@.&.&.O.L.U.J.G.U.U.U.U.U.U.U.U.U.U.K.N.V.).).].k.H iXpXpXjXjXjXlXlXxXaXaXpXkX@Xu b.XX`.`. XS > * s.XXXX*Xx.a.x.m LXJX@XCX$X0XKXJXiXlXlXlXlXlXlXCXAXAXlXAXlXzXlXCXCXlXlXzXlXlXlXlXlXlXlXlXlXzXlXCXCXAXX.v X.J.G.G.J.G.J.K.:XI.J.J.J.I.I.I.I.I.G.G.G.G...D [ ] n H G.K.,XpXiXo.M r 5 2 3 I I / ~ ! ^ T ~ ! ! ~ ! T ~ ~ ~ ! ~ ~ ~ I I +.' +.} m 4.5.y.6.6.y.6.n.y.y.u.y.y.y.i.7.V 5.p.p.p.p.u.6.3.b C N 9 J v.|.*X|.|.-XjXJXeX@X$X[ +.+.4X4X4X+.4X4X+.I / _ +.~ +.~ 2X2X2X2X` T ! +.~ +.+._ T ~ ~ ` ` ~ ~ 2X2X2X2X2X2X2X4X4X4X+.&.tXHXdXFXFXwXdXZXIXIXIXIXIXIXIXIXIXIXIXIXIXIXIXIXIXIXIXIXIXIXIXIXIXIXIXIXIXIXIXIXIXIX",
"IXIXIXIXIXIXIXIXIXIXIXIXIXIXIXIXIXIXIXIXIXIXIXIXIXIXIXIXIXIXIXIXIXIX;X$XX.< : - - x /.[.[.[.{.[.[.oX&X%X%X!.!.[.[.[.[.[.[.[.[.[.[.[.}.}.oXH 1 J ~.^.^.^.|.+Xb.z.J S l l j j j h l G c x S S l.b.b.c b.|.N.f.b./.^.^.(.N.).(.^.b.H o.eXiXuXqXtXdXdXuXeXwXP.( / G.eXdXdXdXuXrXsXdXdXUX[ @X$.% * a.M.(.k.a.S F { F &.0X$.; + + O + z.|.=XZXKXiXH a.Z.XX{.{.`.'.l.a.x l.v.0 r 0 S ^.].).)._.].].'.|.j.oX/.oXv.=  .@.@.@.@.&.&.X.U.U.U.U.U.U.U.U.U.U.U.U.U.U.K.Z.M.B.).].a.X.pXaXaXjXlXjXjXaXjXaXaXaXpXL.= S .X).`. XS . . z..XA.0.> * z X.HXHXI.lXJ.dXKXJXuXkXlXkXaX:X:X:X+XJ.X.o.J.I.:XpXlXCXAXCXAXlXlXlXAXlXlXlXCXzXzXzXCXiXm b o.J.G.U.K.K.T.T.T.K.K.I.I.K.K.I.K.I.G.G.G.X.N {  .M H J.&XpXkXiXJ.9 N M 5 ^ T E ^ K ^ ^ T ~ ~ ~ ~ ! ~ Q ^ Q T ! ~ ~ ~ _ I _ ` +.+.M z 5.6.6.6.y.u.6.y.y.u.y.y.6.w.g A 3.6.p.i.u.i.3.j b Z N v m z.b.&Xc.b.&X,XJXHXJ.D X.+.4X4X+.4X4X4X4X+.^ ~ / ~ +.2X` 4X2X` ` T ~ ~ ~ T T ~ _ ~ T ` +.~ ~ ` ~ 2X2X2X2X2X4X2X4X4X+. .dXKXdXdXGXwXsXZXIXIXIXIXIXIXIXIXIXIXIXIXIXIXIXIXIXIXIXIXIXIXIXIXIXIXIXIXIXIXIXIXIXIX",
"IXIXIXIXIXIXIXIXIXIXIXIXIXIXIXIXIXIXIXIXIXIXIXIXIXIXIXIXIXIXIXIXIXIX;XI.v 9 p : - l !.[.[.[.[.{.[.=X%X%X!.!.!.oXoX[.[.[.[.[.[.[.[.[.[.oXH k S b.~.(.^.(.(.h.c l k S v.!.!.|.|.|.|.|.|.|.b.l.a.S x < S h.a.S j.g.j.M.(.M.M.(.^.z.J.wXsXuXwXeXdXdXtX0XP.X.M / o.tXdXdXdXeXo.L.rXdXdXdXL.[ 8 + = S j.(.(.|.j.G k D n $.$.0 @ O X X k |.&XiXJXGXX.c.XX{.`.{.{.{.}.|.b.j.a.n 0 < J j.'.].)._.'.'. Xk.Z.N./.XX!.;  .@.#.@.&.O.&.P.U.U.U.U.U.U.U.U.U.U.I.U.U.U.K.b.B.B.).].a.J.iXaXjXlXlXjXjXaXaXaXaXaXiX..X - Z.].). X&Xj l &XB.n.d > - z J.KXBXP.fXP.FXKXFX$X;X&X+Xb.|.&X-X-Xv.* * z.T.l.7.G.$XpXAXCXCXlXlXlXAXlXlXzXzXCXCXAX$Xv D J.J.J.P.K.T.E.E.&X:XK.I.+XK.K.K.K.K.K.H.X.M { | n C K.&X>XkXiXL.n D N M q ^ ^ ! ! ! ! ! ~ ~ ~ R ~ ~ ~ ~ ~ ! ! ! ~ ` ~ ~ T U ` ' +.} j 4.2.6.6.6.6.y.y.y.y.y.6.5.Z v v j V 8.5.4.z Z $X@XqX0XX.m H b.&XS z.&X>XCXKXtXB ( | +.4X4X4X4X4X4X~ r / ~ ~ ~ ~ ` ` 2X` ~ ! ` +./ ^ T T E +.R ~ 4X~ ~ ! ! ! ! ` 2X2X2X2X2X2X4X+.&.eXwXFXGX@XwXFXIXIXIXIXIXIXIXIXIXIXIXIXIXIXIXIXIXIXIXIXIXIXIXIXIXIXIXIXIXIXIXIXIXIX",
"IXIXIXIXIXIXIXIXIXIXIXIXIXIXIXIXIXIXIXIXIXIXIXIXIXIXIXIXIXIXIXIXIXIXuXX.v v v < - 1 f.[.[.[.[.[.[.+XJ...o.~.oX|.oX[.oX[.[.[.[.[.XXoX~.S S f.~.~.(.(./.|.j.~.!.!.|.oXXXXXXX}.}.}.XXXXXX}.XXXXXX=X|.b.v.S x x k c S a.k.k.M.^.!.H wXsXiXrXuXuXdXwXI.UXX.| &.P.eXdXdXdXeX%.N / %.dXdXdXtXX.; + @ h f.M.M.^.^.b.f.v.H n r % # X O X : b.oX>XHXJX@XS j.'.`.`.`.{.}._._.~.S n 0 , x h.|.].)._._.'.N.|. X^.~.[.!.1 ) @.@.@.%.&.o.U.U.U.U.U.U.U.U.U.U.U.I.U.U.U.H.x.Z.V.).A.S ;XpXjXjXjXlXjXaXaXaXaXaXhXiXF . * Z.A.B.A.A.&X.XXXB.u.y.3.0.7.P.KXmXo.$XP.HXKXeXX.b.*X*XXX-X-XXXXX=X!.Z.*X.Xm.i.5.4.0.K.;XfXfXAXlXlXfXlXlXlXzXCXAXP.p ..J.G.J.J.K.T.E.T.&X&XT.K.K.K.K.K.K.K.H.G./ ] { n C J.T.,XkXiX$Xn D X.X./ 5 ^ ^ ! ! ~ ~ ~ ~ ! ^ ^ T ~ ~ ~ ~ 2XQ ` Q ~ ~ ~ R I +.` +. .M c 4.6.6.6.6.y.y.y.6.6.6.7.Z L.0XX.C x a p J.rXZXFXGXGXcXo.m H K.v.m b.,XAXJXHXU.H +.+.+.4X4X4X4X4X/ r / E ~ ~ 2X~ 2X2X~ T ~ +.+.~ ~ +.~ E _ R E ~ 2X~ Q ~ ~ ~ ~ ~ 2X2X2X2X2X` +./ r U.mXFXqX@XGXIXIXIXIXIXIXIXIXIXIXIXIXIXIXIXIXIXIXIXIXIXIXIXIXIXIXIXIXIXIXIXIXIXIX",
"IXIXIXIXIXIXIXIXIXIXIXIXIXIXIXIXIXIXIXIXIXIXIXIXIXIXIXIXIXIXIXIXIXIXI.N v v v v 1 = S oX{.[.[.}.oXX.F F H o.!.!.~.!.~.!.~.~.~.!.oX!.J J f.~.~.(.(.^./.oX X XoXoX[.[./.}.{.OX{.{.{.{.{.{.{.{.}.}.}.}.XXoX|.|.b.v.S x j x S a.J H iXiXuXuXiXeXUXI.wXeXwXiXdXiXdXuXdX0XX.: / / 5 &.uXdXdXeXe O O = z.M.M.M.M.N.|.M.j.H = X X X O O = c.|.=XAXKXcXJ S ~._.`.`.{.}.{.[.~.S n 0 9 k a.b.j.^.].'.Z.Z.|. X X~.|.oXk ) @.@.@.&.&.$.U.U.U.U.U.U.U.I.U.U.U.I.I.I.U.G.x.Z.V.].Z.C uXpXaXaXaXlXjXjXaXiXaXaXjXiXn = 3.n.m.n.u.u.m..X.Xm.p.u.u.u.=.o.JXtX< - ..JXKXL.> p |.XXXXXX|.b..XXX'.XXXXm.p.2.3.w.i.4.B H iXCXAXlXCXlXlXlXzXCXfXN v X.J.J.J.G.K.T.E.E.E.*XR.T.K.K.K.K.K.K.H.Z M  .e m J.&X;XkXpX$XD M H X.X.N q ^ T T ~ ! ! ~ R ^ I E ^ Q ~ ~ ~ ~ Q ~ 2XQ ` ~ ~ 3 _ +.+.+.] n c 4.6.6.6.6.y.y.u.6.5.H qXMXBXMXsX@Xn o.dXMXBXMXBXMXMXqXn J H J.m v.$XfXGXJXeX( [ +.4X4X4X4X4X4XI r T ~ T ~ ~ ~ ~ ` ` ! T +.+.~ ~ +._ E ~ ~ E ~ ~ Q ! ~ ~ ` ` Q ` 2X2X2X2XR ~ / r %.FXHXwXP.MXIXIXIXIXIXIXIXIXIXIXIXIXIXIXIXIXIXIXIXIXIXIXIXIXIXIXIXIXIXIXIXIXIXIX",
"IXIXIXIXIXIXIXIXIXIXIXIXIXIXIXIXIXIXIXIXIXIXIXIXIXIXIXIXIXIXIXIXIXIXG.v v v v v v = j !.[.[.[.[.|.G m H o.J.H G H G.J.G.v.#XJ.J.v.x k c.j.g.~.(.^.^./.[./.(.(././.[.[.XXoX(./.}.}.}.{.{.[.[._._._.[.{.}.}.}.XX!.!.v.S S H S - F wXiXdXiXuXwXqXeXdXsXiXiXiXsXwXqXP.M r r 9 : r : ( tXdXeXr & o + x h.M.j.g.g.M.(.(.b.J = X X X X O a.|.=XiXJXHX%.= S ~.(.`.{.{.`.[.~.S n 9 9 J f.|.b.j.'.'.'.b.N.^. X|.(.oXJ w @.@.@.| O.O.U.U.U.U.U.U.U.U.U.U.U.R.I.I.U.U.x.b.N./.s.G uXpXpXjXjXjXjXkXpXpXaXpXpXwX< j w.1.y.y.1.y.y.p.n.u.p.u.u.y.f X.eX[ M 9 [ GXFX0 . O l.XXXXb.u * s.].].'.A.p.p.d > p i.p.5.j ;XAXzXlXzXlXCXzXzXCXiXb b J.J.J.G.G.K.Y.T.E.E.&X&XT.K.K.K.K.K.U.G.N { F n J.K.&X>XpXuXJ.F G X.X.X.N r ^ T Q ! ~ ! ~ T ^ ~ +._ ^ ! ~ ~ ~ ~ ~ 2X2XQ ~ ~ ^ ~ +.` _ +./ b 3.5.6.6.6.u.u.i.6.3.J.MXMXNXMXMXsX{ L.cXrXMXNXbXbXMXeXN n J X.J.K.+XnXGXJXHXJ.[ +.4X4X4X4X5X+.e e E T R ~ ~ ~ ~ ` ` ~ T T E ! ~ ` ` ~ ~ _ E ~ ~ T ! ~ ! ~ ` ~ ! 2X4X2X4XE ~ _ / o.FXHXwXL.iXIXIXIXIXIXIXIXIXIXIXIXIXIXIXIXIXIXIXIXIXIXIXIXIXIXIXIXIXIXIXIXIXIXIX",
"IXIXIXIXIXIXIXIXIXIXIXIXIXIXIXIXIXIXIXIXIXIXIXIXIXIXIXIXIXIXIXIXIXIXM < v v v v p : - h.oX[.[.[.b.l b C Z 0.z.z.l.z.H z.H z.H D m j c.j.g.~.(.(.|.^.|.(.(.(.(.(./.|.|.f.S l.h./.[._.(.[._.(._.{._._.{.{.{.{.[.~.(./.oX/.oX+Xk D P.dXiXuXeXuXeXuXuXsXuXiXrXqXP.&.X.&.U.UX@X0XwXUX| X.eXwX: + o + : a.M.j.s.s.g.M.^.~.h.S 1 X X O O G |.|.>XHXKX@XF h S g.).{.{.{.[.(.k < 0 9 k S |.~.b.'.'.'.^.^.N.Z.j./.oXH 7 @.@.@.@. ...P.U.U.U.U.U.U.U.U.U.U.I.U.I.U.U.K.b.N.^.c X.iXkXjXjXaXjXaXaX>XhXkXpXhX%X= 4.6.1.y.y.<.<.y.u.y.p.u.4.6.u.;.a 9 [ FXFXO.0Xo.N > - T.'..Xd.> > a.].].B.p.p.u.f > * 6.p.i.V uXkXCXlXlXlXlXCXlXCX@X< ( I.G.J.J.J.T.Y.T.T.T.T.T.T.T.K.K.K.K.H.C ] F 0 z.K.K.;XpXiX@X..H H X.J.J./ r ^ ^ T ! ~ ~ ! ! T R ~ ` ~ ^ ~ ~ Q 2XQ 2XQ 2X2XQ T R +.` +.+. .F a 4.5.6.6.6.u.6.5.H wXMXbXbXMXMXMXX.$.mX@XvXNXnXMXMXBXo.M M D J.+X$XAXGXGXJXsXX.[ +.4X4X4X4X` 0 / E R E ~ +._ T ` ` ` ` +.~ _ ` 2X4X~ / } T E R T ~ ~ ~ ~ ~ ~ ~ ~ 2X2X2X~ E +./ X.dXpX$XL.0XIXIXIXIXIXIXIXIXIXIXIXIXIXIXIXIXIXIXIXIXIXIXIXIXIXIXIXIXIXIXIXIXIXIX",
"IXIXIXIXIXIXIXIXIXIXIXIXIXIXIXIXIXIXIXIXIXIXIXIXIXIXIXIXIXIXIXIXIXIXv v v v v v : p p z.[.[.[.[.~.i g z 3.=.4.4.4.4.3.4.4.3.j l l c.j.j.(.(.(.(.(.(./.[./.(./././.j.c a.!.oXj.|.}.[.[.[.[.}.[.[.[._.{.{.}.{.[.(.XXXXXX/.oXoXa.n X.eXeXwXwXuXeXtXdXwXeXwX@XP.P.0XqXwXtXdXdXdXdXdXeXo.X.{ % X + X + l f.j.h.a.s.g.(.Z.M.~.a.n # X X x (.|.;XMXKXtXO.!.S k f.(._.[.oXl.l , 0 0 n a.b.Z.j.].'.(._._./.Z.|./.oX!.9 } @.@. .] X.P.U.U.U.U.U.U.I.I.U.UXR.UXU.U.U.K.b.Z.b.x $XpXaXaXpXaXxXpXpXiXpXaXpXkXL.= c <.1.y.<.y * =.p.p.n.d * d y.u.d 9 dXKXKX@X9 K.:XZ.A..X].].Z.z.w.A.V.m.m.p.p.u.i.z e.r.p.u.0.;XzXlXAXlXlXzXCXzXAXJ.: X.T.H.l.H.K.T.Y.E.T.T.&X&XT.T.K.K.K.K.X.N F n H K.K.&X>XiX$XX.X.H H X.J.J./ I ^ T T ! ~ ~ ~ ~ ~ T R _ ~ ^ ~ ~ Q 2X~ 2X~ 2X2X~ T T ~ ` ' ` +. .N c 3.5.5.6.6.5.3.G.vXMXMXnXMXMXMXX.o.mXqXMXVXnXMXMXZX@Xn M D o.I.iXGXGXHXJXHXI./  .4X4X4X5X} 9 e _ R T ! E ~ T ~ 2X2X4X4X4X4X2X2X+._ T / T I ^ ~ ~ ! ~ ` ! ~ ` ! ! ` ! ~ ~ ~ / / R.:XK.J.P.IXIXIXIXIXIXIXIXIXIXIXIXIXIXIXIXIXIXIXIXIXIXIXIXIXIXIXIXIXIXIXIXIXIX",
"IXIXIXIXIXIXIXIXIXIXIXIXIXIXIXIXIXIXIXIXIXIXIXIXIXIXIXIXIXIXIXIXIXIX: v v b b p p p - a.oX[.[.[.|.l i 3.4.:.4.;.<.<.;.<.;.3.i S S b.~.j.(./.|.^.(.(.~.(./././././.|.a.b.XXXX(.h.XX[.[._.[.[.[.[./.oX}.}.{.[.{.(.[.XX}.|.(.XXb.k N qXdXuXeXwXqXrXwXP.I.UXwXeXsXiXeXdXdXdXiXdXdXiXiXsX%.9 o o + + X = S h.h.a.a.S f.h.j.j.~.b.H 1 $ k ~.j.+XsXJXJXQ.|.OXz.x f.~.j.S c.J 1 0 0 0 S |.b.b. X'.).)._.'._.'.'.|.b.1 *.@.@.@.) o.I.U.U.I.U.U.U.U.U.U.R.U.I.U.U.U.U.x.Z.s.j $XpXaXaXjXpXpXaXpXpXaXaXpXxXo.= 4.;.<.1.f $ O i u.p.y.s O i 2.u.d o.JXJXJXtXh :XA..X.X.X].]..X.XA.V.p.p.p.p.p.p.p.u.u.r.r.1.c iXCXlXlXzXlXlXzXCXAXZ p H.Y.T.K.T.Y.Y.E.Y.C.T.A.*XT.K.K.H.H.H.Z M F H K.b.+X:XuX>X%XH H H H o.J.X.D q ^ ^ T ! ~ ~ ! R E I ! ~ ~ T ! ~ 2X~ 2XQ ` 2X` ~ / ^ ` ` ` _ ` +.} n c 0.5.6.5.5.z.qXmXbXnXnXMXMXmXo...sX$XMXZXNXbXZXZXeXF h n P.dXGXGXHXGXJXJXdXX.} +.+.4X#.} 9 r / +._ _ R R T ~ ` 2X2X4X4X2X2X2X2X4XE I ^ ^ I ~ ~ ! ! 2X~ ~ 2X` ! ! ~ +.~ 4X+./ G.T.H.0.G.IXIXIXIXIXIXIXIXIXIXIXIXIXIXIXIXIXIXIXIXIXIXIXIXIXIXIXIXIXIXIXIXIXIX",
"IXIXIXIXIXIXIXIXIXIXIXIXIXIXIXIXIXIXIXIXIXIXIXIXIXIXIXIXIXIXIXIXIXIXp v v v v p h h l b.[.[.[.[.|.S i 3.=.=.=.;.2.2.<.5.4.d x c.S b./.(.^.|.^.|.(.~././.^.^.(.(./.|.|.s.(.XXoXa.(.[._./.^.b.h.f.a.h.|.}.{.[.[.(.~.|.!.|.[.XX~.J N @XiXuXuXwX@XI.@X0XwXeXiXiXsXdXdXdXdXiXgXuXdXuXiXsXL.# X X o @ O $ 1 S b.c.a.S S a.f.~.~.~.~.!.c.h.|.j.+XeXMXGX#X~.OXoXS S S l v.!.S 1 9 9 1 J c.z.b.'.].)._.).]._._./.k.!.J w +.#.&.{ L.I.U.I.I.I.U.U.U.U.I.I.R.U.R.U.U.U.U.z.x G uXpXpXaXkXpXaXpXjXpXaXxXiXpXX.* c 4.6.6.4.y > f r.p.u.;.d ;.y.6.i eXKXJXKXtX< T.A.]..Xx.b..X.XB.m.m.p.u.3.=.y.p.p.u.t.y.p.:.Z jXzXlXlXlXzXzXzXCXiXv b H.Y.T.Y.Y.Y.Y.Y.Y.C.T.T.T.T.K.K.x.H.X.m M o.+Xc.b.+X;XrX$Xo.H H X.H J.P.G.N Y ^ T T T ! ~ I ^ ^ E _ _ ~ T Q ~ 2X~ ~ 2X~ 2X` ~ E I R ' ` ' ` ` +.} N A 3.8.4.z.$XbXMXnXcXcXbXbXMXL...dX@XvXZXNXNXZXZXBX..0 D eXHXHXHXHXGXJXGXsXo./  .&.+.&.o.P.O.E ~ +.` R R R ~ 2X` 4X2X4X2X2X2X2X4X_ E ^ I ^ ! ~ ! T ` 2XQ ~ 2X2X` ` ~ ` 4X4X/ X.U.0.9.9.IXIXIXIXIXIXIXIXIXIXIXIXIXIXIXIXIXIXIXIXIXIXIXIXIXIXIXIXIXIXIXIXIXIX",
"IXIXIXIXIXIXIXIXIXIXIXIXIXIXIXIXIXIXIXIXIXIXIXIXIXIXIXIXIXIXIXIXIXIXv v v v p p h u S oX[.[.[.[.oXc.i d 3.f f =.:.;.<.4.f l S l.S h.|.(.^.^.(./.(.(.(.(.^.^.^.^./.(.|.h.h.!.j.a.(./././.h.c.j.Z.!.b.^.[._.[.[.(.~.(.(./.}.}.|.J N J.iXiXuXwXwXwXuXeXsXuXuXeXwXwXeXiXwXwXeXeXuXUXsXeX/ . X @ @ o O O $ u S b.z.a.S z.f.c.g.g.~.~.!.|.|.~.+XrXeXZXrXK.oX|.|.S l 1 k H J 1 7 0 1 J S h.^.'.'./.].].)._._. Xb.|.b.9  .@.@.| G.U.U.I.I.U.U.I.I.I.I.U.U.I.UXU.U.U.U.Z h X.iXpXjXkXpXlXjXkXpXpXaXkXiXiXH $ - d =.5.y.d.4.u.r.t.r.u.y.u.y.=.b BXJXJXKXmX; c C.A.l.u u s.B.m.m.p.m.5.> * :.p.p.t.r.p.p.:.H kXlXlXlXlXlXzXzXCXuX: C K.T.C.Y.Y.Y.Y.Y.H.K.T.T.T.b.x.K.H.G.Z m 9 H K.K.K.&XiX>XJ.m h b n m m G D N U ^ T T T ! T ^ E E _ ~ ~ ~ T Q 2X~ 2XQ 2X2X` ~ ~ ~ I E +.+.` ` +.+.+. .N b j Z $XdXcXnXbXnXnXMXnXbX#X[ cXqXeXBXZXVXZXbXZXL.h ..sXGXGXAXAXpXpXfXuXI.L.L.P.$XeXMXGXsX&./ _ ~ T ~ ! ~ ` ` ` ` 4X2X2X4X2X4X4XE 3 I 6 T ! T ^ ~ 2X2XQ ! Q Q ! ~ 4X4X4X+./ G.Z 9.w.IXIXIXIXIXIXIXIXIXIXIXIXIXIXIXIXIXIXIXIXIXIXIXIXIXIXIXIXIXIXIXIXIXIX",
"IXIXIXIXIXIXIXIXIXIXIXIXIXIXIXIXIXIXIXIXIXIXIXIXIXIXIXIXIXIXIXIXIXIXv v b p p p h j b.[.[.[.[.[.[.|.c i d f f =.=.-.;.4.i l l x S j.|./.(.^./.(./.(.(.(.^.^.^.^./././.|.f.a.b.|.^./././.j.|. X X X(.(.{.[._._.[.[.[.[.[.}.{.oXS m X.iXiXeXsXsXrXrXeXeXwXwXqXqXqXqX0X0X@X%.X.| [ @XP.,   $ # # @ $ # O $ l v.v.l.S S f.S f.f.g.g.(./.|.(.!.rXeXFXsX%XJ.b.b.c.S - = l J , 8 0 7 k c.|.'.^.h.l.^.]._.).'. X!.b.!.n ) @.@.&.P.I.I.U.U.R.I.I.I.I.I.U.U.U.U.U.U.U.S.A u P.iXlXjXkXkXkXaXxXpXpXkXiXiXiX[ O X > u d 4.6.i.u.C.y.r.y.y.y.-.y N JXKXJXJXFX; > x.A.a O + 3.A.m.p.p.m.4.* * e.p.p.i.p.p.p.f z.lXlXlXzXlXlXzXzXCXP.p z.Y.Y.Y.K.Y.Y.Y.Y.H.H.T.Z.Z.b.K.K.G.G.X.M n J v.b.K.:X:X>X;XwXwX@X@X$XP.P.$X/ I T T T ! I ^ E _ ~ ~ ~ T T T Q ~ 2X~ 2X~ ~ ! R ~ E R L +._ @.' +.+.` +. .M v P.dXmXnXvXnXbXnXbXnXbXqXD sXbXnXZXZXZXZXbXZXeXm F tXMXuX,X,X,X,X,XjXAXZXGXSXGXJXSXJXFXqXE T ~ +.! ~ ` 2X4X` 4X2X4X4X4X4X4X4XE 3 T I ^ ^ W Q Q 2X2X2X~ Q ~ 2X2X2X4X4X4X/ / ( 4.w.IXIXIXIXIXIXIXIXIXIXIXIXIXIXIXIXIXIXIXIXIXIXIXIXIXIXIXIXIXIXIXIXIXIX",
"IXIXIXIXIXIXIXIXIXIXIXIXIXIXIXIXIXIXIXIXIXIXIXIXIXIXIXIXIXIXIXIXIXIXb v v p p p u S oX[.[.[.[.[.[.XX!.x i d f f f f 4.d u k f.b.|.^.|.oX|././.(.(./.(.(.^./././.(././.|.|.^.|.|.(./././.g.!.|.|.|.~.(.[.[.[.{.[.[._.[.[.[.[.oXS C N wXiXuXuXuXuXwXuXUX[ D D ..D / / ] / e 9 9 9 { D o @ # % % # % % + + = C K.l.z.S S S f.f.f.f.j.~.(.~.b.$XeXGXZXP.c.XX X|.c.a.1 = 1 9 7 0 0 l S ^./.N.k.|.N.N.].).).'.|.c.b.m 0 @.+.&.L.I.I.I.UXR.U.U.U.U.U.U.U.U.U.U.U.F.&.v 1 I.iXjXlXlXaXpXaXaXpXjXkXpXpXiXN X . > l u i i c d i 4.u.6.y.6.s O { JXJXJXLXFX; + 3.A.7.* y x.m.m.p.p.p.n.8.4.u.p.6.f :.r.y.f I.CXzXzXlXzXzXzXlXCXX.: H.T.C.C.C.Y.Y.H.H.H.Y.b.T.b.b.K.b.K.z.N M D D H v.K.+X&X,X>XjXAXSXSXSXCXAXAXP.^ T ^ ! ! ^ T _ ~ T I E R ^ ~ ~ Q ~ 2X~ Q ~ ~ ~ T I U I ) ' _ +.' ` ` ` +.Y M rXMXnXnXnXNXbXbXnXbXcXrXD sXZXZXZXNXNXZXZXNXMX..M @XwXK.:X*X*X-X,X,XzXSXSXSXSXCXSXSXGXFX%.E +.~ ~ ~ 2X2X` 4X` 2X4X4X4X4X4X+.E q T T ! Q ! ~ ~ 2X2X2X2X2X2X2X2X2X4X4X4X/ b B 3.6.IXIXIXIXIXIXIXIXIXIXIXIXIXIXIXIXIXIXIXIXIXIXIXIXIXIXIXIXIXIXIXIXIXIX",
"IXIXIXIXIXIXIXIXIXIXIXIXIXIXIXIXIXIXIXIXIXIXIXIXIXIXIXIXIXIXIXIXIXIXv v p p p p 1 !.[.[.[.[.[.[.[.XXoX!.h i d d f f z d l x f.(.(.(.^. X^./././.^.(.(.(.(.oX X'././././.^.^./.^.(.(././.a.a.a.a.c.k.^.[.[.}.[.[.[._.[.[.[.(.oXf.G m P.iXuXuXsXuXrX$XO.h J v.H *.M r 9 5 t & o # , ; O % t t % # % , # $ O = H G.l.z.G S S a.f.f.g.g.(.|.!.$XtXGXGXo.c.}.{.XXb.=Xf.l = = 7 0 0 l S /./.b. X/. Xb.].]._._.'.oXoXv.9 | @.| J.I.I.I.I.U.I.U.I.U.U.U.U.U.U.U.U.G.( v < #XiXaXjXjXpXaXaXjXaXaXjXxXpX$Xv . + C Z.b.z u u > . y g f f d > . o.KXJXJXKXmX, > i w.C.C.C.m.p.p.p.p.p.p.i.p.y.u.c > s <.u.a $XCXlXzXzXlXzXzXzXkXD u K.E.Y.C.Y.Y.Y.H.Y.H.H.Y.Z.K.K.K.b.x.l.C n D D J H v.K.+X=X=X+X;X>X>X,X>X>XaXJ.q T T ! R ^ E +.! I ~ E E ~ ~ ~ ~ ~ ~ ~ ~ 4X4X4X4XR I q R +.@.+.' ` +.+.+.) *.eXMXnXnXnXNXMXnXnXbXMXeXD eXZXNXVXZXNXNXZXnXZXP.9 F G H *X-X*X*X1XlXCXCXCXCXCXCXCXCXSXJXqXE ~ ~ 2X~ ` ~ ~ ~ ! ! ~ 4X4X2X4X4XY q T T ~ ! ~ Q 2X2X2X2X2X2X2X2X2X2X2X4X4X+.M A 8.6.IXIXIXIXIXIXIXIXIXIXIXIXIXIXIXIXIXIXIXIXIXIXIXIXIXIXIXIXIXIXIXIXIXIX",
"IXIXIXIXIXIXIXIXIXIXIXIXIXIXIXIXIXIXIXIXIXIXIXIXIXIXIXIXIXIXIXIXIXIXb v : p p u S !.[.[.[.[.[.[.[.[.XXoXv.k y c f g z d i k S ~.(.(.^././.^.^././.^.(.(.^.|.|.Z.|.|././.^.).(.(./././././.|.Z.^.|./._._.{.[.[.[.}.[.[.[.[.(.(.b.S H X.eXuXiXeXiXrX#XF G b.+XJ 7 ; % & & o & & 7 ; + + % # # t # # 7 % $ + $ : H v.z.z.S S a.a.a.f.f.~.~.v.qXsXHXFX#Xc.|.}.[.(.XXXXc.l - = 9 0 < k !.!.|.XX/.h.Z.'._./._._.[.|.c.1 ] @.O.J.I.I.I.I.U.I.I.I.I.I.U.U.U.U.U.U.U.X.r 7 J.pXaXaXkXaXaXkXpXkXaXpXpXpXwXh h a.^.].]..XZ.b.l.z.a.x c x j + . L.KXJXJXKXdX= p - d 6.p.p.p.p.p.p.p.p.u.p.p.r.u.8.y s 1.y.a ;XCXzXzXzXlXzXzXCXkXm j Y.T.Z.Y.Y.T.Y.Y.Y.H.Y.x.K.T.b.b.v.v.K.z.D G D D F m H J.+X!.&X&X&X&X=X=X,XaXP.Y T T Q ! ^ ~ +.R T R ~ ~ ~ ~ ~ ~ ~ T ~ 4X2X2X` 4X+.~ I U ` ` +.` ` +.+.+.+.e qXcXvXcXnXMXNXnXbXbXnXeX[ rXnXnXbXNXZXNXMXbXZXrXv v n v ;XaXaX,X,XlXzXzXzXlXlXzXlXCXCXSXmX&._ ~ ~ +.~ ! E _ ~ ~ ~ ~ ` 4X4X+.E 3 T ! Q ! ~ ~ ~ 2X2X2X2X2X2X2X2X2X2X3X4X4XE A 8.w.IXIXIXIXIXIXIXIXIXIXIXIXIXIXIXIXIXIXIXIXIXIXIXIXIXIXIXIXIXIXIXIXIXIX",
"IXIXIXIXIXIXIXIXIXIXIXIXIXIXIXIXIXIXIXIXIXIXIXIXIXIXIXIXIXIXIXIXIXIXb p p p p l ~.[.[.[.[.[.[.[.[.[.[.}.oX!.x i i d d l k k c g.(.(././././.(./././.^.f.a.a.c a.h./././.(.^.).(.(.(././././.(./././.(./.[.[.[. Xj.oX[.[.[.(.(.~.S H D wXsXuXrXuXrX%.k H !.!.n , ; % & @ o o & 8 # O # ; t < , t # ; , % $ $ ; h H G.G.z.x x S a.a.f.~.|.b.qXsXGXJX@Xk h.(.|.(.}.}.XXh.S k < , = = f.c.|.XXb.b.XX_._._._._._.(.c.k 0 &.O.J.I.I.U.U.U.I.I.U.U.U.U.U.U.U.U.U.U.X.T U  .@XiXpXpXjXxXjXxXaXaXpXpXiX$Xh z.|.).).).].].b.a.b..X]..X XK.= . L.KXJXLXJXeX: j > > d 6.u.p.p.p.p.p.u.6.2.2.y.r.u.1.<.y.6.c pXCXzXlXlXlXzXzXCXiXl Z Y.Z.Y.T.Y.Y.Y.Y.H.H.Y.H.H.K.b.b.l.l.J.J.H H H H G F n J H J.+X&X&X=X=X=X,X,XJ.I T T T ~ T ! ` ~ R I T ~ ~ ~ ~ ~ ~ ~ +.~ T T ! ~ 4X+.E I _ +.+.+.` +.+.+.+.w Q.dXcXvXcXbXbXnXnXnXnXsXD @XeXwXbXVXNXVXVXbXMXvXN n v 9 rXCXzXlXlXlXlXfXlXlXlXAXlXzXCXCXHXqX .~ ` ` ~ ~ _ ~ ` ~ +.+.~ ` 4X4XY q T ! ! ! ~ ~ Q 2X2X~ 2X2X2X2X2X2X2X2X2X4X} b 7.w.IXIXIXIXIXIXIXIXIXIXIXIXIXIXIXIXIXIXIXIXIXIXIXIXIXIXIXIXIXIXIXIXIXIX",
"IXIXIXIXIXIXIXIXIXIXIXIXIXIXIXIXIXIXIXIXIXIXIXIXIXIXIXIXIXIXIXIXIXIXp : p j u x !.[.[.[.[.[.[.[.[.[.[.[.oXoX!.c.S l l J l - l f.~.(.|.|.oX'././././.^.h.c.b.|.|.k.^.'.(.(.^.^.(./.)./././.(.(././.[._./.[.[._.j.f.b.c.h./.(.(.|.f.z.v.P.iXwXeXwX@XD J ~.!.v.1 t 2 % % & o & 7 % X # , , , 0 , # & ; 9 , % @ @ , v z.G.J.J.Z C S S S h.!.J.qXtXGXHX@XJ !.|.|./.`.{.{.}.~.a.J h ; = 1 J S z.z.oX}._._.{._._._.~.|.f.0 O.o.U.U.U.U.U.U.U.U.U.U.U.U.U.U.U.U.U.G./ Q W W E &.wXpXpXjXjXaXaXxXpXhXiX$Xh c./.).).B.].^.a O a Z.).`.].|.g # P.KXKXHXKX@Xa z * > - d 5.4.3.6.p.p.y.s * s 1.r.p.p.u.u.:.Z kXzXzXlXlXzXlXzXCX$Xp G.T.C.E.T.C.Y.x.Y.Y.H.H.x.x.x.H.v.l.v.l.v.v.G.v.H H J m n k n G H v.K.+X+X&X:XX.r T T T ! T T +.+.~ E ^ R ~ ~ ( ~ T ~ ~ T T ~ ~ T _ _ E 3 q U U ) _ +.+.` +.) | sXsXvXbXcXbXNXbXnXnXsX..P.rX@XnXbXVXnXZXVXVXMXD h v : J.ZXCXCXCXCXCXCXCXkXpXlXkXkXzXCXGXGX$.~ ~ ~ ! +.~ ~ ~ ~ R _ ~ ~ 4X4XE q T ! ! ~ ~ Q ~ 2X2X2X2X2X2X2X2X2X2X~ ~ ! E N c 8.IXIXIXIXIXIXIXIXIXIXIXIXIXIXIXIXIXIXIXIXIXIXIXIXIXIXIXIXIXIXIXIXIXIX",
"IXIXIXIXIXIXIXIXIXIXIXIXIXIXIXIXIXIXIXIXIXIXIXIXIXIXIXIXIXIXIXIXIXIXp p p h u S oX[.~.[.[.(.[.[.[.[.[.[.[.[.[.oXoX=X+XH k [ k S !.Z.a.f.^. X X^./. X X|.j.oX/. XZ.(.^.^./.^.^.^.^.^.(.^./.(./././.[._.[././.N.h.|.|.j.j.(.j.(.^.j.S J.H wXuXiXqX$.0 f.~.|.S , % 2 5 % % & 5 % @ O ; , F 0 1 # # % , 9 e 8 t & & ; v G.$XuXU.G.G S S l.l.J.qXtXGXHXeXH ~.{._._.`.{.{.{.}.[.~.c.S k l - = = J !.'.{.)._._.'.^.|./.~.k X.J.J.U.U.U.U.U.U.U.U.U.U.U.U.U.U.U.U.X.~ W W W W T  .$XpXpXjXpXaXaXaXxXiX$Xh b./.).).B.)..XH > c ].).).).].Z.x P.KXJXJXJXo.d 6.3.3.3.f i * > i i.p.2.> . * 1.p.t.t.t.y.3.G.CXzXlXzXlXzXzXzXAX%X- H.R.E.A.A.C.E.Z.Y.K.Y.K.x.K.x.x.b.c.v.v.v.v.z.v.v.o.v.H F J F n h < h m J G H D Y T R ! ! ! T ~ _ ~ E 3 T ~ ~ ! ! T ~ ~ ^ ! ` ` T T ` ~ E Y U q 2 6 q } ` _ } M qXcXvXsXcXbXMXbXnXnXvX..$.eX@XvXNXVXbXVXNXNXBXX.h N m F L.$X$X$XiXiXiXiX%XL.$XiXkXlXzXCXJXtX+.~ ~ E ~ ~ ~ +._ E ~ 4X! ` 4XE 5 ^ ^ T T T T T ! ~ 2X2X2X2X2X2X! ~ ' 2X~ R q b 7.IXIXIXIXIXIXIXIXIXIXIXIXIXIXIXIXIXIXIXIXIXIXIXIXIXIXIXIXIXIXIXIXIXIX",
"IXIXIXIXIXIXIXIXIXIXIXIXIXIXIXIXIXIXIXIXIXIXIXIXIXIXIXIXIXIXIXIXIXIXp p h p a c.oX[.[.[.(.~.(.[.[.[.[.[.[.[.[.oXoXoXoX+XJ.BX@Xk b.f.a.j.f.j.^././.XXXXN.k.|.|.!.s.Z././.^.^.(././.j.j.(./././././.[././././.h.j.|.j.k.h.g.j.(.~.a.x v.X.o.iXiX0XF k ~.|.!.S , 2 8 2 % % t 2 # O # , F J J *.1 t % 7 7 0 *.0 % # # 9 X.$X$XuXI.G.z.S H S o.$XtXHXHXtXo.j._._._.`._.{.{.{.}.XXXXoX-X!.S H k > l f.^. X`.`.'.N././.[.l.z.K.J.U.U.U.U.U.U.U.U.U.U.G.G.U.U.U.G.| / W W W W W P ] qXhXkXjXpXkXkXpXiX@X: b. X'.(.B.B.B.A.x.|.].).).B.B.].s.J.JXJXKXHXN f y.u.u.y.<.3.u > * 4.6.5.d s f u.r.t.y.p.y.z $XCXzXlXlXlXlXzXzXCXJ.- K.E.E.E.A.Z.E.Z.Z.C.x.K.H.b.K.J.K.v.K.b.v.v.l.z.c.v.v.v.v.J.H G G H D D G J H M q T Q Q ! ~ Q ^ T I ^ ^ ~ ~ ~ ~ ~ T T +.~ ~ ~ ~ ~ ^ ~ +.+.` _ U 6 w 3 U ` ` +.Y $.vXcXsXcXbXNXbXcXvXnX$.o.eX#XsXVXNXNXbXNXVXZXP.v J J.S m n h h n k m b 1 v D P.pXCXzXCXGXHX0X+.~ ~ ~ ~ +.+.E ~ ~ 4XE ` +.E 5 ^ T Q T ! ~ T ! ^ Q Q 2X2X2X! ! ' ` ! ~ +.E : 7.IXIXIXIXIXIXIXIXIXIXIXIXIXIXIXIXIXIXIXIXIXIXIXIXIXIXIXIXIXIXIXIXIXIX",
"IXIXIXIXIXIXIXIXIXIXIXIXIXIXIXIXIXIXIXIXIXIXIXIXIXIXIXIXIXIXIXIXIXIXm h u p k !.oXoX[.[.[.[.[.oX[.[.oX[.[.[.[.oX[.[.oX+X#XGXeXh S l.b.|.|.f.(.^.(./. X^.s.c.a.a.f.|./././.^.^.^.N.h.|.g.k././././././.[.[.^.h.|./.j.f.j.^.(.(.!.l.c.G P.X.@XeX%.9 S ~.|.!.k % t 2 2 2 5 8 % o @ , n G J J n *.t , 9 0 9 [ { 9 , % % M [ L.I.wXwXP.U.J.H H J.#XdXGXrXD j.{.`.`.`._.{.{././.(.~./.}.oXc.J.z.G k l S h./.}.'.(./.[.[.!.k v.K.U.U.U.U.U.U.U.U.U.U.X.P.U.U.U.G.X.R W W W W W W ^ &.iXpXxXxXaXkXpXkXL.u b.&X|./.).).N.B.].].]._._.B.B.).Z.z.MXJXKXtXp 5.y.y.r.r.1.1.4.y > i =.5.5.6.y.r.r.r.6.6.C.g $XzXlXlXlXlXzXzXzXCXX.l K.E.E..XA.A.A.A.A.Z.C.x.x.H.K.x.x.v.c.v.v.K.J.z.l.v.v.v.v.b.K.K.J.J.v.H H H G M r T Q ! ! ~ ! ! ^ ^ ^ E ~ ! ~ ~ ! ! T ` ` ~ T ^ ~ ! ^ ! ~ _ R L w Y 6 w +.' _ ) ] eXcXsXsXcXcXnXnXcXbX#X..cXrXsXbXbXNXNXNXNXZXrXv D K.K.G.H G H z.H H G ; < 9 [ J.pXCXCXSXHXFX&.~ ! ~ R 4X` ! +.4X~ ~ 4X4XT 5 ^ ! ~ ! ! T T ! ! T Q 2X2X2XQ _ ` ! T ! 2X+.9 A IXIXIXIXIXIXIXIXIXIXIXIXIXIXIXIXIXIXIXIXIXIXIXIXIXIXIXIXIXIXIXIXIXIX",
"IXIXIXIXIXIXIXIXIXIXIXIXIXIXIXIXIXIXIXIXIXIXIXIXIXIXIXIXIXIXIXIXIXIX$XG.m h F v.!.!.~.~.~.~.!.~.~.~.~.~.!.oX~.!.~.!.|.v.#XJXtXF k J c.!.k.f.|.^.(.(.^. X^.Z.Z.|.|.^.^./.^.^./.|.h.b. X|.j.j./././.[./.(.(.|.f.h.b.b.j.|.|.(.|.h.f.=Xc.J.I.o.P.N k f.(./.~.1 2 6 6 6 8 8 t @ # , h k S S J J J 0 9 e F n J L.{ 0 7 7 % 5 r ..o.$.P.I.I.P.$XP.0XFXFXeXF f.[.`.`.`.{._./.~.f.b.b.|.}.}.~.~.oXOXoXb.S k a.|.}.{.(.[.|.!.J C K.U.U.U.U.U.U.U.U.U.L.&.o.P.U.U.G.} T W W W W W W W R P.pXkXpXxXxXpXiXH l +Xl - x.].].B.B.B.).].N.M.B.).).].z.rXJXMXX.g Z.n.r.1.1.y.r.<.d * * i f =.<.1.1.y.5.s * i k iXCXzXzXlXzXlXzXCXlXH j T.E.A.T.A.A.A.Z.A.A.b.b.x.x.b.K.x.K.v.H.l.z.G.z.z.z.v.v.v.b.b.b.b.b.b.b.v.J.v.n w T Q T Q ! ~ ! ! R ~ ! ! ! ~ ~ ~ ~ ^ ~ ~ ~ ~ T ~ ~ T ^ T T L I U 3 q } +.' +.} F #XvXtXsXsXsXvXcXcXcX0X..mXbXnXnXnXMXNXNXNXNXvXN m v.v.b.v.b.b.+XK.v.H < D o.P.P.P.pXCXCXGXHXtX+.E ~ R ` ` ! ~ +.~ ~ 4X+.E 5 T T ~ T T T T T ! Q Q 2XQ 2XQ ~ ! ! ` Q ~ +./ v IXIXIXIXIXIXIXIXIXIXIXIXIXIXIXIXIXIXIXIXIXIXIXIXIXIXIXIXIXIXIXIXIXIX",
"IXIXIXIXIXIXIXIXIXIXIXIXIXIXIXIXIXIXIXIXIXIXIXIXIXIXIXIXIXIXIXIXIXIXiXiX$XJ.N v b G x c z Z z c B z B c c c c d j j j h @XKXtXv < v X.v.c.b.|.(.(.(.~.M.^././././.^.^.^.^.^.^.a.b. X/./.|.a.^./.^./.(.(.(.(.~.!.h.b.^.(.^.(.|.h.S j.+XH %XL.0 1 S ~.(.[.S t , 8 q 8 t % # # < l S S c.f.f.J J J *.J J H v.v.F {  .*./ E 7 % , 9 9 [ %.@XtXdXmXFXFXeXF J j.'.`.`.`.'.k.|.(.XX|.k.[.[.[.{.}.{.}.}.|.!.v.x h./.[.^.j.|.!.l H J.U.U.U.U.U.U.J.o.%.@.&.J.I.U.X.} W W W W W W W W W E iXpXxXhXpXdXwXv S +X- O S  X].B.B.B.].h.u y 4.].B.).V.T.I.n > 4.A.V.<.d s ;.y.r.<.f =.4.5.4.f d d f a O . + D lXzXzXlXlXzXzXzXCXpXb C T.E.A.A.E.A.A.A..X.XZ.x.x.K.K.K.K.U.G.G.G.z.G.H H l.c.b.v.K.b.b.b.b.b.&X|..X-Xz.5 ^ ^ T ~ ~ Q ! ! ~ Q ! ! ~ 2X~ ~ ~ ~ ! Q Q Q Q ~ Q 2X~ ~ ~ R U q ) +.@.` ` ` +.) &.eXsXtXsXsXsXsXcXcXqXO.sXbXbXbXcXNXbXbXBXNXNXL.h C H !.A.*X*X&XK.H m o.sXBXGXGXqXJ.pXCXSXJXJXtX@._ R _ 2X` _ 4X2X4X4X+.I 3 R R R T I ^ T ~ ~ ! ! ~ 2X2X~ ~ ~ ~ ` ! ~ 4X~ / IXIXIXIXIXIXIXIXIXIXIXIXIXIXIXIXIXIXIXIXIXIXIXIXIXIXIXIXIXIXIXIXIXIX",
"IXIXIXIXIXIXIXIXIXIXIXIXIXIXIXIXIXIXIXIXIXIXIXIXIXIXIXIXIXIXIXIXIXIXuXiXiXiXwXX.v p V 7.4.4.:.4.4.2.e.4.e.2.4.3.3.3.z p $XKXrX: = : l k G c.b.b.~.|.(.g.j.(./. X X X/.^.'./.|.Z.s.b.|.b.a.|./.^.(./.^.^.^.(.^./.|./.(.(.(.(.(.|.|.f.S J D D = l f.(.|.oXk , 8 8 8 7 % % = h J S f.f.h.j.f.S J H J J H b.!.z.9 Y | &.0XtXe % & $ @ % % 7 ] &.&.O.Q.%.M h v.^._.`.`.`.j.b.'.'.!.s.'._.[.[.}.}.}.|.h.!.=Xc.l c./. X|.[.oXa.k K.J.U.U.U.X.$.%.&.@.@.@.$.L.G.| T W W W W W W W W W P #XpXkXpXpXpX%Xh S |.c.a.|.'.].B.B.B.B.s.+ * a.].B.V.B..Xl.O > a.V.m.5.* > d 1.r.r.6.1.r.1.1.<.4.f f i - * > G.CXzXzXlXzXlXzXzXzXuXm 0.&XA.A.A.A.A.A..XA.A.Z.b.x.x.H.H.z.z.z.G.G.G.G.G.z.G.J.G.v.b.b.b.b.K.Z.|..X.X-XK.q ! Q ^ ! ~ ~ ! ~ ! ~ ! ~ Q Q ~ ~ Q ~ ~ ~ ~ ~ 2XQ ~ Q ~ ~ _ T q ) +.` +.+.` ` +.) ] #XtXtXsXsXvXsXsXcXtX$.rXsXbXbXbXBXNXbXVXMXZX@Xh F K.A..X.X*X|.v.j [ dXGXJXJXJXZXL.P.AXCXJXJXGXrX+.~ ! 2X` ~ 4X2X4X4X~ 3 q T T I ^ 3 L ~ ~ ~ ^ ~ ` ~ 2X2X2X2X2X~ Q ~ 2X2X~ IXIXIXIXIXIXIXIXIXIXIXIXIXIXIXIXIXIXIXIXIXIXIXIXIXIXIXIXIXIXIXIXIXIX",
"IXIXIXIXIXIXIXIXIXIXIXIXIXIXIXIXIXIXIXIXIXIXIXIXIXIXIXIXIXIXIXIXIXIXuXuXuXuXuXuXL.v b z 8.5.5.2.;.2.2.1.2.2.2.5.5.5.8.A $XKXqXv B j j p : h k S c.!.~.~.j.g.M././. X X^.^./.'. X|.k.h.a.|.^.^.(.(.(.j.k.j.Z.^.(.^.(.(.^.^.(./.|.~.f.J k m < 1 J f.(.oX!.1 , 7 q 5 % % # < x v.b.h.g.g.j.b.f.S S S S c.j.!.J ] } } 0XFX0X% + = # @ 0 m 1 - : ; ; r e < x oX^.(.'.`.{.^.h.oX|.c.h./.{.{.{.{._.(.l.|.oX(.=Xc.S b././.[.}.|.k H U.U.U.J.O.O.&.#.#.@.@.%.o.&.) W W W W W W W W W W P &.sXkXpXiXkXJ.p a.(./. X].].].B.B.B.B.|.S 4.Z.B.B.B.V.`.|.x c C.B.V.6.V y f 1.r.r.y.r.r.r.y.1.6.6.<.4.z b - P.CXzXlXlXzXlXzXzXzX$Xx l.E.E.A..XA.A. X.XA.A.b.x.H.K.x.z.G.x.G.G.G.G.G.G.G.z.G.z.v.v.x.b.b.b.Z.Z.Z. X-Xx.r T ! T T ~ ~ ~ Q ! ! ! ~ ~ 2X~ ~ 2X~ ~ 2X2X~ ~ 2X~ ~ ! ~ R I E +.` +.+.+.+.+.+.} ) ..eXtXsXvXvXsXvXcXsX$.#XrXMXVXnXNXNXMXnXbXZXeX< z.K.T..X.X.X|.l.h $XGXJXJXGXJXJXMXJ.$XCXSXJXSXFX6XT ! ~ 4X` 2X2X4X4X` 3 5 ^ I ^ 3 3 L ! ! ^ W 2X2X~ 2X2X2X2X~ ! Q ` ` 2X4XIXIXIXIXIXIXIXIXIXIXIXIXIXIXIXIXIXIXIXIXIXIXIXIXIXIXIXIXIXIXIXIXIXIX",
"IXIXIXIXIXIXIXIXIXIXIXIXIXIXIXIXIXIXIXIXIXIXIXIXIXIXIXIXIXIXIXIXIXIXuXuXuXuXuXiXuXI.N i f 3.;.5.5.2.2.2.4.;.;.5.2.2.4.g wXKXwXA 7.8.7.c l j m G G S S c.f.f.j.~.|.|.b.a.g.^.|./.^.^.b.Z.^.^.^.^././.j.Z.N.b.j.|.(.^./.|.|.~.c.J k l l l 1 1 k f.~.[.oXb., 7 7 q 8 % % = k c.b.Z.Z.g.g.Z.j.f.f.f.f.~.~.~.c.D &.%.tXPXrX0 + k J.v.- l J.b.b.!.c.z.G C Z b.'.`.'.N.`.`.N.a.a.s.k.(._._._._._.}.^.b. XXXoX(.oXc.S (.[./.[.XXf.k U.I.P.$.O.%.&.#.5X#.@.@.6X+.W W W W W W W W W W W W ) rXkXkX>XiXJ.1 f.^.'._._.].`.).).B.B.].A.].B.B.B.V.V.`.`.Z.Z.).B.V.u.6.2.y.y.y.y.y.r.r.1.=.d =.1.r.6.3.u : >XzXzXzXlXlXzXlXzXzXI.l K.E.A.A.A.Z.A.A.A.A.T.Z.b.x.G.x.G.G.G.z.G.G.G.G.G.G.l.G.G.K.H.c.b.K.K.b.|.A. X-Xz.3 ^ ! ~ ^ ~ Q ~ ! ! ! ! ~ ~ Q ! Q 2X~ ~ ~ 2X2X2X~ 2X~ ~ ! P E +.+.+.` +.` +.` ` } ) { #XsXsXsXvXvXvXsXmX$.#XqXBXbXbXnXMXNXNXNXbXMX[ H +XT.A..X*X&Xv.X.MXJXJXSXZXSXJXJXeXJ.iXCXJXSXZXmX&._ ` ~ ` ` ` ` +.+.r 5 ^ K 3 T R L W ^ Q 2X2X2X` 2X2X2X2XQ W Q ` ` 2X4XIXIXIXIXIXIXIXIXIXIXIXIXIXIXIXIXIXIXIXIXIXIXIXIXIXIXIXIXIXIXIXIXIXIX",
"IXIXIXIXIXIXIXIXIXIXIXIXIXIXIXIXIXIXIXIXIXIXIXIXIXIXIXIXIXIXIXIXIXIX;X;XuXuXuXiXuXiX$XX.a f =.2.5.5.2.:.;.4.2.;.2.2.4.z uXJXwX7.5.5.5.q.3.A C m Z X.G.G.H H a.l.c.a.a.|.k.|. X/.^.^.^.^.^.^.^.^./.'.M.|. XZ.Z./.|.^.|.j.a.l 1 > 1 J H H J J f.g.(./.oXS , 8 8 9 t # # h z.k.M.N.M.M.M.Z.j.h.k.f.f.~.j.~.v.{ 0XFXFXPX&.: l.|.XX Xc.k l a.|.|.XXXXXX|.b.XX{.`.].d.^.`. XZ.^./.^.).(.)._._._._.[.(.j.XX|.j./.oXS f.(.(.(.[.!.h X.P.#XJ.O.&.@.#.#.#.#.#.8X3XW W W W W W W W W W W W T 0XpXpXpXiXH 1 h. X_._.'._.).).`.B.B.B.B.B.B.B.B.B.B.).`.).B.B.B.m.1.r.r.y.y.r.y.y.r.r.y.g > * 5.r.y.d $ N kXzXzXlXlXlXzXzXCXAXJ.j K.R.A.A.A.A.A.A.A.Z.Z.K.K.H.x.G.G.G.z.G.G.G.G.J.G.G.G.G.G.K.K.l.b.K.b.b.|.|. XXXS w ^ Q ~ ^ Q ~ ! ! ~ ~ ! T Q 2X2XQ ! ~ ~ 2X2X~ ~ ~ ~ Q ~ ! q _ +.+.+.` ` ` ` ' +.+.Y ] $.tXsXvXvXvXvXvXsXo.0XqXMXdXMXcXsXsXsXBXBXFXX.F K.T.&X*X*X&Xv.@XZXJXJXZXAXAXSXJXGXqX$XkXSXJXSXJXtX` ~ 4X_ ~ ~ ~ ! E r q I ^ T R ! ! Q ~ ~ ~ 2X2X~ 2X2X2X~ Q T ~ ` ~ 2X2XIXIXIXIXIXIXIXIXIXIXIXIXIXIXIXIXIXIXIXIXIXIXIXIXIXIXIXIXIXIXIXIXIXIX",
"IXIXIXIXIXIXIXIXIXIXIXIXIXIXIXIXIXIXIXIXIXIXIXIXIXIXIXIXIXIXIXIXIXIXuXuXuXuX;XuXuXiXiXwXG.B z 4.2.2.5.<.;.2.5.;.;.2.:.B iXKXuX8.2.2.5.5.5.5.3.g a b ( J.I.I.G.Z l k S b.h.h./. X/. X/.^.^.^.^.^.].^.M.]. X(.j.|.|.b.G 1 = = n J J c.~.f.c.~.g.~.(.[.[.J , 8 w 7 % $ < G b.Z.M.^.M.g.M.|.|.k.k.k.~.~.g.j.v.#XFXtXFX&.h h.XX{.}.{.}.|.x c Z.b.|.`.`. Xx. X'.^.d.Z.]._._.'._._.(.(.(._._._._.`.{._.Z.b.h./.}.XX|.a.(._.[.[.oXS m P.J.o.o.O.@.#.8X#.#.5X8X` W W W W W W W W W W W W P @.sXkXiXwXD i j. X^.'._.].].).B.B.B.B.B.B.B.B.B.`.B.B.B.B.B.B.B.m.y.r.y.y.y.u.w.6.r.r.y.=.* u w.r.y.d + J.CXzXzXlXzXzXjXzXzXCXJ.C T.E.*XA.Z.Z.Z.A.A.|.b.b.K.b.x.v.K.G.z.G.G.z.G.G.G.J.G.G.G.J.K.l.b.b.b.b.b.|..X*XJ r ^ ^ ~ T Q ~ ~ ! ~ ~ Q ! 2X4X4X~ ! ! ~ 2X~ 2X2X~ 2X~ Q ^ q +.+.+.+.` @.` +.+.' +.) M O.qXvXvXcXcXvXsXrX[ O.0XsXsXeXrX@X$.$.0XeXeX..j J.K.K.&X*XK.J.uXJXJXJXAXkXAXAXJXJXBX%X:XCXGXSXZXGX0X~ +.~ ~ 4X4X` E q q I T R Q Q ! Q ~ ~ 2X2X2X2X~ 2X2XQ T ~ ` ~ ~ 2X2XIXIXIXIXIXIXIXIXIXIXIXIXIXIXIXIXIXIXIXIXIXIXIXIXIXIXIXIXIXIXIXIXIXIX",
"IXIXIXIXIXIXIXIXIXIXIXIXIXIXIXIXIXIXIXIXIXIXIXIXIXIXIXIXIXIXIXIXIXIXuXiXuXiXuXuXuXuXiXiXuXI.Z V 3.2.2.2.2.5.2.2.;.5.:.z iXKX$Xe.2.2.2.2.2.2.5.8.z a a b H U.I.I.G.H x j c S b.|. X X/./. X X^.^./. XZ.|.|.h.l.l.k 1 , 7 9 < ..H H f.~.~.~.~.(.(.[.oX|.k , 0 e , @ ; G l.Z.).B.^.M.g.h.j.j.(.k.j.~.(.~.j.%XsXPXFX%.h h.XX{.`.`.`.{.'.^.S S c.Z.`.`.].^.Z.Z.s.Z._._._._._._.).).(._._._.`.`._._._./.(./._.{.{.XXb.f.[._.[.XXb.l ..J.J.O.O.@.#.Q.Q.#.5X8X' W W W W W W W W W W W W W _ eXkXhXP.< x |./.N.^._._.].).).B.B.B.B.B.B.B.B.B.).).).B.B.B.A.d.f 1.y.y.u.4.y f r.r.t.y.;.5.y.y.u.z * $XzXzXzXzXzXjXlXzXzXlXG.x R.A.A.A.A.Z.A.A.A.b.b.K.K.G.x.l.K.G.z.l.G.G.G.G.J.J.J.G.z.G.J.K.b.K.b.K.Z.|..X.Xx q T T ~ ! Q ~ ~ ~ ~ T T +.~ 2X2X2X~ Q Q 2XQ 2X~ ~ ~ ~ ~ W 2 _ ` ` +.3X` ' ' +.+.+.) ] O.#XcXcXsXqX$.$.&.{ $.eXMXFXFXHXJXFXFXtXL...0 v X.J.G z.:X+X+XMXJXJXCXAXkXkXAXAXJXJXdXJ.>XSXSXSXSXGX6X~ ~ ` ` 4X4X+.5 ^ T T Q ! ! Q ~ ~ Q 2X2X2X~ ~ ~ 2XW ! ~ ~ ~ ` 2X2XIXIXIXIXIXIXIXIXIXIXIXIXIXIXIXIXIXIXIXIXIXIXIXIXIXIXIXIXIXIXIXIXIXIX",
"IXIXIXIXIXIXIXIXIXIXIXIXIXIXIXIXIXIXIXIXIXIXIXIXIXIXIXIXIXIXIXIXIXIX;XuXiXuX;XuXuXuXuXuXiXuXI.X.g =.=.;.;.;.-.;.;.;.4.g sXKXP.g e.4.5.5.2.5.<.6.5.8.z a p b G.I.:XI.I.G.C C x c f.b.j.Z.|.|.|.^.j.c.c j j : : < 9 0 ] { ) , D v.c.f.~.(.~.(.(.(./.[.h.< 9 0 8 t # m l.b.Z.).B.N.M.g.g.g.h.h.f.j.|.(.~.+XdXBXLX#Xm !.XX{.`.`.`.`.`.`.'.M.c i g._.`.`.].|.k.^._._._.`.)._._.)._._.)._._.}.[._._._._.`.[._._.{.{.XXf.j.[.[.[.|.J G o.+Xo.|  .8X8X5X8X8X5XW W W W W W W W W W W W W W W 0XhXpXJ.; S ^.|.M./.]._.].].B.B.B.B.B.B.B.B.B.B.B.).B.B.B.B.V.l > d y.r.y.=.> s 1.t.t.r.r.r.r.r.u.g m kXzXzXzXzXlXzXzXzXzXkXH C T.&X.XA.A.N.Z.A.Z.Z.K.v.K.v.H.G.G.K.G.G.G.G.G.G.U.K.K.J.G.z.b.b.b.T.Z.b.Z.|..X&Xx q ^ T T ^ ! Q ~ ~ ~ T ~ 4X~ ! ~ ~ ~ Q ~ ~ ~ ~ ~ ~ Q ~ ~ Q 6 U +.` ' ` ` +.` +.` +.+.) %.L.eXsX$.e F $.sXHXKXKXKXLXKXKXJXKXKXKXKXFX0XN N X.h J J.%XeXGXJXSXkXlX;XiXCXAXSXJXGXiXP.nXSXSXSXJXFX#.! +.T ! 4X+.q 5 ^ T R ! Q W Q Q ~ ~ 2X2X2X` ~ 2X^ Q ~ ~ T ~ 2X2XIXIXIXIXIXIXIXIXIXIXIXIXIXIXIXIXIXIXIXIXIXIXIXIXIXIXIXIXIXIXIXIXIXIX",
"IXIXIXIXIXIXIXIXIXIXIXIXIXIXIXIXIXIXIXIXIXIXIXIXIXIXIXIXIXIXIXIXIXIX;XiXuXiXuXuXuX;XuXuXgXiXiX$XG.c f =.=.;.;.4.4.2.3.B wXmXo.i g z 3.<.<.6.5.5.1.6.5.8.z d a b S.U.I.I.U.U.H a u u x x x k x k l 1 1 < , 0 0 *.F ) ) ) ) , k H v.c.(.~.(.[./././.oXf.1 0 0 , # 9 H b.Z.N.).B.N.M.M.g.g.j.h.a.j.|.(.!.iXGXGXqXm =XOX}.`.`.`.`.`.`.`.`.`.M.x S M.(.`.`.}._._.).).)._._.'.XX^._._._._._.j.j. X_.)._._._._._.{._.[.|.h.(._.[.[.f.k J.#Xv.O.o.#.8X3X8X8X+.W W W W W W W W W W W W W W W 4XtXiX..= c. X X^.'.].).).).).B.B.B.B.V.B.B.B.B.).).B.B.B.).A.i > 3.6.r.r.<.d f r.r.t.t.t.r.r.r.6.s o.zXzXzXzXzXzXzXlXzXlXaXB Z *XE.A.A.Z.A.A.A.Z.b.K.K.K.K.K.K.K.G.G.G.G.G.G.G.J.K.K.G.z.x.b.b.K.T.|.&XZ.|..Xb.k 8 I I L T ~ Q ~ ~ Q Q ` ~ ~ ! ^ ~ ~ ^ ~ ` ~ ~ Q Q ` ~ ~ ~ I 3 +.+._ +.` ` ` +.` ` @.) { | ..O.[ 0XBXLXKXBXdXdXdXiXpXdXpXdXdXGXJXKXKXHXUXN h h D wXdXJXJXCXCXpX$XI.uXCXAXJXJXJXuX#XkXJXSXJXKXPXE E R R _ +.Y 5 3 ^ ! ! W Q Q 2XQ 2X2X2X2X~ ~ ~ ^ ! ~ ~ T Q ~ ` IXIXIXIXIXIXIXIXIXIXIXIXIXIXIXIXIXIXIXIXIXIXIXIXIXIXIXIXIXIXIXIXIXIX",
"IXIXIXIXIXIXIXIXIXIXIXIXIXIXIXIXIXIXIXIXIXIXIXIXIXIXIXIXIXIXIXIXIXIXuXiXiXuXuXiX;XuXuX;XuXuXuXiX$XG.c d f 3.4.3.e.3.g H @X$XL.I.I.uXI.8.=.<.5.<.<.2.6.2.5.e.3.a b A ( U.I.I.I.U.Z v : - = > > 1 = , 0 *.F D ) ] *.) ) ) ) # 0 !.f.~.(.(.(././././.~.k , 8 0 % , H l.Z.N.B.].).B.M.N.M.M.Z.b.f.j.(.|.=XZXLXtX9 S XX/.[.{.`.`.`.`.`.`.`.`.`.Z.c S g.(._._._._._.(._._._. X.X)._._._.'.b.s.b.N.'._._.)._._._.`._._.[.(.[.[.[.[.|.l H J.v.H O.@.@.3X8X5X' W W W W W W W W W W W W W W W ~ yXP.v - h.^. X.X X`.`.`.).B.B.B.B.B.B.B.B.B.B.B.B.B.B.B.B.B.x.a.Z.u.r.r.r.1.r.r.r.p.r.r.6.r.y.:.- $XzXzXzXzXzXzXzXzXzXzXiXb H :XA.Z.A..XA.A.A.Z.b.b.b.K.K.G.K.G.G.G.G.G.G.G.G.G.K.K.J.J.K.K.K.v.v.l.c.b.b.b.b.x 5 3 3 L ! ~ ~ ~ ~ Q ~ 4X~ ~ ~ ~ ^ T ^ ~ ~ ~ ~ ` ~ ` Q Q ~ R L R +.+.` ` ` +.+.` ' +.} 0 e ] $.PXKXKXJXeX%XpXgXuX>X$X$XI.uXuXpXfXfXHXKXKXeXM N m G.iXAXZXAXAXuX$X@XX.iXAXGXGXJXNXI.$XJXJXSXJXKX0XR +.+.~ +.Y r r 3 R Q Q Q ~ Q ~ 2X~ ~ ~ ~ ~ ~ Q W ~ ~ ! Q ` ` IXIXIXIXIXIXIXIXIXIXIXIXIXIXIXIXIXIXIXIXIXIXIXIXIXIXIXIXIXIXIXIXIXIX",
"IXIXIXIXIXIXIXIXIXIXIXIXIXIXIXIXIXIXIXIXIXIXIXIXIXIXIXIXIXIXIXIXIXIXuXuXuXiXiXiXiXuXuXuXuXuXgXiXiXuXU.Z j d d g 3.0.G.:XuXiXpXpXfXfXpX:X0.;.<.2.<.<.2.2.5.5.5.5.3.g g A ( G.I.I.I.U.G.Z j h n [ D { D { |  .) *.) ) *.*.*.t 1 k S |.(.|.!.|.~.(.[.c.; , 0 7 % n H x.Z.].B.B.].B.M.M.N.M.j.M.h.(.(.!.pXJXFXF = k |.f.(.{.{.`.`.`.`.`.`.`.`.`.j.c x g.(.).'._.M.h.M.).'.'.).(.)._.'.Z.j.|./.M.M.^._._._.(._._._._._.[./.[.(.[.[.H k v.v.v.O.@.@.Q.8X_ P ! W W W W W W W W W W W W W W T &.{ = l b.^.'.'.].].`.].].).B.B.B.B.B.V.B.B.B.B.B.B.).B.B.B.B.N.n.y.r.t.r.r.r.r.r.p.6.d s 2.1.s v pXzXzXzXzXzXzXzXlXzXCXiXj z.&X*XZ.N..XA.A.A.Z.b.b.x.z.z.G.G.G.z.z.G.G.G.G.G.G.G.K.J.G.H S H z.v.K.=X>X,X<XjX>Xe 3 ^ Q ~ Q ~ ~ ! ^ ! ` ` ~ ~ ~ ~ T T ~ ~ ~ ~ ~ ~ Q Q ~ ~ R q 6 } +.+.` +.+.' ` ' +.) 0 e #XLXKXKXNX%X%X%X$XJ.G.G H X.X.X.G.$XuXgXfXFXJXKXsX..D N @XAXAXCXiXwXI.$XJ.qXnXAXSXJXJXvXJ.nXJXSXSXJXKX0X_ E ~ +.I r r 3 ! Q Q ! ~ ~ ~ ~ Q Q Q Q Q ~ ~ ~ Q T Q ! ` 2XIXIXIXIXIXIXIXIXIXIXIXIXIXIXIXIXIXIXIXIXIXIXIXIXIXIXIXIXIXIXIXIXIXIX",
"IXIXIXIXIXIXIXIXIXIXIXIXIXIXIXIXIXIXIXIXIXIXIXIXIXIXIXIXIXIXIXIXIXIX@XwXuXiXuXuXiXuX;XgXuX;XgXuXgXiXuXwXJ.z.z.I.:XpXaXpXfXfXpXpXpXpXfXfX:X4.-.;.2.<.<.<.2.2.2.5.2.e.3.g a A Z G.I.I.I.I.U.X.N N D { { { ] ) { ) ] ) ) ) ) t n H f.|.(.S a.J S ~.oXS 1 9 9 % 7 m l.Z.^.B.B.N.B.(.M.Z.N.g.g.j.g.|.!.>XZXJX&.F #Xk b.h.~._.{.`.`.`.`.`.`.`.`.`.'.b.l S h.j.(._.Z.b.^.M.k.N._.).)._.N.k. X_._.|.s.(.)._._.(._._._._._.[.(.(.(./.[.!.h H !.v.o.@.@.Q.Q.) K Q ! W W W W W W W W W W W W W W T 8 1 S M.^.^.].].].'.].`.B.B.B.B.V.B.V.B.B.B.B.B.B.B.B.B.B.B.B.m.1.r.1.r.r.r.t.r.r.2.s s 6.2.* J.zXzXzXlXzXzXzXzXzXzXCX:Xh H T.*XA.A.A..XA.A.Z.b.K.K.l.G.G.z.G.G.G.G.G.X.G.J.J.o.H C G z.+X:XiXlXzXzXlXjXjX1XxXD 3 T ! ! ~ ~ ! ! ^ T ~ ` ^ ~ 4X~ ~ R ~ ~ ! W T ! ~ 2X~ ~ ~ T 2 I +.@.+.` ` _ ` +._ w e #XLXKXKXMX>X%X+X+X+XJ.H J m m N X.N C G.U.U.$XdXJXKXtXD N J.kXAXAXuXqX$XiXbXiXuXAXAXCXJXJX$XP.ZXJXGXJXKXJX6XE +.+./ 5 q ^ T ! W ! ~ ~ ~ ! Q ! ! T Q Q ~ ` ~ ~ ~ Q 2X` IXIXIXIXIXIXIXIXIXIXIXIXIXIXIXIXIXIXIXIXIXIXIXIXIXIXIXIXIXIXIXIXIXIX",
"IXIXIXIXIXIXIXIXIXIXIXIXIXIXIXIXIXIXIXIXIXIXIXIXIXIXIXIXIXIXIXIXIXIX] O.$XuXiXgX;X;XuXuXuXuXuXuXuXiXiXiXaXaXaXpXaXaXaXaXpXgXuX;X$XJ.$XnXlXI.4.;.<.5.<.<.<.2.2.2.2.2.5.e.3.z a g V G.U.U.R.I.U.H D M [ [ ) ] ] { ) ) ) ) F t J !.~.(.~.S !.b.a.~.!.l < 0 ; ; n G c.Z.N.B.(.M.N.N.N.M.g.g.g.g.j.~.&XfXJXrX< @XbXG h.~.|./.{.`.'.N.N.`.{.`.`.`.`.Z.0.S l a.h.(.j.j.'./.k.g.)._._._.).k.|. X|.h.j.(.(._.)._._._._._.(.[.[.(.(.(.[.oXl J v.v.o.%.@.#.8X) 4 6 T Q W W W W W W W W W W W W W W K q S Z.k.^.).'.].].].B.B.V.B.V.B.V.B.B.B.B.V.m.p.V.B.B.B.B.V.p.1.1.1.t.y.p.r.t.r.y.=.:.y.=.- $XCXCXzXlXlXzXzXzXzXzXCX$Xj z.K.A..XA.A.].A. XZ.b.b.K.K.z.G.l.G.G.X.G.G.G.J.X.H k H K.>XlXzXzXzXlXjXaXjX1X1X1X>Xn 3 T ! ! ~ ~ Q ~ T T ~ +.~ T ~ ` +.! ! ~ Q T T T T ! ! ~ ~ R 6 2 R +.+.` ` _ #.+.U 8 $.HXKXKXnX>X>X+X+X=X=X%X=X%X+XX.H G X.H G.G.G.G.U.eXKXKXrXN o.dXkXwXwXwXiXGXHXHXwXuXAXAXJXJXGXP.wXJXJXSXJXKXFX6X+.+./ r 3 ^ ! ! W Q ! ! Q Q ! ! ! ! ~ Q ! ~ ~ 2X2X2X2X~ IXIXIXIXIXIXIXIXIXIXIXIXIXIXIXIXIXIXIXIXIXIXIXIXIXIXIXIXIXIXIXIXIXIX",
"IXIXIXIXIXIXIXIXIXIXIXIXIXIXIXIXIXIXIXIXIXIXIXIXIXIXIXIXIXIXIXIXIXIX8 r ] L.wXiXuXuXuXuXuXiX;XuXuXgXuXpXiXpXpXgXpXiXuXiXuXuXuXiXuXwX@X:XAXpXI.=.;.<.<.<.2.2.2.2.2.2.6.2.2.5.4.g a a b S.U.R.R.U.J.[ M ] {  . .) ] ] ) ) ) , J ~.~.~.j.f.|.oXc.~.f.1 9 7 ; 0 m z.b.N.M.N.M.N.M.V.M.g.g.g.g.g.!.+XuXGXMXM ..bXMX..f.!.|./.}.`.^.4.a.Z. X`.`.`.'.s.|.|.a.l x f.b.M./.'.b.Z.(.).).)._.(.s.Z.d.~.).(.(.(.).(.).}._.(._.(.[.(.(.(.[.oXS J v.c.v.O.@.6X8X) 6 2 3 P Q W W W W W W W W W W W W W W ^ m b.N.N.^.].].B.B.V.B.B.B.B.B.B.V.V.B.m.m.p.p.m.B.B.V.m.m.n.y.1.r.y.u.6.r.t.t.t.r.y.1.s v pXCXzXzXzXzXzXzXzXCXzXzXP.m G.K.b.A..XA..XA..XZ.b.b.b.K.K.G.z.z.G.G.G.G.G.G G H +XxXzXlXjXjXjX1XaX,X-X-X-X1XzX%X7 ^ R ! ! ~ Q ~ Q ! T T ` ` R ! ` _ / T ~ R ~ ` ` ! Q ! ~ ~ ! I q 6 _ +.+.` ` +.) 2 { FXKXKXnX>X=X1X+XoX+X!.!.!.+X+X%X+XJ.H H H G.G.G.G.J.tXKXJX%.N qXP.$XwXwXAXJXJXJXZX$XiXAXCXGXJXnXP.MXJXSXSXJXKXHX0X+./ q 5 ^ ! ! Q W T T T ! ! ! T Q ! ~ Q ~ 2X2X2X2X2X2XIXIXIXIXIXIXIXIXIXIXIXIXIXIXIXIXIXIXIXIXIXIXIXIXIXIXIXIXIXIXIXIXIXIX",
"IXIXIXIXIXIXIXIXIXIXIXIXIXIXIXIXIXIXIXIXIXIXIXIXIXIXIXIXIXIXIXIXIXIX8 5 q M &.P.wXiXuXuX;XuXuX;XgX;XuXiXiXpXiXpXiXiXuXiXiXiXiXiXiXpXwXJ.$XfXpXK.4.;.<.5.2.2.2.5.2.<.6.<.1.5.5.5.e.f i u A S.U.R.I.U.X.N ) |  .] ] ) ) ) ) , H oX~.~.~.a.oXoXf.b.J , , t , n C a.N.N.M.j.g.M.M.M.M.g.h.h.g.j.&X:XVXGXL.; qXZXbXo.l.|.Z.|.}.{.g.h.A.s.s.^.`.`.^.s.A. X.XS - l S g.(./.h.b._._._.(.(._.|.s.Z./.(.).(.^.M.h.(.j.(._._.(.(.(.(.(.~.[.S 1 H c.v.O.@.#.8X@.L & 4 3 P W W W W W W W W W W W W W W T q G b.N.N.).B.B.B.m.V.V.B.B.B.V.m.m.m.m.p.p.p.p.V.B.m.m.m.m.m.p.r.y.f s ;.t.t.t.t.t.6.* X.lXCXlXzXzXzXzXzXzXzXzXCXJ.h [ G.b.C.A..X].A..XZ.b.T.K.K.l.G.z.G.X.J.J.H G z.$XaXzXlXaX,X1X,X*X*X=X-X*X=X=XjXzX+X% L ! ! ! ~ ~ ! ! ~ R T ~ ` ! R ` ` E T E ~ ` ~ ! ~ ! R ! _ ~ I I 6 U ` +._ ` } q 0 tXKXKXvX=X-X=XoX!.!.f...J H H v.v.+X+XK.H z.z.z.G.z.G.@XLXKXmXN J.wXwXP.eXGXGXZXGXJXZXqXuXAXGXJXJXeX$XZXSXSXSXGXKXFX&.M r / ^ ! ! ! Q T Q ! ! ^ ! ! T Q ~ ! Q ~ 2X2X2X2X2XIXIXIXIXIXIXIXIXIXIXIXIXIXIXIXIXIXIXIXIXIXIXIXIXIXIXIXIXIXIXIXIXIXIX",
"IXIXIXIXIXIXIXIXIXIXIXIXIXIXIXIXIXIXIXIXIXIXIXIXIXIXIXIXIXIXIXIXIXIXr q 5 5 8 M O.#XuXiXiXiXiXuX;XuXuXuXuXiXiXgXpXaXpXpXiXiXiXuXuXpXgXJ.H $XfXaXx.;.2.5.2.2.5.<.<.2.2.1.5.6.6.6.5.5.3.g u u b X.I.I.I.G.F *.{  . .) ) ) ) 7 H ~.j.(.~.S c.f.S v.1 < , t 9 m H b.Z.N.j.h.h.k.j.Z.k.h.f.h.b.!.$XiXGXdX0 F sXsXsXJ.a. Xk.'.`.^.x..X X|.4.].`.`.].N.k. XXXf.S l l x f.~.f.j.(.).).(.)._.].^.'._.).(.).^.h.^.oXj.(._._._.[.(.(.(.(.oX~.l H c.c.O.@.Q.8X8XP 4 3 & & K W W W W W W W W W W W W W W K r c.(.N.V.B.B.V.m.m.B.V.V.m.m.m.m.p.p.m.p.p.p.V.B.V.m.m.m.m.m.y.6.y * d r.t.t.t.p.z > @XzXzXzXlXlXlXzXzXjXzXCXlXJ.r / / X.x.Z..X.X.XZ.Z.Z.Z.Z.v.v.G.G.G.G.J.H m J.aXlXzX,X,X,X*X&XT.T.&X&XZ.|.-X1X1XxXX.2 ^ Q ! ! ! ~ ~ T I T ! +.` ! ! ` _ _ ^ T ` ! T T T _ _ ! _ R L T P 6 U +.+.+.w 7 0XKXKXnX=X=XoXoX!.f.*.*.J *.9 1 < k H v.%XK.G.G.0.G.z.G.I.HXKXKXo.X.wXX.o.sXGXGXfXAXGXJXMX@XiXGXGXJXGX$XiXAXSXSXSXHXKXtXJ.b / T T Q ! ! T ! ! W ! ` ! T T ~ ~ Q ~ 2X~ 2X2X2XIXIXIXIXIXIXIXIXIXIXIXIXIXIXIXIXIXIXIXIXIXIXIXIXIXIXIXIXIXIXIXIXIXIX",
"IXIXIXIXIXIXIXIXIXIXIXIXIXIXIXIXIXIXIXIXIXIXIXIXIXIXIXIXIXIXIXIXIXIX/ r 5 5 5 5 r / X.P.wXuXiXiXiXuXgXuXuXuXgXpXpXiXpXpXuXwX$XP.I.iXiX$Xm Z $XpXK.4.2.2.2.5.2.<.<.1.1.6.6.5.6.6.2.1.5.5.3.g a p B Z U.I.X.N F } ) ) ) ) ) , H ~.(./.j.S l.f.S G < < , , n G c.b.N.g.k.b.f.f.!.b.v.c.f.v.b.+X$XVXGXL.D @XrX#XsXJ.S XX/.'.`.^.d.XXXXk.d.'.`.`.`.B.(.N.Z.a.|.~.S - l S f.~.(.(._.).(.)._.).)._.(.)._.^.b._./.b.^.)._._.[.(.(.(.[.[.~.# G v.v.v.@.#.8X8Xw 4 % t 0 2 W W W W W W W W W W W W W W W L m h.N.V.V.V.m.m.V.V.V.m.m.m.m.p.p.p.m.p.p.p.m.V.V.m.m.m.m.m.y.1.=.g 6.r.r.t.r.1.i ; qXCXlXzXlXlXzXzXzXzXlXCXpXF ^ ! ! / S.K.A.A.].A.Z.N.Z.Z.K.K.G.G.G.J.X.j l.>X1X,X,X*X&XZ.T.T.T.&X&X&X|.=X=X-X1X=XN 2 L ! ! ! ! ! ! L L R ` ` ` ! ~ ` ` ) T R ` T T ~ ~ ! ~ ~ ~ T L R T 6 3 E } Y 8  .LXKXSX=X=X=X=X!.D 1 < n M < < F O.o.v G b.$XG.G.z.z.G.G.U.GXJXKXtXM X.b J.BXHXAXkXiXAXSXJXnX@XiXAXJXJXfXwXnXZXZXSXZXHXJXMXG.X./ ! T Q T Q ! ! T ~ ~ ! Q ~ ~ ! Q ~ ~ 2X2XQ 2XIXIXIXIXIXIXIXIXIXIXIXIXIXIXIXIXIXIXIXIXIXIXIXIXIXIXIXIXIXIXIXIXIXIX",
"IXIXIXIXIXIXIXIXIXIXIXIXIXIXIXIXIXIXIXIXIXIXIXIXIXIXIXIXIXIXIXIXIXIX( ( N M 5 5 5 5 q M [ %.I.uXiXiXiXiXuXuXuXiXgXiXiXiXiXuX;XwXP.qXpXwXC j V J.H.4.<.2.<.2.2.2.6.<.2.5.2.1.2.2.<.2.5.6.5.5.3.g u u b ( U.X.] F } ) ) ) ) 9 J ~.~./.|.|.oXoX!.k < , ; 9 m z.b.M.j.b.b.f.c.c.v.!.v.f.f.c.+X%XwXGXeXD 0X#X%X..sX$.a.}.^._.`.'.b.Z.|.a.].`.`.`.`.B._.].s.s./.^.|.H 1 k c.j.M.(.(.)._._.(.).(.)._.).^.k.j././.s.^.^._.(.(./.(.(.(.[.~.= J K.v.o.@.#.5X8XR 4 % D eXe K W W W W W W W W W W W W W W K 9 f.M.V.m.B.m.m.m.m.m.m.m.m.m.m.p.m.p.p.p.p.p.m.V.m.m.m.m.m.y.1.r.1.u.r.r.r.r.5.> < uXCXCXCXzXzXzXzXzXCXzXCXrXr Q Q W ! / I.Z.A..XA.A.A.A.Z.K.K.G.G.G.G.Z S &X,X*X|.A.Z.Z.T.&XT.&X&X!.v.l.v.!.K.+XK.1 3 T ! ! ! ! ! R K R _ ` ` ~ R ` ` _ _ T E ~ T ~ ~ ~ ! R ~ ! L ! R R I 2 q U 8 8 eXKXJXhX=X=X!.!.J , t t , 9 h 0 O.rXJX0Xh H G.G.G.G.z.z.z.K.MXFXKXJXX.a b wXGXJXAXkXiXiXVXJXJXnX$XfXGXJXJXdXsXZXZXGXAXAXJXJXMXI.[ I T T ! ! ! ~ T ! ~ Q W Q Q T Q Q 2X2X2X` 2XIXIXIXIXIXIXIXIXIXIXIXIXIXIXIXIXIXIXIXIXIXIXIXIXIXIXIXIXIXIXIXIXIXIX",
"IXIXIXIXIXIXIXIXIXIXIXIXIXIXIXIXIXIXIXIXIXIXIXIXIXIXIXIXIXIXIXIXIXIXD.S.S.N M r 5 5 5 q 8 r M [ o.$XiXuXiXuXuXuXiXgXiXiXiXiXiXiXwXI.iXuXX.g 3.7.c 4.;.<.2.6.2.2.5.<.<.6.1.2.5.5.5.5.5.2.5.6.5.8.7.a u - B X.X.D } } ) ) ] , J ~.(./.(././.oXf.1 < % , b H c.g.g.g.b.b.c.~.J.J.v.O.H c.f.%X$XnXGX$.L.rXJ.rX$XVXL.S '.{.`.`.`.'.Z.3.k.].`.`.`.`.).).).^.(.[.(.(.c.l l l S j.(.(.(.(.(.(._. X]._._.).k.k.j.j.l.(.)._.(.[.(.[.[.[.~.J # J v.c.O.&.@.6X8XR % 7 rXSXQ.K W W W W W W W W W W W W W W P q S M.V.m.B.B.m.m.m.m.m.m.p.p.m.m.m.p.p.p.p.p.p.m.V.V.m.m.p.1.1.r.r.t.t.t.t.y.f O v uXAXCXfXnXdXkXCXCXCXAXAX%.^ Q Q W Q R J.T.A.A..XZ..X.X|.b.K.z.G.G.G.H C T.Z.Z.Z.T.T.&XT.b.G.l.H G k h n k n J m ; K R ! ! ! ! ! ! T K R ~ ~ R ~ ` ` ' ~ T E _ T ! ~ ~ ~ R T ^ T ! ! T T 3 5 8 % O.LXJXbX=X=XoX+XJ = ; , 1 *.[ ..L.sXHXKXHXX.C X.G.H G.G.9.H.U.dXBXJXKXo.p X.sXHXGXzXlXkXiXpXlXJXJXpXwXdXSXHXGXnXZXZXZXSXGXAXJXJXAXeX&.Y ^ T ! ~ ! T ! ` Q Q Q W ~ ~ Q ~ ~ ~ Q Q IXIXIXIXIXIXIXIXIXIXIXIXIXIXIXIXIXIXIXIXIXIXIXIXIXIXIXIXIXIXIXIXIXIX",
"IXIXIXIXIXIXIXIXIXIXIXIXIXIXIXIXIXIXIXIXIXIXIXIXIXIXIXIXIXIXIXIXIXIXD.D.S.S.S.N / r 5 q 6 q q q r { #XuXiXiXuXuX$X$XwXwX$XwXiXiXwXP.uXpX$XC 3.5.5.5.;.2.2.5.2.5.6.6.1.2.5.5.2.5.2.5.6.6.5.6.6.6.5.5.3.A p p N N F  . .} ) t J ~.|.[.(.oX/.(.J , , ; v G l.g.k.b.f.v.h.c.H +Xv.v.H H +X#X%XrXZXdXD qXsXL.bXbXbXL.b  X`.`.`.`.`.N.d.].).`.`.`.`.).).].).(.(. X/.|.S l = = l c.~./.(.(.^.(.h.k./._.(./.^.Z.j.(.(./.(.(._._.(.(.[.~.1 # G v.v.O.%.@.8X%.6 $ $.SXCXeXI P W W W W W W W W W W W W W W 6 S d.V.V.V.B.V.V.V.m.m.m.m.p.m.m.p.p.y.p.p.p.p.p.p.m.m.p.y.r.r.r.r.t.r.t.t.1.y X v uXsXwX0X&./  .%.qXBXnX%._ Q Q Q W W Q / I.Z.Z.A.A..X.X*Xx.x.z.G.G.G.X.Z T.Z.K.K.v.z.H H m n n 0 n n F F D H G n 2 ^ ! ! ! ! ! ! ! ! R T P T ~ ` ` ` ` _ Y ~ ~ R T ! ~ ! ~ ! T ! ! T W L 6 % % 9 tXLXBX<X=X&X!.H t ; ; , 0 D O.qXNXGXJXKXKXo.b H G.G.S.S.z.G.G.iXMXFXHXM p o.MXHXZXlXzXaXpXiXpXCXSXJXsX$XnXZXJXGXZXAXAXAXSXSXSXSXCXSXAXtXUX .R T ^ ^ ! ` ` ~ ~ ~ ~ ! ~ ~ ! Q ~ 2XIXIXIXIXIXIXIXIXIXIXIXIXIXIXIXIXIXIXIXIXIXIXIXIXIXIXIXIXIXIXIXIXIXIX",
"IXIXIXIXIXIXIXIXIXIXIXIXIXIXIXIXIXIXIXIXIXIXIXIXIXIXIXIXIXIXIXIXIXIXF.D.D.D.S.S.S.Z M r q q r q q 5 / L.wXuXiXiXuXqXL.X.X.o.$XiXuX@XqXdXuXH z 4.5.5.5.5.5.6.6.2.2.1.6.6.6.<.2.5.2.2.6.6.6.6.2.2.2.2.5.5.3.g A h v 9 Y ) *.t J !./.(.^././.~.l , ; : m H c.j.~.H v.v.f.f.!.o.o.O.H X.#X%X$XdXGXL.D cXeXO.cXbXVX#Xl |.`.`.`.`.`.`.}.].`.`.`.`._.).`._._.).).}././.c.v.v.1 > - S b.(.(.k.j.!.h./.(.).(./.(././.)./.(.~.~.(.(.[.(.f.1 1 ..!.H O.@.@.#.@.& 9 dXCXCXSX+.P W W W W W W W W W W W W W W I x b.n.V.m.B.B.B.m.m.p.m.m.p.p.m.p.p.p.y.p.p.p.p.p.p.p.y.r.r.r.r.r.r.t.t.t.r.d O v #X} T W K W W T ~ +.+.T W Q Q Q Q Q W ! X.&XZ.A..X.X.XA.l.G.G.z.0.G.X.B v.v.H x k n n n n n N m N Z H 0.G.H.G.n 2 L Q ! ! ! ! ! ! ! ! ~ _ ' ` ` ` ` ' ~ U I ! ^ ^ ~ ~ Q ~ ~ ~ ! ! T T T 3 % @ %.LXMXNX>X&X!.z.1 ; ; ; 0 O.@XrXGXHXJXKXKXKXL.v ( X.G.0.S.S.G.H.wXMXMXdX< : U.GXJXCXaXlX+XgXpXiXpXZXZXGXsXwXZXZXGXZXZXZXAXZXAXAXAXSXCXCXSXGXnXP.E I R ! ! ~ ~ ~ ~ ~ Q ~ 2XQ Q ~ ! IXIXIXIXIXIXIXIXIXIXIXIXIXIXIXIXIXIXIXIXIXIXIXIXIXIXIXIXIXIXIXIXIXIX",
"IXIXIXIXIXIXIXIXIXIXIXIXIXIXIXIXIXIXIXIXIXIXIXIXIXIXIXIXIXIXIXIXIXIXD.D.D.D.D.D.D.S.S.N / q r r e r 5 r X.P.uXiXiXiXuXwXL.&.I.iXiX$XP.iXiXJ.i d z 8.6.5.5.6.<.5.2.2.2.<.2.6.<.6.6.2.6.5.2.2.2.2.5.5.5.2.2.5.e.V j : 9 e ) t k S !.|././.|.c.1 , - v m Z c.b.v.H o.v.c.f.v.J.O.J H $.%X%XeXBXsX[ L.bXwXO.sXNXBXqX9 h.'.`.`.`.`.`.].`.`.).`.).).`.`.)._._._._./. Xf.b.|.!.k : - l S a.c./.^.b.j.(.(.).(.).^.(.(.~.(.f.h.[.(.~.~.l 1 k ..H O.O.@.@.@.) # #XSXAXCXCXP.K W W W W W W W W W W W W W W K J j.n.m.V.m.V.m.m.m.m.p.m.p.m.m.m.m.p.p.y.y.y.p.p.p.u.r.r.r.r.,.r.r.t.t.r.r.3.> 5 I K W W W W W W W W Q Q W Q W W Q Q W Q E U.E.N.A..XA.C.x.H.G.0.z.G.G.b b m m n N N m C Z G.H.H.H.H.H.H.H.H.H.( 2 L T ! ! ! ! ! ! ! ! ! ~ ` _ ` ` ` _ ~ I 3 ^ ^ ! ~ ~ ~ ~ ~ ~ ! ! T L L 2 5 % 0XtXcXiX=X&Xv.k = % , , { 0XwXvXBXJXJXKXKXKXqXv H G.G.z.z.0.0.G.I.dXiX0X: 9 0XHXJXlXzXjXH G.iXpXpXkXZXZXJXiXdXZXSXZXZXZXZXAXAXSXCXSXCXCXCXCXCXSXrX..E ! ! ~ ~ Q ` ~ Q ~ Q Q W ~ W IXIXIXIXIXIXIXIXIXIXIXIXIXIXIXIXIXIXIXIXIXIXIXIXIXIXIXIXIXIXIXIXIXIX",
"IXIXIXIXIXIXIXIXIXIXIXIXIXIXIXIXIXIXIXIXIXIXIXIXIXIXIXIXIXIXIXIXIXIXD.D.D.D.D.q.D.F.D.S.( v r r r q r 5 8 n o.wXuXuXiXiXiX@X@XiXiX$XL.wXdXU.G C d f =.;.5.2.6.6.5.5.5.1.6.<.2.5.6.2.2.5.6.2.2.6.5.5.6.2.5.5.5.5.8.V j 9 *., H S S |././.|.J < 1 : N C H z.H ..{ ..v.v.v.#XJ.....O.#X@X%XsXFX0XM $XVX$X..qXnXnXiXN f.|.^.)._.`.`.).).`.).).).)._.).`._._._._._.oXj.j.XXoXz.< F ; = 1 a.~.|.b.a.(.(.(.(.(.(.(.g.g.~.~.S ~.~.~.J 1 1 H ..H ..| @.@.} % [ ZXCXAXlXSXtXL P W W W W W W W W W W W W W L C j.n.n.m.m.B.B.m.m.m.p.m.m.m.m.m.p.p.p.y.y.p.p.p.y.u.y.r.y.t.,.r.r.r.t.t.1.e.5 L K W W W W W W W W W Q W W W W W W W W W ! X.&XN.A..XZ.C.x.x.G.G.z.G.G.B v N N n N ( G.H.H.H.F.S.D.Y.W.H.H.F.H.( 3 P R T R R ! ! ! ! ! ~ ~ ' _ ` ' ` _ _ I T R ! ~ ~ ! T Q ~ ~ ! T T L 3 2 ; e 0XtXvX>X&Xb.H ; t ; , , ..qXrXcXbXHXJXKXKXKXeXm G.G.X.( 0.0.x.0.$XdXP.N = b sXHXSXlXzXaXx X.J.iXpXpXAXAXSXZXsXbXZXZXZXZXZXZXSXAXGXSXSXCXCXCXCXCXSXwXM I R ` ` ~ ~ 2X2X~ ~ ~ W T T IXIXIXIXIXIXIXIXIXIXIXIXIXIXIXIXIXIXIXIXIXIXIXIXIXIXIXIXIXIXIXIXIXIX",
"IXIXIXIXIXIXIXIXIXIXIXIXIXIXIXIXIXIXIXIXIXIXIXIXIXIXIXIXIXIXIXIXIXIXF.D.q.D.D.D.D.D.D.S.( / M e e r r q q 8 r [ J.#X$XwXiXeXP.wXiXuXo.@XiX$XG.v.x.a.c =.=.;.2.6.5.1.2.5.1.<.6.1.6.2.2.2.2.2.2.2.6.2.2.2.2.2.5.5.5.5.3.x n 1 H v.k j././.~.J = , n m C D H ..{ { H v.H H O.....{ o.#X@XqXMXcXX...tXbXrXD H $XsXsX{ S j.k._.`.`.).).)._._.B.d.N.'.).)._._.[._._._.!.c.|.c.J < *.e 7 t = k a.S b.|.(.(.(.(.(.|.f.~.~.[.S ~.S l 1 1 J ......O.| @.@.6 ; uXCXCXlXAXCXZX/ K W W W W W W W W W W W W W L F b.N.M.V.V.B.V.m.m.m.m.m.m.m.m.m.p.p.p.u.p.p.r.y.y.r.y.y.y.,.t.1.r.t.r.1.8.Z I K K W W W W W W W W W W W W W Q W Q W W W Q X.&XA.A..XZ.K.K.G.G.U.G.Z ( H m n N 0.G.G.G.G.G.D.H.H.F.H.Y.Y.H.H.H.b 6 ^ T ^ L L ^ T ! ! ! ! ~ ` _ R T T ! ~ I R ! ! ! T ^ K ^ ^ Q T T ^ 3 3 8 5 | rXtXsX=X!.+Xm # $ ; , t F qXvXmXsXMXJXKXKXKXtXG +Xz.X.z.z.0.0.0.I.sX..: : X.dXJXSXfXzX;XC wXsX%X;XpXpXAXCXGXZXdXZXAXGXZXZXZXZXSXAXAXAXSXCXCXCXCXCXZX@XY E E _ 2XQ ~ Q Q ~ Q 2X! ! IXIXIXIXIXIXIXIXIXIXIXIXIXIXIXIXIXIXIXIXIXIXIXIXIXIXIXIXIXIXIXIXIXIX",
"IXIXIXIXIXIXIXIXIXIXIXIXIXIXIXIXIXIXIXIXIXIXIXIXIXIXIXIXIXIXIXIXIXIXq.D.D.D.q.D.D.D.D.D.0.N v / / r r q 8 5 5 5 r M ..o.wXeXU.qXiXiXL.o.iXwXG.v.b.A.A.x.4.f =.2.5.2.<.<.5.2.1.5.5.2.2.2.2.2.5.2.6.6.5.5.2.2.<.1.5.5.5.8.j - H H S !.oX^.c.1 ; v N Z C D { { %.O.O.H v.H ....{ O.Q.#X#XeXBXrXM P.vXbXwXD F %XsXnX..G b.a.).`.`.).(.).'.N.a.Z.k.b.)._._._._.[._._.Z.x a.c.a.< q w w w 8 = > h H f.j.~.|.|.|.!.z.!.!.c.S 1 1 *.0 J ........| @.@.) & o.AXCXCXkXCXCXCX0X3 K ^ T W W W W W W W W W W P N c.Z.M.n.V.V.m.m.m.m.m.V.V.m.m.m.p.p.y.p.p.y.u.u.y.y.y.y.r.t.t.r.r.r.5.V r ^ W W W W W W W W W W W W W W W W W W W W W W Q } T..X.X.XZ.x.K.G.G.G.G.G.( G.( Z X.S.S.G.G.G.S.S.H.D.w.H.Y.Y.H.F.G.v 3 ^ I Y E ` R L L ! ! ! ~ _ ~ P ~ ~ T R T R ! ! T L T E T 3 L L L 3 3 5 8 0 Q.eXrXiX=X&Xv.1 $ # t , , 0 sXGXvXvXtXBXKXKXKXtXG K.l.H z.0.0.0.0.J.@Xh : : o.GXJXCXAXlX$XH sXGXGXiX>XpXkXAXAXGXMXdXZXZXZXZXZXZXZXAXAXAXSXCXCXCXCXCXCXSX#X] ) E ~ ~ ~ ! ! ! ~ ! R ! IXIXIXIXIXIXIXIXIXIXIXIXIXIXIXIXIXIXIXIXIXIXIXIXIXIXIXIXIXIXIXIXIXIX",
"IXIXIXIXIXIXIXIXIXIXIXIXIXIXIXIXIXIXIXIXIXIXIXIXIXIXIXIXIXIXIXIXIXIXq.q.D.q.q.q.D.D.D.F.0.N / M r r r q 2 6 [ 0X0XrXtXwXqXeXo.P.iXiXI...wXiXH a.Z.A.A.Z.b.a.d d =.;.6.2.2.2.2.2.<.5.2.2.<.6.5.5.5.2.6.2.2.2.<.2.5.5.6.5.z - l S !./.|.!.k = = m Z Z F D D @.Q...O.H J H ....| &.#X#X0XvXMXL.D rXnXvXwX..#XwXsXnXO.b !.s.(._._._.)._.Z.l.Z..X|.a.M._._._._._.[.{.^.f.!.oX!.< 7 U Y Y Y r 7 : : p 1 l k k S k 1 l 1 1 < 0 { { F ......O.| @.@.@.% F nXCXCXlXkXkXCXCXAXL.r 3 3 K W W W W W W W W W W I G v.h.M.n.n.m.V.m.m.m.V.m.m.m.m.p.p.p.p.p.y.y.r.t.y.u.y.y.,.1.r.t.;.A q T W W W W W W W W W W W W W W W W W W Q Q W W W Q / T..X.XA.b.K.H.H.G.G.G.G.G.G.X.S.S.S.0.G.H.D.z.H.H.H.D.H.D.H.F.H.S.5 3 3 ^ ^ ~ ` ` _ T P ~ ~ ~ ` ! R _ ` _ T I R ! ! T T R _ E T ^ L K q Y e 7 F #XqXrXiX&X+XH = $ # t , , < sXZXvXvXvXZXJXKXKXdXH &Xv.0.Z 0.0.0.x.H.J.< ; : @XHXGXAXlXlXI.m sXGXJXGXiXiXkXkXAXAXSXnXnXZXZXZXAXGXZXGXZXAXAXAXCXCXCXCXzXSXZX#X) @._ ! ~ ~ ! T W K T R IXIXIXIXIXIXIXIXIXIXIXIXIXIXIXIXIXIXIXIXIXIXIXIXIXIXIXIXIXIXIXIXIXIX",
"IXIXIXIXIXIXIXIXIXIXIXIXIXIXIXIXIXIXIXIXIXIXIXIXIXIXIXIXIXIXIXIXIXIXq.D.D.q.D.q.D.D.D.F.S.N N M r r q 5 { 0XmXFXLXFXJXmXwXeXo.J.iXiX$X..P.I.z z.Z.Z.N.n.N.Z.d.3.d d =.;.5.6.2.<.<.<.5.5.2.6.2.5.2.2.6.5.2.<.5.6.<.2.5.6.3.u H ~.(.(./.c.: = v Z Z B H [ | Q.Q.%.O.H J ....O.Q.Q.#X0XrXMXcX[ X.tXnXnXwXo.vXiXiXnXL.l |.h.j._.].).).).h.b.].].b.s./.).).(.(./.[._._.[.{.[.|.l t w Y Y Y Y e M N M M *.n 0 0 e w 8 *.) | @.@.] { { ..O.O.@.@.@.) ; wXCXCXAXkXkXlXAXCXCXAXdXeX%.Y L K W W W W W W W W T U m f.h.M.V.B.B.V.m.n.m.V.m.V.m.m.m.m.p.u.y.y.r.r.r.y.y.y.t.,.1.<.g q T W W W W W W W W W W W W W W W W W W W Q ` Q W W Q / *X.X.XA.b.K.H.z.S.( G.G.S.G.G.Z G.G.G.0.G.0.z.F.G.H.H.H.H.F.F.H.Z 2 2 3 3 I L ~ ` ` _ L R ` ~ 2XR ~ +.2X' L I R ! T R E R R _ T ^ 3 I [ X.M 5 | 0X@XiX>X&Xb.G # # % t , , ; o.BXbXvXvXGXJXKXKXsXH &XK.l.z.7.0.w.w.G.N < ; p wXGXGXAXzXzXX.N eXHXJXGXJXnXiXkXkXlXAXZXMXAXAXAXAXZXZXZXAXAXkXAXCXCXCXCXCXCXCXZXO.) 4X_ ! ~ Q K ^ ! Q ~ IXIXIXIXIXIXIXIXIXIXIXIXIXIXIXIXIXIXIXIXIXIXIXIXIXIXIXIXIXIXIXIXIXIX",
"IXIXIXIXIXIXIXIXIXIXIXIXIXIXIXIXIXIXIXIXIXIXIXIXIXIXIXIXIXIXIXIXIXIXD.D.q.q.F.q.F.D.F.F.( / M M M r q %.mXHXFXFXHXGXHXFXwXwXG.X.wXpXuX%.X.G.3.4.C.Z.n.n.A.A.Z.Z.l.c d d =.5.<.2.2.<.<.<.<.<.<.<.2.6.5.2.5.2.5.<.5.2.5.6.3.l !.~.|.oX~.J > = N ( ( X.X.F F Q.Q.Q.O.Q.......Q.0X#X#X%XvXbXqX< o.vXVXVXiX%XnXnXZXZXo.p b.h.k./.].).).).N.h.|.Z.a.j.(.).).(._._.`._._.[.{.{.|.J % w w Y / / / N N [ ] ] } { |  .@.@.@.#.@.@.Q.| | { ....@.@.@.@.7 o.AXCXCXkXkXAXkXkXlXAXCXSXSXGXnX0XY 3 L T W W W W W W I w m S d.n.m.B.m.m.m.m.V.m.m.m.V.B.m.p.p.p.p.y.y.y.y.y.y.r.,.1.;.M ^ W W W W W W W W W W W W W W W W W W W Q 2XQ ` ! Q T X.*X.X XZ.z.z.G.G.H Z 0.G.G.G.G.0.Z G.G.S.G.G.G.G.9.w.H.S.H.D.F.U.b 3 2 3 I R T T _ ` _ R L _ ` ` ~ ! +.` R R R R ! T E E E T T q 5 I L.0XO.9 : &.0XqXiX=X!.v.J ; % # , , , , e tXNXvXVXFXKXKXKXeXc.*XZ.4.4.0.0.q.H.G.b : ; v iXHXSXlXlXAXX.N tXGXAXAXZXJXNXkXkXkXlXCXCXAXAXAXAXAXAXZXAXAXkXkXCXCXkXCXCXCXCXCXsXe #.5X_ R I I R ! ! ! IXIXIXIXIXIXIXIXIXIXIXIXIXIXIXIXIXIXIXIXIXIXIXIXIXIXIXIXIXIXIXIXIXIX",
"IXIXIXIXIXIXIXIXIXIXIXIXIXIXIXIXIXIXIXIXIXIXIXIXIXIXIXIXIXIXIXIXIXIXD.D.q.q.F.D.F.D.F.D.S.B / M e r r $.FXFXFXLXHXHXLXsXwXU.Z X.wXiXiX@X[ G x 3.d.C.n.n.n.C.Z.C.Z.x.3.d d f =.5.<.<.<.<.<.<.<.<.2.6.5.6.2.2.2.6.5.2.5.6.4.c !.~.|.|.f.1 t h Z Z Z X.{ F [ Q.#X@X#XQ.H H J Q.#XQ.@XwXvXmXL.; v L.%XeXeXrXiXiXeXrX..1 h.b.j.)._._.).)._.^.s.c h.^.M.(.).(.).(._._._.[._.[./.H % q w Y Y N N B / / [ } +.@.@.@.@.@.@.@.@.@.@.#.@. .{ @.@.#.@.w 0 iXCXCXAXpXkXlXlXkXlXfXAXlXCXCXCXGX0X6 6 P P P W W W W W L 8 C a.d.n.m.n.m.m.m.n.m.m.m.V.B.m.p.p.p.r.r.y.y.y.y.y.r.t.1.f ^ W W W W W W W W W W W W W W W ! ! Q Q ~ 2X2X! ! ! Q Y K..X.X.Xl.H ..{ ../ ( Z G.G.S.S.Z G.G.G.S.G.G.0.z.0.H.H.w.D.F.H.S.9 3 3 3 T E I L _ ` _ R L ' ` ` ` ! _ ` ! R E T ! T R E I I 3 2 q %.0X0Xo.0 9 F L.>X>X=X!.v.n ; % , , , , , , #XBXVXNXBXKXKXKX0Xa.oXZ.z.8.q.w.x.x.Z < : : N sXGXZXkXCXpXH ..dXZXkXlXkXAXGXbXkXkXpXlXAXCXCXCXCXAXAXAXkXkXkXlXkXCXkXzXAXzXCXCXCX..) 5X5X_ I I R ! ! ! IXIXIXIXIXIXIXIXIXIXIXIXIXIXIXIXIXIXIXIXIXIXIXIXIXIXIXIXIXIXIXIXIXIX",
"IXIXIXIXIXIXIXIXIXIXIXIXIXIXIXIXIXIXIXIXIXIXIXIXIXIXIXIXIXIXIXIXIXIXD.D.D.q.D.D.D.F.F.D.S.( v r r M r / qXFXFXLXFXFXHXsX$XS.0.X.$XiXiXI.D D C 4.s.C.C.n.n.C.C.C.C.C.C.x.c i d f 4.5.<.5.<.5.5.<.2.2.2.6.6.6.5.2.2.6.6.5.f S ~.oX|.!.S = ; H Z Z Z G.[ F [ Q.#X#XQ.H O.J J Q.Q.#XqXeXMXsX{ = $ > ; , , < , < 1 , = = f. X'.)._._.).)._.^.k.a.|.^.(.).(.).(._.(._.[._._.[.[.f.1 q r Y Y / N N V ( D ) } @.@.@.@.@.@.@.@.@.@.@.@.@.@.@.@.@.@.8 @XSXCXCXlXkXkXkXfXlXlXCXAXAXlXAXCXCXL.D q 3 ^ W W W W W W W ^ < a.d.n.n.n.n.n.n.n.n.m.V.B.m.m.p.p.y.y.y.p.y.y.y.y.r.r.1.A ^ W W W W W W W W W Q Q Q Q Q Q ! ~ ! T ! ! Q ! W R E D T..XA.Z.C D [ F N N X.X.G.G.G.S.G.G.S.G.0.S.G.0.G.w.w.H.D.D.F.H.( 5 3 3 ^ R I K L ' ` _ I L _ ` ` ` ` R ! R I R U R 6 L T I 3 5 e | $.0X$.{ < 9 0 o.iXhX+X!.X.< % % ; , , , 7 7 F sXNXBXBXKXKXKXJ.v.-XZ.a.z.w.q.x.0.p : ; = ..dXJXAXkXCXpXH L.GXSXkXkXkXAXCXZXnXkXkXkXkXkXkXAXCXAXAXlXAXkXkXkXfXCXAXlXlXCXCXCXCX@Xe #.5X5X_ L T P L K IXIXIXIXIXIXIXIXIXIXIXIXIXIXIXIXIXIXIXIXIXIXIXIXIXIXIXIXIXIXIXIXIXIX",
"IXIXIXIXIXIXIXIXIXIXIXIXIXIXIXIXIXIXIXIXIXIXIXIXIXIXIXIXIXIXIXIXIXIXV 9.D.D.q.F.D.F.F.F.H.N r M M / r 8 N 0XtXMXFXsXdXrXJ.( V B J.uXiX$XX.N m z.s.d.d.C.C.C.C.d.d.C.C.x.x.z.c i d c 4.;.5.<.<.5.6.2.6.5.2.6.6.6.6.5.2.5.g c.!.~.f.S l # M H Z Z G.G.G D D $.#XQ.F ....J D ..o.P.wXiXMXqX..; O # $ $ $ $ $ $ $ $ $ - a.|._.).)._.).).).).(.M./.(.).(.(.(.]./.)._._._._.[.oXh.< q r U Y M N N N N D / [  .@.| &.@.@.@.@.@.#.@.@.@.@.@.@._ 6 { nXCXCXAXpXkXkXkXlXCXAXAXAXlXAXAXCXdXm m h % L W W W W W W W P 6 k 4.d.n.n.n.m.m.m.m.m.B.m.m.m.p.p.y.y.p.y.y.y.y.r.y.y.6.A L W W W W W W Q W Q Q ! ! ! Q _  .#.&./ 6 4 K E I 3 9 z.C.A.A.0.m D N N N D { X.X.G.Z X.G.S.S.G.G.G.9.S.H.H.H.Y.Y.H.H.G.v 3 q L I P L T _ ` ' ! L R ` ` ` ' ` ` ~ I L T T R 6 L L R U ] &.%.L.L.$.[ 9 < 0 #XpX>X+Xb.G , t ; , , , , 7 , e @XZXBXGXKXKXFXF K.-X|.l.9.q.8.7.b : : ; : o.MXGXAXkXCXiX( I.HXAXpXkXkXkXkXCXAXkXkXkXkXkXkXkXlXAXkXkXlXlXkXkXkXCXAXlXAXkXzXCXCXeXe +.5X5X+.E I 3 ^ L IXIXIXIXIXIXIXIXIXIXIXIXIXIXIXIXIXIXIXIXIXIXIXIXIXIXIXIXIXIXIXIXIXIX",
"IXIXIXIXIXIXIXIXIXIXIXIXIXIXIXIXIXIXIXIXIXIXIXIXIXIXIXIXIXIXIXIXIXIXg g 7.9.D.F.F.F.H.H.D.Z M v / M M r 8 9 r ] M Y M [ / b N v O.uXiXiXO.N C z.x.s.x.d.C.C.C.d.w.x.x.C.x.x.l.4.g i d 3.4.5.2.2.2.2.6.5.5.5.2.5.5.2.2.5.i c.c.S f.J < t ..G.X.G.G.H H H H O.O.D J O.H J H +XK.$XuXdXdX$.D = + # @ @ $ $ $ # # # $ > S ^._.).).`._._.).(._.(._._._.(.(.j.Z.h.M.(._.}.`.}.oX~.h 8 U e Y M N / N Z Z N [ [ ] { { | | @.@.@.@.@.#.@.@.@.@.*.t %XCXAXAXlXkXkXkXkXkXAXlXCXAXlXlXCXAXJ.d z.Z : 3 L W W W W W W W I v c d.n.n.n.m.n.n.m.V.V.m.m.m.p.p.y.p.p.y.y.y.u.y.y.y.6.A ^ W W W W Q Q Q ! Q ! } %.0XrXvXVXZXZXMXsX&.2 / r 5 z.T.A.A.A.C ] ] M M D X.H X.X.X.G.G.J.H G.G.G.G.0.H.Y.Y.Y.Y.x.z.G.H 5 2 3 6 L I _ _ ` _ ! P T _ ` ` ` ` ` ` ` _ ~ E I R P L E +._ &.#X#X#XL.$.{ 9 , m %XxX%Xb.v.k , # % , , , , , , { tXHXGXJXKXKXtXk b.XX|.l.l.8.0.V h ; ; ; v I.GXHXlXAXCXuXN eXJXZXkXkXlXkXkXAXAXAXAXkXkXlXlXkXpXlXlXlXkXlXlXkXkXlXAXkXzXxXlXzXzXiXM _ #.5X5X5X+.3 L T IXIXIXIXIXIXIXIXIXIXIXIXIXIXIXIXIXIXIXIXIXIXIXIXIXIXIXIXIXIXIXIXIXIX",
"IXIXIXIXIXIXIXIXIXIXIXIXIXIXIXIXIXIXIXIXIXIXIXIXIXIXIXIXIXIXIXIXIXIX3.z a A 7.F.H.H.H.H.U.( / / / N e M v M r 5 5 5 5 5 9 9 r 9 N qXiXdXP.b C z.s.d.x.x.x.x.C.x.x.6.6.x.x.x.x.x.0.A d i g 3.4.2.6.5.6.6.2.5.6.6.2.6.2.4.l v.~.f.b.J > 8 X.G.G.G.G.S J.v.G H H J ..!.v.v.+X+X%X:XiXMXeXX.D = $ @ @ $ @ @ @ # @ # # # x (.).).)._.'.].)._._._._._.(.(.g.s.b.b.M.[._.{._.{.[.~.k , Y U e M N N B Z Z G.X.....H X.{ | |  .@.@.@.@.@.@.@.+.5 D AXCXlXCXkXkXfXkXkXkXkXAXfXfXCXlXSXiXb 4.s.w.c 8 P W W W W W W W T q c s.n.n.m.n.d.4.n.V.m.m.m.m.p.p.p.r.y.r.y.p.u.p.y.r.u.B T W W W W Q Q Q W +.yXMXAXSXCXzXzXzXzXzXCXnXF 2 9 G.K.A.A.A.x.N M M M N D H X.X.X...J.P.J.X.G.G.S.S.D.H.H.Y.x.l.l.v.H n % 2 3 I E _ _ ! ! R P P R ' ` ` ` ` ~ ` ` _ _ R T R P T _ #.+.@.0X#XL.L.o.] , < D >XiX&Xb.v.0 , % t , , , , 8 7 $.BXHXGXHXKXKXo.x |..X|.l.x.9.w.V < : ; ; N uXGXGXAXAXAX$XZ dXJXZXkXkXkXkXkXlXkXAXkXkXlXkXlXkXkXkXkXlXlXkXlXlXkXkXkXkXlXlXlXlXzXpXM _ #.5X5X5X@.6 6 P IXIXIXIXIXIXIXIXIXIXIXIXIXIXIXIXIXIXIXIXIXIXIXIXIXIXIXIXIXIXIXIXIXIX",
"IXIXIXIXIXIXIXIXIXIXIXIXIXIXIXIXIXIXIXIXIXIXIXIXIXIXIXIXIXIXIXIXIXIX=.3.z g d 7.D.H.H.H.H.S./ / / M M M / / / r r v r q 9 r r r 9 L.iXuXJ.B C z.a.x.x.d.s.x.x.x.w.x.x.w.x.x.x.w.x.x.0.z i i g 3.5.5.5.5.6.5.2.6.6.2.2.3.l !.!.f.H h # N G.U.G.G.J.X.J.H H z.v.z.f.H !.:X+X+X$XuXsXBX@Xo...= # @ # @ @ @ # = # # # $ l j.'._.^.(.k.s.'.^._._._.).(.).h.N. XZ.g.'._._.{.{.XX(.S , r Y / / N N B Z D.H.9.G.( V Z X...{  .@.@.@.+.@.@.@.) % $XAXAXAXkXkXkXkXkXkXlXAXkXlXlXAXAXfXH j s.d.6.s.v L W W W W W W W W q b c d.n.n.s.i y f n.m.m.m.p.p.p.u.r.r.1.2.e.:.8.2.5.8.Z ^ W W W Q Q Q Q ~ 0XAXCXCXzXzXzXzXzXzXlXlXCXwX: H T.x.z.Z.T.z.N M M M M N D X.X.J.J.J.J.G.D S.G.S.G.H.H.H.0.H J.v.H H h & 3 U E ! R T L L L T ! ! _ ` ` ' ` ` ` ` _ _ R T R U R _ _ +.+.8X#XL.o.M 9 ; 7 H iX>X&Xh.H < % % % 7 8 7 7 7 0 qXLXJXJXKXKXFXn G |.XX|.l.x.x.x.B : ; : : X.dXJXSXkXzXCXI.H dXJXAXAXgX$XpXlXkXkXlXkXlXlXkXkXlXlXlXkXlXlXkXlXlXlXlXkXjXjXlXlXlXzXkX] } #.5X4X5X+.) #.5XIXIXIXIXIXIXIXIXIXIXIXIXIXIXIXIXIXIXIXIXIXIXIXIXIXIXIXIXIXIXIXIXIXIX",
"IXIXIXIXIXIXIXIXIXIXIXIXIXIXIXIXIXIXIXIXIXIXIXIXIXIXIXIXIXIXIXIXIXIX4.4.=.3.g g B 0.H.H.S.Z / / / N M / / / / N / / r r r r r r 9 ( $XT.z.B k 0.l.l.a.s.d.x.x.w.w.l.w.w.q.x.q.q.x.x.w.x.7.g s i 3.5.5.5.6.5.2.2.2.2.5.3.l b.!.S J = = ( U.G.U.I.I.J.J.H H c.b.b.f.b.&X,XgXuXiXuXcXsX..o.G = $ # @ # @ @ # # @ @ # + l h.(.j.M.d.b.s.^._._._._.(.).^.k.Z. X^.k.^._._._.[.[./.c., r Y Y / N / V V G.H.S.0.0.0.z.z...| @.@.@.@.@.@.@.+.% ..AXAXCXkXkXkXAXlXkXkXkXlXkXkXCXlXCXP.j a.n.y.y.n.Z 5 T W W W W W W Q q = * d d.n.4.* - s 6.m.m.p.p.p.p.u.6.:.g : 5 5 5 : v v I T W W W W W W W ~ dXCXlXzXzXzXzXzXzXzXzXzXzXAXI.C G.z.C z.x.b M M M M M M D X.o.X.o.X.o.H H G.G.D.H.H.0.Z O.J.H z.:X%X1 2 I E R T T T R T T R ~ ! ' ' ' ! ' ` ` _ _ ~ E E E ) _ _ _ +.+.6X0X$.] ; , = 9 J.kX>X+Xb.H 1 % # , , 7 7 7 , F FXJXLXKXKXKXrX1 v.*XXX|.l.l.x.x.b ; ; : < J.MXJXAXkXAXfXJ.G.MXGXAXlX$XX.$XAXkXkXkXkXlXlXkXkXkXlXlXkXkXlXlXlXkXlXjXjXlXlXjXlXlXlXAX| ) #.5X4X5X_ ~ 5X5XIXIXIXIXIXIXIXIXIXIXIXIXIXIXIXIXIXIXIXIXIXIXIXIXIXIXIXIXIXIXIXIXIXIX",
"IXIXIXIXIXIXIXIXIXIXIXIXIXIXIXIXIXIXIXIXIXIXIXIXIXIXIXIXIXIXIXIXIXIX2.2.4.4.3.3.g g V 0.Z ( ( ( / / N / ( N / N N N N M M M v r 8 v X.G.8.V m C Z 0.z.0.0.x.l.z.0.0.0.0.9.q.q.q.q.q.w.w.x.z.7.g s d =.5.5.<.2.5.2.2.5.f x !.~.J 1 $ v U.U.G.I.wXqXP.H H S b.b.b.h.!.&X;XfXiXiXsXFX%XH +Xk # # # @ @ @ @ @ @ @ # # $ 1 a.S a.s. X'.s.^._._._._.(.(.(.b.k.^. Xk. X(._._.[.}./.c.= r Y Y M N B ( 0.z.w.w.S.0.x.l.z.G... .@.@.#.@.@.@.*.; rXCXAXkXkXkXkXkXlXkXpXkXkXkXkXAXCXrXC c n.m.u.y.p.d.p L R W W W W W W 3 + > y 6.n.4.y > i n.m.m.p.p.u.y.2.A 5 ^ ^ T ^ T T T ^ T W W W W Q W Q T &.SXCXlXlXlXzXlXzXzXlXzXzXzXzXkXG.b H N C Z M M M M / N M D X.H X.J.X.X.X.X.X.G.G.Z Z H J.o.H v.,XjXJ.$ % T E T T R ! ! R R ~ ! ' ! ! T T P ! ` ' _ ~ ! E Y U } +._ ' +.6X#X&.9 ; < = v @XxX;X+Xc.H , % % , , , , , 7 $.LXKXJXJXKXKX&.h +X|..XZ.l.x.H.z.v ; : : h I.fXCXCXCXCXaX0.X.FXGXlXfXI.b U.$XfXAXAXkXkXlXlXlXkXkXlXkXjXlXjXjXjXjXlXlXjXlXjXjXlXlXCXO.) #.5X5X5X_ +.5X6XIXIXIXIXIXIXIXIXIXIXIXIXIXIXIXIXIXIXIXIXIXIXIXIXIXIXIXIXIXIXIXIXIXIX",
"IXIXIXIXIXIXIXIXIXIXIXIXIXIXIXIXIXIXIXIXIXIXIXIXIXIXIXIXIXIXIXIXIXIX2.2.2.2.:.4.4.z g a b ( X.( ( ( N Z ( ( / / B / / v N M M r 9 9 b 0.0.Z A N C C Z 7.z.0.0.0.4.0.a.0.0.0.w.0.w.w.w.w.w.w.D.z.V a s f 3.2.2.<.6.6.5.i S !.c.1 $ : X.U.G.U.wX0XP.J.H G z.b.b.b.b.b.:XuXiXiXuXdXMX$.H !.k $ @ @ @ @ $ $ @ @ # # @ $ - x a.a.a.^.'.h.^._.)._._.).(.).k.h.|..Xb./._.(._._.{.[.b.1 q e / M M ( 0.9.q.D.q.q.H.x.H.G.X... . . .@.#.@.@.t ..AXlXkXkXkXkXkXkXkXkXkXkXkXkXAXCXdXH x Z.m.m.p.p.p.n.7.< Y ! W W W W W 3 # $ y 4.n.n.4.c 6.m.m.m.p.p.p.y.A 5 T W T W Q T W W W W W W W Q ~ Q ! P $.SXzXzXzXzXzXzXzXzXlXzXzXzXzXzXpXG b [ N M / M M M ] [ M N ............O.X.X.H k N X.J.X.C J.,XjX,Xm o 2 T E I R ! ! ! ! ! ! ! T P T ! ! ! R R _ _ ~ E Y r 8 Y _ _ ` +.@.#X&.9 ; ; = n $XxX>X+XJ.D = # % , , 7 9 7 M qXKXKXKXKXKXFX9 z.|..X.X|.x.x.x.z.h ; : : b :X,X,X,XCXlXgXZ G.MXAXAXlXJ.X.J.G.o.rXfXAXlXkXlXlXlXkXkXkXjXlXjXxXjXjXlXlXlXlXlXjXjXlXCX$.U #.4X5X#.R 5X5X6XIXIXIXIXIXIXIXIXIXIXIXIXIXIXIXIXIXIXIXIXIXIXIXIXIXIXIXIXIXIXIXIXIXIX",
"IXIXIXIXIXIXIXIXIXIXIXIXIXIXIXIXIXIXIXIXIXIXIXIXIXIXIXIXIXIXIXIXIXIX2.2.2.2.2.2.;.4.3.g p A Z ( S.S.( ( G.X.( / ( / B / / N M r r r 9 B B b v v N m b Z Z Z V Z z.0.0.0.0.0.z.0.S.9.9.w.w.q.q.D.H.0.B i i f 3.5.6.6.3.u H !.k # # m U.G.G.U.wXI.J.G.G z.v.b.b.Z.Z.Z.:XuXiXsXdXFXsXD H v.1 = $ $ $ @ $ $ @ @ $ $ O O = x l.l.f.Z.'.b.Z.(.(.(.(.M.(.(.^.k.k.b.h.N.(.).(._.}.[.~.k 7 M M / / S.0.x.x.x.w.w.w.w.w.H.J...|  .} @.@.#.w 7 iXCXAXkXkXkXkXkXkXkXkXkXkXkXlXlXAXJ.j c.V.m.m.m.m.n.w.x.z h Y P W W W W I 5 * f d.y.n.n.n.m.m.m.m.p.p.y.e.^ T W W W Q Q W ! Q W W W W W ` 2X` K 4 X.lXCXlXzXzXzXzXzXzXzXzXzXzXzXzXlX:Xj M N M / / M M D [ / D O.X.X.D ..O.o.X.D D X.L.o...G I.aX<X,X&X: & 3 R ~ P T R ! ! ! ! ! R P R ! ! ! ! R P ! _ _ q 8 q w q ) _ ` ` @.#.O.< , = , F iXhX:XK.J.k # # % , < n F v O.cXJXKXKXKXKX@Xk !.|.|..XZ.b.x.x.Z 9 ; p p H ,X-X*X,XlXkX$Xb L.FXAXfXkXP.sXFX%.r | qXdXkXkXlXlXlXlXkXlXlXjXjXlXlXkXkXjXjXlXlXjXlXlXCX$.Y #.5X5X` ' 5X5X5XIXIXIXIXIXIXIXIXIXIXIXIXIXIXIXIXIXIXIXIXIXIXIXIXIXIXIXIXIXIXIXIXIXIX",
"IXIXIXIXIXIXIXIXIXIXIXIXIXIXIXIXIXIXIXIXIXIXIXIXIXIXIXIXIXIXIXIXIXIX2.2.2.2.2.2.<.;.8.7.V a a b X.G.S.G.S.S.( ( ( / / N N / N M M r r v v v v / N N b B S Z Z V Z 0.0.0.0.0.9.0.0.0.G.w.q.w.q.q.D.D.0.V a y i z 4.5.g p H H - + : X.U.G.G.I.uXI.L.G.H a.c.b.b.Z.Z.T.:XuXiXdXdXMX#XH H S 1 n < t # # = # # % , , < F l S c.x.a.b.b.l.j.(.(.).).M.).(.).^.^.|. X/.[._.(._.[.[.!.S ; M e / / G.x.x.x.x.x.C.x.F.x.H.G.O.| |  .| @. .% L.CXAXkXkXkXkXkXpXkXkXkXkXkXkXkXlXrXj c A.m.m.m.m.n.d i 4.x.c h w T P W W q N x 4.6.n.y.n.n.m.m.m.m.p.y.6.B T W W W W T T ! ~ ~ ! ! Q Q ! ~ ` T 4 4 v iXCXzXlXzXzXzXlXzXzXzXzXzXzXzXzXlXI.9 F M D M M ] ] ] [ D X.O.{ ....X.o.X.N o.L.o.D H R.aX1X-X,XJ.# 2 q ~ _ R 3 P ! ! ! ! ! P T ! ! ! ! _ ~ P R _ E r r w E I I _ ' ` +.@.&.< , = = D iXaX%Xv.o.1 # % % , M F m J qXGXJXKXKXKXFXJ l.*X X X X|.v.G.H.C ; : 1 a z.,X-X*X,XlXiXN p L.fXGXAXpX@XFXKXP.^ ^ } @XiXkXkXkXkXlXkXlXlXjXkXkXlXlXjXlXlXjXlXjXlXlXCX$.e 4X5X5X' ) 6X5X3XIXIXIXIXIXIXIXIXIXIXIXIXIXIXIXIXIXIXIXIXIXIXIXIXIXIXIXIXIXIXIXIXIXIX",
"IXIXIXIXIXIXIXIXIXIXIXIXIXIXIXIXIXIXIXIXIXIXIXIXIXIXIXIXIXIXIXIXIXIX2.2.2.2.2.2.2.2.2.2.5.e.z a p A ( G.G.G.( ( ( N v N N N N / v r r M v M M v N M N N Z Z Z Z Z Z Z 0.Z S.0.0.0.0.9.9.9.q.w.q.w.q.q.D.S.V a s g 3.a k v.h = + N U.U.G.U.wXiXP.J.G.G.l.v.x.Z.Z.Z.T.:XuXuXiXcXdXo.!.c.k k %X%X@X%X#X#X%X%X%X%X%XrX>Xk S f.f.h.a.s.j.(.).(.(.N.(.(.(.(.(.^.'.^.]._._.(._.[.[.|.v.: e Y M N S.H.x.C.C.x.C.x.x.x.G.G.X.{ | @.@.@.w 9 iXCXAXkXkXkXkXkXlXkXkXkXkXkXxXlXnXD 1 x.n.m.p.m.m.3.* > d d.5.3.k r T ! Q w m c 5.6.n.n.n.m.m.m.m.m.p.6.9.^ T W W W ^ 3 4 4 3 L ^ T T Q W K K 2 4 3 5 P.lXCXzXzXzXzXzXzXzXzXCXzXlXCXzXzXaXJ.h ] [ ] / / D [ [ [ X.O.D { ......D O.#Xo.D O.;X,X,X-X*X&Xm % 2 ^ R ! _ L 3 P ! ! ! T T ! ! R R ! ! ` I R E Y r I E ~ E L ) _ ` @.@.| 9 < , , X.>X>X%XH J 0 # # # < F F m o.nXJXKXKXKXJXo.J T..X.X X|.b.z.z.z.v : < h p G.,X*X-X,XfXwX: p X.iXAXAXfX$XGXKXtXI 3 I } P.iXkXkXkXkXlXkXkXjXkXjXlXjXjXlXlXlXjXlXlXlXAXo.) #.4X5XR ' 5X5X2XIXIXIXIXIXIXIXIXIXIXIXIXIXIXIXIXIXIXIXIXIXIXIXIXIXIXIXIXIXIXIXIXIXIX",
"IXIXIXIXIXIXIXIXIXIXIXIXIXIXIXIXIXIXIXIXIXIXIXIXIXIXIXIXIXIXIXIXIXIX2.2.2.2.2.2.2.2.2.2.2.5.8.8.g u u b ( G.( ( ( N A / / N N N b v r r M M / M N N N N m B Z Z Z Z Z V 0.0.Z 0.( 0.0.0.0.w.q.q.q.q.w.D.D.D.S.B a j : N G , + ; ( U.G.U.U.I.wX@XU.J.J.z.b.b.b.Z.Z.T.:XuXiXsXmXeXG.!.z.1 J >XhX<X<X<X<X<XxX<X<X<X<X>Xk S h.h.^.|.(.^.(.).(.(.(.(.B.(.(.(.^.(.).(.(._.(.(.[.(.[.c.l 0 M / N G.w.q.w.x.C.C.w.C.x.H.G.X.{ | @.@. .# L.CXlXkXkXkXkXkXkXkXkXkXkXkXkXkXAXJ.$ * 8.V.m.p.m.m.5.s * 4.n.p.6.a.b w _ ! U m c 5.6.n.n.n.m.m.m.n.5.d d / T W W W W L & 2 2 & & 2 2 3 2 2 2 & & 2 3 2 D pXzXzXlXzXzXzXzXzXzXzXzXzXzXzXzXzXaXH v { [ ] M / [ [ D { ..[ { ..{ n ..L.O.N J.;X,X1X*X&Xl.S ; 3 2 3 I R R I 3 T ! ! ! ! R ~ ! ! ' ! T R L U U e M E ~ R R T L _ +._ +. .9 < ; < o.uXuXI.G J h % # ; F o.o.J.tXHXKXKXKXJXeXk b..X.X X|.|.b.z.z.H v 9 v h p z.*X-X,X:XuXX.> : N wXAXAXpXI.LXKXLX .^ K q / %.iXkXkXkXlXlXkXjXkXkXjXjXlXlXlXjXjXlXlXlXAX| ) 4X5X5X^ 4X5X5X2XIXIXIXIXIXIXIXIXIXIXIXIXIXIXIXIXIXIXIXIXIXIXIXIXIXIXIXIXIXIXIXIXIXIX",
"IXIXIXIXIXIXIXIXIXIXIXIXIXIXIXIXIXIXIXIXIXIXIXIXIXIXIXIXIXIXIXIXIXIX2.2.2.2.2.2.2.2.2.2.2.2.2.5.8.3.a u p N ( ( ( / / ( A / N N / r N / v M v M N / b N N N N C Z V 0.0.9.Z Z 0.0.0.0.S.9.D.q.q.D.q.9.q.q.D.D.S.0.Z : J n = # h G.U.G.U.G.U.wXI.P.P.J.l.b.b.b.b.b.:X;XiXuXdXMX0XJ.b.S l +X<X<X<X>X>X>X<X<X<X<X<X<X>XJ k b.(./.).).(._.(.(.(.(.(.(.(.).).).).(././._.)._._._.(.~.l 0 ] M Z z.H.q.w.w.x.C.C.x.x.H.G.X.| | @.@.e < iXCXAXkXkXkXkXkXkXkXkXkXkXkXkXAXwX; . * 4.n.p.p.p.n.n.b.w.n.m.m.m.n.0.h U ! I m 4.4.5.y.n.y.y.u.p.6.s * * I W W W W W L 2 ; % ; ; ; # @ ; - = + & 2 2 3 % I.kXzXlXzXzXzXzXzXzXzXzXzXzXzXzXzXzXhXm M [ ] / D { { { { | { { { n J J.O.m J.gXaX,X-X&Xx.H N 2 3 K 3 3 3 L 3 L T ! ! ! T ! ~ R R _ _ R I L q q Y Y T T T T T 6 U _ _ +.] 0 , = < J.$X;XJ.J F 9 9 ; 7 eXGXBXGXJXJXKXKXKXcXD l.&X.X X X|.Z.c.l.z.G n N b v h Z &X,X&XH X.v ; : N $XAXAXiXJ.FXKXKX0X^ ^ ^ 3 Y o.rXpXkXfXkXkXlXkXxXkXjXlXjXlXkXlXlXjXlXiXF ` #.5X4XT 4X5X2X2XIXIXIXIXIXIXIXIXIXIXIXIXIXIXIXIXIXIXIXIXIXIXIXIXIXIXIXIXIXIXIXIXIXIX",
"IXIXIXIXIXIXIXIXIXIXIXIXIXIXIXIXIXIXIXIXIXIXIXIXIXIXIXIXIXIXIXIXIXIX2.2.2.2.2.2.2.2.2.2.2.2.6.6.5.4.3.g p y p N ( N ( / / B / b N v / r N / v M N N N N N N N B Z Z Z Z Z Z Z Z Z 0.0.0.0.0.9.9.q.D.w.q.q.D.S.D.G.b h F 1 # = N U.G.G.U.U.I.uXI.P.P.@XK.v.b.b.Z.Z.I.uXiXeXMXcXP.G c.H l %X<X<X<X<X>X<X<X<X<X<X<X<XhX..u k.).).(.(.).).(.).(.d.M.(.(.(.(.(.(.(.)._.(.[.[.[._.[.|.S v [ N H H.w.q.i.w.C.Y.H.x.x.x.z.X.&.&.@.} % P.AXkXkXkXkXkXkXpXkXkXkXkXxXkXkXiXF h j 4.n.m.m.m.m.B.]..XA.B.m.m.m.m.n.B r R w m x f 4.d.n.y.y.p.n.n.f > 6 T W W T W T K 5 v p v v p > + - z c u > ; 2 I 2 9 iXzXlXzXzXzXzXzXzXzXzXzXzXzXzXzXzXzX$X< M { ] ] [ | { { { [ [ D F o.o.N J.uX,X1X-X=Xl.g G.n 3 K ^ ^ K L I T T ! ! ! ! ! ! ' ! T P ! _ T 3 3 w Y I E ~ ~ ~ E R 6 _ ` _ ] 0 , = < P.uXI.J.J F h 0 , 0 vXJXJXJXKXKXJXJXmXX.S |..X|.|.|.|.&Xl.H J.G.X.G v p v j H G.x - ; # ; ; b @XAXCXuXP.FXKXKXyXI ^ ^ 3 q r X.wXdXfXkXkXlXkXkXkXpXkXkXlXkXkXlXlXlX$Xw +.4X5X_ L 5X5X2X2XIXIXIXIXIXIXIXIXIXIXIXIXIXIXIXIXIXIXIXIXIXIXIXIXIXIXIXIXIXIXIXIXIXIX",
"IXIXIXIXIXIXIXIXIXIXIXIXIXIXIXIXIXIXIXIXIXIXIXIXIXIXIXIXIXIXIXIXIXIX2.2.2.2.5.2.5.2.2.2.5.6.6.2.2.;.3.e.z g p : p N ( v N / / / N N N A N N / N r N N / N N / B Z Z Z Z V Z Z Z Z Z Z 0.0.S.9.9.9.D.w.w.q.D.9.S.B < n n # # ; m G.S.G.U.U.I.wXwXI.I.$XI.v.b.Z.Z.T.:XiXuXmXdXiXH S &XS 1 %X<X<XxX<X>X>X<X<X<X<X<X<XhXv.1 f.(.).).).(.).(.(.k.l.s.(.(.(.).(.).(.).(._._._._._.[./.c.1 D N z.H.w.q.i.q.w.x.x.x.x.x.z.X...@.@.w 7 sXAXkXkXkXkXkXpXkXkXkXkXkXkXAXkXX.< v.b.A.V.V.B.B.B.].'.B.B.B.m.m.m.m.m.d.b e 0 m u * g u.y.y.y.p.p.m.6.a Y ^ W W P W T 3 : b j j i y * > u 5.<.z y - 5 3 3 % o.CXzXzXzXzXzXzXzXzXzXzXzXzXzXzXzXzXkXJ.9 [ | { ] | &. .{ D [ D n O.D J.,X1X,X*X*Xx.g z.( 5 ^ K K ^ T T R T R R ! ! ! ! ~ ` ' ! P L R q 2 q Y U U ~ ~ ~ ! E E I R +._ ) n , ; v $XgX$XH J n 1 F h n rXFXJXKXKXKXJXtXD S K..X|.|.|.|.Z.b.S H J.J.J.v v h h h - : = ; ; ; = : N wXAXCXuXI.HXKXKXdXI ^ q I I I U ] P.dXfXkXpXkXkXkXkXkXlXlXlXlXkXlXkXo.Y 4X4X5XR T 5X5X2X3XIXIXIXIXIXIXIXIXIXIXIXIXIXIXIXIXIXIXIXIXIXIXIXIXIXIXIXIXIXIXIXIXIXIX",
"IXIXIXIXIXIXIXIXIXIXIXIXIXIXIXIXIXIXIXIXIXIXIXIXIXIXIXIXIXIXIXIXIXIX2.2.2.2.2.5.5.2.5.2.5.6.5.2.2.4.4.4.4.3.z a : : v N / N B / / / N N N N b / / N N N N N N N C C C Z Z Z Z Z Z Z V S.0.0.S.9.9.q.9.D.D.D.S.V h h n , % @ ; ( G.G.S.U.U.I.wXwXuXI.I.J.c.b.Z.Z.K.:XuXsXdXdX$X!.oX|.l J >X<X<X<X<X<X<X<X<X<X<X<X<XhX%X1 a.^.).).(.(.).].x.l.|.s.s.N.(.).(.).(.).)._._._.[._.[.[.c.l b Z z.F.q.q.i.w.q.x.x.x.x.x.z.X.X.@. .% o.AXkXkXkXkXkXkXpXkXkXkXkXkXkXkX%X, C c.Z.B.B.B.).B.).].).).).).m.m.m.m.p.m.0.k m x * $ i 6.y.u.y.p.p.p.y.4.M W W W W W P 4 : j j c z i * * d 6.1.<.f u ; 3 I 3 r rXCXzXzXzXzXzXzXzXzXzXzXzXzXzXzXzXzXkXX.0 { | [ D | &.{ { | { e F H ;X,X-X*X*XZ.x z.K.Z 3 3 ^ K T T T P T R ! R ! ! ! R ` ' ! ~ L 3 3 5 / / I E E E R T T R R I E _ ] 9 ; ; D uXuXI.G m m : n D [ eXGXKXKXJXcX$.h C +X|.|.|.|.|.|.b.c.H H J.J.Z n M { N b p + % ; ; ; # ; m :XlXAXiX$XJXKXKXHX .3 6 U U I U U r ..qXiXfXfXkXkXkXkXkXkXlXlXlXlXiXF ) 5X5X4XT ` 5X2X2X2XIXIXIXIXIXIXIXIXIXIXIXIXIXIXIXIXIXIXIXIXIXIXIXIXIXIXIXIXIXIXIXIXIXIX",
"IXIXIXIXIXIXIXIXIXIXIXIXIXIXIXIXIXIXIXIXIXIXIXIXIXIXIXIXIXIXIXIXIXIX2.2.2.2.2.2.5.2.2.2.2.6.5.2.2.=.;.2.2.4.7.z A p p : b / / ( A N N N N N / / b / N N N N N b m C Z Z Z Z Z Z V Z V 0.Z 0.0.7.9.9.9.q.S.S.V N n 0 0 # $ @ : Z G.G.S.G.S.U.I.uXwXuX$XI.K.Z.Z.K.I.uXeXFXdXeXv.oXXXh.l J.<X<X<X<X<X<X<X<X<X<X<X<X<X<X%X< k ^.).).).(.(.k.a.|.^.|.a.k.(.(.(.).(.(.(._._._.[.{._.[.~.l p 0.q.w.q.W.i.i.w.C.w.x.H.x.z.H o.&.0 < iXCXkXkXkXkXkXpXkXkXkXkXkXkXlXiXh l H b.N.].B.B.).B.).).).).].).V.V.m.m.m.m.n.4.4.4.* > i 6.y.y.y.y.p.p.u.;.v ^ W W W W ^ 4 + p x 7.4.;.f =.;.1.1.<.:.f - 5 ^ I 2 X.CXzXzXzXzXCXzXzXzXzXCXCXzXzXzXzXCXCXiXJ M |  .] ] | { { { ..F 0 J.,X,X-X*X.X4.c H.G.9 3 ^ K W K T W Q ! ! T T ! ! Q T ` ` _ E I 2 5 / +.~ I ~ ~ R I T T L I I U } ) 9 # ; G.gXuXJ.b m n h < m F $.@X0X#Xo.m 1 H +X|.|.|.|.|.b.b.l.H H X.J.H v ..L.rXX.h D v = = ; ; ; : J ;XaXlXuX@XKXKXJXKXyX2 3 I I I R U I q r X.0XuXiXpXkXpXpXaXlXlXlXAX$Xe +.+.5X` T ` 4X` 2X2XIXIXIXIXIXIXIXIXIXIXIXIXIXIXIXIXIXIXIXIXIXIXIXIXIXIXIXIXIXIXIXIXIXIX",
"IXIXIXIXIXIXIXIXIXIXIXIXIXIXIXIXIXIXIXIXIXIXIXIXIXIXIXIXIXIXIXIXIXIX2.2.2.2.2.2.2.2.2.2.2.2.2.2.5.5.5.2.5.5.e.3.e.V a u : v N N N N b / N A N A N N N v N N N N N Z V V Z B Z V Z Z V ( S.V 0.0.0.D.S.D.S.B [ [ 0 0 , # # # : ( G.G.G.G.U.U.I.wX;X:X:X$Xv.x.b.K.uXiXdXdXsX%Xb.XX Xa.1 %X<X<X<X<X<X<X>X<X<X<X<X<X>X<X>XG 1 M.(.).).).^.h.f.Z. XZ.l.M.(.(.).(.).(._._._.{.{._.[.[.|.S u 0.q.w.q.w.i.i.C.C.w.q.x.x.0...o.| # J.AXkXkXkXkXkXkXkXkXkXkXkXkXlXkXX.< n f.~.'.].B.B.).B.).).).).B.).].B.m.m.m.m.m.y.6.4.4.d =.6.y.y.y.u.p.u.y.;.A K P W W W T 4 O > c 4.6.6.5.5.6.1.1.1.<.=.p 5 K I ^ 7 rXzXzXzXzXCXzXzXzXzXCXzXzXzXzXzXCXCXCX$Xn [ { ] [ { | { { ..[ < H =X-X-X*Xa.V G.z.v 5 3 ^ K T P ^ T T ! ! ! R T T R P R ` _ R 3 2 E +.+.~ I R ~ T ^ I I I 3 L 3 U e 7 $ : P.gXgXK.m h m h 1 : 1 = ; = = - m v.!.|.|.|.Z.b.b.c.z.H H H X.o.n / yXsXmXX.h P.P.9 ; ; ; % ; G ,X,XlX$XwXKXJXJXKXGXY 2 3 3 I I U I I 3 2 r / L.$XwXwXwXpXlXlXlXdX| Y +.5X#.) L ! ! ! W W IXIXIXIXIXIXIXIXIXIXIXIXIXIXIXIXIXIXIXIXIXIXIXIXIXIXIXIXIXIXIXIXIXIX",
"IXIXIXIXIXIXIXIXIXIXIXIXIXIXIXIXIXIXIXIXIXIXIXIXIXIXIXIXIXIXIXIXIXIX8.2.2.2.2.2.2.2.2.5.6.5.2.2.2.;.;.5.6.5.5.4.3.3.e.A a p : p N N / b / / N N N N N / N N N N Z Z Z Z Z Z Z Z Z Z S.7.0.0.S.0.0.S.S.V N } | ] M 0 ; # @ # 5 N ( G.G.G.U.U.I.I.I.I.$X$XI.K.K.I.iXsXdXdXtXJ.|.}.!.l F >XhX<X<X<X<X<X<X>X<X<X<X<X<X>X<XX.= f.^.).).(.(.M.a.a.b.l.j.^.(.).(.(.).).).[._._.{.{.{._.(.c.u B w.q.q.i.i.F.w.i.C.w.x.0.X.X.&.n < sXkXkXkXpXkXkXkXkXkXkXkXkXlXlX@Xn < H b. X].B.N.M.N.B.B.).).B.).Z.4.a.Z.m.m.p.p.y.n.6.y.6.6.6.6.y.u.y.y.r.y.6.g I W W W W T 4 O = 3.4.6.5.4.5.1.1.1.1.1.;.i ; 6 L P 3 D kXzXzXzXzXzXCXzXzXzXCXzXzXzXzXzXzXCXAXJ.n { &.]  .{ { | { D 0 F K.*X.X*Xz C H C , 2 3 K ^ L L P T Q ! ! T ! R Q ! ! R ! T L 4 T +._ ~ ~ E I E T I I T T I 3 3 6 r ; $ v I.fXuXX.n < n n n < < 1 = < J H J.b.|.|.|.Z.b.b.l.H H G G o.I.D 9 $.sXmXmXG.p @XuXo.: ; # ; = C ,X1XaXuXwXKXJXJXKXKX%.3 3 3 3 3 I I I ^ ^ 3 3 5 N ..O.I.pXlXlXlXwXe ) +.4X` P T ! ' ' 2XQ IXIXIXIXIXIXIXIXIXIXIXIXIXIXIXIXIXIXIXIXIXIXIXIXIXIXIXIXIXIXIXIXIXIX",
"IXIXIXIXIXIXIXIXIXIXIXIXIXIXIXIXIXIXIXIXIXIXIXIXIXIXIXIXIXIXIXIXIXIX3.e.2.2.6.2.2.2.2.5.5.6.6.2.2.2.4.2.5.5.5.4.4.3.3.3.z g l p : v N N / N Z N N N N N N N Z Z Z Z Z Z Z Z Z 0.S.Z 0.0.0.0.0.0.S.S.N / @.+.} ] e 9 # @ @ # , < N S.G.G.U.U.I.wXI.I.$X$X$XI.I.uXdXdXMXdX@Xv.XX'.f.1 +XxX<X<X<X<X<X<X<X>X<X<X<X<X<X>X<XJ.= S (._.).(.(.(.^.a.4.~.(.(.(.^.(.(.)./._._._._._.{._.(.[.j.l a q.q.w.w.q.q.q.q.w.x.x.z...&.| = P.AXkXpXpXkXkXkXkXkXkXkXkXkXlXpXD 9 h H Z./.].B.N.N.M.B.M.(.).).).a.* * 4.m.m.m.p.p.m.n.y.y.6.y.y.y.y.y.r.r.y.y.3.r P W W W W 4 O y =.5.=.d s =.6.1.1.1.<.2.d * 3 P T L 8 $XlXzXzXzXzXCXzXzXzXCXCXzXzXzXzXzXzXzXhXH F O.{ [  .{ | { D *., z.*X*X-XH : D ..7 3 3 ^ K K ^ K ^ T R T T ! ! ! ! ! ! T K 4 ^ +.+.~ ~ ~ / ^ ~ E T ^ ^ I I I ^ 3 r ; > / R.gXuXH n : h m n n m F F H J.b.b.b.|.|.|.b.b.l.G H H G J.0XL.M / tXFXFXnXX.p P.iX;XX., : ; = C ,X1X,XI.dXKXKXJXKXKXUX3 ^ 3 3 3 3 U I L L 3 3 q r N [ $XAXzXlXAXO.w +.+.+.~ T ! ` ' ! ! ! IXIXIXIXIXIXIXIXIXIXIXIXIXIXIXIXIXIXIXIXIXIXIXIXIXIXIXIXIXIXIXIXIXIX",
"IXIXIXIXIXIXIXIXIXIXIXIXIXIXIXIXIXIXIXIXIXIXIXIXIXIXIXIXIXIXIXIXIXIXd d g 4.5.2.2.2.5.5.6.5.6.2.5.5.2.2.e.2.2.4.4.3.3.=.3.3.z z p p p b N B Z Z Z N N N N N V Z Z 0.0.0.0.0.0.0.0.0.0.0.0.S.S.( N [  .@.+.` _ ] 0 , @ $ # t ; ; 9 Z G.G.U.I.wXwXuXI.$XwXuXUXwXdXdXMXdXsXv.|. X|.l < >X<X<X<X<X<X<X<X<X<X<X<X<X<X<X>X<X%X= l (.(.)._.).(./.N.Z.^.(.(.N.^.).(.)._._._._._._.`.[.(.[.~.x i 9.q.q.w.q.q.q.q.q.x.G.X.&.&.r n iXAXkXkXxXkXkXkXkXkXkXkXkXAXAXJ.v N n c.|. X).N.B.N.N.M.B.M.M.).^.a.* + u N.m.p.p.m.m.u.p.y.6.1.y.y.y.y.r.r.r.1.4.n T W W W T 3 = d ;.6.d * * i 6.1.1.1.1.<.=.u 5 ^ L T 3 M pXzXzXzXCXCXzXzXzXzXCXzXzXzXzXzXzXzXzXrXn ..O.[ { { | | ..F , h v.&XK.G.qXsXN 5 2 3 K L L L 4 3 P T T ! ! ! ! ! ! ! T K K E +.+.~ ~ ~ ~ T ^ ^ T ^ 3 ^ I I I 5 q ; % A gXgXuXJ.n = < n v h G G z.H a.c.b.b.b.|.b.b.c.H H H H @XMXsXX.7 0XFXMXsXdXX.- L.iXiXwXO.v < ; k &X,X,XK.nXJXJXJXJXKXyXq I q 3 3 3 T I L L ^ L q 8 v H wXkXAXAXwXr E +.+.+.I R ~ ` Q L T T IXIXIXIXIXIXIXIXIXIXIXIXIXIXIXIXIXIXIXIXIXIXIXIXIXIXIXIXIXIXIXIXIXIX",
"IXIXIXIXIXIXIXIXIXIXIXIXIXIXIXIXIXIXIXIXIXIXIXIXIXIXIXIXIXIXIXIXIXIX9.V g d f e.5.5.5.2.2.5.2.2.2.5.2.5.5.2.2.5.4.4.3.4.3.=.3.3.z A u u p b C Z V Z B Z Z Z Z Z 0.0.0.0.0.0.9.0.0.9.0.z.G.( D ]  .+.+.+.@._ ) e 0 ; $ # # % % = : v G.U.I.wX$X$X:X$X$XeXwXwXdXuXdXdXdX@Xv.oX}.j.1 J <X<X<X<X<XxX<X<X<X<X>X>X>X<X<X<X<X>Xh - g.).).M.(.).^.^.^.(.(.).).^.^.).).(._._._.[._._._._.[.(.S u 0.w.q.q.q.w.q.q.q.l.X.O.&.{ = J.kXkXkXkXkXkXkXpXkXkXkXkXkXCX$Xv N v k c.oXXXN.N.M.s.4.g.(.M.M.).).k.u > a A.V.m.n.n.y.n.y.n.1.1.y.y.r.y.r.r.r.r.2.b T W T W W ^ h f ;.5.d * > s <.y.1.1.1.1.:.s 5 L L W T 2 J.CXzXzXzXCXCXzXCXzXCXzXzXzXzXzXzXzXzXCXL.n O.{ { { ......[ n ; n o.o.wXKXsX9 % 4 3 I R R R 6 4 ^ T T ! ! ! ! ! ! T ^ K E +.+.~ ~ ~ ~ T T T ^ ^ ^ ^ K I L L ^ 8 5 > N R.fXfX$Xv : 1 h h m H v.v.c.c.c.b.b.b.b.b.v.H C ..o.wXHXJXeX9 @.FXFXeX:XdXX.- X.uXuXuXwXX.v < : v.:X:XI.NXJXKXJXKXKXtX6 3 3 L 3 6 I T L L L L L 5 v B G.$XkXdX..r +.+.+.) T ` ` ! T ! ~ ! IXIXIXIXIXIXIXIXIXIXIXIXIXIXIXIXIXIXIXIXIXIXIXIXIXIXIXIXIXIXIXIXIXIX",
"IXIXIXIXIXIXIXIXIXIXIXIXIXIXIXIXIXIXIXIXIXIXIXIXIXIXIXIXIXIXIXIXIXIXq.q.9.z g g 3.8.5.5.6.2.5.2.;.4.;.;.4.;.5.3.4.3.3.3.3.4.4.4.3.3.z j p u p B Z Z Z Z Z Z Z 0.0.z.x.0.0.H.H.l.G.S.X.Z N /  .+.` ` 4X+._ _ ) n n # # # # # % % 5 v ( U.qXqXI.I.$X$XwXuXeXtXdXdXdXdXwXv.|.'.XXS = #XxX<X<X<X<X<X<X<X<X>X<X<X>X<X<X<X>X>XD = s.(.(.).(.(.^.^.(.(.(.(.(.^./.(.)._.).(._._._._._._.[.|.c.p B w.q.q.q.q.q.q.x.G.X.O.%.] v iXkXkXkXkXkXkXpXkXkXkXkXkXAXiXm B Z p = l.XX X^.M.M.j * j (.).M.B.N.Z.h.c b.].V.V.d.4.d 6.n.y.y.y.r.r.y.y.y.r.r.r.5.p P W T W W I l =.<.2.=.s i d <.y.1.1.1.1.<.d : q L P T q N gXzXzXzXzXCXCXCXzXzXCXzXzXzXzXzXzXzXzXiXF [ O.| { ..O...{ D n F @XMXeXFX0X% 2 3 I R R R ! T 3 ^ W T ! Q ! ! ! Q ^ ^ ^ 4X+.+.~ +._ ! ^ T T T ^ ^ ^ L L I L L 2 % 2 / I.fXfXwXN : : h h m v.b.b.c.c.v.b.b.b.b.G.z.H G.I.dXHXKXFX]  .mXLXsX+X$XnXJ.- N $X$XuXiXI.N v - Z R.+XI.HXJXJXKXJXKXFXq 4 3 3 L I I T L I L L ^ 5 Z 0.g X.$XX.r _ +.+.+.R R ` ~ W ' 2X` ~ IXIXIXIXIXIXIXIXIXIXIXIXIXIXIXIXIXIXIXIXIXIXIXIXIXIXIXIXIXIXIXIXIXIX",
"IXIXIXIXIXIXIXIXIXIXIXIXIXIXIXIXIXIXIXIXIXIXIXIXIXIXIXIXIXIXIXIXIXIXD.w.D.D.q.e.z g e.8.5.5.5.e.4.4.4.=.4.4.;.4.4.3.4.4.4.3.3.4.3.3.3.3.z A p p v B Z Z Z Z 0.0.S.9.z.x.x.z.0.Z Z N N /  . .` +.` +.+.' ' +.) F < # # # # # % ; ; : ( I.wXwX$XwXwX$XwXuXsXdXdXdXdXiXJ.b.'.'.|.l l >XhX<X<X<X<X<X<X<X<X<X<X<X>X>X>X>X<XhXO.$ a.|.h.k.^.(.(.^.(.(.).(.(.).^.^.)._.(._._._._._._.[.[.[.!.l i x.q.q.q.q.q.x.H.G.X.| O.0 $.kXkXkXkXkXkXkXkXjXkXkXkXAXAXG.A Z ( * O k XX X^.N.s.u > - b.^.N.N.M.N.N. X].).B.V.4.y * d n.u.y.y.1.y.y.y.r.1.r.r.2.v ^ W W W Q ^ z :.;.<.5.4.=.;.6.r.1.1.1.1.1.=.y q ^ T T I v U.CXCXzXzXzXCXCXCXzXCXzXzXzXzXzXCXzXzXzX%Xn O.O.o.O...D m N L.mXFXFXmXrX] & 2 ^ R L K I E E 5 K T Q W T ! ! ! T K K ~ 4X+.+._ +.~ ~ T T T T T I ^ ^ L I L K 5 % ; v G.uXfXdXJ.N v h h m H v.b.b.b.b.v.v.v.z.z.H.I.iXFXKXJXmX| ] PXFXnX%X&X:XVXP.: 9 G.$XuXuXwXX.v : C I.K.iXGXHXJXKXJXKXJX .& 3 ^ L T T L L L L L L 5 A F.9.a v 7 Y +.+.+.R I ! ' L ! 2X` ' ! IXIXIXIXIXIXIXIXIXIXIXIXIXIXIXIXIXIXIXIXIXIXIXIXIXIXIXIXIXIXIXIXIXIX",
"IXIXIXIXIXIXIXIXIXIXIXIXIXIXIXIXIXIXIXIXIXIXIXIXIXIXIXIXIXIXIXIXIXIXF.F.q.F.D.F.q.0.g f 8.8.9.8.3.4.=.4.=.4.4.4.4.4.4.=.=.4.4.4.4.3.3.3.3.z B j p : b C Z z.0.z.z.z.z.0.0.Z Z N v / } _ _ _ ' ` ' ` ` ` ` } F F , # # # # # # # % = Z I.wXwXI.wXI.qXwXdXdXdXdXdXdXwX!. X[.'.f.; o.<X<X<X<X<X<X<X<X<X<X<X<X<X<X<X>X>X<X<X+X$ l l.c f./.).(.).(.(.).(.(.(.).^.(.(.).(.).[.[._._.[.[././.a.u 0.D.q.q.q.w.x.H.X.X...F 0 iXkXkXkXkXkXkXpXkXkXkXkXkXCX;XZ B S.( : O l oX XN.N.k.u > u k.N.M.M.M.N.B._.].].].N.a.y > i d.y.y.y.1.y.y.y.y.r.r.y.2.v T P W W T r V :.<.<.<.<.4.<.1.y.y.1.1.1.1.;.u 5 P P W / X.b uXCXzXzXzXzXCXCXCXzXCXzXzXzXzXzXzXzXzXzXD F o.$.X.n n D #XbXJXJXFXBXtXq & 3 T I 4 3 3 3 R 3 ^ T T T ! ! ! T L ^ T 4X+.~ E ~ 4X~ ! R T T T T T T ^ L L L L 2 2 ; r G.uXfXfXgXX.( X.D H z.z.v.l.b.b.l.x.G.H.R.gXfXLXKXLXtX[ | tXFXiX%X&X&X+XNXI.: : X.P.:XuXiXJ.b < j J.I.aXSXGXKXKXJXKXKX%.2 3 I R T I I L ^ K L L q a w.C.7.: e +.+.+.+.w 6 L L W 2X~ T L L IXIXIXIXIXIXIXIXIXIXIXIXIXIXIXIXIXIXIXIXIXIXIXIXIXIXIXIXIXIXIXIXIXIX",
"IXIXIXIXIXIXIXIXIXIXIXIXIXIXIXIXIXIXIXIXIXIXIXIXIXIXIXIXIXIXIXIXIXIXD.D.F.F.F.F.F.F.9.7.g 3.7.0.0.4.3.3.3.=.3.3.=.4.4.3.4.=.3.3.3.3.3.3.3.3.3.z B p p p b C Z Z Z V B N b v 9 r Y _ _ _ _ ' +._ _ _ ' ' `  .F 0 # # # # # # # # = : S.U.wXwXI.I.wXwXuXiXdXdXdXdXuX+X|. X}.|.l 1 %XhX<X<X<X<X<XhX<X<X<X<X<X<X<X<X<X>X>X<X%X= = S b.s.|.M.M.).(.^.(.^.(.(./.^.).(.[.(.(._._.).(.[.[._./.v.- 7.w.w.i.q.q.H.U.G.X...< D kXkXkXkXkXkXkXkXkXkXkXkXAXiXH B 0.7.V > & H XX^.N.M.N.z.c a.M.(.N.M.M.M.M.'.].].].B.d.f y 4.u.y.y.y.r.y.r.y.r.r.r.y.;.v T W W K W ^ z -.<.<.<.<.<.<.1.1.1.1.1.1.1.<.s ; I L T / G.A z.kXCXCXzXzXCXCXCXzXzXzXzXzXzXzXzXzXzXSX$X< M M n ..tXtX#XMXJXJXJXLXUX% & 3 R ^ 3 q 3 3 q 4 ^ T Q T ! ! R P L T ` ~ ! ! ! ~ _ ~ ! ! T T T T T T I K ^ ^ I 3 2 % : I.I.gXfXGXdXU.U.I.U.U.K.H.K.K.K.K.T.R.gXAXGXKXKXLX0X/ &.tXFXsX:X+X&X&X+XHXqX: > C P.$XuXuXP./ < v I.:X,XaXAXHXKXJXKXKXyX^ K ^ T I I I L L L L L q - q.C.3.b { +.+.+.) 3 ^ P ~ ` ~ P 3 3 ^ IXIXIXIXIXIXIXIXIXIXIXIXIXIXIXIXIXIXIXIXIXIXIXIXIXIXIXIXIXIXIXIXIXIX",
"IXIXIXIXIXIXIXIXIXIXIXIXIXIXIXIXIXIXIXIXIXIXIXIXIXIXIXIXIXIXIXIXIXIXq.q.q.q.w.D.D.w.D.D.S.7.g g B V 7.3.3.4.=.4.4.4.4.3.4.3.4.3.3.3.3.3.3.3.3.3.V B v < - : p b v : : 5 q r Y ) _ _ _ ` ' ' ' ` ` _ ' ` ' { F < $ # # # # # # # = N U.U.I.UXuXUXqXwXeXdXdXdXdXdX+Xb. X_./.f.= #XhX<XhX<X<X<XhX<X<X<X<X<X<X<X<X<X<X>X>X<X>Xn $ S |.s.h.(.(.(.(.(.^.^.^. X/._._._._._._._._.[._.XX}.[.[.|.l B w.w.q.q.w.Y.H.z.G.N > J.kXkXkXkXkXkXkXkXkXkXkXkXkXI.B 0.V S.( p Z +XXX(.M.M.M.N.Z.N.M.M.B.M.N.N.).'.].].).B.V.d.6.n.u.y.u.y.y.y.y.r.r.r.r.r.:.r T W P W W r z -.<.<.<.<.<.1.1.1.1.1.1.1.1.1.f : 6 T R ( S.( b I.AXCXzXzXCXCXzXzXzXCXzXzXzXzXzXzXzXzXkXn = n rXHXKXLX0X@XHXKXKXFXr & 2 3 T q 4 I 3 4 3 3 T T T T ! ! T K K ~ ~ ! ~ ! ~ ~ ~ ~ ! ! T T T ^ T ^ K ^ K K K K 2 % % o.uXI.gXfXAXAXuX;X:XR.:XR.:XgXgXgXfXfXGXJXLXLXdXrX| | tXdXuX=X!.|.=X!.:XKXdXv + : H I.uXiXI.( h b :X*X*X*XaXfXJXJXJXKXtXT ^ ^ I I L L K L L L L q - 3.C.8.Z | +.+.} r 2 q ! ' ` ' K T T T IXIXIXIXIXIXIXIXIXIXIXIXIXIXIXIXIXIXIXIXIXIXIXIXIXIXIXIXIXIXIXIXIXIX",
"IXIXIXIXIXIXIXIXIXIXIXIXIXIXIXIXIXIXIXIXIXIXIXIXIXIXIXIXIXIXIXIXIXIXD.q.q.D.q.q.q.q.D.D.D.D.G.B v a A g 3.3.3.3.=.3.4.3.3.3.3.3.3.z 3.z z z z g A b h 9 , ; # , 8 r w U E _ _ _ _ ' ` +.' ' ' _ _ _ ` ' _ ] F 1 $ # # # # # # , / ( G.U.U.$XwXwXwXuXdXdXdXsXsX:X!..X]./.|.l J iX<XhX<X<X<X<X<XxX<X<X<X>X<X<X<X>X<X<X>X<X<XJ = S oX!.a.M.(.^.(./.|.a.k.^./././._.[.[._.(./.[.|.|.XX/._./.J i 0.w.q.q.w.x.x.z.z.h h iXkXkXkXkXkXkXkXkXkXkXkXkX;XZ Z 0.9.9.Z m v.oX XM.g.M.M.M.N.N.N.N.N.s.s.Z.^.'._.).).B.m.n.n.m.n.y.y.n.y.y.y.y.r.t.r.r.=.8 P W T W T 5 d =.<.<.<.<.<.1.1.1.1.1.1.1.1.1.=.p 6 T T ( S.( ( b $XAXzXzXzXCXCXzXCXzXSXzXzXzXzXzXzXzXCX$X5 L.KXKXKXKXHX$.tXKXKX@X& 2 3 4 ^ I 2 3 I ^ ^ T T W Q T Q T L K T ~ ~ ! ! ! ! ! ! ! T R T T T T T L ^ L ^ K ^ 3 6 2 + N G.G.U.gXfXGXGXfXfXfXgXaXfXfXfXGXGXJXHXHXdXeXL./ e &.iX,X&X&X|.|.=XK.uXJXJXX.> + : H $XuXP.H v m :X*X*X*X,XaXGXJXJXKXFXE ^ L T I L L L L L L L U : 7.i.w.A ] } } M b v q ^ ! ` ' T L P I IXIXIXIXIXIXIXIXIXIXIXIXIXIXIXIXIXIXIXIXIXIXIXIXIXIXIXIXIXIXIXIXIXIX",
"IXIXIXIXIXIXIXIXIXIXIXIXIXIXIXIXIXIXIXIXIXIXIXIXIXIXIXIXIXIXIXIXIXIXD.F.F.F.F.D.D.9.q.S.9.S.S.( Z b p a g z z 7.3.3.7.z z z z z g A a A a p p p p p : 9 7 , 7 w r Y Y ) _ _ _ _ _ _ _ _ _ ' ' ' _ ' ' `  .F n ; $ # # # # # = 9 G.G.G.G.U.I.wXwXiXdXdXdXdXsX;Xb.oX}./.|.l.1 %XhX<XxX<X<X<XxXhX<X<X<X<X<X<X<X<X<X<X<X<X>X<XQ.= 1 z.a.s.(.(.|.^.oXb.b.|.j.~.(._.(._./._./.~.b.c.k.}.}.[.[.c.u 0.w.w.q.q.x.x.l.Z - J.kXkXkXkXkXkXkXkXkXkXkXkXhXX.B 0.9.9.9.V J v.!.|.k.M.N.n.M.Z.N.^.N.a.u u s.B.B.).).B.m.n.u.m.m.m.n.y.y.y.y.r.y.p.t.r.y.z q ^ W W W P ; y 4.<.<.<.<.<.1.1.1.1.1.1.r.1.1.=.p q I / ( S.( ( ( H fXSXzXzXzXCXCXCXCXzXzXzXzXzXzXzXzXCXAXJ.D HXKXKXKXKXtX%.dXLX] & 3 3 ^ ^ 3 3 4 K ^ ^ T T T ! ! ! T L K T ~ ~ ~ ! ! ! ! ! Q P T T T T T I 3 3 3 3 K K ^ 3 3 % ; v / Z U.:XgXfXGXGXGXHXGXHXKXJXJXHXMXsXP.[ 8 2 : m G.;X*X&X|.|.oX=XK.wXHXKX0X; + # = N o.J.X.m Z +X*X.X*X*XfXGXJXJXJXLX@.K K L L L L L L L K K I 7 A Y.i.0.0  ./ A 8.0.v 3 T ! ! T L 3 L IXIXIXIXIXIXIXIXIXIXIXIXIXIXIXIXIXIXIXIXIXIXIXIXIXIXIXIXIXIXIXIXIXIX",
"IXIXIXIXIXIXIXIXIXIXIXIXIXIXIXIXIXIXIXIXIXIXIXIXIXIXIXIXIXIXIXIXIXIX0.0.S.S.9.S.S.S.V S.Z Z V B b N v : : a A g A A j a a a a p p p p p : < : 9 , 9 9 r 9 r 0 w U E _ _ _ ) _ _ _ _ ' +._ _ ' _ _ ` ' ` } F n = @ # # # # # , m U.G.X.U.wXqXwXeXdXdXdXdXdXuX+X X.X_.'.|.l D <X<XxX<XxX<X<XxX<XxX<XxX<X<X<X<X<X>X<X<X<X>X<X%Xk # k h.j.(.(.(.|.|.z.|.XX|.h.g.(._.[.(.}./.c l.|.b./.[.[.[.|.a z w.q.w.w.x.w.G.p h iXkXkXkXkXkXkXkXkXkXkXkXAX@Xj S.9.9.9.S.Z m +X!.|.j.j.k.g.g.N.N.N.|.4.> > c N.m.B.B.V.n.y.p.m.m.n.n.y.y.y.y.y.y.r.t.y.1.d ^ W W W P 6 # * f <.;.<.<.<.6.1.1.1.1.1.y.y.<.;.u ; r / S.S.S.S.( A ( xXCXCXzXzXCXzXzXCXCXzXzXzXSXzXzXCXzXkXF $.KXKXKXKXKXeX$.L.2 3 3 K K ^ K 4 K K K W T T Q Q T Q P L ! R +.` T I L ! ! R R I T T T ^ K 3 L K ^ 4 3 3 ^ K 3 4 % ; = : b Z I.uXgXdXdXFXGXFXdXdXeX@X] 8 = % ; = m K.*X*X*X|.|.=XoX!.J.I.mXKXmXe X % $ > > : [ Z H K..X.X.X*XaXGXJXGXJXKXyXI ^ L L L L L ^ L ^ T R 5 a C.i.9.Z X.V 8.i.w.9.v 3 I ! R T P L IXIXIXIXIXIXIXIXIXIXIXIXIXIXIXIXIXIXIXIXIXIXIXIXIXIXIXIXIXIXIXIXIXIX",
"IXIXIXIXIXIXIXIXIXIXIXIXIXIXIXIXIXIXIXIXIXIXIXIXIXIXIXIXIXIXIXIXIXIXA A a a A a a v a v A b b b v v v < : p p p : : : : : : p : : 9 : < 1 < 9 9 9 7 8 w w Y ) ) _ _ _ _ _ _ _ _ _ ' ) _ _ _ +.' ' +.' +.] 0 1 # @ # # # & = < N X.( ( U.wXwXwXuXdXdXdXdXuXv..XXX'.'.oXS h %XhX<X<X<X<X<X<X<X<X<X<XxX<X<X<X<X<X<X>X<X<X>X<X<XO.1 k f.j.f.f.f.!.v.z.|. XoX|.s.(.[._.[._.|.S =X-Xb.|.[.[.oX|.G a 9.w.q.w.x.x.0.- P.kXkXkXkXkXkXkXkXkXkXkXkXiXm V 0.S.9.9.S.B b !.|.c.a.h.j.d.s.M.N.M.Z.a.> > 4.n.n.V.V.m.y.n.n.m.m.y.u.p.y.p.u.y.u.y.r.y.<.p L W W T K & = i =.;.<.<.<.1.1.1.1.1.1.r.y.r.1.;.i = r ( ( ( S.S.( ( A v.kXzXCXCXzXCXzXzXzXzXzXzXzXzXzXzXzXCXwXM sXKXKXKXKXKX8Xq 4 3 K K T L K ^ T T L K K T T T T W ^ Q +.! _ ~ +.~ T T ! R R T T T I 3 I T I P L I L 3 3 3 3 3 2 2 % # # * p A B / N / ( / / v 9 ; # % = : : G &X*X*X*X*X|.=XoX=X+XJ.J.wXKXHX..+ # # & # = v N H b.A.A..X,XfXGXJXJXJXKXPXR K I L ^ L L T R R T ~ E : w.W.i.w.x.q.i.u.u.i.0.N q I L L L L IXIXIXIXIXIXIXIXIXIXIXIXIXIXIXIXIXIXIXIXIXIXIXIXIXIXIXIXIXIXIXIXIXIX",
"IXIXIXIXIXIXIXIXIXIXIXIXIXIXIXIXIXIXIXIXIXIXIXIXIXIXIXIXIXIXIXIXIXIXa A A a p v v p p p p p p p : : : 9 9 : p : < : : : 9 < < 9 9 9 9 9 9 9 q 8 r Y Y Y ) +._ _ _ _ _ _ _ _ _ _ _ _ _ _ _ _ _ _ _ _ +.+.F < < # # @ # # # = v ( B Z ( I.wXwXuXiXdXdXdXuXK.a.j./._. Xc.l J.hXhX<X<XxX<X<X<X<X<X<X<X<X<X<X<X<X<X>X>X<X<X<X<X<X%Xk l f.~.f.J l 1 1 G b.!.!.c.b.|././. X}.~.S b.v.c.oX/.[.[.|.k - 0.w.q.w.w.H.j v iXkXkXkXkXkXkXkXkXkXkXkXkXG.b V 9.S.9.9.D.b m v.v.= > c k.g.s.g.M.M.M.d.d d d.n.n.n.n.u.n.n.m.m.n.y.n.y.u.y.y.u.p.r.r.u.;.: T W W W 2 > y f 4.<.<.<.<.<.<.1.1.1.y.y.y.r.r.2.s : / G.S.( ( ( ( ( ( j G.kXCXCXzXCXzXzXzXzXzXzXzXzXzXzXzXCXCX....HXKXKXKXKX%.4 K L P T ^ K T T T Q ! K ^ ^ T T T T T +.+.^ ^ +.+.+.~ R R R R T T T L I T L L L L L I 3 3 3 3 2 4 2 & % $ O + > $ > $ # & # # $ @ # = = p S K.:X*X*X*X*XZ.oXoXoX=Xv.G.G.I.JXKX@X& $ # # # # h m H Z.A..X.X,XfXfXJXHXHXKXLX+.^ I L L L T T T I T ~ _ ; A q.i.i.i.i.u.u.u.u.w.w.b r 3 3 L 3 IXIXIXIXIXIXIXIXIXIXIXIXIXIXIXIXIXIXIXIXIXIXIXIXIXIXIXIXIXIXIXIXIXIX",
"IXIXIXIXIXIXIXIXIXIXIXIXIXIXIXIXIXIXIXIXIXIXIXIXIXIXIXIXIXIXIXIXIXIXp p p v v p p : 9 p 9 : : : : - < : : : : 9 : : : : : 9 < 9 : < < 8 q r e ) Y ) _ _ _ _ _ _ _ _ _ _ _ _ _ _ ' ) _ _ _ _ _ _ _ ' '  .0 k F $ @ @ @ @ # ; M Z ( Z X.wXwXeXdXdXdXuX:Xb.|..Xs.|./.~.l D hXhX<X<X<X<X<X<X<XxX<X<X<XxX<X<X<X<X<X<X>X<X<X<X<X<XhXJ = v.b.J %.%.9 , ; - - l S c.b.|././.oX|.a.!.&X|.[.[.[.|.c.x - c x.q.w.H.0.- J.kXkXkXkXkXkXkXkXkXkXkXAX@Xv B S.9.9.9.9.S.b m +XJ X O i h.d.d.n.M.M.M.n.n.n.p.n.m.m.u.u.y.m.n.u.y.y.y.y.y.y.y.y.p.y.y.u.4.q P T W ^ % i z 4.;.<.<.<.<.<.1.1.1.1.y.y.u.r.r.2.s a G.D.( ( ( ( ( ( ( C - J.lXCXzXCXCXSXzXzXSXzXzXzXzXzXzXCXCXiXn tXKXKXKX0X3 K ^ W T W T Q ! Q T ! ~ Q K 4 K K K P ! 4X4XT R +.+.+.~ T R ! T P I T L R I L P P L L P 3 3 3 3 3 4 2 % 2 ; % & @ % # # # # # # # = 1 X.K.T.*X*X*X*X*XA.b.b.oXoXoX!.J.J.G.P.FXKXtX< + # # # % 0 m z.Z.A.A.A.,XaXfXfXGXGXKXKX6X3 L L I L T I L 3 3 R +.q v ( V w.i.i.p.p.p.p.u.u.8.V v 3 3 3 IXIXIXIXIXIXIXIXIXIXIXIXIXIXIXIXIXIXIXIXIXIXIXIXIXIXIXIXIXIXIXIXIXIX",
"IXIXIXIXIXIXIXIXIXIXIXIXIXIXIXIXIXIXIXIXIXIXIXIXIXIXIXIXIXIXIXIXIXIXa p p v v v p p 9 p v v : 9 9 : < 9 : : 9 8 9 9 v 9 9 < 9 9 < 9 9 Y / } } } ) ) _ _ _ _ _ ' _ _ _ _ _ _ _ _ _ _ _ _ _ _ _ ' ` ' +.) v k n # # # # # + ; v ( ( ( U.wXuXtXdXdXiXI.v.oXXX|.h./.|.S h %XhX<X<X<X<XxX<X<XxX<X<X<X<XxX<X<X<X<X<X<X>X<X<X<X<X<XhX#X1 k J D yXyX8X8X%.} r , = > - k S f.~.|.|.oXoX|./.[.oXa.H b.k p w.w.w.H.b h iXkXkXkXkXkXkXkXkXkXkXkXpX/ b S.9.9.q.9.q.9.j G !.v.> > j h.s.s.s.g.n.n.y.n.m.m.u.m.m.p.y.n.n.y.y.p.y.6.y.y.y.y.y.p.y.2.2.g q R R T 3 p f :.5.;.<.<.<.<.<.1.1.1.r.y.y.r.r.r.<.d A S.S.S.S.( S.( Z Z b = - #XzXzXzXzXCXzXzXzXzXzXzXzXzXCXzXzXCXP.| FXKXyXI K L ^ ^ W W T ! ~ ! T ! ~ T 4 4 3 K ^ ! 4X4X4X_ +.E ~ R T R R R T T T T T I P P P T T T R K 4 3 4 3 4 4 2 2 q 6 8 2 2 % % % # % % & % < K.*X*X*X*X*X*X|.b.b.oXoXoX|.b.K.P.X.U.dXKXLX| $ # # # ; 9 N v.Z.*X.XA.*XgXfXfXfXGXJXKXyX^ P T I L T L ^ ^ 3 I ` E r X.Z V 8.w.u.i.p.u.u.u.y.q.0.: 2 3 IXIXIXIXIXIXIXIXIXIXIXIXIXIXIXIXIXIXIXIXIXIXIXIXIXIXIXIXIXIXIXIXIXIX",
"IXIXIXIXIXIXIXIXIXIXIXIXIXIXIXIXIXIXIXIXIXIXIXIXIXIXIXIXIXIXIXIXIXIXa a A v b A b b p v p p v 9 v : : : : v v p v v v 9 < 9 9 : : 9 M }  .) ) ) ) _ _ _ _ _ ) ) ) _ _ _ _ _ _ _ _ _ _ _ ' +._ _ _ ` } *.< J < % # # # # # ; M Z V ( wXiXwXuXsXiXI.z.a.|.|.l.|./.f.1 H <XhX<X<X<X<X<X<XxX<X<X<X<X<X<X<XxX<X<X<X>X>X>X>X<X<X<X<X%Xh 1 F 8XyX7XyX7XyXyXyX0XF , ; # + # 1 k H f.f.S f.f.~.v.S !.G - 0.x.x.0.: o.kXxXkXkXkXkXkXkXkXkXkXkXP.v Z 0.9.9.D.8.D.S.h J !.|.a.S h.g.s.d.g.d.d.d.n.m.n.p.n.y.n.m.u.y.n.n.y.y.y.6.y.y.u.y.y.p.;.d s u r E U 5 < c 3.;.;.;.;.<.1.<.<.1.1.1.r.y.r.r.1.1.;.f v S.S.( ( ( / b A v n : 1 h %XSXCXzXCXzXzXSXzXCXzXzXzXzXzXzXCXuXv UXeXT K K W W P T ! ! ~ ` +.~ ~ ~ I 4 3 K L ~ +.4X4X4X+.R T R R R ! ! R R R T T R T P P 6 ^ T ~ E 3 3 3 4 3 3 3 2 3 q R ~ ~ R T I I I I I 6 % h K.,X*X*X*X*X*X*XC.b.=XXX-X=X+X:XI.Z G.$XHXLX@X% $ % # # 9 G x.A..X.XA.*X*XgXgXaXGXJXKXFXY L T L L T 3 K T ^ K +.` q / | ..( V 7.e.w.i.i.i.i.i.w.Z r 2 IXIXIXIXIXIXIXIXIXIXIXIXIXIXIXIXIXIXIXIXIXIXIXIXIXIXIXIXIXIXIXIXIXIX",
"IXIXIXIXIXIXIXIXIXIXIXIXIXIXIXIXIXIXIXIXIXIXIXIXIXIXIXIXIXIXIXIXIXIXa a j b b b b j j a a A j b v p : v p v v p v v v 9 : 9 < : 9 9 / } _ ) ) ) ) _ ' _ _ ) ) ' +.' ) _ _ _ _ _ ' _ +.' ) ' _ _ _ ) w 9 1 J 0 $ # # # # # ; N ( X.wXiXuXwXdXuXJ.z.c.h.s.a.b. X~.l k %XhX<X<X<X<X<X<XhX<XhX<X<X<X<X<X<X<X<X<X<X<X>X<X<X<X<X<X>XiXo.F Q.yX7X7XyX7X8XyXyXQ.0 F } { F w , # $ > > - 1 k c S l S c.h c x.x.m n iXkXjXkXkXkXkXkXkXkXkXkXrXk C S.7.9.9.9.q.q.S.p H oX[.~.j.j.k.k.Z.Z.N.d.d.n.m.m.n.m.m.m.m.p.y.u.n.y.y.6.1.y.y.y.p.u.<.d y > = 9 e 9 h c 4.4.f s d =.6.1.1.1.1.1.1.r.r.r.1.1.<.;.d l Z Z B b v : N P.PXmX/ p : h $XCXCXCXCXCXzXzXzXCXzXzXzXCXCXCXCXX.M } K ^ L T K Q ! ! ` 4X+.~ ~ ~ ~ T ^ ^ ^ ~ +.4X4X4X~ ~ T ! ! ! ! ! ! R R R T T T T P I 3 4 K T T 4 3 3 4 3 2 4 3 3 T ` ` ` ` ` ` ` ` ' ~ T 2 ; n l.&X*X*X.X*X*XZ.s.oXoX-X&X&X=X$Xz.G.I.FXKXtX9 + # # # 9 G b.A..X.X.X*X*X*X,X,XfXJXKXLX+.K T L I T L 3 L T K ~ 4XY / } / / / / / V V e.e.q.i.F.9.X.M IXIXIXIXIXIXIXIXIXIXIXIXIXIXIXIXIXIXIXIXIXIXIXIXIXIXIXIXIXIXIXIXIXIX",
"IXIXIXIXIXIXIXIXIXIXIXIXIXIXIXIXIXIXIXIXIXIXIXIXIXIXIXIXIXIXIXIXIXIXa a j j a a A j j A B B b b b p p v b v p v v v p v : < 9 9 9 M } }  ._ ) ) ) ) ) ) ) _ ) ) ) ' ' _ _ _ _ _ ) _ _ _ ' ' ' _ U w 0 < l J < # # # # # @ = v P.wXeXwXwXeXiXX.H |./.^.j.a.^.|.S l J.<X<X<X<X<X<X<X<XhX<X<X>X<XhXhX<X<X<X<X<X<X<X>X<X<X<X<X>X>X>XO.| 8X7X7X8XyXyXyXyX0X..X...[ ]  .&.&.{ F F 9 # O $ $ = = p J l u J.z.- J.kXkXkXkXkXkXkXkXkXkXkXiXX.h 0.7.9.S.8.9.9.D.V p H !./.j.g.|.b.4.x.|.N.n.n.n.m.n.n.n.m.m.m.m.m.m.n.n.y.y.y.y.y.y.y.y.;.y > * * h v k c 4.4.4.s y * f <.<.<.<.<.1.<.1.y.1.1.<.-.f i : p n < ; N 0XFXKXKXKXP.m H 1 l iXCXzXCXCXzXzXCXCXCXzXzXzXzXzXCX$Xr ^ K K P K W Q ! ` ~ ` ~ ~ T T ~ ~ +.! ~ 4X4X4X4X~ E T ~ ! T ^ ^ ^ T T T T T E T T P P I 3 3 3 q 3 3 2 4 3 2 4 4 I ~ ` ` ` ` ` _ ~ ! ! ! R I % # p H T.*X*X.X*X&Xv.|.=X=X&X=X&X&XG.z.U.sXKXLX| + # # = 9 G K.A..XA.A..X*X*X*XE.gXHXKXKXUXK T L I R T 3 3 ^ ^ ! 5XR r ] / / / / / / / / ( B V 7.( B N IXIXIXIXIXIXIXIXIXIXIXIXIXIXIXIXIXIXIXIXIXIXIXIXIXIXIXIXIXIXIXIXIXIX",
"IXIXIXIXIXIXIXIXIXIXIXIXIXIXIXIXIXIXIXIXIXIXIXIXIXIXIXIXIXIXIXIXIXIXa j j j a a A A j A B B B B v v A b b b v p v v v 9 < : 9 : 8 / } } _  .) ) ) ) ) ) ) _ _ ) ' ) ' ) _ _ _ _ _ _ _ _ ' ' P P 6 6 8 1 n F 1 # # # # # % r o.eX0X$.UXuXwXH S |. X_._./.^.oXb.l F %X<X<X<X<X<X<XxX<X<X<X%X+X<XhX<X<XxXxX<X<X<X<X>X<X<X<X<X<X>X#XF 0XyX7X7XyX7X7XyX0X..@XeXiXrX#X..F e D $.cXmXrX#X{ 0 = + + > > * h : l :XAXkXkXkXkXkXkXkXkXkXkXP.v V 0.7.S.9.S.9.9.9.A 1 H !.~.j.|.j.l > l |. X].V.V.n.n.m.V.m.m.m.m.m.m.m.m.n.m.y.y.y.y.y.y.6.f y y j x S s.6.5.<.;.i * * d <.<.<.<.<.;.<.;.;.5.=.f i y u = < H o.F mXKXKXKXKXKXsXM $XO.1 F iXCXCXCXzXzXzXzXSXzXzXzXzXzXzX%Xq K ^ T W T T ! ~ ` ` ! T 4X+._ T ~ 4X4X4X4X4X4X4X~ T T ! ! ! ~ / ~ T T ^ ^ T T ^ T T T P I K 4 3 3 3 4 3 4 4 3 K R ` ` ` ` ~ ! ! T L P T P I q % = : S K.E..X*X*X!.=X=X|.=X=X&X&Xx.S.G.wXKXKX0X% + % # < G Z.A..XA.A..X.X*X*X&X;XHXKXKXtXI I I ^ T T ^ 3 ^ T T 4XE q / ( / / / / / / +./ / / / / / / IXIXIXIXIXIXIXIXIXIXIXIXIXIXIXIXIXIXIXIXIXIXIXIXIXIXIXIXIXIXIXIXIXIX",
"IXIXIXIXIXIXIXIXIXIXIXIXIXIXIXIXIXIXIXIXIXIXIXIXIXIXIXIXIXIXIXIXIXIXa j A B B j g z g g A g A A A b p b b A b b v v p : < 9 9 9 e } } _ ) _  .) ' ) ) ) ) ) _ _ ) '  .' _ _ _ _ _ ) ' _ ' P 6 6 6 6 t 0 J !.k # # # @ # # F @X$.L.$.6XP.Z S !.}.{._.).(./.~.k l O.hX<X<X<X<X<XhX<X<X<XhX%Xo.hX<X<X<X<XhX<X<X<X>X>X<XhX<X<X>X%XF %.yX7X7X7XyXyXyX8XO.@XdXdXkXhXvXsXwX$.F 0 $.sXGXJXHXsXrX@X%.D 0 < = > X.nXkXkXkXxXkXkXkXkXkXkXrXN B 0.0.9.9.D.D.S.9.S.A = 1 b.~.(.oXh.- O - Z. X.X XN.m.m.m.m.m.m.m.m.m.m.m.p.m.m.p.u.y.u.p.p.y.y.4.;.5.6.6.5.2.;.<.2.=.s s =.6.6.6.;.4.4.3.c c i * * > = D L.wXVXVX%.PXKXKXKXKXKXJX&.@XsXX.: m hXCXCXCXCXzXzXzXzXzXzXzXCXSX$.3 K K P T T T ! R ` ` T ! 4X4X+.~ E ~ ~ 4X4X4X4X` ! ! E T ~ ~ +.~ ~ T T ^ K ^ ^ ^ T T T P P I 3 3 4 3 4 3 4 4 4 ^ ~ ` ` ` ` ! R L L T T R R I q 2 % % 1 c b.*X*X|.!.&X&X|.,X*X&X&XK.S.G.I.FXKXsXr O # # < J T.A.A..XA.A.*X*X*XE.;XGXKXKXFXY ^ I 3 6 T I K T ! ! Q T 5 / S.D.G.S.( / / ( / / / / } } / IXIXIXIXIXIXIXIXIXIXIXIXIXIXIXIXIXIXIXIXIXIXIXIXIXIXIXIXIXIXIXIXIXIX",
"IXIXIXIXIXIXIXIXIXIXIXIXIXIXIXIXIXIXIXIXIXIXIXIXIXIXIXIXIXIXIXIXIXIXa g B B b j B 7.7.z g z B A A j A j B B A v h v h p p 9 < r / } ) ) ) }  ._ } ' ) ) ) ) ' _ ' ' ) ' ) ' ) ' _ _ ) w 6 6 6 6 6 6 t l c.!.J # # @ & 7 9 @.#X0XUX{ M j S |.XX{.'._._./.oXS h < +XiX<X<X<X<X<X<X<X<X<XiXo.O.hXhX<XhX<XxX<X<X<X<X>XhX<X<X>X>XF &.yXyX7X7X7XyXyX8XO.@XnXsXpXnXnXkXnXkXsXeX#X..F ..qXFXHXJXJXHXFXcXtXF : wXlXkXkXkXkXkXkXkXkXkXiX..v 0.0.0.S.S.9.S.S.q.S.p O O x k.M.|.h.- O * s.n.n.d.6.6.n.n.m.m.m.m.m.m.m.m.p.m.p.u.6.6.y.y.y.y.y.u.y.1.=.=.;.;.;.;.<.;.3.z 4.4.4.f i s y * > = = n ..< O.vXAXSXzXzX%X#XKXKXKXKXKXKX0X..sX$X{ ; D xXCXzXzXzXzXCXzXzXzXCXCXkX/ 3 ^ T P T Q ! ! T ` ~ T ~ +.2X~ +.~ ! ~ +.4X4X4X~ ~ ! T R ~ ~ _ ~ ~ T ^ K ^ ^ K K ^ L T R P T 3 4 3 4 3 3 2 4 4 ! ` ` ! ' ! ! L T ! T P T R R E q 2 2 = - G &X*X*Xb.+X&X&X&X&X|.&XK.z.G.U.uXKXLX&.O # # < m b.A.A..XA.A..X.X*X*X:XGXJXKXKX .^ I ^ 3 L K ^ T ~ 4X4X4X^ r U.Y.E.Y.Y.U.( ( ~ ( / / ( / / IXIXIXIXIXIXIXIXIXIXIXIXIXIXIXIXIXIXIXIXIXIXIXIXIXIXIXIXIXIXIXIXIXIX",
"IXIXIXIXIXIXIXIXIXIXIXIXIXIXIXIXIXIXIXIXIXIXIXIXIXIXIXIXIXIXIXIXIXIXa a g A j g z 7.3.3.3.z z g g g B B B B b j h v v v v 9 9 e } } ) ) ) ) ) _ '  .) ) ) ) ) ' ) ' ) ) ) ) ' ' ) ) 6 w w P 6 6 6 2 t k !.|.S t % 7 [ %.$.0X0X&.0 p k l.|.XX}.'./.(.(.|.b.l 1 n L.>X<X<X<X<X<X<XhX<XhX>X..H <X<X<X<X<X<X<X<X<X<X<X<X<X<XrX..| 8XyX7X7X8XyXyX0XO.wXkXkXiXwX#X%XwXiXkXnXhXsXiXrXL.D D o.qXBXJXKXKXrX< L.AXAXlXAXkXkXpXkXkXkXkXL.1 v Z 0.0.S.9.9.9.D.S.Z : O $ l a.s.M.N.l.d 3.d.n.n.=.y s f 6.m.m.m.m.p.p.m.p.p.y.y.;.d d ;.y.r.y.r.6.<.f u y i f =.=.f d g a i * > > O O $ < F J.%XeXkXH m %XhXxXSXSX<XO.KXKXKXKXKXKXFX] #XhX>XH : o.xXCXzXzXCXzXzXCXzXCXCXuXr K K W ^ 4 T ! ! I ~ ~ E E +.+.+.+.~ / +.~ ~ 4X4XE ~ ! ! R ~ +.+.~ ~ T T ^ ^ K ^ K ^ K L T I P T 3 3 3 3 4 4 4 ^ ~ ` ` ! ~ ' T I ! T L T P P R R I 2 2 2 # : S &X&Xb.K.&X&X&X&X&X*X*XH.H.G.I.HXKXwX, $ # : D H T.A.A.A.A..X.X.X*XR.fXJXKXKX6X^ T T L 4 K L ! 4X5X6X5XT 5 F.E.E.E.E.W.F.D.D.D.S.( ~ / / IXIXIXIXIXIXIXIXIXIXIXIXIXIXIXIXIXIXIXIXIXIXIXIXIXIXIXIXIXIXIXIXIXIX",
"IXIXIXIXIXIXIXIXIXIXIXIXIXIXIXIXIXIXIXIXIXIXIXIXIXIXIXIXIXIXIXIXIXIXd a a A A A z 3.3.3.7.z g z z z V z V B j b j v v v b v e F } } } } } ) ) ) )  .) ) ) ) ) ) ) ) ) ) ) ) ' w 6 w w w w w 6 6 6 t , k ~.|.H 1 9 F %.$.$.%.F , l G c.h. XXX'.'.s.a.a.a.l , n n o.iXxX<XhX<XhX<X<X<XxXiXJ J >X<X<X<X<XxX<X<X<X>X<X>X>XhXJ.F 8XyX7XyX7XyXyX8XX.$XnXkXkXrX..h < n D #XwXsXkXkXkXVXtX@XO.m [ L.rXeXM n iXkXlXkXkXkXkXjXkXkXkX$XF ; ; b B Z V 0.7.S.0.S.Z > O O h S s.s.s.h.s.x.d.n.d.g * * * f n.n.n.y.y.y.y.y.y.1.=.s y * d 5.<.<.<.-.d * O > O * j p - > $ $ $ t , 9 ] t [ rXiXxXhXhXxXP.= o.iXhXxXzXVXo.mXKXKXKXKXKXKX#XD eXhXiX..= +XCXzXzXSXzXzXzXzXCXAX#X3 K T W K ^ K Q ! T T ~ ~ ^ ~ ~ ^ ! ~ ~ 4X~ ~ +.~ ~ ~ ~ ~ ~ ~ ~ ` ~ ~ T ^ ^ K ^ K ^ K ^ K L T P T 4 3 3 4 4 4 4 ^ ~ ~ ~ ~ ' _ I T P T T T T P P P E L q q % = l b.&XK.K.+X&X&X&X*X*X*X*XK.G.U.FXKXmXF o # 7 D G b.A.A.A.A.A..X.X*XR.dXHXKXKXyX^ T T T L T T ~ 4X4X5X5X4X^ D.E.E.E.E.E.E.E.E.Y.Y.U.S./ / IXIXIXIXIXIXIXIXIXIXIXIXIXIXIXIXIXIXIXIXIXIXIXIXIXIXIXIXIXIXIXIXIXIX",
"IXIXIXIXIXIXIXIXIXIXIXIXIXIXIXIXIXIXIXIXIXIXIXIXIXIXIXIXIXIXIXIXIXIXi d j a a a g 3.3.8.3.3.3.7.7.7.3.V z j j b b v v b b v *.] ] } } } } } ) ) ) ) ) ) ) ) ) ) ) ) ) ' *.*.w w w w w w w w 6 6 8 7 < k ~.oX!.J , M { [ 0 , : l c.|.oXZ.Z./.'.^.l.!.!.S - < D F H uXhX<X<X<X<X<XhX<X<X>X*.J eX<X<X<X<X<X<X<X<X<X<X>XiXL.*.Q.yX7X7X7XyXyXQ.O.wXxXkXkXiXH n o.X.n < , h G o.P.%XiXiXAXnXiX$Xo.M 9 < P.kXAXkXkXkXkXkXkXkXVXiXH , % % ; N b p p p b a v * + . $ : l l c c c c c c d d - > $ > * i d f f f d f f f d s * > > - i i l j l p 9 $ O X = e D D , r F &.Q.8X#X0XD O.hXhXxX<XiXxX%X1 D rXhXxXxXCX#X0XKXKXKXKXKXKXLXF #XvXiXrXD 1 %XSXzXzXzXzXzXzXCXnX] K K T K K ^ ^ ^ T R T ~ ~ ^ ~ T ^ T ~ ~ +./ ~ ~ ~ ! ~ ~ ! T T ^ ~ ~ ~ I ^ ^ 3 K 3 3 K ^ 3 K T T T 3 3 3 2 4 4 3 ~ +.2X` ' ! ! L I L T T T T T T L R L 3 I % # = Z :XK.l.K.&X!.&X*X*X*XT.K.G.U.uXKXLX$.% # ; D H x.*XA.A.A.A..X.XA.:XuXMXKXKXFXY ^ T T T W T ~ 5X4X5X6X5X^ A E.E.E.E.E.E.E.E.E.E.E.W.S./ IXIXIXIXIXIXIXIXIXIXIXIXIXIXIXIXIXIXIXIXIXIXIXIXIXIXIXIXIXIXIXIXIXIX",
"IXIXIXIXIXIXIXIXIXIXIXIXIXIXIXIXIXIXIXIXIXIXIXIXIXIXIXIXIXIXIXIXIXIXc i a a a d f z 3.3.3.3.4.4.3.3.7.3.V j j b j v b b h n ] } )  . .) *.} ) )  .) ) ) ) ) ) ) ' *.w w w w w w w w w w 6 6 6 6 t t l S |. X|.c.k < 0 1 1 J S S |. X}.Z.k. X'.^.a.|.f.l 1 F { F D $XxXhX<X<X<X<XhX<XhX%XF D hX<X<X<X<X<X<X<X<X<X>XiX#Xn %.yXyX7X7XyXyXQ.$.iXhXxXAXrXH D rXvXiXiXwX@Xo.H ..H o.@XrXkXkXkXkXkXiX@X$XpXkXAXkXkXkXkXkXkXkXvXo.0 < % 7 $.eXrX#XJ.D F N < $ $ = , 1 1 1 1 l 0 0 n 1 # = = 5 ; = > & = > > > h v v : ; : : + X o t t , 0 7 5 q % @ | 0XtXLXFX%.%.0X0X8X8X0X0X] ..iX<XxX<X>XxX$X< F $XiXhXxXSXrXO.LXKXKXKXKXKXKXo.D eXhXiX%Xn < >XAXCXzXzXzXCXCXrXq 3 L L W K K T ^ ^ ! ~ ~ ! ^ / T E +.+.+.~ ~ +.~ / ~ ~ _ ~ ~ T ^ R ~ T ^ ^ ^ 3 3 3 4 3 3 4 ^ T T T 3 3 3 4 4 3 W ` ` ' Q ~ ` ! P I 3 L ! T P P P P T L L I 2 # ; v v.l.H K.K.b.|.*X*X*X&XH.z.G.I.HXLXrX9 O ; M H v.A.A.A..XA.A..X*XE.uXdXLXKXKX+.T T W K P T ` 5X4X5X5X5X~ A Y.E.E.E.E.E.E.E.E.E.E.W.H.( IXIXIXIXIXIXIXIXIXIXIXIXIXIXIXIXIXIXIXIXIXIXIXIXIXIXIXIXIXIXIXIXIXIX",
"IXIXIXIXIXIXIXIXIXIXIXIXIXIXIXIXIXIXIXIXIXIXIXIXIXIXIXIXIXIXIXIXIXIXj j j d d d z z f 3.3.3.4.a.4.4.3.3.z j j j v v b v n F ] } ) )  . .)  . .) )  .) Y *.U w w w w w w w w w *.w w w P P P 6 t t = c.|. X X/.|.h.S S S b.!.|.b.Z.XXZ.b.|.'._.!.l.v.k # *.{ | D n $XhXhX<X<X<X<XhXhXhXrXn D hX<X>X>X<XxXhX<X>X<XhX%Xn 0 [ 8X0X7XyXyX$.$XiXkXkXaX$XG n #XnXiXvXkXkXnXAXnXnXiXuXrXpXAXkXlXAXAXAXkXAXkXkXkXkXkXkXkXkXkXkX%XF *.t 9 Q.vXVXnXVXNXVXvXsXo.1 ..%X%X%X+X%X%X%X%X#X#XF { 0XtXtXtXyXyX0X0XO.7 | 0XtXtXrXrXyXP.[ 5 w U Y ) _ @.@.5X) *.LXKXKXKXLX| Q.0X8X0X8X0XyX{ ..hX<XxX<X>XxX>X< 0 $XiXhXhXzXVXO.mXKXKXKXKXKXKXtX0 %XiXhXeX#X< h iXCXzXzXCXCXCXUX^ ^ T ^ T L K ^ T T ! ~ ~ ! ^ T ~ E +.~ ~ ~ ~ +.+.~ ~ T T R ~ R ! ~ ! R T ^ ^ 3 3 2 4 4 4 K ^ T T L 4 3 3 4 4 K ! ` ~ ` ~ ~ ` Q L _ R 4 L ! T L L L U L L I 6 % ; : k h J J.&Xb.Z.&X*X*X*Xx.G.U.U.dXKXFX..$ # 9 H z..X.X.XA.A..X.X*X,XI.dXJXKXKX6X^ T T T T T ~ 5X5X5X6X5X` 5 F.E.E.E.E.E.E.E.E.E.E.E.H.( IXIXIXIXIXIXIXIXIXIXIXIXIXIXIXIXIXIXIXIXIXIXIXIXIXIXIXIXIXIXIXIXIXIX",
"IXIXIXIXIXIXIXIXIXIXIXIXIXIXIXIXIXIXIXIXIXIXIXIXIXIXIXIXIXIXIXIXIXIXk k a l a j B g f z 3.3.S S 3.3.7.3.V x l n v b b v *.*.{ { { ) ) *.*.) *.w *.8 8 8 0 w w w w w w w w *.w w 6 6 6 6 6 6 6 6 1 k ~./. X/./. X X|.|.oX X X X|.h.Z.Z. X^.]._.h.J k = 9 {  .{ { n #XhXhX<X<X<X<X<X<X<X>Xn ..iX<X>X<X<XhXhX<X>X>X%Xh # $ @ q w } 0X%.qXnXkXlXpX#X..m H wXiXiXiXxXkXnXnXkXkXdXpXkXiXiXiXpXiXlXkXkXkXkXkXkXkXkXkXxXkXkX>XF F 8 8 Q.tXsXvXhXhXbXVXhXvX[ H >X<X<XhXxXxXSXZXSXSXVXQ.tXKXKXKXKXKXKXKXKXtX{ tXLXKXKXKXKXKXKXFXY ' 9X7X7X7X9X9X9X) %.KXKXKXKXLX{ $.0X#X8X0X0X0X .D hX<XhXhX<XhXpXn 1 $XsXvXhXxXSXO.rXKXKXKXKXKXKXJX| ..wXnXhX%Xo.= m xXCXzXCXCXCX%.^ ^ W W K L ^ K ^ ~ ~ ~ ~ T / E I ^ ^ T ! ~ ~ ~ +.~ ~ ~ R E ~ ~ ~ ! T T T ^ ^ 3 3 4 & ^ ^ ^ T T ^ 3 3 3 3 4 3 T ` ` ' ' ! Q ' ! L ! _ R 3 T T T K L R I L T 3 % ; ; ; = h H !.b.|.&X*X*X*XT.z.G.H.uXHXLX0X; $ : N z.Z..XA.A..X.XA.*X:XI.iXGXKXKXyX^ T T T ^ K W Q 2X5X5X6X4X^ 7.E.E.E.E.E.E.E.E.Y.E.E.H.( IXIXIXIXIXIXIXIXIXIXIXIXIXIXIXIXIXIXIXIXIXIXIXIXIXIXIXIXIXIXIXIXIXIX",
"IXIXIXIXIXIXIXIXIXIXIXIXIXIXIXIXIXIXIXIXIXIXIXIXIXIXIXIXIXIXIXIXIXIXn F - u u l p i l a d d J J z z c z x l 1 1 v h p 9 0 *.*.*.0 0 0 t 0 0 *.*.7 *.*.F *.w *.*.w w w *.w P P w w 6 6 P 6 6 6 7 = H ~.^././././. X X X/./. X/./.h.s.^./.).]./.b.l : , F D D [ [ M L.hXhX<X<X<XxX<XxX<X>Xl O.hX<X<X<X<XhXhX<XhX>XF O X O X @ X % &.qXiXnXAXiXP.o.L.O.J.iXnXiXiXrX%XP.P.L.L.J.J.X.o.X.X.o.%XiXpXpXkXpXkXkXkXkXkXkXkXnXH e e 8 O.rXeXsXbXhXvXhXVXhX$XF #X>X>X<XhXxXxXCXNXSXSX#X#XmXKXKXKXKXKXKXKXKXtX&.LXKXKXKXKXKXKXKXsXq ' 9X7X9X9X7X9X7X) 0XKXKXKXKXJX} %.8XyX8X0X8XyX .n iXhX<X<X<X<XxXH = $.iXhXhXxXSX@X#XJXKXKXKXKXKXKXqXn #X$Xo.D L.O.= o.kXCXCXCXVX .K T ^ W T L ^ ^ K ^ ~ ~ E E ~ _ ~ E R ~ ~ ( +.~ ~ ~ ~ ~ ~ ~ ~ ~ ~ ! T T ^ ^ ^ 3 3 4 4 I R R R T 3 4 4 3 4 3 3 R ~ ! ' ~ 2X2X' _ L P _ ! L P ! L 3 P R L L T q % ; ; ; , ; k v.T.|..X*X*X*XR.G.G.H.I.ZXJXdXM O = m v.Z..XA.A.A.*X.XE.:XI.uXMXKXKXtX^ T Q ^ 3 ^ ! T W ~ 5X5X5X/ A Y.E.E.E.E.E.E.E.W.E.Y.H.&.IXIXIXIXIXIXIXIXIXIXIXIXIXIXIXIXIXIXIXIXIXIXIXIXIXIXIXIXIXIXIXIXIXIX",
"IXIXIXIXIXIXIXIXIXIXIXIXIXIXIXIXIXIXIXIXIXIXIXIXIXIXIXIXIXIXIXIXIXIXH J J J J J G G J J *.J J J k k J k k k *.J h v *.J *.*.F *.F F n J J F F J J F F *.*.*.w w w w w w w ' P P P P P 6 6 6 6 7 1 b.^./. X/./. X'././.(./.'./.'./.^.^.^.(.'./.f.l = e [ [ D [ { F O.iX<X<X<X<XxX<X<XhX>X< O.hX<XxX<X<XhX<XxXiXF $ @ O O O O % [ rXkXAXdXqX#X0XyX0X..#XiXkXuXo...{ F D { [ ..X.....O.J.J.I.iXiXpXkXkXkXkXkXpXkXkXkX$X0 F 8 O.rXtXsXvXVXhXxXvXVXVX| F +X>X>XxXxXxXCXVXSXSXdX| tXLXKXKXKXKXKXKXKXKXtX&.JXKXKXKXKXKXKXKX0Xq #.9X9X9X7X9X9X7X6 yXKXKXKXKXLX[ @.8X0X8X0X0X0X| 9 rX<XhX<X<X<XxXJ.= ..rXiXhXhXSXvX..ZXKXKXKXKXKXKXHXF n *.9 , F #X{ ; J.CXCXCXsXY ^ T W ^ T K W T ^ ^ ^ ^ T ~ ~ +.+.~ ~ ~ ~ ~ +.+.~ ~ ~ ~ ~ ~ ~ ~ ! T T T ^ ^ 3 3 3 3 3 ^ T T T 3 3 3 4 3 3 3 3 P T ! R ! ' ` ' ~ ! R P P T ! ! L 3 I R P 3 3 3 % % ; , , = h H |.|.A.*X*X*X:XH.G.H.U.dXJXHXU.+ $ < l.Z.A..X*XZ.*XT.*X:XU.wXdXKXKXFX/ ^ T ^ 3 E 4X4X4X! Q 4X5X2XA F.Y.E.E.E.E.E.E.E.E.Y.S./ IXIXIXIXIXIXIXIXIXIXIXIXIXIXIXIXIXIXIXIXIXIXIXIXIXIXIXIXIXIXIXIXIXIX",
"IXIXIXIXIXIXIXIXIXIXIXIXIXIXIXIXIXIXIXIXIXIXIXIXIXIXIXIXIXIXIXIXIXIXJ J *.{ J J J J J J *.f.J J J G J J J J J J J J J ..J J J J J J J J J J J J J J *.*.7 w w w w w P P P P w P P w P P P 6 t t J ~.|.Z.j.c.j././././././.'. X'./.^.).(._./.|.S 1 9 D [ ] { ] { F H iX<X<X<X<X<XhXxXhX%X1 J.iX<XxX<X<X<X>X>XH O O O $ O O : J.iXkXnX$XO.{ ] %.0XqXO.$XAXAX@X..J.@X$XiXiXiXiXiXsXhXnXAXkXAXAXlXAXkXkXAXkXkXkXkXkXkXJ.e 0 { yXrXtXvXVXVXVXVXVXVXeX0 v.=X>X>XxXzXVXVXZXSXSX@X&.LXKXKXKXLXKXKXKXKXKXyX$.JXKXKXKXKXKXKXKX0X6 ` 9X9X7X9X9X9X3Xt tXKXLXKXKXKX[ &.0X8X#XyX8XyX| 9 >XhX<X<XiXhXxX%X$ F wXiXhXxXCXVX..rXJXKXKXKXKXKXLX] ; 0 0 7 9 O.rXD = Q.CXCXP.U L ^ W W P T T T T T T ~ +.+.+.+.+.+.~ ~ ~ ~ ~ ~ ~ ~ ~ _ ~ / ~ ! ! T T T ^ ^ K K 3 3 3 ^ ^ ^ K K 3 3 4 4 3 3 ^ T R ! T T W ` ~ ! ~ ~ ' ~ ! ! ~ 3 3 R ! R L 2 6 5 % % , < , : H &XT.Z.&X*XR.:XH.H.H.G.:XHXJXrX; = , H Z.*X*X*X&X&X:X:X$XU.@XdXLXKXLX+.T ^ K I ^ ! +.5X5X~ ~ 5X4X5 A 7.q.W.W.Y.Y.E.E.E.Y.( / IXIXIXIXIXIXIXIXIXIXIXIXIXIXIXIXIXIXIXIXIXIXIXIXIXIXIXIXIXIXIXIXIXIX",
"IXIXIXIXIXIXIXIXIXIXIXIXIXIXIXIXIXIXIXIXIXIXIXIXIXIXIXIXIXIXIXIXIXIXJ F J F F J J J J J *.J J J J J J J J J J J J H J J J J J J J J J J J J J J *.*.*.*.0 w w w w P P P w P P w P P 6 6 6 6 7 1 f.|.j.f.b.h.f.^./././.'.'././././.).(.).'./.f.l ; F { [ ] { [ [ { F <X<X<X<X<X<X<X<XhX#X< J.>XhX<XxX<X<X>XH $ O O O + > - z.iXdXiX..; | e % 7 *.D ..iXCXVX..o.iXbXAXAXAXAXAXAXCXCXzXAXAXCXAXAXkXkXkXkXkXkXkXkXkX$X0 , F 0XrXeXtXvXVXVXVXVXVXVX$.n +X=X>XhXxXVXxXVXZXSXMX[ 0XKXKXKXKXKXKXKXKXKXLX0X0XKXKXKXKXKXLXKXKX0Xw 5X9X9X9X9X9X9X8Xw PXKXKXKXKXKX] O.8X#X8X0X0XyXO., %XhXhXxX<X<XxX$X- h $XrXhXxXzXCX#X..HXKXKXKXKXLX#Xr 0 7 % @ t 9 #X@Xn = %X>X/ 3 T T P ^ W P T T T T E +.+.E T T T ^ / / ~ ~ ~ ~ ~ / ~ ~ ~ ~ ~ ! T T T I ^ ^ ^ ^ K ^ 3 K ^ 3 4 4 3 ^ 3 3 3 ^ ~ ~ ~ ! ! ! T ! ` ! ~ ! ! Q ~ ! ' K 4 T R R I 3 L q % % 7 < < ; l c.&XZ..XR.;XR.Y.H.H.G.U.fXJXFX[ $ - C b..X*X*X&X&X:X:XI.J.$.sXHXKXKX#.^ K q 3 L L W 5X5X5X~ 5X5X^ A H.x.D.9.7.3.e.3.5.0.N / IXIXIXIXIXIXIXIXIXIXIXIXIXIXIXIXIXIXIXIXIXIXIXIXIXIXIXIXIXIXIXIXIXIX",
"IXIXIXIXIXIXIXIXIXIXIXIXIXIXIXIXIXIXIXIXIXIXIXIXIXIXIXIXIXIXIXIXIXIXF F J J J J F F J J f.*.J *.F J J F F J J F J J J J J J J J F J F J F J F J *.J *.*.w w P P ' w P w P P P w P P 6 6 6 t 0 k c.oXh.!.oX|.s.Z. X/.'.'././._.'._.).(.)./.j.x 1 7 D { [ [ { { { { D %XxXxX<X<X<X<X<X<XQ.< o.>XhXhX<X<X<XH # O $ + O - a z.K.uXP.0 # } &.@ X % t = O.iXAXiXh #XvXAXkXkXnXnXiXiXiXuXrX:XwX$X$X>XiXkXkXkXiXiXpXkXiXD , e @XeXqXtXvXVXVXVXVXVXVXvXn v.=X>X<XhXxXxXVXVXZXGXrXe sXKXKXKXLXKXKXKXKXKXLX&.tXKXKXKXKXKXKXKXKX&.R 8X9X9X9X7X9X9X'  .LXKXKXKXKXKX] | 8X8X8X8XQ.yXO.= #XiXiXhXhXiXxX>X1 < @XiXhXhXxXSX%Xn sXFXHXKXKX0X0 8 , o X   o , { #Xo.1 1 n 6 ^ T T P T T W K T T E ~ ~ } ^ E E ~ ^ ^ ^ ~ +./ ~ ~ ~ ~ ~ ~ ~ T I I T I ^ ^ ^ K K ^ K ^ K 3 3 4 4 3 K K 3 3 ~ ~ R ! ' ! ! ! W Q ~ ~ ! ! ! ~ ~ ! P 4 L T P L L I I 5 % ; , 0 < l S b.|.A.E.,XR.R.K.K.U.U.iXGXJX0X$ = k Y.*X*X=X&X=X:X;X:XU.o.wXFXKXJX0XI 3 q 3 E ` W 2X5X5X~ 5X5X^ A T.*XE.E.*XT.x.x.x.z.0.H IXIXIXIXIXIXIXIXIXIXIXIXIXIXIXIXIXIXIXIXIXIXIXIXIXIXIXIXIXIXIXIXIXIX",
"IXIXIXIXIXIXIXIXIXIXIXIXIXIXIXIXIXIXIXIXIXIXIXIXIXIXIXIXIXIXIXIXIXIXO.*.J J J J J J J O.J J J f.J J J *.*.J J *.f.J f.J J J J J F F *.J *.F F F J *.*.*.*.w P w ' w w ' w w P P P P w w 6 6 1 S |.|.k.j. X Xj.h./.^././._.).'.'.'._.)./.(.a.1 , F F [ [ [ { { [ { F $XxX<X<X<X<XxXhXxXo.- J.hXhX<X<XhXJ.$ O O $ # = k 0.z.z.m , # 0 8X< X + + + = J.dXAXeXn $XbXkX$Xo.X.H J D D F D D H H o.$XpXkXkXhXiXiXkXkXL.9 8 #XtXrXrXtXvXvXVXbXbXVXVX#Xh +X=X,X<XxXCXnXnXNXSXJXo.{ KXKXLXKXLXLXKXKXKXKXtX&.FXKXKXKXKXKXKXKXLX@.' 7X7X9X9X9X9X9X+.%.KXKXKXLXKXKX{ | 8X0X0X8X8XqXQ.# #X>XiX<X<X>XxXhXJ ; L.iXhXhXxXSXVXD F [ Q.JXJXF o o o . X     t 0 D H O.m ; q L I R T T T T ^ T W T E ~ / T +.+.+.+._ E ^ _ _ ~ _ E ~ ~ I 3 3 ^ I ^ L ^ ^ ^ ^ K ^ ^ 3 3 3 K 4 4 4 K K ^ 3 L ^ 3 K R ! ! ! T P ~ ~ ! ~ ! ! ~ ! W ^ K 3 K K T T T q % ; < v n h k v.&XA.E.,X;XT.I.K.K.U.wXGXJXdXr + b x.*X*X&X&X;X;X:X$XJ.U.wXdXKXKXyX^ 3 2 3 E _ P ' 5X4X~ 5X7X+.v b..X.X.X.X.X.X.X*X*X*X*XIXIXIXIXIXIXIXIXIXIXIXIXIXIXIXIXIXIXIXIXIXIXIXIXIXIXIXIXIXIXIXIXIXIX",
"IXIXIXIXIXIXIXIXIXIXIXIXIXIXIXIXIXIXIXIXIXIXIXIXIXIXIXIXIXIXIXIXIXIXJ f.J J J J J J J J J O.O.*.J *.f.J v.J J f.*.J *.J J { J J J F J *.J *.*.F *.*.*.*.w P P P w P P P P P w P w P P w w t n f.|.|.k.k.oXoXc.a.^.'./.]./. X X X X'./.|.f.l 1 ..) F { { [ [ { { { F @XhXhX<X<XxX<X<X<X..1 #XhX<X>X<XP.= O + O O + > - a : = $ % ; @.| o X + @ X ; %XkXkX$XN rXAXiX..F [ ..O.J.P.@X$XrXrXiXpXkXkXAXkXiXpXkXiX$Xn t *.rXtXeXrXvXnXvXhXvXbXVXbXD F =X=X>X>XxXSXVXVXZXSXNX*.#XKXKXLXLXKXLXLXKXKXKX0XO.LXKXKXJXKXKXKXKXNX{ ' 7X7X9X9X7X9X9X' 0XKXKXKXLXKXKX{ { #X8X8X8XQ.yX%.= Q.>XiXxXhX>XhXlXX.- X.rXhXhXiX%X#X*.t t 7 tXKX%.    . . X X @ , *.*.F P.X.r 3 K T R T T T T W T T T R ~ T ^ R _ ~ +.+._ ^ I _ ~ ~ ~ ~ ^ 3 I R R T T K ^ 3 K K K ^ K K ^ K K 4 4 4 K ^ 3 3 3 L R ! T ! ! ! T P ' ~ ~ Q ! ! Q Q W T W ^ ^ P W T T 6 % ; , 9 M h x b.T.Z.T.E.R.K.K.H.K.K.U.fXKXHXo.> p v.Z.:X&X:X:X:X&X$XJ.I.wXtXKXKXPX/ q 3 3 E T P ~ 2X2X~ 5X5X+.9 x.*X.X.X.X]..XA..X.X.X.XIXIXIXIXIXIXIXIXIXIXIXIXIXIXIXIXIXIXIXIXIXIXIXIXIXIXIXIXIXIXIXIXIXIX",
"IXIXIXIXIXIXIXIXIXIXIXIXIXIXIXIXIXIXIXIXIXIXIXIXIXIXIXIXIXIXIXIXIXIX*.J { J f.J J J J f.J J J J J O.O.J J J J J J J *.J f.*.J J F F F J *.J J F *.*.*.w P w P w P P w w P w P P P P P 6 6 t J ~.|.^.(.f.f.l.a.h././.|.k.h.c.s.s.^./.'.!.S 1 H vX..0 { { [ [ { { { D P.hXxX<XhX<XhXhX<XH < $XiX>XhX%X1 O O + @ O + + + + + + % , M %.7 X + + + X 9 wXkXkX@Xm iXpXiX..#XiXiXnXAXAXAXkXAXAXkXxXkXkXkXiXiXnXkXiXL.n 0 *.@XtXtXvXvXvXvXhXhXVXVXqX, +X=X>X>X<XxXSXVXVXZXSXvX8 tXKXKXKXLXLXKXKXKXKXKX%.%.KXKXKXKXKXKXKXKXLX) 8X9X7X9X7X7X9X9XR 6XLXKXLXLXKXKX&.] 8X8X8X8X@X0X0X, O.iXiX<XhX>XhXxX%X= ..rXhXrXH , 7 , # X & O.LXtXt   X X % 9 *.F F F 0 J.H M 3 L T R T T T W ^ T T T ~ ~ / ^ ^ ^ ^ ~ 4X+.R 3 ~ ~ ~ ~ T 3 I I R ! T T I 4 ^ ^ K ^ K K ^ K 3 K 3 ^ K ^ K K P R ~ ' ~ ! ! ! ! T T ~ ~ ~ Q Q ! Q W W W P K K T ^ W T q 2 ; , 9 D m x b.Z.Z.E.T.T.K.K.G.K.U.G.eXLXJXqX: * H b.&X&X:X;X:X$X$XU.U.wXiXLXKXLX+.I q q T T T ! ~ 2X2X5X6X5XY z.|..X.X.X.X]..X.X.X.X.XIXIXIXIXIXIXIXIXIXIXIXIXIXIXIXIXIXIXIXIXIXIXIXIXIXIXIXIXIXIXIXIXIXIX",
"IXIXIXIXIXIXIXIXIXIXIXIXIXIXIXIXIXIXIXIXIXIXIXIXIXIXIXIXIXIXIXIXIXIXJ J J J { J J J J { J O.J J J J J J J J *.f.O.J f.J J J J J F F F *.*.*.*.*.*.*.w ' P P P P P P ' w w ' w P w P P P t 0 ~.~.|.(.|.a.f.Z.|.|./. Xh.a.h.Z.b.h.|./.|.a.l n rXSX#X< F  .{ [ ] { { [ J.>X<XhX<XxX<X<XhXX.1 J.iXiX#X; O + + O O X O + X o o ; 5 ; $.] X X O O O X 0 wXkXnXP.D nXpXrX..eXkXCXkXkXkXxXkXkXkXkXkXkXkXiXiXiXxXiXiX$XF 0 0 ] $.0XrXtXbXVXvXvXVXVXO.< +X=X=X>X<XzXSXVXVXGXJX#Xe FXKXKXKXKXKXKXKXKXKXJX{ 0XKXKXKXKXKXKXKXKXmX*.3X7X9X7X9X9X9X9X) $.LXKXLXLXKXKX$.F Q.0X0X0X8XyX0X0 D iXiXiX<XiXhXxX$X- D %XiX%X$ O @ O   . . 8 rXKX&.  . . , 0 ] ] *.F v H D r 3 3 I R T T T T T T R E ~ ~ ~ +.~ +.E ^ +.+.~ ^ E ~ ~ / ^ 3 6 3 K T T T T K 4 3 K ^ 3 ^ 3 K 3 4 ^ K ^ K K L ! ! ~ ~ ! T T ! ! P P ~ ~ Q L 4 ^ T W P ^ T W W P W ^ R I 2 % , 9 D m G v.b.T.T.T.x.v.G.U.K.U.S.I.GXJXMXD > k v.K.+X+X:X>X:X%XJ.I.I.wXHXKXLX&.3 2 6 L P R P T W 2X6X5X5X+.m Z..X.X.X.X.X.X.X.X.X.XIXIXIXIXIXIXIXIXIXIXIXIXIXIXIXIXIXIXIXIXIXIXIXIXIXIXIXIXIXIXIXIXIXIX",
"IXIXIXIXIXIXIXIXIXIXIXIXIXIXIXIXIXIXIXIXIXIXIXIXIXIXIXIXIXIXIXIXIXIXQ.*.J J J J O.J J O.J J J O.J f.*.J J J J J J J J J J J J J *.*.*.*.0 *.*.w w w P w P P w P P P w P P ' w P 6 P P P 7 k ~.^.(.(.(.!.|.|./././.|.s.|.oX X|.b./.|.f.l 1 %XzXxX@X7 F { { { ] { [ [ X.iXhX<XhX<X<X<XhXX.: J.uXJ.l $ O O + O O O O O O O % 7 @ | %.% O O O O X O F sXkXpXX.o.nXpXuX..eXAXkXkXkXkXnXkXkXkXnXhXhXpXkXiXhXsXiXiXsX..t , , 9 e D O.qXvXvXbXbXvXn J +X=X=XxXxXSXSXVX%X%XvX] F LXKXLXKXLXLXKXKXKXKXtX) PXKXKXKXKXKXKXKXKXtX) 8X7X7X9X9X9X9X7X6 %.LXKXKXKXKXKX%.e Q.Q.Q.Q.8X8XO.9 0 #XO...H >XhXxX>X< n qXiX%X$       . . . @ &.JXtX@ . . % 0 ] F *.D 0 F M Y I I 3 T R T T T T T ^ ^ / _ ~ ~ +.+.+.T ~ 4X~ ^ / +.~ ~ r 3 ^ T L L T T T ^ 4 3 3 ^ K ^ K 3 3 3 ^ K ^ K ^ T R Q T T T L R ! ! L R ~ ! K L L P P W W P ^ W T T W T T ^ 5 ; ; n D m J H K.T.T.T.b.x.G.U.H.x.S.U.dXLXJXP.> p l.K.+X+X&X;X$X$XU.U.I.R.dXKXKX6X2 3 I T T T ^ ^ Q 4X5X5X6X4Xr c..X.X.X.X.X.X.X.X.X.XIXIXIXIXIXIXIXIXIXIXIXIXIXIXIXIXIXIXIXIXIXIXIXIXIXIXIXIXIXIXIXIXIXIX",
"IXIXIXIXIXIXIXIXIXIXIXIXIXIXIXIXIXIXIXIXIXIXIXIXIXIXIXIXIXIXIXIXIXIXf.J J J J O.*.f.J f.J J J J J *.J J J *.*.*.*.J f.J J J J { J *.*.w *.t w w *.P P P w w ' P w w ' P P w w P P P P 6 < S !.(.(.|.^.oX(.(./././.|.f. XXX/.(.b.oXj.S 1 J.hXxXxX@X; e ] { [ [ { { [ ..$XxXxX<XhX<XxXhXJ.- J.o.: = O O O O O O + O O O % , % F 8X9 . O O O O O O D nXnXiXJ J.nXhXwXD sXkXkXkXkXnXpXkXkXiXiXuXrX$XiXkXhXnXhXiXsX$.# $ t , 7 7 8 *.rXVXvXVX@X1 +X=X=X-X<XzXxXSXrX0 , M 7 e 6XrXPXLXKXKXLXtXtXyX&.8 0XtXFXKXKXrX0X0X0X| w  .) ' 7X9X9X9X7Xt %.KXKXLXLXmX0XD q ] ) ]  .0Xe t 0 8 0 0 0 < @XiXpXkXD < %XiXqXt         .   X e FXLXe   X @ 9 M F ) ] 0 0 e I R R K I R R T T ^ ^ 3 4 K T ~ ~ } ~ +.T ~ +.~ T ~ ~ ~ ~ ^ 2 R E I ^ P R T ^ 4 3 ^ K ^ K 3 4 3 K K K ^ ^ K T T T K K L T ! ! T L R ~ T P R ! ^ K W W T W L K W T W T I 8 ; ; < D D H G.:X&X&XT.G.z.l.H.H.G.G.G.dXFXJXeX9 p c.+Xb.+XI.:X+X+XI.U.wXwXdXKXHXUX3 I R R R T ^ ^ ~ 4X5X5X5X5XI z.*X.X.XA..X].]..X.X.XIXIXIXIXIXIXIXIXIXIXIXIXIXIXIXIXIXIXIXIXIXIXIXIXIXIXIXIXIXIXIXIXIXIX",
"IXIXIXIXIXIXIXIXIXIXIXIXIXIXIXIXIXIXIXIXIXIXIXIXIXIXIXIXIXIXIXIXIXIXJ J J J J J J f.*.J J J J J J J *.J J J *.*.*.*.*.*.J J J *.*.*.*.w w w w P w P w w P P w P P P P w P P P P P P w 7 k c.~.~.(.|.|./.(.^./.^./.j.a.|.^.^.b.b.!.S = D hXxXhXxX%X# 0 F ] { { { { [ D $XxX<X<XhX<X<XxX%Xv N < = O O O O X O O + + o @ 7 % , 0X] o X O O O O O O X.kXnXeX9 @XnXiXqXF iXxXkXiXwX$XqXqXP.o...D n n o.iXkXkXhXvXsXL.% O o # % % t M rXnXhXvXD J +X=X=X=X1XxXSXVX{ o X @ % t 7 9 | FXKXtX} 0 M e w r Y ] PXKXPX8 t 7 t t t 2 t ' 7X9X9X9X3Xt w tXPX&.F F e 9 7 8 8 2 w %.%   # t t % t 7 #XhXiXkXo.- P.iXrX9   . . . . . . t 0XKX$.  X o 8 F [ F [ 0 7 q 3 ^ T I 3 R R T T ^ 3 Y T I ^ ^ E ~ +.^ ! +.+.E E +.~ ~ E ^ 6 E E L 4 T T T ^ 3 3 3 ^ K ^ 4 4 ^ ^ K ^ K K ^ Q T K T T ! ~ ~ ! K P _ ! P R R T 3 K ^ W K W W T ^ T K L I 8 8 , h F D H J.uX,X:X:XK.v.v.H.H.G.S.G.uXFXJXFX..- S b.v.K.K.:X:X$XU.I.I.wXuXKXKXqXq R R R I ^ ^ T 2X4X5X5X5X6X) b Z..X.XA.A.]..X.X.X.XIXIXIXIXIXIXIXIXIXIXIXIXIXIXIXIXIXIXIXIXIXIXIXIXIXIXIXIXIXIXIXIXIXIX",
"IXIXIXIXIXIXIXIXIXIXIXIXIXIXIXIXIXIXIXIXIXIXIXIXIXIXIXIXIXIXIXIXIXIXJ J J O.J J J J J J J J O.J J J *.f.J J J J *.*.J *.*.J *.J *.*.w w P P w P P P P ' w P P P P w w ' w P w P P 6 6 1 S !.g.~.^./.(.(.M.(.^./.'.Z.S a.f.a.S v.c.- F iXxXhXhXxX%X# % *.{ { { D { ..D P.xX<XhX<X<XxXhX%Xv : = O O $ O O + O O O O @ , ; # @.&.@ X O O O O O O + L.AXvX$X9 $XnXiX@XN iXkXdXqXQ.qX@X< = # $ O O X < P.iXnXkXsXiX@X, X O o o O % F vXVXbX@X1 +X=X=X=X=X1X<XSXqX@ o X   o o 7 7 %.KXKX@.  @ % % 8 8 r F FXKX0X  o o o o o o @ ' 7X9X9X9X' 2 e ] $.2 o % & o o @ t % F %.&             t { hXiXkX$X= o.vXiXn     . . . X . X &.LXvX%   X , 0 ] ] ] M , U L 4 I L ^ R R T T 3 ^ ~ +.+.+.~ E R T T ` +.~ ^ E +.~ ~ E T I E I 4 3 T T L ^ 4 ^ K 3 K 3 3 K 3 K ^ K ^ K T T P L +.` ~ _ ~ L L _ ~ T P R P 3 K ^ T W W W W W W W K T T q ; , < D H J J.iXiX>XuXuXT.x.H.H.G.S.S.wXdXLXHX#X< l J H K.K.+X:X+XI.I.U.uXuXLXKXPXY I q 3 3 ^ T ~ ~ 4X4X5X5X5X4Xh c..X.XA.A..X.X.X.X.XIXIXIXIXIXIXIXIXIXIXIXIXIXIXIXIXIXIXIXIXIXIXIXIXIXIXIXIXIXIXIXIXIXIX",
"IXIXIXIXIXIXIXIXIXIXIXIXIXIXIXIXIXIXIXIXIXIXIXIXIXIXIXIXIXIXIXIXIXIXv.J { J J J f.*.O.J *.O.J O.O.J *.J f.f.*.*.1 *.*.n J *.J *.1 *.w w P P P P P P P P ' w P P P w w P P P 6 P 6 6 t 0 !.~.~.~.|.^.(.~.(.(.(.(././.|.b.|.|.b.v.1 1 >XxXxXxXxXxX%X@ $ 9 ] { [ [ [ { F o.>XhXhX<XhXhXhXJ.< ; + $ $ @ + + o O O X $ , 7 % F $., X O O O O O X $ ; $XnXdXP.< rXhXiX@Xn iXhXsX$XyXFX$.X O O O O O X $ n rXkXxXhXsX@X0 . O + o @ 7 [ cXVXvXD m +X-X=X=X-X=X<XxX[ . X o . . o , 8 0XKXLXe   o X X o X 7 ] FXKX&.  . o . .   . 2 ' 7X9X9X9X' 7 #XQ.| t             & 0 ] @.o             t F rXiXxX;X; D vXhXD . . . . . . X X 7 tXKX]   X , 0 ] ] } *.q I I 3 I ^ 3 R R T ^ 3 ^ _ +.~ _ ~ ~ ~ ~ +.+.~ T T +.~ ~ ~ ~ ~ ^ ^ ^ 3 P T P L K 3 3 ^ K ^ 3 K ^ K ^ ^ K K ^ ! T L 3 ! ` ~ ! P K ! ` R L P R P W P R Q ! Q Q 2X! ! P L ! U q ; , = v J.J.%XiXaXiXiXuX:Xb.H.x.G.S.Z I.tXLXJXsXN - m J H K.+X;X$XU.I.I.R.uXLXKXLX6X^ 3 3 ^ E T T ` 2X4X5X5X5X5X^ x A.A.A.A.A.A..X.XA.IXIXIXIXIXIXIXIXIXIXIXIXIXIXIXIXIXIXIXIXIXIXIXIXIXIXIXIXIXIXIXIXIXIX",
"IXIXIXIXIXIXIXIXIXIXIXIXIXIXIXIXIXIXIXIXIXIXIXIXIXIXIXIXIXIXIXIXIXIX*.J J J *.f.*.f.*.J f.J J J J J f.*.*.*.*.*.*.*.*.*.*.F *.*.*.w w P P P ' w w P P w w P P w P ' w P P 3 P K 6 6 , J b.h.f.j.|.|.(.(.(.(.(.(.^./.|.^.^.|.~.l $ #XSXxX<X<XhXxX#X@ @ , F { [ { { [  .D $XxXhXhXhXpXP.h + O @ O + + + + + O O O % 8 , 7 Q.Y X X O O O O X # % < eXnXvXX.n eXsXiXP.v iXsXvXqXcXyX, . O O O O O X # , #XAXkXsXiXwX0 X + + o % ; L.NXbXqX1 H =X=X=X=X=X-X1X>X# . . . . . + 7 8 PXKXFX% o o X o   X 8  .FXKX{         o o . t  .7X9X9X7X' w rXPXrXQ.e & X .     % 0 | &.o           o % e wXiXxXpXn F eXnX..X . . . X . . X % $.LX0XX   ; e ] F { e q I ^ 3 3 L 3 T T T ^ 5 I ~ ^ 3 ^ R E +.+.+.+.T T +.+.+.~ ~ ~ / E ^ 3 ^ T L L L ^ K K K ^ K ^ 3 K ^ 3 K K ^ T ! W L 4 4 K ^ K ^ ! _ ~ P L R T ! ! ~ ! ! ! ! ~ ` ~ ! T L R R 3 ; ; % 9 +X>XiXiXiXiXiXaX&X&X+Xz.z.S.Z G.tXFXLXFXO.= v D H v.&X;X$XK.I.I.I.uXfXKXKX0XT I T T ! R ! ` 4X4X4X` ~ ` r p b.A.A..X.XA.A.A.A.IXIXIXIXIXIXIXIXIXIXIXIXIXIXIXIXIXIXIXIXIXIXIXIXIXIXIXIXIXIXIXIXIXIX",
"IXIXIXIXIXIXIXIXIXIXIXIXIXIXIXIXIXIXIXIXIXIXIXIXIXIXIXIXIXIXIXIXIXIX{ J J J J J J O.J J *.O.J J J *.f.J J *.J *.*.*.*.*.*.*.*.*.w w P w P P P P w P P P w P P P w P P w 6 6 6 6 w t k S S a.a.f.|./.(.(.(.^./.(.^.^././.|.|.S > ..xXxX<XhX<XxXxX#XO O # e ] [ [ { { { D J.hXhXxXhXJ.h $ + + O O O o @ @ O @ O @ 7 9 , %.&.X O @ O O O X @ 7 , D dXdXiXF n eXsXsXL.< wXnXiXeXtXF . O O O O O O O ; < #XAXkXvXnXwX0 X O O @ , 0 tXNXvX{ h +X-X=X=X=X=X-X<XH . . . . .   @ 2 e FXKXyX.   o X o o X 8 &.LXKX .      . . . o 2 +.9X9X7X7XU *.PXBXvXVXtXO.] *.8 & # t { ] .             & 0 %XiXkXkXH h $XbX$.X   X . . . X . @ e tXmX0   % 0 ] D } ) U I L ^ K L 3 T T T ^ ^ E R 3 3 4 3 I E _ _ T T +.+.+.+.~ / ~ ~ ^ 3 ^ ^ T L I L K K ^ ^ K ^ K ^ K K ^ K K ^ ~ ! T P L K 3 3 T ! ` ` ! L L R T T ~ Q ! ! ! ! ! ! ! ~ L I ! T 3 ; # # < @XiXgXiXiXiXiXiX&X&X&Xx.0.G.S.X.rXPXLXLX0X< 1 F G z.J.&X:XK.T.I.I.gXfXJXKXtX/ T T T T T T ~ 4X4X! T ! ! 5 : 7.A.A.A..X.X.X.XA.IXIXIXIXIXIXIXIXIXIXIXIXIXIXIXIXIXIXIXIXIXIXIXIXIXIXIXIXIXIXIXIXIXIX",
"IXIXIXIXIXIXIXIXIXIXIXIXIXIXIXIXIXIXIXIXIXIXIXIXIXIXIXIXIXIXIXIXIXIXJ *.{ J *.J J J O.J J J J O.J O.*.*.*.J *.*.*.*.*.*.*.*.*.*.w w P P P P P ' ' w ' w w ' w P P 6 P P P P 6 6 t < H S c.~.c.S ~./.(.(.(.^./././.^.^.(.|.S > D xXzXxX<X<XxX<XxX#X$ $ $ , F ] { { { { D ..$XhXiXJ.h = + + + O O + + + X + X @ , 0 t [ %.# X + + O O O $ , 9 [ #XkXsXiXh J iXdXiXo.: >XdXdXeX&.% O O O O O O O + < F @XAXhXiXiXrX9 X X X # 7 { BXbXqX1 J =X=X=X=X=X-X-X=X< . X . . . . % 5 | LXKXL.. o o   o . . 0 %.LXLXF     . . . . o 6 +.7X9X9X#.t  .FXNX#XrXBXbXtX@XQ.O.M , 8 e o             & 9 L.iXiXzXJ.- #XnX@X#     X . .   X X , &.FXo.% # 0 ] [ ] M U T K K 3 L 3 L T T ^ 3 ~ R 3 3 ^ ^ 3 ^ ^ ^ ^ +.+.~ +.+.~ ~ ~ T 3 3 T T T L I L 3 ^ 3 K 3 3 K K ^ K K ^ 3 ^ ! T W T ^ W P T ! ` ` ` ' L P R P T ~ ~ ! ! ! ! ! ! ! ! K I ! R q ; % # 1 +X>XiXiXiXiXiX;X&X&XK.v.Z Z S.X.0XdXLXKXtXD = h F v.K.+X:XI.T.U.I.R.gXGXKXFX_ R T T T T W ~ 4X2X~ ` 5X5X~ 5 b z.C..X.X.X.X.X.XIXIXIXIXIXIXIXIXIXIXIXIXIXIXIXIXIXIXIXIXIXIXIXIXIXIXIXIXIXIXIXIXIXIX",
"IXIXIXIXIXIXIXIXIXIXIXIXIXIXIXIXIXIXIXIXIXIXIXIXIXIXIXIXIXIXIXIXIXIXv.J J J f.*.J J J J J J f.J J J J *.J J *.*.*.*.*.*.*.*.*.*.w P w ' w P P P P P P P w P w P P P P P P w P 6 t < v.S !.oX!.z.j.|.(.(.(././. X'././.~.f.= F hXxX<XxX<XxX<XxX<X#X# @ @ % 0 [ [ [ { { { D J.wXJ.< $ + + @ @ X O O @ O O X O % 0 7 e $.7 X + o + O X @ % 9 { D $XAXiX@X1 o.sXvXiXJ.v uXvXhXeX[ # O O O O O O X # { O.#XAXnXdXiXeX9 X O X , 9 @XNXvXo.1 v.=X=X=X=X=X-X-Xv.O . X   X . . % 5 0XKXKX| . X X . . . o Y L.LXHXq       X       t ' 7X9X9X#.& | BXvX&.{ @XBXGXFXMXvXeXrX0XO.,             o 8 ..iX>XlX%X- o.sX$X=   . . . . . . . % 0 #XrXn , 0 ] ] } ] Y T ^ 4 L 3 3 ^ ^ T ^ 3 R ^ 4 3 L I I ^ T E ~ +.+.~ +.+.+.~ ~ / 5 ^ T T T T L L ^ 4 ^ 3 3 ^ K ^ K ^ K 3 ^ Q T W ^ W ^ W W ! 2X2X2X` ' T L R U P ! _ _ ! ! ~ ! Q ! ! L L R R 3 % # # , v.>X>XiXiXiXiX;X:X&XK.z.z.G.G.X.I.tXLXLXLXL.9 9 m z.K.+X%XR.K.U.I.R.gXfXKXLX5XT T T T T ^ ~ +.~ +.` ` ~ E r : b c l.Z.Z.A..X*XIXIXIXIXIXIXIXIXIXIXIXIXIXIXIXIXIXIXIXIXIXIXIXIXIXIXIXIXIXIXIXIXIXIX",
"IXIXIXIXIXIXIXIXIXIXIXIXIXIXIXIXIXIXIXIXIXIXIXIXIXIXIXIXIXIXIXIXIXIXJ *.@.J *.J J @.O.J J *.*.J J J J *.*.*.*.*.*.*.t *.w w w U ) P P P P P P ' P P w ' P P P P P w w P P P 6 t 1 H v.f.!.!.b.c j./.^.(.(./.|./. X|.~.a.1 0 >XzXxXxXxXxXxXxXxXxX#X# @ @ @ % F [ ] { { { [ ....< > O $ + @ O O O X O O @ O % 0 9 0 $.] X o + + @ o @ # 7 F ] ; rXkXnXJ.= @XdXiXiX@XN iXiXhXiXo.% X O O O O O O , #XL.#XAXkXhXkXwX, X O + 8 0 sXVXeX0 k &X-X=X=X=X=X=X=Xh . X . . . X X 7 w yXKXLXe . X . . .   o e Q.KXFX,     . X     o t ' 9X9X9X+.o { tXsX0X{ ..@XsXBXHXGXBXGXJXVX#X*.@         X 7 D rX>XkXuXh o.iXiX, . . . . . . . X o 7 F L.n , 8 ) F ] F / U 3 3 L 3 3 K K T ^ K I 3 4 3 T T T ~ ~ ~ +.+.~ +.~ ~ / ~ ~ E 3 T T T T L T L K ^ K K ^ K ^ K ^ K 3 3 ^ T T W W ^ T P Q ~ 2X2X` ' ! T L T R L 3 L L T T T I } ~ ! T L L T q 2 , # = X.>XiXiXuX;X>X;X+XK.v.H z.z.X.X.0XtXFXLXLXeX0 ; n G v.b.+X:XR.R.K.R.gXfXHXKXUXT T T T T T ~ E _ +.^ T ! E 8 , M N N m Z V z.z.IXIXIXIXIXIXIXIXIXIXIXIXIXIXIXIXIXIXIXIXIXIXIXIXIXIXIXIXIXIXIXIXIXIX",
"IXIXIXIXIXIXIXIXIXIXIXIXIXIXIXIXIXIXIXIXIXIXIXIXIXIXIXIXIXIXIXIXIXIXJ *.*.f.J O.O.J *.f.J f.f.J O.*.*.J *.*.*.*.*.w w w w w w P P P P P w P ' P w P w w w P P P P P P P w P t # J !.c.S S S S a.|.^.^.(.(.^././.^.~.f.k 1 %XzX<X<XxX<X<X<XxXxXxX#X$ @ @ @ # 8 ] [ { { { [ [ N ; O + @ + X O O $ O O o O @ , 9 9 @.| o X + o X + O @ 8 e | t F nXAXnX..; $XsXiXiX$XN uXkXsXiXqX< O O O O O O $ ] qXo.L.lXkXgXiX$X; X O % 9 { bXVX#X1 c.=X=X=X=X=X-X-Xb.$ . X . X . . o 8 / tXKXLX8   o X .     @ e 0XKXPX%     . X   o o w @.7X9X9X) o | #Xo.eXrXQ.o.$.@XmXBXBXNXNXGXMXmX0X] @     . 7 n $XiXpXhXm ..iXsX0 .   . . . . . . . % 9 F L.n , *.D ] e e w 3 3 L 3 3 ^ ^ ^ K 3 3 4 4 3 L T T ! ~ ~ ~ ~ E E ~ E ~ E / T 3 T E R T ^ T I ^ ^ ^ K K ^ K K ^ 3 3 3 ^ L T ^ T ^ K W ~ 2X2X~ ' ` ` ' T L U I 3 6 q 3 3 ] 0XrX .R R ^ 3 L q % t $ # H ;XiX>X>X>X>X:X+Xv.z.H z.l.H Z P.eXdXFXLXdX| < < F c.b.+X&XK.R.R.R.R.gXfXKXyXT T T T T T E T ~ I I +.5X4XE 8 / / / / / Y M N IXIXIXIXIXIXIXIXIXIXIXIXIXIXIXIXIXIXIXIXIXIXIXIXIXIXIXIXIXIXIXIXIXIX",
"IXIXIXIXIXIXIXIXIXIXIXIXIXIXIXIXIXIXIXIXIXIXIXIXIXIXIXIXIXIXIXIXIXIXJ J *.*.J J *.*.f.*.J J *.*.f.J J J J *.*.*.*.*.w w w P w P P w P w P P w P P P P P P w w w w 6 6 w 6 t t t ~.!.f.S a.f.j.|.|.|./.^././.^. X(.h.k - #XkXxX<X<X<X<X<X<XxX<X<X#X$ @ # @ @ t n [ [ [ [ [ [ [ 0 + O o + + O + O O @ @ o , 9 0  .%.% X + + @ @ O + , 0 O.{ o L.ZXkXhXM n rXdXiXdX#Xh $XnXiXiX$XF O O O X X X 7 O.qXO.#XAXT.6.d.7.= X O , 0 #XVXvXF h +X-X=X=X=X=X-X=XG X . X . . . . o 8 | LXKXsX%         .   @ e yXKXtX&     .   X o o 6 ' 9X9X7Xw 7 0XQ.F Q.tXcX@XO.| o.rXVXNXVXVXNXGXHXMXrXO.% X , , J.pXkXxXG h uXnXn . . . . . . . . . # D tXGX&.7 ] ] } F e r q L ^ K K ^ K K ^ K 3 4 4 3 ^ T T Q ~ ~ E R T T ^ E E T ~ E I ^ T E ! L 3 ^ T ^ ^ ^ ^ 3 K ^ K 3 2 & L ^ K K T W T Q ~ ` ` ` ' 2X` ' _ P L 6 I U q % 8 qXJXdXY ! W T L T I % , # O v >X>X>XiX>X;X%XK.c.G H z.v.Z C P.qXtXPXFXFXL.0 : < H b.K.+XR.K.H.I.I.gXGXKXFX/ T T T T T R q / q _ 4X^ T _ I r Y / / / E E / IXIXIXIXIXIXIXIXIXIXIXIXIXIXIXIXIXIXIXIXIXIXIXIXIXIXIXIXIXIXIXIXIXIX",
"IXIXIXIXIXIXIXIXIXIXIXIXIXIXIXIXIXIXIXIXIXIXIXIXIXIXIXIXIXIXIXIXIXIXG J J F F J F J J J J J J J J J F F F *.*.*.*.w w w w P P w P P P P P P P w P 6 6 6 6 q 3 3 2 6 3 2 6 % = k b.|.!.h.j.|.|. X|.j.(./././.|.|.f.S = o.xX<X<X<X<X<XxX<X<XxX<XxX#X# $ @ @ @ @ 7 F [ [ [ { ] [ ] , X @ O + o + o + O O ; 9 0 ] $.0 o O @ O o @ O % 0 ] %., & $XAXAXuX< F eXdXiXiXJ.l $XiXiXiX:XD O X O X X % e Q.0XQ.@XkXC.1.6.3.= o % 0 0 rXZX@X1 J =X,X=X=X=X=X=X!.t X . X . X . . @ 8 $.LXKXyX. . X         & e tXKX0Xo   . .   . .   6 #.9X7X9X6 *.PXtXQ.{ $.qXNXeXQ.D o.@XsXVXNXNXVXNXZXJXBXrXO.8 , h $XiXpXX.u $XiXn .   .   X     X 9 #XMXJXJX$., F ] [ *.#X#X) q 3 L ^ 3 K K K K ^ K K ^ W ^ T W T W T R R T T T T T E E R I 3 I T I 3 4 ^ ^ ^ K ^ ^ 3 ^ L 2 & 2 Y L ^ 3 L W Q ` ` ' ` ` 2X2X` ` ' E T q 6 6 w &.0XBXJXqXq R T T T T T % ; = + - %XiX>X;X>X:X+XK.S G z.v.l.Z b %.tXsXdXFXLXrXM 1 = J J.b.&XK.T.H.I.I.uXZXKXHX+.T T T ^ T T 6 Y 3 E I R ~ ~ / q E / / / E E E IXIXIXIXIXIXIXIXIXIXIXIXIXIXIXIXIXIXIXIXIXIXIXIXIXIXIXIXIXIXIXIXIXIX",
"IXIXIXIXIXIXIXIXIXIXIXIXIXIXIXIXIXIXIXIXIXIXIXIXIXIXIXIXIXIXIXIXIXIXF F F F F F F F J F *.J J *.F *.*.F *.*.*.*.*.w w P P P P P P P P P P 6 6 6 6 6 3 2 2 2 2 2 2 2 5 8 8 t l c.!.|.j.h.~.|.|.~.f.S c./.^.^.~.h.S - n hXxX<X<X<X<X<XxXxXxX<XxXxX#X$ $ # @ @ # # 0 ] [ { { [ ] { F # X O @ + + @ @ X % , 0 F $.] O o O o O O o # 0 0 $.] X ; iXAXkX@X# D sXiXiXvXO.h $XiXiXkXrXH $ X O o + , { 0XqXrX@XiXT.y.y.7.> . ; e D kXkXo.l v.-X=X=X=X=X=X=XS X X X . . . . . % r 0XKXKX&.  . . . .     % ] PXKX0X    .     .   o t #.9X9X8X& | BXVXcXQ.D | #XcXVXeX@X{ $.#XeXZXNXNXNXNXBXBXMXrXO.D H J.:XG.* H ;XJ.=         @ e $.tXGXJXSXJXo., F ] { 0 0XBXtX%.E w L L T ^ ^ ^ K K ^ K K ^ K L ^ T T T T T T T T T T R R T T ^ 3 3 2 3 ^ ^ K K K K K ^ q & & 3 R P L L L ~ ` ` ` ' ' ` ` ' ' ' _ E I q q @.rXBXHXHXHX$.6 T T ^ ^ W T 2 % # + = X.aXiX>X;X+XK.v.H H z.c.v.H C o.tXdXtXFXFXFX{ , # 1 c.b.!.&XT.H.H.U.R.fXHXKX6X^ T T T T T q r U 3 ^ 4X5X~ +.q U E / E / E E IXIXIXIXIXIXIXIXIXIXIXIXIXIXIXIXIXIXIXIXIXIXIXIXIXIXIXIXIXIXIXIXIXIX",
"IXIXIXIXIXIXIXIXIXIXIXIXIXIXIXIXIXIXIXIXIXIXIXIXIXIXIXIXIXIXIXIXIXIXF F F F F F F F F n n n *.*.0 0 w 0 0 w w w w 6 6 P P P P P w P 6 6 6 t 6 2 2 2 2 2 2 2 5 8 w q q 8 t ; J !.~.(.j.j.^.|.f.c c S f./.|.~.f.S 1 1 %XxXhX<X<XxX<X<X<XxXhX<XhXxXo.# # $ @ @ # @ t n [ [ { { { [ ] 0 @ O + + @ o O @ 7 9 F O.%.% X O O O O O X , 0 { &.; + b :XlXAXo.$ H iXiXiXnXX.h $XsXiXkXiXo.= X O O # e &.0XtX0X..$XT.y.1.z + @ 9 9 J.kX$XF J =X-X=X=X=X=X=X+X1   . . X . . X . % e yXKXJXY . . .   .     &  .FXKX%.  . .   .     X w ' 7X9X5X& Q.cXvXNXVX#XD { Q.tXFXGXqXQ.O...#XvXNXNXNXNXNXNXBXBXsX0XP.J.D h m X.H n ; = 0 ..0XcXGXJXSXSXSXJX| < F F { *.0XBXFXFXPXrX8X| R ^ ^ ^ ^ ^ L K ^ K K ^ L W T T T T T T T T T T I T T T I I q I I I 3 ^ K K ^ I 2 o o 3 I L L 6 L ` ` ` ' ` ` ' _ _ R U P U ) %.qXMXJXJXJXJXNX[ ^ T L ^ ^ T T 2 & @ # > G <XaX,X:X&XK.z.H H G H z.z.Z o.tXtXtXmXFXHX@X9 = 1 G c.K.K.T.K.H.K.R.gXfXJXUXK T T T T I I q / _ 4X4X5X! +.T U E Y E / / ! IXIXIXIXIXIXIXIXIXIXIXIXIXIXIXIXIXIXIXIXIXIXIXIXIXIXIXIXIXIXIXIXIXIX",
"IXIXIXIXIXIXIXIXIXIXIXIXIXIXIXIXIXIXIXIXIXIXIXIXIXIXIXIXIXIXIXIXIXIXj k v j l h 0 k n n k n n *.0 8 8 6 7 8 6 6 6 6 6 6 6 6 6 6 6 t 6 t 6 2 2 2 6 t 8 r r w Y e e e q 7 ; 1 v.!.~.~.j.~.|.a.k a.c.b.S |.|.f.S l = D iXhX<X<X<X<X<XxX<XxXhX<XxXxXo.# $ $ @ @ # @ % 9 F [ [ { { ] [ D 9 @ X + O + @ , 8 e @.%.7   O O O O O O # 0 *.%.M + O z C.,XiXF # D iXiXiXvXH l %XiXpXAXuXJ.$ X O X , ] 0X0XvXD # [ J.5.8.y O # e 0 %X>XJ.n o.,X=X&X=X=X=X=Xv.O . . . . X . . . 8 ] FXKXFX8 .   . . .     % &.LXJX]     . .   .     t ' 7X7X' % qXtXO.eXNXVXqX{ F o.rXBXZXbXqX..{ O.@XtXVXNXNXBXBXBXGXBXMXnXeXqXiXsXvXeXeXeXcXFXGXSXSXSXJXSXSXGX{ 7 F ) ) F rXBXFXBXBXNXMXPX0X%. ./ U T I I T ^ K L ^ ^ ^ T T T T T T T T T T I T I I I I I L K ^ K 3 3 I 8 % o @ q 3 I I 3 ^ ' ` ' _ _ ' ! R I U } %.0XtXMXGXJXZXGXJXJXtX8 L T K P ^ ^ T 6 # = @ $ m iX,X;X:X:XT.K.l.z.H z.H v.G.X.0XwXeXdXFXFXtXF < , k c.b.&XZ.T.b.K.U.gXfXHXtX^ ^ T T T T Y q T +.4X4X4XW 4X) I / / / / / E IXIXIXIXIXIXIXIXIXIXIXIXIXIXIXIXIXIXIXIXIXIXIXIXIXIXIXIXIXIXIXIXIXIX",
"IXIXIXIXIXIXIXIXIXIXIXIXIXIXIXIXIXIXIXIXIXIXIXIXIXIXIXIXIXIXIXIXIXIX0.Z C B b b b v h h n h < < 5 5 6 6 6 6 6 2 t 6 5 2 6 q 6 3 6 w w w U U w 8 q w r e e Y e e r r r ; , l c.|.|.~.(./.~.S a.b.|.f.J j.a.x 1 - 1 %X<X<X<X<X<X<XxX<XxXxX<X<XxXxXO.o @ # @ @ @ # @ # 0 [ [ { { { { ] F 8 # o o O % 0 0 O.$.e X O O O O O O O 7 e $.&.o X > 8.6.:XwX, + X.iXiXiXiX..h P.iXpXkXiXJ.> O + @ r %.0XtXtX% X O < a u O X % 0 m >X=XF F +X=X=X&X&X=X=X=Xk . . . X . . X . o 7 &.JXKXtX% o . .     .   % %.KXLX8       . . .   . 2 ` 7X9X) 0 tXrXD O.eXZXBXtXQ.D O.@XeXbXBXtX#XO.{ O.L.#XqXtXvXbXVXNXZXZXGXZXJXJXJXJXJXJXJXSXGXSXZXNXsXvXSXGX{ 7 *.] ] [ tXNXGXZXNXBXBXNXmXvXtXqX#X@.Y L ^ L L ^ I T T T T T T T T T P T T T L L L K L K K ^ ^ K ^ ^ q 2 o @ % Y 2 L P 6 3 R E E E I L q ) @.8XtXmXBXJXHXJXGXGXGXGXJX#X2 ^ T ^ L ^ L T 6 ; + # $ 1 :X1X;X:X&X&Xb.v.l.z.z.H l.v.o.P.rXtXtXsXFXFX$.9 < h H K.&XT.K.H.x.U.R.fXGXdXE T T T T T E U 3 R +.4X~ ! 5X+.r Y / / / / / IXIXIXIXIXIXIXIXIXIXIXIXIXIXIXIXIXIXIXIXIXIXIXIXIXIXIXIXIXIXIXIXIXIX",
"IXIXIXIXIXIXIXIXIXIXIXIXIXIXIXIXIXIXIXIXIXIXIXIXIXIXIXIXIXIXIXIXIXIXw.0.0.Z Z Z C Z B b k l b h p < 7 9 q q q w w w r e e ) ) ) U U P ) ) ) ) q 0 r e e e e e e e w 8 % < G S ~.|.~.~.|.~.S f.!.b.S x H l - = ; 0 rXhX<X<X<X<XhXxXxX<XxX<X<X<XxX..@ # # # # @ @ @ O % n D ] { { { ] } F 0 t @ @ 7 0 [ $.] O X $ O O O @ O , 0 &.0X2 X O - 5.w.aXJ.@ + ..eXiXsXiXH l J.kXfXAXiXJ.O X O % F @XeXmX$.  + X + O + O X , , J.,XJ.l H %X=X&X|.&X=X=X%X#   . . X X . . . o 9 8XKXKX0XX               % 0XKXFX%       .         % _ 7X7X*.*.mXmX#X| | rXNXBXbXqXQ...O.#XrXsXtXrX#X$.....D o.#X#X$.#X@X@XqXeXeXvXhXvXvXvXvXsXrXrXrX%X#XrXSXBXF 7 F ] ] O.cXNXZXBXNXNXNXNXBXBXBXBXMXcXtX0X&./ I K 3 3 3 K ^ ^ ^ ^ ^ I L L ^ ^ ^ K L L 3 K ^ K L L 6 q 2 o o X , ] 8 I q 6 3 q 2 6 q ) @.0XrXmXMXFXFXGXBXZXZXZXZXZXGXGX{ 2 T L K T T ^ I I # + # # = J.aX;X;X&X&XK.G.v.z.z.S H S J.P.tXsXtXtXsXmXsX{ 9 - k v.K.T.T.Z.x.K.I.fXGXfX&.^ T T T T / / q 6 T T T +.5X4XI Y / ( / / Y IXIXIXIXIXIXIXIXIXIXIXIXIXIXIXIXIXIXIXIXIXIXIXIXIXIXIXIXIXIXIXIXIXIX",
"IXIXIXIXIXIXIXIXIXIXIXIXIXIXIXIXIXIXIXIXIXIXIXIXIXIXIXIXIXIXIXIXIXIXq.0.0.0.Z Z Z Z Z Z Z B B B b N v 0 r w U U ) F N N / ) ) ) U U w ) ) ) Y w r r r e e e e e r r 8 % F f.a.f.|.j.g.~.(.b.a.b.h.v.G h : = , ; 0 %XhX<X<X<X<XhXxXxX<X<XzX<XxXxX..o # # @ @ @ @ @ @ @ , F } { { { ] ] D F e , t 0 D $.{ $ O $ O O O O $ % 9 e 0X] X @ O u 8.C.uX0 X = ..iXsXiXiXG l J.,XaXlXpXX.O + + 8 | yXyXFX*.. + + O O O X O 7 0 $X=XJ l +X=X=X=X+X&X=X=XH X . X X . . . X . @ r rXKXKX|   o   . . . . . 2 yXKXtX%     .     .     % +.7X7Xw { VXBXcX@X| { #XtXFXBXbXrXQ...| o.#X#XqXrX@X#X#X$.#X$...O...O.o.o.o.o.O.#XL.#XQ.o.$.@XqXsXhXSXSXNXe 7 e ] F %.mXNXBXNXNXNXNXBXBXBXBXBXNXBXBXBXMXtXqX8X@.) U w q q 3 3 3 3 3 3 3 3 3 3 4 3 3 3 3 L 6 6 q 8 o X o X 7 F r 6 8 6 r ]  .%.0XtXmXBXFXGXBXZXNXNXNXZXSXGXZXSXJXNXe 3 ^ ^ 3 K L ^ T I % @ @ $ = H >X;X;X;X&XK.z.H H S S S G G.qXsXdXtXtXtXdXFX#X9 - - J c.T.T.K.x.H.U.gXHXfX6X^ T T T T Y / E Y E ~ +.4X5X5XR Y / S.( / / IXIXIXIXIXIXIXIXIXIXIXIXIXIXIXIXIXIXIXIXIXIXIXIXIXIXIXIXIXIXIXIXIXIX",
"IXIXIXIXIXIXIXIXIXIXIXIXIXIXIXIXIXIXIXIXIXIXIXIXIXIXIXIXIXIXIXIXIXIXq.9.9.0.0.0.0.V Z Z Z V V V V B b v N e r Y *.D N N M E ) Y U U w w U Y ) e w r e e e e e w w r 5 ; J v.S S b.g.g.~.|.!.a.c.!.S l < % 2 % ; 0 %XhX<X<X<X<X<X<X<X<X<X<X<X<XzX..$ # # @ @ @ @ @ @ O # 7 F ] [ { { { { ] D F F e | | # X O O O O $ X @ 7 e 0X$.@ X + + - z.G.D O @ M O.eXiXiXrXG Z l.x.x.&XpXD X O % 0 %.tXtXqX& o + o O O O + # 9 D >X+X- J %X=X=X=X=X=X=X&X<   X . X X X . .   % e PXKXKXe         .       8 tXKXtX+     . . . .     & _ 7X7XU Q.BXNXVXNXtX%.O.O.qXmXBXBXNXeX@Xo.O...O.#XL.L.@XrXqXrXeXeXtXsXcXeXeXeXeXeXeXtXsXhXvXNXNXZXZXNXGXMX0 8 F ] ) %.mXNXZXNXNXNXNXBXNXBXSXBXBXNXBXBXGXBXFXFXmXPXtXrX0X6X&. .] Y e q 8 2 2 2 2 6 4 2 4 2 2 2 7 5 % ; % 7 0 F F ] %.Q.0XvXmXFXFXGXBXGXBXNXNXNXBXNXZXGXGXGXZXGXJXeX8 6 3 4 4 2 4 K L I % + # $ = G iX>X>X;XI.J.z.H H G J S S X.rXdXdXtXwXdXtXdXtXn ; = = l x.K.b.H.H.H.gXfXfXUX3 T T T I R E / / E 4X4X4X5X5X~ / G.Y.F.( / IXIXIXIXIXIXIXIXIXIXIXIXIXIXIXIXIXIXIXIXIXIXIXIXIXIXIXIXIXIXIXIXIXIX",
"IXIXIXIXIXIXIXIXIXIXIXIXIXIXIXIXIXIXIXIXIXIXIXIXIXIXIXIXIXIXIXIXIXIXw.9.0.0.Z 0.0.Z V Z Z V V V Z V B Z N b v / ( ( Z N N / E U *.*.r r U Y Y w e r r e e e r r q 8 5 < G l.f.S c.b.b.!.!.!.S H G h = ; 2 5 5 ; : $XhX>X>X<X<X<XxX<X<X<X<X<XhXhX..# # # # # # @ @ @ $ # # , D { { { ] { { ] ] F F ] , O O O O + o o O , 0 %.0X, X X $ O $ * * @ & 0 L.o.eXiXiX$XH K.x.5.1.C.;X0 X O , F $.tXFX|   o O O o O O o , e P.,XH 1 v.=X=X&X=X&X=X=XJ.$   X . X X . . . . t  .FXKXFX7   . . . .     . r PXKXyX.       . . . . . & ) 7X8Xw Q.BXvXrXNXBXvX0XO.Q.#XrXVXBXBXNXBXmXtX@X#Xo.....o.O.O.$.#X@XqXrXrXeXqXqXsXvXeXrX%X@X%XqXqXVXVXJXvX, 7 F F F $.BXNXNXZXNXNXNXNXNXNXZXZXZXZXZXZXZXZXNXBXBXBXNXBXMXmXmXmXtXtXqX$.%.| { ] ) F ] | { | | &.O.%.Q.Q.@XqX0XrXtXsXMXFXNXLXBXBXBXBXNXNXBXNXZXZXGXZXJXJXJXZXZXZXJXQ.% 3 3 3 L I 3 4 3 I 2 @ # # # l %X>X;X;X+Xv.H X.H G k S S X.rXsXdXiXI.uXwXsXdX&.7 $ O = x z.z.l.x.G.I.AXGX0X^ T T T ^ Y E E E R _ 4X4X5X5X5XT 7.E.W.F.S.IXIXIXIXIXIXIXIXIXIXIXIXIXIXIXIXIXIXIXIXIXIXIXIXIXIXIXIXIXIXIXIXIXIX",
"IXIXIXIXIXIXIXIXIXIXIXIXIXIXIXIXIXIXIXIXIXIXIXIXIXIXIXIXIXIXIXIXIXIXw.w.9.0.0.0.0.0.Z Z V Z V V V Z Z Z V A b B N Z Z B N M / r *.*.N M e e Y e r r e e Y e r 8 e 8 7 , n G H l S c.c.f.f.a.S h < ; 5 5 3 5 5 5 ; P.hX<X<X<X<X<XxX<X<XxX<X<X<XhX..$ # t # # # # o @ $ o # # 7 [ { { { { { [ ] [ ] F 7 % O X + + @ + % 0  .0X[ X O O O O O + $ # , Q.sX$.eXiXiX$XL.J.c 4.6.C.:X= X % 0  .0XtXtX; X o O O @ o X @ 8 D %X+Xk k +X=X&X&X=X=X=X=Xm   . X X X . X . X X , 6XLXKXrXo   X       .   . e FXKX0X.     . . . . .   & ) 7X@.*.tXHXrX| rXFXBXBXeX#X&.O.qXrXrXvXVXBXGXGXBXMXmXvXeXrX0X#XL.o.o.O.o.$.o.o.O.O.$.#XQ.#X@XqXsXVXZXSXsX, 7 *.] ) #XBXBXNXZXNXNXNXNXNXNXZXZXZXZXZXSXBXZXZXZXZXZXBXBXZXFXBXBXBXBXBXFXFXmXmXmXPXmXmXFXGXBXGXGXHXHXZXHXHXGXBXHXHXHXBXBXNXBXBXNXZXNXNXZXGXGXGXZXGXJXJXZXGXZXZXGXbXF & 2 6 I I I I I 4 ^ 2 o @ @ = - +X;X,XuX$Xl.z.H H G l k J J.wXsXiX$XK.K.I.$XdXqXM = $ O > l x H z.z.U.dXFXwX/ ^ T T T I T E Y / ~ 4X4X4X6X5X/ A F.E.i.Y.IXIXIXIXIXIXIXIXIXIXIXIXIXIXIXIXIXIXIXIXIXIXIXIXIXIXIXIXIXIXIXIXIXIX",
"IXIXIXIXIXIXIXIXIXIXIXIXIXIXIXIXIXIXIXIXIXIXIXIXIXIXIXIXIXIXIXIXIXIXw.0.0.0.0.0.0.0.Z Z V Z Z V V V Z 0.V V V Z Z Z Z Z N / / M F B N N / / / M r r e e e e r r 8 q 8 8 9 < F h k k x j 1 p = ; 5 5 5 5 5 5 5 2 = #XhX<X<X>X<X<XxX<X<X<X<X<XxXhX..# # # # # # @ @ $ @ @ @ $ @ 7 F { { { [ { { { [ [ D 0 , @ O $ o + , e Q.%.O X O O $ O + o # ; ] FXHXP.:XuXpX@X..; > g 2.x.J.+ O ; M @.yXFX%.. X O o @ X X O @ e { >Xv.1 J %X+X=X&X=X=X=X+X#   . X X . . X .   X , 0XKXKX8X  o X o     . .    .LXKX$.      . . . .     & ) 8X) | vXBXvXO...eXBXBXMXcXqXO...$.O.$.#X%XeXvXMXMXNXNXBXZXGXGXBXBXBXcXsXvXsXvXvXcXBXbXMXNXZXZXZXVXNXGXrX, 8 *.] ] 0XBXBXNXZXZXZXZXNXVXNXZXZXZXZXSXSXSXZXZXZXSXZXZXZXZXZXZXZXZXNXNXBXZXGXZXBXNXNXZXGXGXZXBXBXZXBXZXBXZXZXZXFXFXZXBXNXBXBXVXNXZXZXZXLXJXSXZXZXZXJXZXZXZXGXZXGXeX% 2 3 I I T I I T ^ q 5 + @ @ $ = J.>X;X:X:Xv.z.H H G x k k o.rXiXwXG.x.x.H.K.uXeX| 5 $ $ O = h x C C G.wXGXdX/ T I T I T Y Y Y Y Y +.4X4X5X5XE v S.E.C.C.IXIXIXIXIXIXIXIXIXIXIXIXIXIXIXIXIXIXIXIXIXIXIXIXIXIXIXIXIXIXIXIXIXIX",
"IXIXIXIXIXIXIXIXIXIXIXIXIXIXIXIXIXIXIXIXIXIXIXIXIXIXIXIXIXIXIXIXIXIXw.S.w.0.S.0.( 0.0.7.V V V V V V V 7.S.V S.0.7.7.Z V N N / / / Z Z B N ( [ / e r e e e e e r q 8 8 8 7 , 9 < < < < : ; ; 5 7 5 5 5 5 5 5 5 5 1 J.iX<X>X>X<X<X<X<X<X<X<X<XxXhX..# # # # # # # # @ o $ @ @ o # 8 F [ { { { ] { { ] { ] *.0 t # + @ ; %.qX7 X O O O $ O @ + # 9 0XLXHXG.0.b.pXL., O $ * V z.m + & 8 ] #XtXtX5 X O o O O @ X   t 0 H >XJ k #X=X+X+X+X=X=X=X[ .   X X . X . . .   o 0 tXKXJX|   o   o .   . . X %.KXKX%.    .       .   o & ) 8X) @.VXNXVXrX{ { 0XbXBXBXBXcXrX0X$.O.O.| ..O.O.#X#X@XrXeXsXcXNXNXGXGXGXZXGXSXGXGXGXVXvXbXbXvXcXVXZXSXqX, , *.] F rXBXBXZXZXZXZXNXNXNXNXZXZXSXSXvXvXVXNXSXSXZXZXJXZXZXGXGXGXZXGXGXGXGXGXHXSXZXZXZXZXGXGXGXGXZXZXGXSXZXZXGXZXGXGXBXBXZXZXJXZXLXBXZXZXVXNXBXZXBXZXZXZXZXZXNXJX0Xo 2 L 3 3 6 6 L I T I 2 + + @ = = J.>X;X:X:XI.X.C G x x j k G J.I.J.x.l.x.x.x.wXtX@XM % O $ = h k u j G.I.fXdXX.I I I T ^ I Y ^ q I R 2X4X5X5X4Xp 8.Y.i.A.IXIXIXIXIXIXIXIXIXIXIXIXIXIXIXIXIXIXIXIXIXIXIXIXIXIXIXIXIXIXIXIXIXIX",
"IXIXIXIXIXIXIXIXIXIXIXIXIXIXIXIXIXIXIXIXIXIXIXIXIXIXIXIXIXIXIXIXIXIXS.q.9.x.S.0.S.0.Z S.S.V V V V V 7.0.0.S.0.0.7.0.Z Z B / N Z Z V V Z Z ( X./ e w e Y e e r r q 8 8 5 8 5 8 5 7 5 5 5 q 5 5 5 5 5 2 5 5 5 5 5 ; o.<X<X>X>X<X<X<X<X<X<X<X<X<XxXO.$ @ t # # # # @ @ @ @ @ @ @ @ % 7 F | { { { { { [ ] { ) F *.7 % @ [ tX$.$ O O O O + O + @ ; %.FXLXLXJ.2.d.iXD X + + O * - > . # e &.0XsX%.X + o o + + $ o O 0 0 J.%Xk J +X+X=X+X&X=X=X+X< . X . X X X X . . . % ] mXKXFXw   o .     X     & 0XKXKX&.      .   . .     & ) 8X) 0XVXNXVXMXrX{ F #XtXBXBXNXBXNXmXcXeXqX#Xo.O.X.O.O.o.O.L.L.#X@X%XrXiXtXrXrXeXeXeXrXqX#X#X#XeXVXNXGX@Xt 9 *.F F rXBXBXZXNXNXNXNXNXVXNXNXNXZXZXqX{ O.L.#XqXeXvXNXBXBXZXGXGXJXJXJXJXJXGXGXGXGXHXGXGXJXZXBXBXFXBXGXBXLXZXJXGXNXFXGXGXZXBXLXZXZXBXBXZXBXBXBXZXZXZXZXBXBXBXBXHX&.o 2 I q 3 4 6 3 I T R 6 + $ @ # > H ;X:X:X:XJ.F 1 1 j C x j k m H G.x.z.z.x.H.U.iXeX{ ; O O = h m j l G J.dXfXJ.I I I I ^ ^ 5 q q 3 q T 4X4X5X5XY V C.C.C.IXIXIXIXIXIXIXIXIXIXIXIXIXIXIXIXIXIXIXIXIXIXIXIXIXIXIXIXIXIXIXIXIXIX",
"IXIXIXIXIXIXIXIXIXIXIXIXIXIXIXIXIXIXIXIXIXIXIXIXIXIXIXIXIXIXIXIXIXIXq.q.9.9.0.0.0.0.0.0.V 7.V S.0.0.0.0.0.0.Z 0.0.0.( V Z Z 0.0.0.7.S.Z Z X.X./ r r e e e e r w q q q 5 5 8 8 7 5 7 8 8 5 5 5 5 6 5 5 5 3 5 5 5 , J.<X<X>X>X>X<X<X<X<X<X<X<X<XxXQ.@ # # # # # # # # @ @ @ @ O o o @ 8 F { { { {  .[ { { {  .] ] 0 7 &.0Xn X O O O O O @ # 7 Y FXLXLXGXG.2.w.:X, O @ $ @ + + + + 7 M $.eXqX, X o @ @ O o o o # 0 n %Xv.l +X%X+X+X+X+X=X=XJ.O . . X . . X X . .   % &.LXKXtXt   o     o     . & qXKXKX&.            .     % ) @.w rXmXmXVXVXNXtX..0 { @XvXVXBXBXBXBXGXBXGXBXMXcXsXsX@X#X#X#X$.o.o.O.o.#X@X$.$.%X#X@X0X#X#X@XeXvXSXSXL.% , *.] { tXBXBXZXBXBXNXNXNXNXNXNXZXZXZXsX#X$.#X$.O.o.O.O.o.$.o.#X@X@X@XqX%XqXqXqXqXqX%X#X#X#X#X#X$.L.#X#X#X#X#X@X#XQ.qXNXBXBXBXNXNXNXBXBXZXBXBXZXZXZXZXZXBXGXBXGXbX9 & 2 6 I 3 3 6 3 3 T T ^ & # $ + + m ;X;X:XJ.h $ $ = l x C k k x G G.l.x.z.z.x.G.$XtX$., @ $ = = h h h h Z uXfXP.q I U Y 5 2 I Y Y Y I 3 ~ 4X4X5X} Z w.C.A.IXIXIXIXIXIXIXIXIXIXIXIXIXIXIXIXIXIXIXIXIXIXIXIXIXIXIXIXIXIXIXIXIXIX",
"IXIXIXIXIXIXIXIXIXIXIXIXIXIXIXIXIXIXIXIXIXIXIXIXIXIXIXIXIXIXIXIXIXIXw.0.9.9.0.0.0.Z 0.V 0.0.S.V Z 7.0.0.0.7.S.7.S.V 9.7.Z S.0.9.7.0.0.S.( X.X./ e e M Y e e e e q q q 5 5 8 8 7 8 q q q 5 5 5 5 2 5 5 2 5 2 5 5 ; J.<X<X>X>X>X<X<X<X<X<X<X<X<X<Xo.$ # # # # # # # $ @ @ @ O O @ o O o , *.{ | | { { { { { ] ] { [ F F F 0 % O X O O O + , e 0XLXLXLXtXG.4.w.H @ O + O @ + O + % w  .Q.rX] X o + + o o X o o t 0 ..>XJ h +X%X=X&X&X=X=X=XG X . X X X . X   X   o 8 Q.LXKX0Xo   o .     . . . 8 tXKXJX]     .       .     & ) ) F tXBXMXVXbXNXNXvX#X0 0 D $.%XrXcXBXSXGXZXGXZXZXZXZXZXZXZXNXBXbXVXbXvXvXbXvXbXbXvXVXVXBXJXZXNXVXZXSX&.t , *.] D eXBXNXNXvXrXhXVXVXNXZXZXSXSXZXNXZXZXBXVXcXcXtXrXqX@X@X@X#X$.$.$.$.$.o.$.$.Q.#X@X0XqXqX@XrXrXrXqXqXqX@XqXqXwXtXNXNXBXNXNXNXNXBXBXZXNXZXBXZXZXZXZXGXZXBXHXrX% 5 2 3 3 3 3 3 3 3 T T q & + $ + $ < $X>X$Xn + $ $ $ - j x x k k C z.l.l.z.l.x.x.G.uXrXe $ + $ $ : h - - b uXfXI.^ I I T 2 2 q U Y Y Y q T 4X4X5X+.N w.C.A.IXIXIXIXIXIXIXIXIXIXIXIXIXIXIXIXIXIXIXIXIXIXIXIXIXIXIXIXIXIXIXIXIXIX",
"IXIXIXIXIXIXIXIXIXIXIXIXIXIXIXIXIXIXIXIXIXIXIXIXIXIXIXIXIXIXIXIXIXIXw.9.0.S.0.0.S.0.S.V 0.0.V S.0.S.V 0.0.7.V 0.7.S.7.0.0.0.0.0.7.7.0.S.S.X.( e r r M ] ] F e e r q 8 q q 6 q 8 8 5 q 5 r I q 5 5 5 5 2 5 5 5 5 = o.iX<X>X>X>X<X<X<X<X<X<X<X<X<XQ.$ t # # # t # # # @ @ # @ @ @ @ @ O O # 0 F | | | { { { { { {  .[ } ] F e 8 t @ @ + + % %.LXKXHXFXP.@Xa.0.: O O $ O O O O $ 7 e &.eX$.& . + + o + + X o # 7 0 +X+Xl D %X=X=X=X&X=X=X%X, . . X X X X . X X . @ q 0XKXLX%.  o o   o X o     8 PXKXLXe   .   . .     .   @ ) w | cXNXcXmXcXMXbXNXVXqX$.{ F F D Q.@XrXcXNXNXNXZXZXGXZXZXZXGXSXZXZXGXGXJXJXJXJXZXZXBXNXNXNXNXVXNXZXGX{ ; 7 e ]  .tXBXNXVXqX#X#XQ.#X@XrXeXeXbXVXNXZXGXZXGXZXSXGXGXJXJXGXBXBXVXMXbXNXbXnXbXNXVXVXZXBXNXNXZXZXZXGXBXGXGXBXJXBXZXZXNXZXNXBXNXBXBXBXZXZXNXNXZXZXZXGXZXZXZXBXHX#X2 q 3 3 3 L ^ L 2 2 3 3 3 @ + $ + $ = D uXJ.> $ $ O # = h C j k x C z.z.l.z.z.l.c.x.U.rXD # $ O $ # = = > v I.fXuX/ I Y U 5 2 q I I Y Y U 3 +.4X4X5X .0.i.A.IXIXIXIXIXIXIXIXIXIXIXIXIXIXIXIXIXIXIXIXIXIXIXIXIXIXIXIXIXIXIXIXIXIX",
"IXIXIXIXIXIXIXIXIXIXIXIXIXIXIXIXIXIXIXIXIXIXIXIXIXIXIXIXIXIXIXIXIXIXw.0.S.w.z.S.0.0.0.0.0.V 7.S.7.7.7.0.7.V V 9.0.0.9.9.0.0.7.7.7.0.9.0.Z / / M r r r / ] / M e r w q q 8 q q 8 q q q 8 8 q q q 5 5 5 5 5 2 5 5 t ..>X<X>X>X>X<X<XxX<X<X<X<X<XhXQ.@ # # # # # # # @ # # @ @ @ @ @ @ o @ o $ t *.{ |  .| { { { { { { { { { ] F *.0 , % % , 0XHXLXMXqX$XcXH h + O O $ $ O O O # e F %.0X*.X X @ @ + + + o X @ 9 ..>X+X1 D %X=X=X=X&X=X>X+XX   X X X X X . . . . % e tXKXLX .  X X .   o o     *.FXKXLX8                   & U 2 Q.VXNXvXvXmXcXVXbXVXBXMXcXqX#XO.{ ..O.$.#X#X@X$XqXqXeXvXrXrXiXeXsXeXvXvXeXeXqXrXrXrXqXqX0X@XtXVXSXFXD , , e F  .tXBXZXBXcXvXtXrX0XQ.$.#Xo.Q.#X#X#XrXhXbXZXZXNXZXGXSXZXZXBXBXSXBXBXBXZXBXGXZXZXZXBXZXBXBXZXNXNXNXNXNXNXBXNXBXBXNXVXNXVXNXNXNXBXBXBXBXBXBXJXBXLXZXBXZXJXGX{ 6 L I I I I ^ ^ 3 2 3 3 q 2 $ # + $ + $ N m + $ + O $ > h C x x j j z.z.z.z.l.l.x.b.G.U.H 7 = @ @ # $ = = = U.aXgX/ q U I q 5 6 6 5 ^ Y Y 5 _ 4X4X5X+.V w.E.IXIXIXIXIXIXIXIXIXIXIXIXIXIXIXIXIXIXIXIXIXIXIXIXIXIXIXIXIXIXIXIXIXIX",
"IXIXIXIXIXIXIXIXIXIXIXIXIXIXIXIXIXIXIXIXIXIXIXIXIXIXIXIXIXIXIXIXIXIXq.w.9.0.0.0.0.S.0.0.7.S.0.Z 7.7.V S.0.7.7.0.q.9.S.9.9.9.0.9.9.9.0.0.Z N M r r q r r r Y e r r r q q 8 q q 8 q q q 5 5 q q 5 q 5 q r 5 5 5 5 t *.<X<X>X>X>X>X<X<X<X<X<X<X<XhXQ.@ t # # # # # # # # @ # # @ # @ o o @ @ $ $ # 7 *.| | { { { { ]  .{ { { {  .{ ] ] e 0 0 { Q.0X$.F o.@XC < O O O O @ @ $ o % 0 { | D % @ + + o O o O o o , 0 +X>XH < +X%X%X=X=X=X=X=XJ   X X X X X . X . X . t } FXLXFXw   o X         .   e FXKXtX%           .     . % 6 q rXmXMXVXcXVXcXbXbXbXMXbXBXBXVXvXrXqX#X$.$.O.O.O.O.{ ..$.O...#X#Xo.O.O.O.O.L.#X#X@X@X#X#X@X%XeXVXGXFXF t , F F { vXBXBXNXBXNXNXNXZXvXvXeXrX0X#XQ...D O.Q.#X@XrXeXvXvXvXNXNXBXGXGXBXZXGXZXGXZXZXSXGXGXZXZXZXZXSXZXZXZXZXGXSXJXZXZXSXBXLXBXNXNXNXBXZXBXZXZXSXSXSXSXGXZXGXvX8 q I I I I 6 K ^ I K ^ ^ I 2 @ + O + @ # $ = $ + $ + O $ < m G H j j z.z.l.l.l.z.l.x.x.K.J.n ; # + # # $ $ > Z uXgXN 2 2 5 q q I U U q I Y 3 ~ 4X4X4X+./ w.i.IXIXIXIXIXIXIXIXIXIXIXIXIXIXIXIXIXIXIXIXIXIXIXIXIXIXIXIXIXIXIXIXIXIX",
"IXIXIXIXIXIXIXIXIXIXIXIXIXIXIXIXIXIXIXIXIXIXIXIXIXIXIXIXIXIXIXIXIXIX0.0.0.9.9.0.z.0.0.0.0.V S.7.S.7.7.7.0.9.9.9.S.9.0.9.9.9.0.S.9.9.S.0.( N e e r r r r r q e e r r r 8 q q q q q q q 8 q q q q q 5 5 5 q 5 5 5 t J <X<X<X%X>X<X<X<X<X<X<X<X<X<XJ.# # t # # # # # @ # @ # # # $ @ @ @ @ @ o o o $ % 0 F | { { { { { { {  .{ { { { { { [ ) *.*.*.q 7 , , < = $ + O O @ o @ @ @ 9 ] 0 < # @ o @ @ @ @ + + O , F %X+X1 n +X%X+X&X=X:X=X%Xh X X X X X   X . X . X , | PXLXyX%   X o . o   .     ] mXKX$.o                   o @ e eXMXVXvXcXbXcXcXcXMXbXVXbXNXNXBXNXZXBXNXbXsXeXrXqX@X#X#X%.o.#X#XQ.#XQ.L.L.#XqXeXeXeXrXrXeXvXbXVXSXBXe , , *.*.{ cXBXNXVXBXNXNXNXNXZXZXSXZXZXZXZXcXrX#X$.......O.$.$.#XyXrXrXrXtXvXeXvXsXvXvXbXMXcXcXvXsXsXvXsXvXtXvXeXrXrXeXtXtXrXtXrXtXVXNXBXZXNXSXLXBXLXZXGXJXZXZXJXqX2 I I L 3 I ^ ^ ^ ^ ^ I ^ I 3 & O + $ # @ @ $ = + + O + $ = = 1 m p b l.z.l.z.z.l.z.x.b.x.I.G - # + $ # # O > j :XgXM 2 5 2 6 U q U U q R Y 5 ~ 4X4X4X5X .0.x.IXIXIXIXIXIXIXIXIXIXIXIXIXIXIXIXIXIXIXIXIXIXIXIXIXIXIXIXIXIXIXIXIXIX",
"IXIXIXIXIXIXIXIXIXIXIXIXIXIXIXIXIXIXIXIXIXIXIXIXIXIXIXIXIXIXIXIXIXIXw.S.w.0.S.0.0.0.S.0.V S.7.S.0.V 9.9.9.S.q.w.w.w.9.q.q.q.9.w.q.9.0.Z ( / e e r r r r r r r r r r r q q r q 8 5 5 q 5 5 q q 5 5 q q 3 5 5 5 5 t F rX<X<X<X>X>X<X<X<X<X<X<X<XvXQ.# # # # # # # # @ # @ # # # # @ @ o @ @ @ o @ $ o X t *.] { | { { { { { { { { {  .| | { { D ] ] F M M 0 8 7 ; t % # @ @ O @ % , % % # @ @ o + o + @ o O = F X.k = F #X+X%X@X$X%X&X&X0 X X X X X X   . . . X 8 %.FXLX0Xo   o o o o .       ) tXLX]                   . X o { tXmXmXvXmXbXVXcXbXbXbXNXNXNXsXvXVXBXSXBXZXZXSXZXZXBXVXbXcXvXsXvXhXvXhXvXnXNXZXVXZXZXZXNXNXVXVXBXZXbX0 , , *.F | mXBXNXNXNXNXNXNXNXNXNXBXNXNXBXZXSXJXZXZXbXvXeXqX#X#XQ.o.O.O...O.O.o.O.%.o.$.Q.#XQ.o.o.o.$.$.o.o.Q.$.$.o.o.Q.#X#XQ.#XrXcXVXBXBXNXNXBXSXZXSXSXZXSXZXZXJXO.2 I 3 3 3 3 I L K L L ^ ^ I q @ + + + # @ # + $ + $ # @ # $ > : j B z.z.z.l.x.x.H.l.l.x.x.x.H h = # + + $ # + h I.gXN 6 U q 2 5 I q q I E I 6 E +.4X4X4X+.C 8.IXIXIXIXIXIXIXIXIXIXIXIXIXIXIXIXIXIXIXIXIXIXIXIXIXIXIXIXIXIXIXIXIXIX",
"IXIXIXIXIXIXIXIXIXIXIXIXIXIXIXIXIXIXIXIXIXIXIXIXIXIXIXIXIXIXIXIXIXIX9.9.S.w.z.9.0.0.0.0.0.0.0.0.0.0.0.9.9.0.x.D.q.q.q.q.q.q.9.w.D.0.9.( ( / e r r w r r r q q r r r 8 r q q q 8 q 8 q 5 5 q 5 q 5 q 5 q q 5 2 2 t *.%XhX>X>X>X>X<X<X<X<X<X<X<X<X#X# # # # # # # # # # # # # # @ $ @ @ @ @ @ @ @ @ $ o O @ , 0 ] { { { { { { { { { { { { | |  .| { { { { { [ ] F F *.*.F 0 0 7 , 7 , t , t t % % % % # % % , % = # t , 1 h n F F J G J , O X X X X X   X   X O 7 %.tXLX0Xo   o o o .         } tXtX8             o o & t 8 9 $.tXmXVXcXcXcXbXcXVXMXMXNXBXvXL.Q.qXeXvXVXZXZXZXZXZXZXZXGXZXSXZXZXNXNXZXZXZXZXZXZXNXZXNXZXZXVXVXZXSXvX9 , 8 F *.&.MXZXVXVXNXNXNXNXNXZXZXZXZXNXZXNXNXNXZXZXZXZXZXZXZXZXBXmXvXtXrXrXqXqXqXrXqXqXrXrXqXqXqXrXtXtXrXeXtXsXsXsXtXvXmXcXmXNXNXBXBXZXNXBXZXZXZXZXSXZXZXSXBXGXSXe 2 3 3 q 6 3 3 ^ ^ L K ^ K ^ ^ & + O O + @ # + $ $ = # $ $ $ - h Z z.0.l.z.z.l.l.H.x.l.x.x.x.H.G - $ + $ @ # = < G.gXP.r I U q q I I I E Y 5 I Y ` 4X4X4X4X/ V IXIXIXIXIXIXIXIXIXIXIXIXIXIXIXIXIXIXIXIXIXIXIXIXIXIXIXIXIXIXIXIXIXIX",
"IXIXIXIXIXIXIXIXIXIXIXIXIXIXIXIXIXIXIXIXIXIXIXIXIXIXIXIXIXIXIXIXIXIX9.8.9.0.S.0.V S.S.0.0.7.0.0.0.0.0.9.9.9.q.9.S.q.q.q.q.w.w.q.w.w.S.S.( / / e e r r r r r r q w r q q r q q 8 q 5 5 q 8 q q q q q 5 5 5 2 2 5 t 9 %XhX>X>X>X>X<X<X>X<X<X<X<X<X#Xt # # t # # # @ # @ # # # @ @ # # @ # # @ @ @ $ o O @ O O @ t *.*.{ ) { { ] | { | { { { { | |  .| { { { { { | { { { {  .{ { { [ ] } F *.F *.*.*.*.e *.M 0 0 0 8 8 7 0 7 9 < < 9 9 9 9 7 , , t t , , , , t t 7 e | &.{ 5 @ o & & & @ % t ,  .Q.%.*.8 8 8 9 8 e *.F ) F ] ] 0XvXmXcXcXcXcXVXbXVXVXBXMXBXbX#XO.o.L.$.#X%XeXsXVXVXBXZXSXNXNXZXZXNXNXZXZXZXZXZXVXVXVXZXNXNXVXVXZXJXsX, , 8 Y e o.BXNXVXVXNXNXVXNXNXZXZXZXNXNXNXZXNXZXZXZXZXZXVXNXNXBXBXBXBXNXBXBXBXNXZXFXZXBXBXBXZXGXZXZXGXHXSXBXSXBXZXZXZXJXZXNXSXZXNXNXNXNXNXBXBXZXBXJXZXZXJXZXZXGXcX8 2 q U I I q 3 3 ^ L L L K L I ; $ > O O $ $ + $ ; , % # = 1 h G 0.z.z.z.l.z.l.l.l.x.H.x.x.x.x.x.j $ + + # # $ h z.uXwXY I U R / } _ / T ^ q I E / +.4X4X4X) j IXIXIXIXIXIXIXIXIXIXIXIXIXIXIXIXIXIXIXIXIXIXIXIXIXIXIXIXIXIXIXIXIXIX",
"IXIXIXIXIXIXIXIXIXIXIXIXIXIXIXIXIXIXIXIXIXIXIXIXIXIXIXIXIXIXIXIXIXIX9.9.q.S.9.0.0.7.0.Z V 0.0.0.9.0.0.q.9.9.9.q.q.q.q.q.q.q.q.w.q.q.S.Z M / / e e r e e r r r q q q 8 8 8 q q 8 8 5 8 5 q q q 5 5 q 5 q 8 5 2 % % , %XhX>X>X>X>X<X>X>X<X<X<X>X<X#X# # # t # # # @ # # # # # # # # @ # # # # @ @ @ @ @ @ O O O X @ # 7 *.F ) ] ] |  .{ | { { | { { { { { { { { { {  .{ { { { { { | { | | | {  .{ { { | { { { ] ] { F { { ] ] { ] ] ] F ] ] ] ] ] *.] ) F ] ) F ) ] ) *.Y ] e *.*.e F ] *.] ] } { ] ] [ } } ] ] ] ] ] ] ] ] { yXmXmXcXcXcXcXbXbXVXbXbXbXNXNXNXvXrX%X#XQ.#X#X#X%XqX%XeXtX%XrXNXZXZXNXNXZXZXZXNXNXNXNXVXZXNXVXVXZXSXrX, 2 7 e *.$.GXNXVXNXNXNXVXNXNXNXNXZXZXNXNXZXZXZXZXZXZXZXZXZXNXNXNXNXNXNXBXNXVXVXNXNXBXBXNXBXNXNXNXNXBXNXBXNXZXNXNXNXNXBXBXNXSXNXBXNXBXNXBXSXBXZXZXZXZXZXLXZXZXGXsX; 3 Y w 3 6 I 6 3 ^ I L K L I q 2 $ + + O O $ $ O : h = 1 < v G z.z.z.l.z.z.l.l.l.z.l.K.x.l.x.x.x.z.- O $ $ $ = h z.I.wX/ U U U I R R ~ +.+.4X+.~ E +.4X+.4X} N IXIXIXIXIXIXIXIXIXIXIXIXIXIXIXIXIXIXIXIXIXIXIXIXIXIXIXIXIXIXIXIXIXIX",
"IXIXIXIXIXIXIXIXIXIXIXIXIXIXIXIXIXIXIXIXIXIXIXIXIXIXIXIXIXIXIXIXIXIX8.8.8.z.0.0.S.7.0.0.0.0.7.7.0.0.0.9.9.9.9.9.q.q.w.q.q.w.w.q.q.w.G./ / M / e e e r e r r r r r r 8 8 8 q q q q q 5 8 q q q q q 5 5 5 5 5 2 2 % t #XhX>X>X>X>X>X>X<X<X<X>X>X<X%X# # # # # # # # # @ @ # # # # # @ # # # # @ # $ $ O X O O O @ $ O $ o t , 0 *.*.F ] { { | | | | { | { { {  .{ | { | | { { | { { | | { | | { | | | | | { | { { |  .{ { { { ] { { { { ] ] ] [ ] { { ]  .] D ]  .] ] ] } ] { ]  .] } ] ] ] ] ] ] ] ] ] ] ]  .] ] [  .] ] ] | rXMXcXcXcXmXbXcXMXmXbXcXMXvXcXVXNXZXBXcXsXeXrXrXqXrXrXrXrX#XvXZXZXZXZXVXZXZXZXSXZXZXZXNXNXNXbXNXZXSXqX, 8 8 F F #XGXZXVXNXVXZXNXNXNXZXZXZXZXZXZXZXZXZXZXZXZXZXZXZXNXZXNXNXNXNXBXNXNXNXNXNXNXBXBXNXBXZXZXZXZXZXZXNXNXNXNXNXBXBXNXBXBXNXZXSXZXSXBXSXBXJXZXZXZXSXSXZXZXGX0X% 2 q q q 6 I I 3 ^ I I L ^ L I 2 + O + O O + O + < m < j C G z.z.z.z.z.l.z.l.z.l.z.z.z.l.z.x.x.C.w.* + @ + $ > Z I.I.P./ U 5 I E R +.4X5X5X6X5X5X4X+.+.T T R Y IXIXIXIXIXIXIXIXIXIXIXIXIXIXIXIXIXIXIXIXIXIXIXIXIXIXIXIXIXIXIXIXIXIX",
"IXIXIXIXIXIXIXIXIXIXIXIXIXIXIXIXIXIXIXIXIXIXIXIXIXIXIXIXIXIXIXIXIXIX9.8.8.0.0.0.0.0.0.0.9.0.0.0.9.9.9.S.9.9.9.9.q.q.q.q.q.q.q.q.q.9.S.( / Y / Y e e e r / e r r r q 8 8 8 8 8 q q q 9 5 5 q 5 q q 5 q 5 5 5 3 2 % % o.hX>X>X>X>X>X<X<X<X<X<X<XeXQ.# # # # # # $ # # @ # @ # @ # # # # # # # # # $ @ $ O O O O O o o $ $ o $ $ @ # t , , 0 *.] { | | | { | | | | | { | | | | | { | | | | | { | | | | | | | | { { { { { | | { { |  .| { {  .{ { { { { {  .{ { {  .} ]  . .} ] {  .] ]  .] ] ]  .{ ]  .] [ {  .{ } { D ] ] ) Q.tXcXcXmXVXmXNXcXmXMXmXcXcX0X#X#XrXsXmXBXZXZXZXBXNXNXMXBXBXVXZXZXZXZXZXNXZXSXZXZXZXNXNXVXZXNXbXVXZXZX#X, , 7 e e #XGXNXVXVXNXVXNXNXNXZXZXZXZXZXZXSXZXZXZXSXZXBXZXZXZXZXNXNXNXNXNXVXVXVXNXNXVXBXBXNXNXNXMXVXVXcXcXNXNXNXNXBXBXZXBXBXBXBXBXZXZXZXZXSXZXZXZXZXSXLXSXBXGXFX{ % 2 2 2 2 3 I U 3 3 I I L L T I 8 . + + + @ O O > m H G z.z.z.z.z.l.z.z.z.z.z.G.z.z.H H z.z.z.w.x.0.u > # # = $ N I.U.[ / Y / E } +.+.4X4X5X5X5X6X5X+.R _ +.E Y IXIXIXIXIXIXIXIXIXIXIXIXIXIXIXIXIXIXIXIXIXIXIXIXIXIXIXIXIXIXIXIXIXIX",
"IXIXIXIXIXIXIXIXIXIXIXIXIXIXIXIXIXIXIXIXIXIXIXIXIXIXIXIXIXIXIXIXIXIX3.7.8.0.0.0.0.9.0.w.S.z.0.7.9.9.9.9.9.9.q.q.9.q.q.q.q.9.q.q.0.0.X./ / / / Y / / M e r e e e r r q 9 9 q q q q q 8 5 q 5 5 5 5 q q 5 5 5 2 2 % # ..<X>X>X>X>X>X>X<X<X<X<X<X<X#X# # # # t $ # # @ $ # # $ # # # # # # # # # # # @ @ $ @ @ O O @ @ $ o @ $ o $ O o o o o @ # t , 8 e *.] { } { | { | | | | |  .| | { | | | | | |  .| | | | | | | { | | | { | | | | | | | | { | | { { | { { { { { { { {  .{ { ] ]  .{ { ] ] { ] ] ] ] { ] ] ] ] ] ) ] ] ] #XtXvXcXcXcXcXmXmXcXBXVXvXVX@X$.$.O.L.@XrXvXnXbXVXbXNXbXMXbXsXVXZXZXZXZXNXVXVXZXZXNXSXNXVXNXZXNXNXZXNX$., , 7 F M qXJXNXVXNXBXZXZXNXZXZXZXZXZXZXZXNXZXZXZXZXBXZXZXZXNXNXNXNXNXNXsX#X@X0XqX0XqXrXqX%X@X0X@X@XqXtXVXNXNXNXBXZXBXBXSXZXBXNXBXZXZXZXZXZXSXGXZXZXZXZXZXZXJXqX8 q q 2 2 3 I U I K ^ I L 3 T R I r = > O + O O $ : m z.H H Z Z z.H Z z.H G H H z.H G H H H G Z c z j p > > + > > 9 X.X./ / / / / E +.+.4X2X4X4X4X5X5X` ~ 4X_ E _ IXIXIXIXIXIXIXIXIXIXIXIXIXIXIXIXIXIXIXIXIXIXIXIXIXIXIXIXIXIXIXIXIXIX",
"IXIXIXIXIXIXIXIXIXIXIXIXIXIXIXIXIXIXIXIXIXIXIXIXIXIXIXIXIXIXIXIXIXIX3.7.8.7.8.0.9.9.0.0.0.9.9.9.9.9.9.9.9.9.S.q.q.q.q.q.9.9.9.0.0.0.X.] / / / / / Y M e e e / / r r r r w q 8 q q q q q q r 5 5 r q 5 5 5 5 2 5 % % F eX>X>X>X>X<X%X%X<X<X<X>X<X%Xt $ # # # $ # $ # # @ @ # @ @ # # # # # # # # # % # # @ # @ @ # @ $ o @ $ $ o $ @ @ @ o @ O o o o o @ # % t t 7 0 e *.*.] { {  .{ { { | | | | | | | | | | | | | | | | | | | | | | | | | | | | | | | | | | | { { { { { | { | { { ] { ] { } } { ] { ] } ] { ] { { {  .] ] 0XtXcXvXbXVXcXcXcXNXbXbXvXcXtXsXtX%X#XO...L.#X#X@X@X@X$XqX@XL.vXSXZXZXSXNXVXVXZXZXNXZXNXVXVXVXNXNXZXVX..t , 0 *.0 rXGXVXVXNXNXNXNXNXVXNXZXZXZXZXNXNXZXZXSXBXSXBXNXNXNXNXNXNXNXNXtXO...Q.O.%.O.%.O.%.o.@X0X%XqXeXNXNXNXNXNXNXSXZXSXNXNXZXNXZXZXSXZXZXZXSXZXZXZXZXZXZXBX[ 8 q % 2 6 I T T I K I I 3 I R T q M < 1 - > $ O > 1 k C G H G C b j h p p h 1 p u : p h j j B H B c a u - > = = = < v N b v M r / Y Y E +.+.+.4X4X5X4X~ +.+._ #.5XIXIXIXIXIXIXIXIXIXIXIXIXIXIXIXIXIXIXIXIXIXIXIXIXIXIXIXIXIXIXIXIXIXIX",
"IXIXIXIXIXIXIXIXIXIXIXIXIXIXIXIXIXIXIXIXIXIXIXIXIXIXIXIXIXIXIXIXIXIX4.7.8.8.0.0.w.G.9.0.9.0.9.S.0.9.9.9.9.9.q.w.q.q.w.S.S.0.V V Z Z ( / / / / / M / / e e M / / / r r r r r r r q q q q q 5 q q q 5 5 q 2 2 2 2 % # F iX<X>X>X>X<X<X<X<X>X<X>X<X%X, $ # # # # $ # @ # # # # # # # # # # # # # # # # # # $ $ @ @ @ $ $ $ o # $ @ $ o o O @ @ @ $ @ o @ @ @ $ O O O O O o @ % t t t t 7 7 0 0 0 *.] *.*.F ] ] [ [  .] { { | | | |  .{  .{ { |  .{ | |  .{  .{ | { | { |  . .{ | { | | | | | | { { { | { | | | |  .] ) *.7 F yXvXsXcXmXmXcXmXcXNXVXcXbX@X#X@XeXvXeXeXrXqXqX@X@X@XqXqXrXeXiXNXZXZXZXZXZXNXNXZXZXZXZXVXVXVXVXVXVXZXbXD t t 0 *.*.eXZXVXVXZXZXZXZXNXNXZXNXNXZXBXSXZXSXNXNXNXNXZXSXNXZXNXNXVXVXNXNXvXvXeXrXrXrXrXrXtXtXbXVXBXNXNXNXNXNXNXBXNXNXBXBXBXNXZXBXZXZXZXZXZXZXZXZXZXSXZXZXJX@X; 2 2 2 I I R I I L I T I 3 I T I 9 v p h - - = = = 1 l C k j k j l l h h j l 1 j j j k k x x S S S x j l x x c x x S x x k k k v p 9 8 r r E E / ~ ~ ` T +.~ +.5X5XIXIXIXIXIXIXIXIXIXIXIXIXIXIXIXIXIXIXIXIXIXIXIXIXIXIXIXIXIXIXIXIXIXIX",
"IXIXIXIXIXIXIXIXIXIXIXIXIXIXIXIXIXIXIXIXIXIXIXIXIXIXIXIXIXIXIXIXIXIX3.7.8.8.8.0.0.0.0.8.0.x.q.0.D.0.0.9.9.q.9.9.q.q.9.0.V Z A B N N ( ] } / / / / / M M M M / / M r r r r r r r r q q q q q q q r 5 q 3 q 3 5 2 t % 9 %X<X>X>X>X<X<X<X>X<X<X>X<X>X< # # # # # # $ # @ @ @ # @ # # # # t # # # # # # # # # # # # # $ @ $ $ @ @ $ $ @ @ $ @ $ $ $ O @ @ @ # @ @ o o @ @ $ $ o X O $ O o $ @ @ @ o o + o @ % # % % # t t t t , 7 7 8 , t , 7 7 7 , , 7 8 0 8 0 0 w 8 9 0 0 0 e 0 e *.*.*.) ] ] ]  . .] ] ] *.e 8 , # o o   *.tXmXsXmXmXmXVXcXVXBXtX0XeXo.Q.#X#X#X#X0XrXrXrXeXsXvXVXVXMXBXZXZXZXZXZXZXNXNXNXZXZXZXZXVXVXNXbXbXNXZXnXe , , e *.0 vXZXVXVXNXZXZXZXZXZXNXZXNXNXNXNXNXVXVXNXNXVXNXNXNXNXNXNXNXVXNXNXNXNXNXVXVXVXVXMXBXBXNXNXNXVXVXNXNXNXNXZXBXZXNXZXNXZXNXZXZXSXSXBXZXZXNXZXZXSXZXNXBX{ % & 2 w I I I T T I I I 6 3 w q 7 < 1 - * 1 l l k J J J S H S c.f.c.c.c.v.!.!.!.!.|.!.|.|.|.!.|.|.|.!.|.b.|.!.|.|.|.|.!.K.!.b.c.l.l.H G J 9 9 9 v q q Y q U U _ 4X4XIXIXIXIXIXIXIXIXIXIXIXIXIXIXIXIXIXIXIXIXIXIXIXIXIXIXIXIXIXIXIXIXIXIX",
"IXIXIXIXIXIXIXIXIXIXIXIXIXIXIXIXIXIXIXIXIXIXIXIXIXIXIXIXIXIXIXIXIXIX3.8.8.7.8.0.9.9.0.w.8.0.0.9.0.q.q.S.9.q.q.9.q.0.0.Z B B A b b / [ / / / / / / / M M e M / / / e r e r r r r r q r q q q q q q ^ 5 5 5 5 2 2 % % , @X<X>X>X>X>X>X<X%X<X<X>X<XrXF $ # # # # # # @ # # # @ # @ # # # @ # # # # # # # # # # t # # # # @ o @ $ $ @ @ @ $ $ $ O @ $ O $ @ @ @ # o O O @ @ @ o $ O $ O O o O @ o @ @ @ @ O O o + X O O O X X X X X X X X X X . . . X O X X X X   . . o o o o @ o o o & % @ # % t % % @ % o o X     . .     &.tXmXvXVXVXcXcXmXMXmXrXo.$.D %.#XQ.$.$.o.#X#X$.@XqX@X0X0X#XqXrXVXZXZXZXZXNXVXVXVXZXNXZXNXNXNXbXcXNXNXsX0 , 7 0 e *.vXBXVXVXNXZXZXZXZXZXNXZXZXNXNXVXVXVXVXVXVXNXSXNXNXNXNXNXZXNXNXNXNXVXVXVXVXVXVXVXNXmXNXVXVXNXNXNXNXNXZXNXBXNXBXNXNXNXNXNXNXNXZXZXZXZXZXZXZXGXGXJXeX, % % w T R R I I I I ^ q 8 2 7 , < l S J S G S S H v.f.!.!.!.!.!.!.|.|.oXoXoXoXoXoXoXoXoXoXoXXXoXoXoXoXXXXXoX XoX X|.|.oXoXXXXXoXoXoX|.&X+XK.v.J.X.Z m n 9 5 7 E _ +.IXIXIXIXIXIXIXIXIXIXIXIXIXIXIXIXIXIXIXIXIXIXIXIXIXIXIXIXIXIXIXIXIXIX",
"IXIXIXIXIXIXIXIXIXIXIXIXIXIXIXIXIXIXIXIXIXIXIXIXIXIXIXIXIXIXIXIXIXIX3.7.7.0.8.8.9.q.0.0.9.9.9.0.q.0.9.9.9.9.q.9.0.0.7.B B A b b v / / / / / / / / / / / M e Y / / r M r r r r r r r q q q q q q q q 5 q 6 5 5 2 t % t Q.>X>X>X>X%X>X<X<X<X>X>X<X<XF # # # # # # # # # @ # @ @ # @ @ # # # # # t # # t # # # # $ # # # # # # # # # $ $ @ @ @ @ @ $ $ $ @ @ @ @ o O $ o $ $ $ O $ O O O O O o $ $ @ @ @ @ + o + O O O o o o X X O X X X X X X X X X X X   X X .             .     .       .       .                     o #XcXvXcXmXcXbXmXmXmXmXeX$.$.O...$.@XrXeXtXsXrX@X@X@X@X@X@XqXrXeXBXNXZXZXZXNXVXVXVXZXZXZXNXBXNXbXbXVXNXsX9 ; , 0 n F mXBXVXVXNXBXNXZXZXZXNXNXZXNXNXNXVXVXVXVXNXNXZXZXNXZXNXNXNXNXNXVXVXVXVXbXVXbXmXVXVXmXVXVXVXNXNXNXNXNXNXZXBXNXBXNXZXNXNXZXZXZXZXZXBXSXSXZXNXZXGXJX$.t 8 2 6 I U R I 6 6 % 2 , , h J H v.!.!.!.!.!.!.!.b.j.~.!.!.oX!.oXoXoX|.[./././.'. X/. X/. XoXXXXX X XXX X X X X X.X X XXXXX XXXXX XXX X|.|.|..X|.|.!.K.J.H N 9 0 r Y IXIXIXIXIXIXIXIXIXIXIXIXIXIXIXIXIXIXIXIXIXIXIXIXIXIXIXIXIXIXIXIXIXIX",
"IXIXIXIXIXIXIXIXIXIXIXIXIXIXIXIXIXIXIXIXIXIXIXIXIXIXIXIXIXIXIXIXIXIX3.3.0.7.0.0.0.0.0.0.9.9.9.9.0.9.9.9.9.9.9.9.9.0.V B B B N N / / / / / / / / / / / / M M r / / e e e r r r r r r r q q q q q q q q q 5 5 2 2 # t t Q.>X>X>X<X<X>X>X<X<X>X<X>XhXO.# # # # # # # # $ # @ # # # @ # # # $ # # # # # # # # # # # # # # # # # # # # @ @ $ @ @ $ @ @ @ @ $ @ # # # $ @ # $ @ O $ o O $ O O O $ o o o O O O + + O @ o $ o $ o @ O X X o X X X X X X X X X X o   . .                       .         .                     7 qXmXtXmXbXcXcXVXbXbXVXvXrX#X$.%.o.o.#X0XvXvXcXNXNXMXbXcXVXNXBXZXZXNXZXZXSXVXVXVXVXNXZXNXbXNXNXbXbXVXVXeX9 , , e 0 F MXBXbXbXNXNXNXZXZXNXSXZXNXNXNXNXVXVXVXNXNXZXNXZXZXZXZXBXNXNXNXVXVXVXVXVXbXbXNXNXmXVXVXVXNXNXBXBXNXNXNXNXZXNXNXBXNXNXNXZXZXZXNXNXZXZXNXBXZXZXZXBXF 6 U 2 3 q q 8 ; , < F J z.v.~.!.|.|.~.~.|.|.|.|.oX|.|.oXoXoX|.|.|./.(.^.(.(.(.oX|././././././.'.(./.^. X X X X X'. X/././. X X X X X.X XXX XXXoX X|.|.|.|.|.+Xv.H F n IXIXIXIXIXIXIXIXIXIXIXIXIXIXIXIXIXIXIXIXIXIXIXIXIXIXIXIXIXIXIXIXIXIX",
"IXIXIXIXIXIXIXIXIXIXIXIXIXIXIXIXIXIXIXIXIXIXIXIXIXIXIXIXIXIXIXIXIXIX3.7.7.8.0.0.7.0.0.q.9.9.9.9.9.9.9.9.9.9.9.q.9.V V B B B N N N / / / / } / / / / / / / e r e / r e e e r r r r r r q q q q q q q q q 5 5 5 3 2 2 5 O.iX>X>X>X>X>X>X>X<X<X<X<X<XQ.t # # # # # # # $ # # $ # # # # # # @ # # # # # # # # # # # # # # # # # # # # # # # # # # # # # # @ # # # # # # # # # # @ # @ @ o o @ $ $ @ @ @ o $ @ @ @ @ @ o o @ o o o o o O X o X o o o X X X o X   X X                                                     . *.qXqXtXNXVXvXnXvXcXcXcXbXVXMXcXeX@XQ.#XQ.#X$.#X@XeXdXvXnXcXcXvXnXnXbXnXvXnXNXVXVXNXVXNXNXVXNXNXMXbXbXMXqX7 , 7 F 0 [ NXNXVXVXNXNXNXNXNXNXNXNXNXNXNXNXNXNXNXNXNXNXNXNXSXNXNXNXNXNXNXNXVXNXNXNXVXVXVXVXVXmXVXVXVXVXBXNXBXNXNXNXZXNXNXNXNXNXNXBXLXNXNXNXSXSXBXBXBXZXJXrXt w Y q 2 , < h J z.v.!.!.!.|.|.|.|.|././.|.oXoXoXoX|.(.!.|.|.~.~.(.~.(.~.~.~.(.^.^.(./././././. X X X^./. X.X X X X^./.^.^././.'.^.]. X X X X X X XXXXX X|.|.|.|.!.b.v.IXIXIXIXIXIXIXIXIXIXIXIXIXIXIXIXIXIXIXIXIXIXIXIXIXIXIXIXIXIXIXIXIXIX",
"IXIXIXIXIXIXIXIXIXIXIXIXIXIXIXIXIXIXIXIXIXIXIXIXIXIXIXIXIXIXIXIXIXIXz 3.3.7.0.0.7.0.9.9.9.S.9.0.9.9.9.9.9.q.w.9.7.S.Z Z Z V b / / / / / / / / / / / / / / / M r e e e e e r r r r q r q q q q q q q q 3 3 6 5 5 2 2 % ..hX>X>X>X>X>X>X>X%X<X<X<X<X#Xt # # # # # $ # # # $ # # # # # # @ @ # # # # # # # # # # t # # # # # # # # # # # # # t # # # # # @ # # # # # # # # # % # # # t # # @ @ # @ @ # # @ @ # @ @ # @ @ # # @ # @ @ o o o o o o o X o o o X X X o                                                     . %.#X..o.@XtXbXVXnXcXcXcXcXcXMXMXMXcXsXrXqXL.#X$.#X#X#X@X#X@X%X@X#X@XqX@X#XqXVXNXNXBXNXNXVXMXNXbXnXbXMXmXP., t 7 e 8 ..BXNXcXVXVXNXNXNXSXZXNXNXNXNXNXNXNXNXNXNXNXSXSXNXSXNXNXNXNXNXNXNXNXNXNXNXNXNXNXPXVXVXmXmXVXNXNXBXBXNXNXZXNXBXNXNXNXNXZXSXSXNXZXNXNXNXBXBXZXZXZX%.# w 0 0 F G v.!.!.|.|.|.oXoXoXoXoXoXoX|.|./.|.~.j.~.~.~.~.(.(.~.j.~.g.~.~.~.~.~.~.^.|.(./.(.(././.|./.^./././. X X.X X X^.^.^.^.].^.].^./. X X X X X X X X XoX|.oX|.|.!.IXIXIXIXIXIXIXIXIXIXIXIXIXIXIXIXIXIXIXIXIXIXIXIXIXIXIXIXIXIXIXIXIXIX",
"IXIXIXIXIXIXIXIXIXIXIXIXIXIXIXIXIXIXIXIXIXIXIXIXIXIXIXIXIXIXIXIXIXIXz 3.7.7.7.0.0.0.0.9.9.q.9.9.9.9.9.9.q.w.q.9.9.9.V Z Z B N N / / / / / / / / / / } / / / / r e e e e e r r r r r r q q q w q q q q q 3 ^ q 5 2 2 % [ rXiX<X<X>X>X>X<X<X<X<X<X<X%X1 # # # # # # # # $ # # # # @ # # # # # # # # # # # # # # # # # # # t # # # # # t # # # # # # t # t # @ # # # # t # # % # # @ t t t % % # @ t % % # # t # # # t # # # # # # # # @ @ $ @ @ & @ @ @ o @ o o o o o o . X   X   o X . . X o o o . . . .             & #XqXQ.$.O.o.qXrXvXmXmXvXbXmXvXcXbXNXNXNXVXsXrXqX#X#X#X$.$.L.#X#X#X#X#X#X#XqXVXNXNXNXNXMXVXZXbXbXnXcXcXsXO.% , 8 *.8 o.SXBXVXVXVXNXNXZXZXZXNXVXNXVXNXNXNXNXNXNXNXNXBXNXBXNXNXNXNXNXNXNXNXNXNXNXNXNXNXVXVXVXNXVXmXVXVXNXNXZXNXBXNXNXNXNXBXNXNXNXNXNXNXZXZXNXSXNXBXvX@X< 1 F H J.!.&X|.|.|.|.oXoXoXoXoX/./.|./.~.~.~.~.g.j.j.~.~.j.b.~.~.b.!.j.!.~.~.!.!.!.|.!.~.|.|.^.|.^.(.|.|.^.^./.^. X/. X.X X'.].].].].).^.^.'. X X'. X X X/. X XoXoXoXoX|.IXIXIXIXIXIXIXIXIXIXIXIXIXIXIXIXIXIXIXIXIXIXIXIXIXIXIXIXIXIXIXIXIXIX",
"IXIXIXIXIXIXIXIXIXIXIXIXIXIXIXIXIXIXIXIXIXIXIXIXIXIXIXIXIXIXIXIXIXIX3.3.3.7.7.7.7.7.0.D.0.0.9.9.9.9.9.9.9.D.q.q.0.9.0.0.Z ( ( / / / / ] / / / ] / / / / / / / e e M e e e e r e Y r r q r r r r q q q q q 5 3 5 5 2 % e $X<X<X>X>X>X>X>X<X<X<X<X<X%X1 # # # # # # $ # $ # # $ # # # # # # # # # # # # # # # # # # # # # @ # # # # # # # # # # # # # # # # t # # # # @ # # t % % % % # # % % % % % % % t # @ # % # @ # # # # # # # # # @ @ @ @ @ @ @ @ @ @ o o o o o o o o o o o o o o o o X o . o o X X             t rXvXrXtX@Xo.#XQ.#XtXbXvXbXbXbXcXbXNXNXBXNXNXVXVXvXvXvXvXvXeXrXrXrXtXeXeXeXvXZXNXNXNXNXVXVXNXNXbXmXcXcXsX[ , , 8 *.< $.GXVXVXVXNXNXZXZXZXZXSXSXNXVXNXNXNXNXNXNXNXNXSXNXNXNXSXNXNXNXNXNXNXNXNXNXNXNXVXNXNXVXVXVXmXVXNXNXBXNXNXBXBXNXBXNXNXSXSXSXNXZXNXZXNXZXBXmXyXO.0 m f.!.|.|.|.|.oXoXoXoXoX[.oX/.|.(.(.(.~.~.~.~.j.b.b.b.c.!.b.b.!.!.v.v.v.b.c.c.c.c.c.c.c.c.v.c.b.!.|.!.|.Z.|.^.|./.^. X.X.X.X X X X'.].].^.^.^.'.'.|. X X X X/. X^.^. XoX|.IXIXIXIXIXIXIXIXIXIXIXIXIXIXIXIXIXIXIXIXIXIXIXIXIXIXIXIXIXIXIXIXIXIX",
"IXIXIXIXIXIXIXIXIXIXIXIXIXIXIXIXIXIXIXIXIXIXIXIXIXIXIXIXIXIXIXIXIXIXz 3.3.7.7.0.0.0.0.0.0.q.9.9.9.9.9.q.q.9.w.q.q.9.0.0.V ( ..( / / [ [ [ / / / / / / / / / / / M r e / e e r r r r r e Y r r r r q q q q q 5 3 2 2 2 9 $X<X<X>X>X>X>X>X<X<X<X<X>X>Xn # # # # # # # $ # # # # # # # # # # # # $ @ # @ # # # # # # # # # # # # # # # # t # # # # t # # t # # # # # t @ # # % # # # % # t @ % % % @ % % # # # # t # @ # # # # # # # @ # # @ @ @ @ @ @ @ @ o @ o @ o o o o o o o o o o o . o o o o X . o X X           { cXvXqXbXVXrX#X%.#X#X@XvXvXvXvXvXcXVXmXVXVXVXVXVXNXNXNXNXNXNXZXNXVXbXBXNXZXNXVXNXNXNXBXVXbXNXVXmXbXmXdXsXF t , 8 e q Q.SXVXcXVXVXNXNXZXZXZXNXNXNXVXNXNXNXNXNXNXNXSXNXNXNXNXNXNXNXNXNXNXNXNXNXNXNXNXNXNXNXVXMXMXmXNXNXNXBXNXNXNXNXBXZXNXBXSXSXNXBXBXZXNXNXNXeXQ.F J H c.|.oX|.oX XoXoX|.|.[.^.|./.oX|.~.j.~.j.j.j.b.c.v.c.f.f.H S S k k l - 1 l : - - - : u - - : p l k x a.a.c.b.b.|.|.|./.^.'.|. X]. X X.X].].].^.].].].^.^.'./. X'./.|.|.^./.IXIXIXIXIXIXIXIXIXIXIXIXIXIXIXIXIXIXIXIXIXIXIXIXIXIXIXIXIXIXIXIXIXIX",
"IXIXIXIXIXIXIXIXIXIXIXIXIXIXIXIXIXIXIXIXIXIXIXIXIXIXIXIXIXIXIXIXIXIX3.z z 3.7.7.7.7.0.9.9.0.9.9.9.9.8.9.9.q.q.q.9.S.S.0.( X.[ / / / / / [ [ / / / / / / / / / / M e e r e M M / / r r r Y r q w U q q q 6 5 5 q 8 2 2 8 $XhX>X>X>X>X>X>X>X<X<X<X<XhXJ = # # # # # # # # # # # # # # # # # # $ # # # @ # @ # @ # # # # # # # # # # # # # # # t # @ # # # # t # # # # # # # # t # # # % @ # # % t % % # # # @ # # # t # # # @ # # # # # @ @ @ @ @ @ @ @ @ & @ @ o o o o o o o o o o o o o o o o o o o X X X         o Q.mXvX@X@XeXcXmX$XQ.#XQ.#XqXqXrXeXsXbXVXNXNXNXVXVXNXMXVXVXNXNXNXbXbXbXVXBXNXNXNXVXNXNXMXbXNXVXnXcXcXMXmXiXe , , 9 0 8 #XGXVXbXcXVXNXNXZXZXZXSXNXVXVXVXNXNXNXNXNXNXNXNXNXNXNXNXNXNXNXNXNXBXNXNXNXNXNXNXNXVXPXmXNXBXNXVXNXNXBXNXNXNXNXNXVXLXSXSXZXBXSXNXNXNXrXo.J H v.!./.(.^.|././.oX[.[.(.(./.|.~.(.~.~.j.~.b.b.v.H J k h n l * > - - * * * * - * : * h b b b a : > > > > > u p j a.c.j.Z. X X X X].M.]. X.X.X]. X].].].^.].^.^.^.^.^.^. X^.^.^.IXIXIXIXIXIXIXIXIXIXIXIXIXIXIXIXIXIXIXIXIXIXIXIXIXIXIXIXIXIXIXIXIXIX",
"IXIXIXIXIXIXIXIXIXIXIXIXIXIXIXIXIXIXIXIXIXIXIXIXIXIXIXIXIXIXIXIXIXIXz z z z z 7.7.7.8.0.9.9.9.9.8.8.7.9.9.9.9.q.w.9.0.0.( X...] N N N / / / / / Y / / / / / / / / r r e / / / / r Y Y Y U q Y U U q q q 6 3 5 q 2 2 2 t #XhX<X>X>X>X>X>X>X<X<X<X<XeX..= = # # # # # # # # # # # # # # # # # # # # @ # # @ # # # # # @ @ # # # # # # # # # # # # # # # # # # # # # # # # # # # t t % % t % # % # t # # # # t # # t # # # # t # # # # # # @ @ @ @ @ @ @ @ @ o o @ o o o o o o o o X X o o o o o o X . X X X X       9 eXVXVXqX$.O.#XqXtXvXrX@Xo.$.#X#XQ.#X0XrXvXVXVXVXNXNXNXVXNXVXBXbXbXbXbXbXNXNXVXbXVXVXNXbXbXVXMXcXsXcXcXsXqX9 , 7 0 0 9 %XGXbXbXcXmXVXNXZXZXZXZXNXNXVXVXNXNXNXNXVXNXNXNXZXNXNXNXNXNXNXNXNXNXNXNXNXNXNXPXNXVXVXVXNXNXmXNXNXNXNXNXNXNXNXNXZXSXBXZXSXNXNXNXNXrXv.S !.!.|.|.~.(.(././.[././.(.(.(.~.~.~.~.g.b.b.c.S J p * > * - - u p a j l i p a p p p - p B Z B V B B A - p u * - * * * u d 4.l.b.|.|.|.|.^.).].].].]. X].].].].^.^.^.^.^.^.^.^.^.^.IXIXIXIXIXIXIXIXIXIXIXIXIXIXIXIXIXIXIXIXIXIXIXIXIXIXIXIXIXIXIXIXIXIX",
"IXIXIXIXIXIXIXIXIXIXIXIXIXIXIXIXIXIXIXIXIXIXIXIXIXIXIXIXIXIXIXIXIXIXc z 3.z c 4.7.7.8.9.9.9.9.9.9.7.8.8.0.9.w.w.0.9.0.S.G.X.X.( Z B Z N N / / / M e / / / M / / / Y e r / / / M e Y U r q U q w w w q q 3 6 6 3 2 2 2 2 { hX<X>X>X>X>X>X>X<X<X%X<XhX#X1 = = t # # # # # # # # # # # # # # # # # # # @ # # # # # # # # t # # # # # # # # # # # # # # # # # # # # # # # # # # # t % @ @ # # t # # % # # % # # # # @ # # # # # # # # @ # @ @ @ @ @ % @ o @ & @ o o o o @ o o o o o o o X o X . o o o o o o X X X     { vXMXNXVXeX#X$.o.$.@XeXvXtX@X#X#Xo.$.#X#X#X@XqXrXtXVXVXZXBXZXNXNXNXNXVXVXNXNXVXNXVXVXbXbXVXNXMXcXvXmXbXsX#X7 7 , 0 0 7 rXZXbXcXvXVXNXNXZXZXZXZXZXNXNXNXVXVXNXNXVXNXNXNXNXNXNXNXNXNXNXNXNXNXNXNXNXBXBXNXNXVXVXVXNXmXVXNXBXBXNXNXNXNXNXNXZXZXZXZXBXBXNXSXvXO.H b.!.(.[.(./.(.(././.|.|.(.~.(.~.|.~.j.~.j.f.J 1 > * : u l a i l a a a i a i a j a a u u B V B V B B B B p u p a i i p * * * * y i c a.b.|.|..X'.].].].].]. X.X.X'.]./.N.^.N.^.^.|./.IXIXIXIXIXIXIXIXIXIXIXIXIXIXIXIXIXIXIXIXIXIXIXIXIXIXIXIXIXIXIXIXIXIX",
"IXIXIXIXIXIXIXIXIXIXIXIXIXIXIXIXIXIXIXIXIXIXIXIXIXIXIXIXIXIXIXIXIXIXz z 3.z z 3.3.7.7.0.8.9.9.9.9.7.9.9.9.9.q.9.0.9.0.z.G.X.X.Z Z B V B b / / / / e M / / / / / / e e M / / / Y Y U q w U w w w w r q q q 6 3 5 2 2 2 2 D rX<X>X>X>X<X%X>X>X<X<X<X<X%XF t # ; = # # # # # # # # # # # # # # # # # # # @ # @ # # # # # # @ # # # # # # # # # # # # # # # # t # # # # # # # # # # t @ # # # # # # # % # # # # # t # # # # # # # # # # # @ @ @ # % @ @ @ @ @ @ @ o o o @ o o o & o . o o o . o o X X o o o X X X   % @XbXeXnXZXNXVXvX@Xo...O.#X0XtXvXeXqX@X#X#X$.O.$.Q.#X$X0X$XvXbXNXZXNXVXNXNXNXVXVXVXVXVXVXVXVXVXMXnXMXmXmXsXo.; , , 0 8 0 eXZXbXcXbXVXbXVXNXZXZXSXNXVXVXVXNXVXVXNXVXVXNXNXNXNXNXNXNXNXNXNXNXNXNXNXBXNXBXBXVXVXVXVXNXNXNXNXBXNXNXNXNXNXNXNXSXBXZXZXZXNXNXvXo.S !.|./.|.|./.(.(.(.(.(.(.oX~.~.|.|.|.b.c.z.j * * * p l j i a i i a a a i i d a a a a a : A V V B Z B B B B B p p j s a a s p p y * y * u i c s.|.|..X.X].].].'..X.X X X^./.^.N.M.(.^.^.IXIXIXIXIXIXIXIXIXIXIXIXIXIXIXIXIXIXIXIXIXIXIXIXIXIXIXIXIXIXIXIXIXIX",
"IXIXIXIXIXIXIXIXIXIXIXIXIXIXIXIXIXIXIXIXIXIXIXIXIXIXIXIXIXIXIXIXIXIXz z z z z z 3.7.7.7.9.7.9.9.9.9.9.9.9.9.8.9.9.9.7.0.G.X.X.Z B V V B b b M / / M r / / / / M / e M Y / / / e Y w U I q w e Y e r q q 3 6 5 q 5 2 2 2 e %X<X<X<X>X<X<X<X>X<X<X<X>XiX#XF , # = = # # # # $ # # # @ # # # # # # # @ # # @ # # # # # # # # # # # # # # # # # # # # # # # # # # # # # # # # # # t @ t # # t t # @ # # # # # # # # # @ % # # # @ t # # # # # @ @ @ @ @ @ @ @ o @ o # o o o o o o X o o o . o . X X o o X X X X X . 0 tXnX@XL.rXVXVXVXVXvXqX$.....O.Q.qXtXbXbXtXrXqX@X#X$.$.Q.o.o.#X@X@XrXrXvXVXVXNXNXNXZXVXNXNXVXVXMXBXMXMXnXsX..% 7 t 0 7 e vXBXbXbXcXVXNXBXNXZXZXZXVXVXVXVXVXNXNXVXNXNXNXVXNXNXVXNXNXNXNXNXNXNXNXNXNXNXNXBXNXVXNXNXNXVXBXBXBXNXNXNXNXNXNXBXZXSXBXZXNXNXhXv.S b.|.(.(./.|.~.~.~.~.~.|.|.~.~.|.|.!.c.S l * * y a a j j a a a a a a a a j a a j a j a y a Z ( V B B B B B Z B A y p A g d d g d a s i y u * u y j 4.b.A. X X.X'.].].'.'. X^. X'. X^.N.^.IXIXIXIXIXIXIXIXIXIXIXIXIXIXIXIXIXIXIXIXIXIXIXIXIXIXIXIXIXIXIXIXIXIX",
"IXIXIXIXIXIXIXIXIXIXIXIXIXIXIXIXIXIXIXIXIXIXIXIXIXIXIXIXIXIXIXIXIXIXz z z z z z 3.7.7.7.7.7.7.9.9.0.8.9.8.8.8.8.9.9.8.z.S.G.( V z z z z B b v M M M / / / / M M / M M M / / Y Y Y w w q w w e e e r q q q 3 5 5 2 2 2 2 , %XhX<X>X>X>X>X<X%X<X<X<X>X<XeXqXD 1 $ = = # # # $ $ $ @ # # $ # # # # # # # # # @ # # # @ # t # # # # # # # # # # # # # # # # # # # # # # # # # # # # # # # t @ # # # # # # # # # # # # t # # # # # # # % @ # # @ @ @ @ @ @ @ o @ @ o @ o o o o @ o o o o o o X o o X . X X X X X . . ..bXVXrXo.D #XqXvXVXZXVXvXqX#XO.o...O.$.@XeXcXNXZXBXcXqX#X#Xo.o.o.o.$.o.$.#X#XqXeXeXrXrXtXtXqXQ.#X@XrXcXvXsXM , t t 0 9 F bXBXbXcXcXVXVXNXNXNXZXNXNXVXVXVXVXVXVXVXNXVXNXNXNXNXNXNXNXNXNXNXNXNXNXNXNXNXBXBXNXNXBXBXVXBXBXNXNXNXNXNXNXVXNXNXZXNXSXNXNXvXJ.S c.!.oX|.|.oX/.(.~.~.(./.(.|.~.~.!.c.S l * y p j g g a d a a a a a a a a a a a a a a g a a B Z B V A B B B B B B B p u A d g f g g g g d i i a a - * y y d a.Z.|..X]. X X.X.X X X]. X X/.^.IXIXIXIXIXIXIXIXIXIXIXIXIXIXIXIXIXIXIXIXIXIXIXIXIXIXIXIXIXIXIXIXIXIX",
"IXIXIXIXIXIXIXIXIXIXIXIXIXIXIXIXIXIXIXIXIXIXIXIXIXIXIXIXIXIXIXIXIXIXz z z z z z 7.7.7.7.7.7.7.9.9.0.9.8.8.8.8.8.9.8.0.0.0.z.V V z z z V B B b N M M / / / / / r / e e e / / / U w q w w e r r e e U q q q 3 6 3 4 2 2 2 , J.iX>X>X>X>X<X<X<X<X<X<X>X<X<XhX>XJ.n = # # $ # # # # $ # @ # # @ # # # @ # # # # @ # # # # # # # # # # # # # # # # # # # # # # # # # # # # # # # # # # # # # # # # # # # # # # # # % # # # # # # # # # # @ @ # @ @ @ # @ o @ @ @ o @ @ o @ o o o o o o o X X X o o . X X X X X X . # #XsXVXZXsX#XO...@XqXvXbXNXVXVXeXqX#Xo.| O.$.#X@X$XrXtXsXvXvXtXrXqXqX@XL.$.o.O.o.$.o.o.L.#X@X#Xo.O.$.@XsXcXrXv 7 , 7 w , F VXBXcXcXcXbXNXNXNXNXZXNXVXcXVXVXVXVXVXNXVXVXNXNXNXNXVXVXNXNXNXNXNXNXNXNXBXNXBXNXBXBXBXBXBXBXBXNXNXNXNXVXNXNXNXZXSXNXNXNXVX%XS c.!.|.|.|.|.~.~.~.~.~.~.~.~.g.h.h.S l > - i j a A g d g a a a a a a a a a a a a a a a a a A V Z V Z V V B B B B B B A y s g d d f g f g g g g g g g a s y * u i 4.h.A. X X^.).].'.].).]. X^.IXIXIXIXIXIXIXIXIXIXIXIXIXIXIXIXIXIXIXIXIXIXIXIXIXIXIXIXIXIXIXIXIXIX",
"IXIXIXIXIXIXIXIXIXIXIXIXIXIXIXIXIXIXIXIXIXIXIXIXIXIXIXIXIXIXIXIXIXIXz z z z z 3.7.7.7.7.7.0.7.9.9.8.8.8.8.8.3.8.9.9.9.9.9.0.7.3.z z z z V B b N M / / / / / r M / e Y / / M Y Y Y w r e r r e e e I q q q 3 q q 2 2 2 2 % ..iX<X>X>X>X<X<X>X<X<X<X>X>X>X<XhXiX@XD = # # # # # # # # # # # # # # # # # # # # # # # # # # # # # # # # # # # # # # # # # # # # # # # # # # # # $ @ # # # # # # # # # # # # # # # # @ # # t # # # @ # @ @ @ @ @ @ # # @ @ o @ @ @ o o o o o o o o o X o X X X X o o X o + . X X   0 $X$XrXsXZXVXqXo.O.O.Q.$XeXvXVXVXVXVXvXrX#XQ.#X#X$.$.o.$.#X#X#X@X%XeXmXnXsXrXqX@X@X@X@X@X@X%XqX0X0XqXeXMXcXqX< 7 t 8 0 < { MXBXnXcXmXVXVXVXNXVXNXNXVXVXVXVXVXVXVXVXVXVXVXVXNXNXVXVXVXNXNXNXBXNXNXNXNXBXNXNXNXBXNXNXBXBXNXBXBXNXNXNXNXBXZXZXBXNXNXNX%XS f.~.(.(.[.|.(.~.~.~.~.~.~.j.f.v.S p > - u u A B g g d g g a a a d a g a a j a a a a a a a g V V V V ( B B B A B B B B B b y A g d f g g g d g f g g 7.g g d a u * * u c h.Z. X^./. X].'.'. X].IXIXIXIXIXIXIXIXIXIXIXIXIXIXIXIXIXIXIXIXIXIXIXIXIXIXIXIXIXIXIXIXIXIX",
"IXIXIXIXIXIXIXIXIXIXIXIXIXIXIXIXIXIXIXIXIXIXIXIXIXIXIXIXIXIXIXIXIXIXg z z z z z z 3.7.7.7.7.7.7.7.7.7.9.8.7.3.3.8.0.8.8.8.3.3.z z z z z z B B b b N M M M r e e r e M M M e e e e r e e e r r r r q q q q q 3 5 2 2 2 2 % N rXiX>X>X>X>X<X<X<X<X<X<X<X>X>X<X<XhX%X.., $ @ # @ # # # # # # # # # # # # # # # # # # # # # # @ # # # # # # # # # # # # # # # # # # # # # # # # # t # # # # # # # # # # # # # @ # # # # # # # @ t # # @ t @ @ # @ @ @ o @ @ @ o o o o o @ o o o o X o X X X X X . X X . o . X . X O.sXP.$.L.$XtXNXsX$X#XO.o.$.L.@XqXtXVXBXBXVXbXeXeXeX%X@X#X#XL.o.L.$.L.#XqX$X#X#X#X#X@XqXqXqXrXeXvXtXsXNXMXcX#X, , t 8 0 , O.MXNXcXcXbXbXbXVXVXVXNXNXVXbXVXcXVXVXVXVXVXVXVXVXVXNXVXVXVXNXNXNXBXNXBXBXNXNXBXNXNXNXBXBXNXBXNXBXNXPXNXNXNXBXBXBXNXNXNXvXH S ~.~.(.|.~.~.~.j.~.~.~.g.f.f.H k = - p A A a i B g g g d d d d a i i a a a a d g a a a i a B V V V V V V B B ( B B B B B B y s A g g g f g f g d g f g z z z z g a u u y u c s.Z. X.X X/.].^./.IXIXIXIXIXIXIXIXIXIXIXIXIXIXIXIXIXIXIXIXIXIXIXIXIXIXIXIXIXIXIXIXIXIX",
"IXIXIXIXIXIXIXIXIXIXIXIXIXIXIXIXIXIXIXIXIXIXIXIXIXIXIXIXIXIXIXIXIXIXg z z z z z z 3.z 7.7.7.7.7.7.7.7.9.8.7.3.3.8.8.8.7.3.3.z z g z z z z z V B b N M M e Y Y r e M e e / e e e e e w e Y r r r q q q q q 3 q 5 2 2 2 2 ; 0 @XiX>X<X>X>X<XrX<X<X<X>X>X>X>X<XhXiXhXeX..@ @ @ @ @ # # # # # # # # # # @ # # @ # # # # # # # # # # # # # t # # # # # # # # # # # # # # # # # # # # # # # # # # # @ # # # # @ @ @ # # # # # # # # # @ # @ @ @ @ @ @ @ @ @ o & o o o o o o o o o o o o X X X X X X X X X . o . . # wXZXrX@XO...O.#XsXVXbXrXQ.O.{ O.$.$.@XqXsXnXVXZXNXZXZXnXvXbXrX@X#X#XL.$.#X#Xo.#XL.O.O.O.O.O.O.O.O.O.qXmXMXcXL., , , 8 9 , #XGXbXcXcXcXbXVXNXNXVXZXNXVXbXbXVXVXVXVXVXVXNXVXVXVXVXNXNXNXNXNXNXNXNXBXNXNXNXBXNXNXNXNXBXNXNXBXNXNXBXBXNXNXBXBXNXNXZXNX%Xa.!.~.(.(.|.~.j.j.~.~.~.f.f.S x u - p B B B V A y a g g d d d g d a a d a a a a g a a a i i A Z V V V V V Z B B B B B B B A B A * A g d g f z g g f g g d f z g g z g V B A u * s c a.Z.|. X^.^.^.IXIXIXIXIXIXIXIXIXIXIXIXIXIXIXIXIXIXIXIXIXIXIXIXIXIXIXIXIXIXIXIXIXIX",
"IXIXIXIXIXIXIXIXIXIXIXIXIXIXIXIXIXIXIXIXIXIXIXIXIXIXIXIXIXIXIXIXIXIXf z z c z z 3.z z 7.7.7.7.7.7.7.8.8.8.8.3.3.3.3.3.3.3.z z z z z z z z z V B b b N M M e e e e e e e M e e r e w e w Y r r q q q q q 6 q 6 5 2 2 2 2 % 5 P.iX<X<X%X>X>X<X<X<X<X<X>X>X>X>X<X<X<X<XQ.@ @ @ # @ @ @ # # # # # @ # # @ # # # # # # # # # # # # # # # # # # # # # # # t # # # # # # # # # # # # # # # # # # # # # # # # # @ @ # # # # # # # # @ @ @ # @ @ @ @ @ @ @ # o @ o @ @ @ @ o o o o X o o X X X X X X X X o X o o . . n iXbXVXnXrXL.O.O.J.#XeXNXNXeX@X$.O.O.....o.$.#X@XrXnXVXZXZXZXZXZXZXbXvXeXeXrX@XwXqX#X$.L.Q.#X#X$.O.O.0XcXMXsX| t , t 9 0 9 @XGXVXcXcXbXVXVXVXNXVXNXZXVXVXVXVXNXVXVXVXcXVXmXVXmXVXVXNXNXNXNXNXNXNXBXNXNXNXNXNXNXNXNXmXNXBXNXBXBXNXNXNXNXNXNXNXNXBXVXv.c.~.~.(.~.~.g.j.~.f.f.f.~.S J > p B B Z V V V B u u g z g d g d a a a i g d a d d a a d a A 7.7.V V V V V B B B B B B B B B B B y y g f g g f z z z f f f g f f g g d 7.9.0.Z B a y u d a.h.Z.|.].IXIXIXIXIXIXIXIXIXIXIXIXIXIXIXIXIXIXIXIXIXIXIXIXIXIXIXIXIXIXIXIXIXIX",
"IXIXIXIXIXIXIXIXIXIXIXIXIXIXIXIXIXIXIXIXIXIXIXIXIXIXIXIXIXIXIXIXIXIXz z z z z z 3.z z 7.7.7.7.7.7.0.8.7.8.4.3.3.3.3.3.3.z z c z g g g z z z V V B b N N r e e e e e M r M Y r e w r e e w w q q q q q q 6 6 6 6 2 2 2 2 t t ..hX>XrX>X>X<X>X<X<X<X<X>X>X<X<X>X<X<XhX| O o $ # $ @ # # # # # # @ # # # # # # # # $ # # # # # # # # # # # # # # # # # # # # # # # # # # # # # # # # # # # # # # # # # # @ # # # # # # # # # # # @ @ # @ @ @ @ @ @ @ o @ o @ @ o o o o o @ o o o o o o X X X X X X X X X X X . J.fXmXbXVXNXvXwX#XL.o.#X@XrXcXBXmXeXqX$.O...{ { O.o.#XqXqXrXhXvXNXZXSXZXZXZXZXZXVXVXbXcXmXmXsXeXqXqXrXsXMXmXeXD ; t t 0 9 0 eXSXVXcXcXbXMXNXeXqXrXsXvXbXVXNXNXVXVXVXVXNXNXNXMXbXbXNXNXVXNXVXNXNXNXNXBXNXNXNXBXNXNXNXNXVXNXNXNXNXNXNXNXZXNXNXNXBXVX%XJ !.~.~.~.~.g.h.~.c.f.f.c.H l * v B V V V V V V V A y p A g f d a a a a d d g d f g g g A A V V S.V 7.V V V B V B B V B A B B B B A y a g g g d g 3.z z z f g g f g d g 9.S.9.9.S.e.V g y y i S h.Z.IXIXIXIXIXIXIXIXIXIXIXIXIXIXIXIXIXIXIXIXIXIXIXIXIXIXIXIXIXIXIXIXIXIX",
"IXIXIXIXIXIXIXIXIXIXIXIXIXIXIXIXIXIXIXIXIXIXIXIXIXIXIXIXIXIXIXIXIXIXg z z z z z z 3.z 3.7.7.7.7.7.7.7.8.7.3.3.3.3.3.3.3.z f f g d d f z z z z 7.V B N M / e e e e e r r r r r r r e e r q q q q q 6 q q 6 3 6 6 4 2 2 2 2 8 D vX<X>X>X>X>X<X<X<X<X<X<X<X<X<X<X<X<XhX..O $ $ $ $ # # # # @ # # t # = # # # # # # # # # # # # # # # # # # # # # # # # # # t # # # # # # # # # # = # # # # # $ # $ # # # # $ $ # # # # # # # # @ t # @ # @ # # @ @ @ @ @ @ @ @ @ o o @ @ o o o o o o X X X X X X X X X X .   = $XZXMXbXnXbXbXnXvXrX@X#Xo.O.#X@XeXVXBXVXvXeXqX#X#X$.o.$.$.o.$.@X@X%XrXrXeXsXvXbXbXvXcXbXMXZXBXMXMXMXcXtXcXbXrXe 7 ; t 0 8 e eXGXbXbXbXVXbXmX%Xo.#X#X@XqXqXrXsXsXtXvXvXVXbXVXVXBXVXNXBXNXNXVXNXNXNXBXBXBXBXBXNXNXVXVXNXNXVXNXBXNXBXNXBXNXNXNXNXZXhXH S ~.~.(.~.j.g.g.f.f.c.f.S - - j V V 7.V V V V V V V a y g z g d a g d d d g g f g g g g A A V 9.9.V V V V V A ( Z B V B B B B B B B A * a d f g g f z z z f f g g d s 7.S.9.9.9.q.D.S.S.0.A y y d c IXIXIXIXIXIXIXIXIXIXIXIXIXIXIXIXIXIXIXIXIXIXIXIXIXIXIXIXIXIXIXIXIXIX",
"IXIXIXIXIXIXIXIXIXIXIXIXIXIXIXIXIXIXIXIXIXIXIXIXIXIXIXIXIXIXIXIXIXIXB V z z z z 3.z z z 3.7.7.7.7.0.7.8.8.8.8.8.7.3.3.z z f g d f g f g z z 3.7.V V b N e e e e r r M r r r r r e e q q q q q q q q q q 6 6 4 6 2 2 2 2 w 6 *.%XhX>X>X>X>X<X<X>X<X<X<X<X<X<X<X<X<XiXD O O $ $ $ @ # @ # # # @ # # # # # # # # # # # # # # # # # # # # # # # # # # # # # # # # # # # # # # # # # # # # # # $ $ # # # @ # # # # # # # # # # # # # # @ @ t @ @ @ @ @ @ @ o o o @ o o o o o o o X X o X o o o X X X X X X X . M iXAXbXnXbXnXnXnXbXbXvXqX$...O.O.O.#XrXeXVXbXNXZXbXvXeX$X#X#X$.#Xo.#X#X#X@X@X#X#X$.O.$.o.o.L.$.$.#X$.$.$.@XmX0X9 t ; , 0 9 D vXZXcXcXbXcXNXbXvXrXrXqX@X@X@X#X#XQ.#X#X#X@X0XrXrXeXvXNXBXBXBXNXNXBXNXNXNXSXNXNXNXNXNXVXVXNXNXNXNXBXBXNXNXBXNXNXZXNX#Xk f.~.~.~.j.j.~.h.f.f.v.S * u A V V V 7.V V V V A V V A p s A z g g d g f g d z z z z V g A A V V V V V V V V V V V V V A B B A A B ( A y s g g g f g f z z z z z g s A 9.9.9.9.9.9.D.9.9.9.0.7.A a u IXIXIXIXIXIXIXIXIXIXIXIXIXIXIXIXIXIXIXIXIXIXIXIXIXIXIXIXIXIXIXIXIXIX",
"IXIXIXIXIXIXIXIXIXIXIXIXIXIXIXIXIXIXIXIXIXIXIXIXIXIXIXIXIXIXIXIXIXIXB B z z z z z z 3.7.z 3.7.7.7.7.8.8.7.3.8.7.7.3.3.z g f g d d g d g c z z c z V Z N M e Y e r r r r 9 r r r r 8 q q q q q q q q q q q 6 6 6 2 2 3 w U 6 t %XiX>X>X>X>X>X<X<X<X<XrX<X<X<X<X>X<X<XD X o $ $ o @ $ @ @ # # # @ # # # # # # # # # # # # # # # # # # # # # # # # # # # # # # # # # # # # # # # # # # @ # # $ # # # @ # @ # $ $ @ # # # # # # # @ @ @ @ @ # # t o @ @ @ @ o o & o o o o o o o X X X X X X X X X X X X X   O H iXtXsXdXdXvXsXvXnXnXbXVXbXeX#X#XO.O.$.o.L.#XrXeXsXVXZXVXVXnXvXtXqX@XL.#X#X#X#X$.O.O...{ { O.O.{ O.$.Q.$.0XcX0X7 , 7 7 0 , D bXBXcXvXcXbXbXVXNXNXVXVXVXvXvXtXqXqX@X#XQ.#X#X$.$.#X#X@XqXrXtXvXNXZXBXZXBXGXSXNXNXBXNXNXNXNXNXNXNXNXNXNXNXNXNXNXNXvXH J !.~.~.~.~.~.f.f.f.v.J - p j B V V V V V V A A V V V V A y a z f z d d d g g z z z z V A A e.S.V V V V V V V A V A ( V B B B ( A B B B b * a g d g z g f g f z z g d 0.S.9.9.9.9.9.9.9.9.9.0.9.0.V a IXIXIXIXIXIXIXIXIXIXIXIXIXIXIXIXIXIXIXIXIXIXIXIXIXIXIXIXIXIXIXIXIXIX",
"IXIXIXIXIXIXIXIXIXIXIXIXIXIXIXIXIXIXIXIXIXIXIXIXIXIXIXIXIXIXIXIXIXIXB B z z z z z z 3.z z 3.7.7.7.7.7.7.7.4.8.e.3.3.3.f z g f g g f g f z z z z z z V C N Y e e r v r r r 9 9 8 7 8 q q q q q q q q q q 6 2 2 t 2 6 L P w 6 6 Q.hX>X>X>X>X<X<X<X<X<X<X<X<X<X<XrXhX>X] @ o $ $ $ @ @ o $ # # t # # # t # t # # # # # # # # # # # # # # # # # # # # # # # # # # # # # # # # # # # # # # # # # # # # # # # @ # # # # # # # # # # @ # # @ @ # # @ @ @ @ @ @ o @ @ @ & o o o o o o o o X X X X o o X X X X . , J.iXtXsXsXsXsXvXvXnXVXbXVXVXVXMXvXrX@X#Xo.O.o.O.#X#X#X#X#X@XrXvXVXBXNXbXvXhXeXrXrXqXqX0X@X@X0X0X@X#XqXeXeXtXmXL.t , t , 0 , O.BXNXvXsXcXbXbXNXNXNXVXZXZXNXVXNXNXVXcXcXvXtXtXrX@X#X#X$.o.$.o.o.$.L.#XrXvXvXvXbXNXNXNXNXNXNXBXNXNXNXNXBXNXNXBXBXVX%Xk f.~.~.g.g.~.f.f.c.z.j * p B A V V V V V V A g V A g V 7.B s y g z e.g f g g 3.3.3.e.g d g V 9.( 9.S.V 7.V V V V A V V V V B B A A B B B B p y A g g g 3.g g z z A s V S.7.9.9.9.7.9.9.9.9.9.9.S.q.S.9.IXIXIXIXIXIXIXIXIXIXIXIXIXIXIXIXIXIXIXIXIXIXIXIXIXIXIXIXIXIXIXIXIXIX",
"IXIXIXIXIXIXIXIXIXIXIXIXIXIXIXIXIXIXIXIXIXIXIXIXIXIXIXIXIXIXIXIXIXIXb B z z z z z z 3.3.7.3.3.3.7.3.3.7.8.8.7.7.3.3.z z z g z g f c g g g f z 3.3.3.V B N N M r r r r 9 9 9 9 5 6 8 8 q q q q q q q 6 3 6 t 6 6 U U P 6 P w t Q.iX>XrX>X>X>X>X<X<X<X>X<X<X<X<X<XiXqXF o $ $ $ # $ o $ $ $ $ # # # # # # # # # # # # # # # # # # # # # # # # # # # # # # t # # # # # # # # # # # # # # @ # # # # # @ @ # # @ @ # # @ # # # # @ @ # @ # @ @ @ @ @ @ @ o @ @ o o @ o o o o o o o o o o X o X X X X X X . X M qXsXsXsXsXdXsXnXnXbXnXbXVXbXbXbXNXBXNXvXeXrX@X#Xo.o.{ ..O.o.Q.#X@X0X$XeXsXvXvXvXcXbXVXBXBXmXbXBXVXBXBXBXMXVXmXO.; , , 7 0 , $.BXbXvXvXbXbXbXVXZXNXVXZXBXNXVXVXVXVXNXVXVXVXVXVXVXvXvXtXeX@X#XQ.$.{ o.o.$.o.O.$.#X@XqXrXtXvXNXVXVXZXZXNXZXNXZXNXvXo.k b.~.~.g.~.g.h.c.S l > : b B V V V V V V V V V V z g e.7.V g y a V g z g f z 3.3.3.e.g g V e.( e.A V V V V V V V V V A A V V V B B B B B B A * p a g d g g z z g s g 9.S.0.0.e.S.9.0.9.0.9.9.9.0.0.9.S.IXIXIXIXIXIXIXIXIXIXIXIXIXIXIXIXIXIXIXIXIXIXIXIXIXIXIXIXIXIXIXIXIXIX",
"IXIXIXIXIXIXIXIXIXIXIXIXIXIXIXIXIXIXIXIXIXIXIXIXIXIXIXIXIXIXIXIXIXIXb b B z z z z z 3.3.3.7.3.3.3.3.3.7.8.7.3.3.3.z z g z z f c d g g z z z z z 3.3.z B b b r 0 r 9 8 9 9 9 9 5 7 7 8 8 8 q w 6 q 3 2 2 6 w w w P P 6 P P 6 t { <XhX>X>X>X<X<X<XrX<X>X<XrX<X<X<XhX%XF o $ $ $ # $ $ $ $ @ @ @ $ # # # # # # # # # # # # # # # # # # # t # # # # # # # # # # # # # # # # # # # # # # # # # # # # @ # # # # @ @ # @ @ @ # # # # # # @ # @ @ @ @ @ @ @ o @ @ @ o @ o o o o o o o o o o o X X X X X X X . % J.sXsXsXsXnXnXnXnXbXnXbXbXVXMXbXVXNXVXVXVXNXNXNXVXvXsXeX$X0X#XQ.$.#X#X$.#XL.o.o.$.$.L.L.L.$.L.#X@X0XqXqX0XtXMXcXD ; % , 8 e 9 @XBXVXvXnXbXNXVXNXVXnXVXZXBXNXVXcXVXmXNXBXMXNXVXVXVXVXVXNXNXNXcXcXvXtXrX%X@X$.o.O.Q.o.Q.#X#X#X#XQ.#XqXhXvXVXNXBXNXvXJ J !.~.~.~.~.g.c.f.1 $ = b B V V V V V V V V 7.V z z z z 7.7.7.g s g 3.3.=.z f 4.4.3.V d A V V e.e.V V 9.V V V V V V V ( A B B ( A B B B B B A p * a g d g d g f s s V 7.9.0.7.S.9.9.V 7.0.0.0.0.0.9.9.S.IXIXIXIXIXIXIXIXIXIXIXIXIXIXIXIXIXIXIXIXIXIXIXIXIXIXIXIXIXIXIXIXIXIX",
"IXIXIXIXIXIXIXIXIXIXIXIXIXIXIXIXIXIXIXIXIXIXIXIXIXIXIXIXIXIXIXIXIXIXb b z z z z z z z z V z 3.z 3.3.3.3.3.4.3.3.z z f z z g g f f g g d f z g z z 3.z V b v 9 r 9 9 < 9 9 8 8 8 7 8 8 8 8 8 6 2 2 2 6 w P w w w P P 6 w P P 6 *.rXiX>X>X>X>X>X>X>X>X<X<X>X<X<X<XhX%XD o $ @ o $ o $ $ o $ $ o $ $ # # # # # # # # # # # # # # # # # # # # # # # # # # # # # # # # # # # # # # # # # # # @ # # # # # @ # # @ # # # # # # # # # # @ @ # @ t @ @ @ @ @ o o @ o @ o o o o @ o o o o o o o o o o X o X X X M $XsXsXsXnXnXvXnXnXnXbXbXVXbXbXbXbXNXBXBXVXVXNXVXVXNXNXVXVXVXnXbXeX$XqX@X@X#X#X$.L.#X#Xo.O.O.O.O.{ [ { [ O.rXmXeXF % , t 8 9 0 qXGXbXcXcXVXBXVXVXrX#XrXtXcXVXNXcXVXVXVXNXbXVXNXNXVXVXNXBXNXNXBXNXNXZXZXZXBXMXcXhXvXvXrXrXqXqX@X#X$.$.$.Q.#XVXNXNX%XJ S !.~.~.(.~.g.f.k $ + : B V 7.V V V V V V 7.7.e.7.V 7.z 7.e.7.V s a 7.3.4.=.=.5.8.e.d A V 7.S.V 9.( V V V V V V V V V V V V V A A ( B B B B B A y p i d d g g g s A 7.S.9.0.7.V V 9.V S.0.9.0.0.7.V V 0.IXIXIXIXIXIXIXIXIXIXIXIXIXIXIXIXIXIXIXIXIXIXIXIXIXIXIXIXIXIXIXIXIXIX",
"IXIXIXIXIXIXIXIXIXIXIXIXIXIXIXIXIXIXIXIXIXIXIXIXIXIXIXIXIXIXIXIXIXIXb j z z 3.z z z z 3.z z z 3.3.3.3.3.3.3.3.z z z z g f g g f d d d c c d f f z z z z j b v v 9 9 9 9 9 8 9 8 8 7 7 5 2 8 8 w q w ) w w w 6 P w P w w P w 6 *.%XiX>X>X>X<X>X>X%X%X#Xo.v.#X%X>X>X%X] o $ $ $ $ $ $ $ $ O $ $ $ $ $ $ # # # # # # # # # $ # @ # # # # # # # # # % # # # # # # # # # # # # # # # # # # # # # # # # # # # # # # # # # # @ @ @ # @ @ @ @ @ @ @ @ o o @ @ @ @ o @ o o o o o o o o o X X o o @ o o o O X $ ..eXvXsXiXnXnXnXbXnXbXnXbXbXbXVX%X$.$XeXbXNXNXNXVXNXNXNXNXVXNXNXNXNXNXNXNXvXvXsXsXsXtXtXqX@X@X0X#X$.O.O.%.@XsXmXqX9 , , % 0 7 F tXZXVXcXnXcXbXbXvX@X#XQ.@X@XqXtXtXvXVXNXNXNXVXBXBXNXVXNXNXNXNXNXNXNXNXZXBXBXNXZXNXZXVXZXNXNXBXVXvXtXtXrX@X@XcXNXNX%Xk f.~.(.~.~.~.~.a.p = - h B 7.7.7.V V V V 0.7.9.7.9.7.7.7.3.3.7.V g s f 3.4.;.;.6.5.z A A e.V 7.7.V 9.9.V V V V ( V V V A V V ( V A A B B B B A B p * a a g g g s s 7.9.9.9.e.e.( e.( 9.V S.V 9.9.V V V V IXIXIXIXIXIXIXIXIXIXIXIXIXIXIXIXIXIXIXIXIXIXIXIXIXIXIXIXIXIXIXIXIXIX",
"IXIXIXIXIXIXIXIXIXIXIXIXIXIXIXIXIXIXIXIXIXIXIXIXIXIXIXIXIXIXIXIXIXIXb B B V z z z z z z z g z z z z z 3.3.3.z z z z f d d d g d f g d d d d c f c z 3.7.B b v v v v v v r 9 7 ; ; % % 7 8 w w w w w w w w P P P P P P w P P w t %XiXiX>X>X%X#XJ.Q.#X%X%X$X%X#XL.+X%X{ @ o $ $ $ o $ o O O $ o $ $ o $ $ @ # # # % % % # # @ @ @ @ @ @ # @ # # # # # # # # % # # t # # # # # # # # # # # # # # # # # # # # # # # # # # # # # @ @ # @ @ @ t @ @ @ @ @ o o & o @ @ o @ o o o o o o o X o o o o $ $ O O n L.vXsXsXvXnXbXbXbXbXnXbXbXbXVXcX#XO.O.o.o.#XrXvXbXVXNXZXZXBXVXbXVXVXVXVXbXnXnXVXVXVXMXbXVXVXcXcXvXvXtXsXsXcXmXmX@X, , % t 7 7 F tXBXcXsXvXvXnXcXnXcXsXqX@X@X#X@X@X@XrXeXtXsXvXmXNXNXNXBXBXNXBXBXNXNXBXZXSXZXZXNXNXZXNXNXNXBXNXBXNXVXNXNXNXBXZXNXNX#Xk ~.~.~.~.~.~.c.k = 9 h b b B Z V V V 7.7.7.e.8.9.e.8.7.7.e.7.7.V V s i 3.4.<.6.6.3.d A 9.7.S.V S.9.e.7.( V V V V V V V A V A A A A V B B B B ( B A * p a g d s s V 9.V S.V ( V 9.V 9.V 9.7.7.V A V V V V IXIXIXIXIXIXIXIXIXIXIXIXIXIXIXIXIXIXIXIXIXIXIXIXIXIXIXIXIXIXIXIXIXIX",
"IXIXIXIXIXIXIXIXIXIXIXIXIXIXIXIXIXIXIXIXIXIXIXIXIXIXIXIXIXIXIXIXIXIXv b b z z z z z z z z f z c f z g 3.3.z f z z g g z g f z g d f f g d d f g z 3.3.0.V B b v v n r 8 , ; , 8 8 0 r w w w w w w w w w w w P P P w w P P P w w Q.hX>X>X#XD ..%XsXVXVXVXVXVXvXwX#Xo.{ O o $ $ o $ $ O O O $ $ o $ $ $ o o @ # t ; , t % % , # # @ @ @ @ $ @ # # # # # # # # # # # # # # $ # # # # # # # # # # t # # # # # # # # # # @ @ # # # @ @ @ @ @ @ @ @ @ o @ @ @ o o @ o @ o o o o o o o o X o o o @ @ o O , X.eXvXsXsXnXnXnXbXbXbXnXbXnXvXtXvXeXqXqXL...D D O.L.#X@X@X@X@X@X@XnXVXbXnXnXnXnXbXbXbXbXbXcXVXcXvXvXvXvXmXmXmXmXcX$., t , , 0 7 | mXBXvXtXvXbXbXVXNXNXNXNXVXvXrXrX@X#X#X@X@X#X#XqXqX%XrXrXtXvXsXVXcXbXMXZXNXBXZXZXNXNXZXZXNXZXZXNXNXNXVXNXBXBXNXcXbXJ.k ~.(.~.(.~.b.k 1 9 J H G 1 - A B V 7.7.7.7.8.8.8.8.8.8.8.7.3.e.7.7.g i f 4.2.5.5.d d V e.9.e.9.9.V ( S.V e.V V V V V V V V A A A ( A A B B B B B A p p p A a y A V 9.9.( V 9.V V V 9.9.V 7.7.e.V V V 7.V IXIXIXIXIXIXIXIXIXIXIXIXIXIXIXIXIXIXIXIXIXIXIXIXIXIXIXIXIXIXIXIXIXIX",
"IXIXIXIXIXIXIXIXIXIXIXIXIXIXIXIXIXIXIXIXIXIXIXIXIXIXIXIXIXIXIXIXIXIX9 p b B B z z z z z z f z f f z z 3.3.z z z z z z z z z z f c g d c g g f c V 3.V V B v < < ; ; 7 8 0 0 e w e e w w w w w w w w w w P w P P P w ' P P w P t | iX>Xo.k #XvXZXVXVXvXvXnXvXnXnXeX{ F $ $ $ $ $ $ O $ $ $ o $ $ o $ $ O $ @ @ @ % # % , , 7 , , t t # # # o $ $ # # # # # # # % # # # t t # # # # # # # # # # # t # # # # # # # @ # # # # # @ t @ @ @ t @ @ @ @ @ @ o @ @ @ o @ o o o o o o o @ o o o o o o O @ O M #XsXdXnXsXnXbXbXnXbXnXbXnXbXeX#X#X@XvXNXvXrX@X#XQ.....O.O.o.J.#XeXVXbXbXbXbXbXnXnXbXbXbXbXcXmXcXvXvXvXvXcXcXcXmXvX{ % , ; , 0 8 O.MXNXcXvXcXbXVXVXNXNXVXbXVXVXVXVXvXsXtXrX@X#XQ.Q.O.o.O.O.O.O.$.qX@X#X#XqX#X%X%XrXtXvXeXsXvXvXmXsXeXrXqXrXrXqXrXqX%XH S ~.~.~.(.|.S = < n k H J.v.k > p A 7.7.7.e.8.8.8.8.8.8.8.8.7.e.7.e.V i d ;.2.4.f d V V 9.9.9.9.9.9.V V 9.V V V V V V V V A ( V V A V B B B B B B A b * y a u a V 9.9.9.e.S.9.V V V V V S.V S.V ( 9.A V V IXIXIXIXIXIXIXIXIXIXIXIXIXIXIXIXIXIXIXIXIXIXIXIXIXIXIXIXIXIXIXIXIXIX",
"IXIXIXIXIXIXIXIXIXIXIXIXIXIXIXIXIXIXIXIXIXIXIXIXIXIXIXIXIXIXIXIXIXIX9 9 b b B z z z z z z z z 3.3.7.3.3.z z z z z z z z z z z z z g c l a g j j l p h p 9 0 0 0 M M F F *.w e e e w w w w e *.w w w w w P w P P P w P w P P P 6 D rXX.J @XVXbXVXvXhXiXsXvXvXsXsXvX..0 $ O $ $ $ O o $ $ O O $ o O $ O O o $ o $ @ @ # % t t , , t t t , , t % % @ @ $ @ @ # # # t # # t # # # # # # # # # # # # # # # # # # # # # @ @ @ # # @ # @ @ @ @ @ @ @ @ @ @ @ @ @ o @ & o o o @ @ @ o o @ @ o o o O O o # ..rXnXnXnXnXbXnXnXbXnXnXnXbXbXeXL.O.$.#X#X$XtXcXcXcXvXeXvXvXvXvXvXVXNXbXbXVXbXnXbXbXbXbXbXcXcXvXvXvXvXvXvXcXcXcXmXeXe ; , ; t 0 0 $.MXNXcXvXMXbXVXVXNXNXVXVXVXVXcXcXcXVXmXmXVXnXvXsXeXrXrXqX@X#X#X0X@X#XQ.O.O.%.O.O.#X$.o.o.o.o.#X$.Q.Q.Q.#X#XqXrXrXrXH S !.(.(./.b.l = n n 1 1 l X.v.G = * B 7.e.8.8.8.8.8.8.8.8.8.7.7.7.7.7.A s f 5.4.d g 7.e.9.9.9.9.9.9.e.9.V V V V V V V V V V V A V V A B B B B A B A b p * u u A 0.S.9.( 9.V V V V V V V V V 9.V 9.A 9.7.V IXIXIXIXIXIXIXIXIXIXIXIXIXIXIXIXIXIXIXIXIXIXIXIXIXIXIXIXIXIXIXIXIXIX",
"IXIXIXIXIXIXIXIXIXIXIXIXIXIXIXIXIXIXIXIXIXIXIXIXIXIXIXIXIXIXIXIXIXIX9 9 9 v m B B C B z B Z V 7.V 7.V z V z V z z z c g A c g j p p u u : < < 7 r e e *.] } ) ] ) *.*.*.*.*.*.e w e w *.w *.w w w w w w P P w P P w P P P P P 6 *.#XJ #XrX>X%XrX>XiX%X>XhXhXiXvXvX#X1 $ O O O o $ $ o $ $ $ $ O $ o O $ $ $ o $ $ @ @ @ # # t t , t , , 7 , 8 , t # @ $ @ $ $ @ $ # # # t # # # t # # # # # # # @ # # # # # @ @ @ # @ # # # # # @ @ @ @ @ @ @ @ @ @ @ @ @ @ o o o @ @ @ @ @ @ o @ @ o o @ @ o O , L.nXvXnXbXbXnXbXbXbXbXVXnXnXbXbXeX%X#XQ.O.$.#XL.#XrXeXeXvXvXeXvXvXvXbXVXVXbXcXvXvXbXvXbXvXvXcXcXvXvXvXvXcXvXvXcXMXqX8 , t % , 0 0 @XNXbXvXvXbXVXbXNXNXVXVXVXVXbXbXcXvXcXcXcXmXbXVXBXBXNXVXBXBXBXVXZXBXVXnXbXcXcXsXeXtXrXrXqXrXrXrXrXrXeXvXvXvXNXVXVXsXH S |.(.(.~.f.= 9 D F n < 1 1 k H G : u B 7.8.8.8.8.8.8.e.8.8.7.7.7.7.7.7.g s e.d s V 9.9.9.9.9.9.9.9.9.V 9.9.V V V V V V V V V V V V V ( A B B B B A A p * y p B 7.7.S.e.V V V V V V V V e.( V V V V V V V IXIXIXIXIXIXIXIXIXIXIXIXIXIXIXIXIXIXIXIXIXIXIXIXIXIXIXIXIXIXIXIXIXIX",
"IXIXIXIXIXIXIXIXIXIXIXIXIXIXIXIXIXIXIXIXIXIXIXIXIXIXIXIXIXIXIXIXIXIXY Y e e M M M n n v v a v a b v p v p a h v p h : p < < , *.0 0 0 M F ] ) } } ) } } ) ) ) *.*.*.*.*.*.*.*.*.w w w *.*.w w w w w w P P w P P P P P P P w P q , *...%X%X>X>X>X>X=X+X+X=X=X>XvXVX#X, $ O o O O $ o $ $ O O $ O O O o $ O O $ $ $ o o O @ $ # # t t t t , 7 7 9 9 7 t t t % @ # $ @ # # @ @ $ # # # # # # # # # # # # # # # # @ # @ @ @ # @ # @ @ @ @ @ @ @ @ @ @ @ & o o o o o o o o @ o o o o o @ o o o o o O M @XbXdXnXnXnXbXbXnXnXAXnXnXnXnXvXvXBXNXsX$X@Xo.o.L.#XQ.$.#XQ.J.L.L.qXcXVXVXbXvXvXbXvXvXcXcXsXvXvXvXvXcXvXcXcXcXcXMX#X; t t % , 9 e qXNXbXcXmXbXbXbXNXNXVXVXVXVXVXbXcXcXcXvXcXVXbXcXVXVXVXVXNXBXBXBXNXNXVXZXVXZXZXGXZXZXSXZXVXZXZXVXBXNXNXNXNXNXNXNXVXvX..S (.(.(.!.x = v m F n n n < 1 l S S = a 7.8.8.8.8.8.8.8.8.8.7.7.7.7.7.7.V s s s g 7.9.9.9.8.8.e.9.8.9.S.9.V e.V V V V V V V V V V V V A B B V B A A v p - u p B V 0.V V ( V V V 9.V e.V 9.V 9.V V S.V 0.V IXIXIXIXIXIXIXIXIXIXIXIXIXIXIXIXIXIXIXIXIXIXIXIXIXIXIXIXIXIXIXIXIXIX",
"IXIXIXIXIXIXIXIXIXIXIXIXIXIXIXIXIXIXIXIXIXIXIXIXIXIXIXIXIXIXIXIXIXIXY Y E Y Y w Y Y Y Y Y Y e Y e e Y e w Y Y Y Y Y ) Y *.) *.*.] ) ) ) ) } ) ) ) *.*.) ) *.e *.*.*.*.*.*.*.*.0 *.w w w w w w w w w w ) P P P w P w P P P 6 6 w # t %X%X%X+X%X=X+X=X=X!.!.!.&XiXVXrX, O $ $ $ $ $ O O O O O O $ o O O O O O O O O O $ O O @ o $ # # $ # t # , , 8 8 0 9 7 , t t # # # @ $ @ @ @ $ $ # # # # # # # # # # # # # # @ @ # @ @ # # @ @ @ @ @ @ @ @ @ @ @ o @ @ @ o o o o o o o o o o o o o o o o X # o.sXnXnXnXbXbXbXbXbXbXnXnXVXnXvX#Xo.@XrXnXNXNXsXrXrXqX$X%XqX0X%XrXrXvXVXVXbXbXvXvXvXbXvXvXvXvXvXvXtXvXvXvXmXcXcXcXmXo.# , % t 9 w F tXNXmXcXbXVXbXVXNXVXVXVXNXBXVXcXcXcXcXcXcXVXbXnXVXVXVXNXVXBXBXNXBXZXVXZXVXNXBXZXZXZXNXNXZXVXZXZXNXVXVXNXVXNXNXNXVXhXo.S |.^./.~.l = m m m n n n n 0 , h z.m * V 8.8.8.8.9.q.q.8.8.7.7.7.7.e.7.7.a s d V 9.9.9.9.9.9.8.9.9.8.9.e.9.( V V V V V V V V V V V A V A A A A ( A A p * * u b V 0.7.V V V V V V V V V ( S.7.9.V 9.S.0.0.IXIXIXIXIXIXIXIXIXIXIXIXIXIXIXIXIXIXIXIXIXIXIXIXIXIXIXIXIXIXIXIXIXIX",
"IXIXIXIXIXIXIXIXIXIXIXIXIXIXIXIXIXIXIXIXIXIXIXIXIXIXIXIXIXIXIXIXIXIXw w ) U ) w w w ) ) U ) U ) ) ) ) w ) ) ) ) *.) U ) w ) ) U ) w w Y w ) w w 0 *.*.*.*.*.*.*.*.*.*.*.*.0 0 w w w w e e e w w w w P P P P P w w P w P w w w P @ *.%X>X=X%X+X=X+X%X!.oXoX!.!.<XbXeXF $ O $ $ O O O $ O O O O O $ O O o $ o $ O O O O O O o $ O O @ X @ @ $ @ # % ; , 7 7 9 0 0 9 , , % % # $ # # # # @ # # $ # # # # # # t @ @ # @ # @ @ @ @ @ @ @ @ @ @ @ @ o @ @ @ @ o o o o o o o o o o o o . . o o @ o . e qXnXbXbXnXVXVXbXbXnXbXVXnXnXVXvXL.......L.$XeXbXNXZXSXZXBXZXZXZXZXZXZXVXbXbXbXnXvXvXbXvXvXsXsXcXsXtXvXvXvXvXcXcXmXcX{ t t % t 8 0 ] tXNXcXcXNXmXvXVXNXVXVXVXNXVXVXbXcXbXcXcXcXbXVXcXMXVXVXVXNXvXcXNXZXSXZXNXNXNXZXZXZXNXZXNXNXNXNXZXNXVXVXVXVXBXBXNXmXcXO.S (.|.|.f.1 < m m m v n n n n < = G v.- j 8.8.8.8.q.q.q.8.8.8.9.7.e.7.7.7.A y d 7.8.9.9.9.8.9.9.9.9.e.9.e.e.9.S.V V V V V e.V V V V V B B B B B B A b * * p * p A 7.V V V V V V V V V V 9.( ( e.9.S.7.V ( IXIXIXIXIXIXIXIXIXIXIXIXIXIXIXIXIXIXIXIXIXIXIXIXIXIXIXIXIXIXIXIXIXIX",
"IXIXIXIXIXIXIXIXIXIXIXIXIXIXIXIXIXIXIXIXIXIXIXIXIXIXIXIXIXIXIXIXIXIXw w w w ) w w w w w w w U w w w w w w w w w w w w w w w w w w w w w w w w w 0 0 *.*.*.*.*.*.*.*.*.e w w w w q 8 8 w w w e w w w *.P w P w ' P P P P P w 6 6 t *.%X%X=X+X+XoX%XoX%XoX!.!.!.=XbXmXO.# O O O O O O O O O O O O O O O O O O O O O O O O O $ O O O O O @ X O O O X @ $ @ % t t , 7 8 8 8 , , , , , % % % # # # $ @ # # # # @ @ @ @ @ @ # @ @ @ @ @ @ @ @ @ o o @ o o o o o o o o o o o o o o o o o o o o o o @ ..sXNXnXbXbXbXnXVXVXnXnXbXVXsXrXnXvXqX#XL.o...o.$.#X@X@X@XqXeXvXvXVXNXVXVXNXbXcXcXvXcXcXcXcXvXsXvXvXsXvXvXvXvXcXcXmXsXF # , % t 9 9 O.cXNXbXbXVXNXvXVXNXVXVXVXVXVXVXVXcXcXvXcXcXbXbXVXVXVXVXNXvX#X#X@XrXeXVXZXZXNXZXZXZXNXZXZXZXNXZXVXNXNXNXVXNXBXBXNXVXcXJ.S (.(./.c.- 1 m m n 9 9 n n n n = h v.k u 3.7.8.8.9.q.q.8.9.8.e.9.7.7.7.V y s s e.8.8.9.9.9.9.9.8.8.8.9.9.9.( V 9.V A V V V V V V V V V B B B B A b * * : p p * A ( V V V V V V V V V A 9.9.e.e.( e.9.S.e.IXIXIXIXIXIXIXIXIXIXIXIXIXIXIXIXIXIXIXIXIXIXIXIXIXIXIXIXIXIXIXIXIXIX",
"IXIXIXIXIXIXIXIXIXIXIXIXIXIXIXIXIXIXIXIXIXIXIXIXIXIXIXIXIXIXIXIXIXIXU w w w w w w w w w w w w w w w w w w w w w w w w w w w w w w w w w w w *.*.*.*.*.*.*.*.*.*.*.*.*.e 0 q 8 q 8 q 8 q w w w w w w w w P w w P P P w 6 w 6 6 w # *.%X!.+X+X+X=XoX+XoXoX!.!.!.=XhXBX$., O $ $ $ O O O $ O $ O $ $ O O O O $ O O O O O O O o $ O O + O O + O O O O O O O O $ @ o # t t , , , 7 7 , 7 , , ; % % % t @ @ # @ @ @ @ @ @ @ @ @ @ @ @ @ o @ & & o o o o o o o o o o o o o o o o o o o o o o X X . 7 #XMXVXnXnXbXnXVXVXnXnXnXnXnXiXL.#XrXnXVXbXeX#X$.o.o...O.O.O.#X#XrXvXZXNXVXVXbXcXbXvXvXvXsXcXvXsXvXvXtXsXsXsXvXsXvXNXeXe ; , % t 8 7 o.BXNXcXcXVXMXvXcXVXVXVXVXVXbXbXMXmXVXcXcXcXbXMXVXVXmXVXBXvX#XQ.#Xo.o.Q.rXVXcXVXNXVXmXvXsXsXVXZXNXNXNXNXMXmXNXBXBXVXbXL.S ~.(.oXb.1 h m m n v v n n 0 n 1 - H H u V 7.8.8.8.8.q.8.8.8.e.7.7.7.V s d e.s g 9.e.8.9.9.9.9.8.8.8.9.9.9.9.9.V V V V V V V V V V V V B B B A b p * p p p p * p V Z V V V V V 9.V V V S.V 9.9.( e.9.V S.IXIXIXIXIXIXIXIXIXIXIXIXIXIXIXIXIXIXIXIXIXIXIXIXIXIXIXIXIXIXIXIXIXIX",
"IXIXIXIXIXIXIXIXIXIXIXIXIXIXIXIXIXIXIXIXIXIXIXIXIXIXIXIXIXIXIXIXIXIXU w U U w w w w w w w w w w w w w w w w w w w w w w w w w w w w w w w w w *.*.*.*.*.*.*.0 *.0 0 0 e 8 8 8 8 6 q 6 8 w w w w w w P w P P P w w P P P 6 P w 6 t 0 Q.+X+X+X+X%X%X!.!.!.!.!.!.=X>XVX@X< O O O O $ O O O O O O O O O O O O O O O O O O O O O O O O O O O O O O O O O O O O X O @ @ O @ # # % # % % t , % , ; ; % t @ # # @ @ @ @ o @ @ $ @ @ @ @ @ @ @ @ o o o o @ o o o o o o o @ o o o o & o o o . X     X D eXsXnXZXnXVXnXVXnXVXbXbXnXVXdX@X$.o.#X@XrXvXVXbXvXeXrXeXrXqXrXrXeXVXNXNXVXbXbXbXcXvXvXsXvXmXvXsXsXtXtXvXvXvXvXvXvXMX@X, t , % t 0 0 #XFXNXcXbXVXcXvXbXVXVXVXVXVXmXVXbXVXmXvXcXcXbXbXbXcXVXmXNXVXtXvXeXtX@X0X%X@XqX@X0XqX#X#X%X#XhXZXZXNXVXmXVXVXNXNXNXbXcX#Xl j.~.(.b.- < F m n 9 n n n n n 9 - H J.- g 8.8.8.e.8.q.9.8.8.e.7.7.e.g s 2.i.e.d 7.9.e.9.9.9.8.9.8.9.9.9.9.9.V 9.9.V V V V V V V V V V B B A b b * * p p p p u * p V e.S.V 9.( V V V V V 9.V V 9.9.( 7.S.IXIXIXIXIXIXIXIXIXIXIXIXIXIXIXIXIXIXIXIXIXIXIXIXIXIXIXIXIXIXIXIXIXIX",
"IXIXIXIXIXIXIXIXIXIXIXIXIXIXIXIXIXIXIXIXIXIXIXIXIXIXIXIXIXIXIXIXIXIXU U U U w w w w w w w w w w w w w w w w w w w w 0 w w w w w w w w w e *.w e 0 *.*.*.*.*.0 0 0 *.0 q q 8 q q 8 q q q q q w w w 6 w P P w w w P w w P P 6 w 6 t 0 Q.!.+X+X%X!.%XoX=X!.!.!.oX!.%XVXrX0 O O O O O O O $ O O O O O O O O O O O O O O O O O O O O X O O O O X O O O O O O O O O O X O O O O O O o $ O @ @ $ # # # # # t # @ @ @ @ @ @ @ @ @ $ @ o @ o o o o o o o o o o o o o o o o   .   . X . .           ; L.mX$X#XvXVXVXnXnXVXVXVXnXnXVXNXvXrX@X#XQ.$.L.%XeXVXNXZXZXNXNXZXNXNXVXNXNXVXbXbXcXvXvXsXsXvXcXvXsXsXtXsXvXsXcXcXvXmXcXQ., % % % , 8 *.qXBXmXcXVXVXcXcXVXVXVXVXVXVXVXbXbXVXMXvXcXcXcXmXbXcXbXVXVXVXBXVXNXZXNXNXNXVXcXsXeXvXeXvXvXsXVXBXZXNXNXVXMXmXVXVXVXmXmX#Xl c.~.|.v.- 1 1 - = < n n n n n n = k v.l p 0.e.8.8.8.8.8.8.8.7.7.e.V s f w.i.8.s g 9.e.9.9.9.8.8.8.8.e.9.9.9.e.V 9.V V V V V V V V V B B A A b * * p p p p p p * : A ( e.e.V V V V V V ( 9.9.9.V 9.( 0.V IXIXIXIXIXIXIXIXIXIXIXIXIXIXIXIXIXIXIXIXIXIXIXIXIXIXIXIXIXIXIXIXIXIX",
"IXIXIXIXIXIXIXIXIXIXIXIXIXIXIXIXIXIXIXIXIXIXIXIXIXIXIXIXIXIXIXIXIXIXw ) ) w U w w w w w w w w w w w w w *.w w w w w w w w w w w w w w w e *.0 0 *.0 *.*.*.*.0 e 0 w w 7 8 q q q q q q q q q q q w w w w w ' P P P 6 6 w P P P 6 t t ..+X+X!.!.+X!.%X!.!.!.oX!.!.+XrX%X*.$ O $ O $ O O O O O O O O O O $ O O O O O o O O O O O O O O @ O O O O O O O O O O O O X O O O O O O O @ O O O O O O O o o $ o o @ @ @ @ @ @ o X o @ @ X X o X X X X . X X X         . .         . . o       . . X F rXvX@XO.o.@XsXVXVXVXVXVXnXVXVXVXVXVXvXeX%X$XL...O.L.$XrXeXvXbXNXZXNXNXNXVXVXbXcXcXvXsXvXvXvXcXvXvXsXsXvXsXsXcXvXvXcXcX..# ; % , , 7 0 rXBXVXVXVXVXmXcXVXVXVXVXVXVXVXmXcXMXMXbXvXcXcXcXbXcXbXVXVXVXVXVXVXNXNXNXNXNXNXNXNXNXSXZXZXNXNXNXNXNXMXVXVXNXbXcXcXcXcXqXk J !.!.v.- h X.F ; % , n n n n n 1 l v.G * 7.8.8.8.8.8.8.8.8.7.8.V d s e.u.u.i.=.s e.7.e.9.9.9.8.q.8.9.9.9.9.( 9.V 9.9.A V V V V V V B B V A p y u a p p p p p : * p A ( 7.V V e.V V V 9.e.( V 9.V e.9.V IXIXIXIXIXIXIXIXIXIXIXIXIXIXIXIXIXIXIXIXIXIXIXIXIXIXIXIXIXIXIXIXIXIX",
"IXIXIXIXIXIXIXIXIXIXIXIXIXIXIXIXIXIXIXIXIXIXIXIXIXIXIXIXIXIXIXIXIXIXw w w w U U w w w w w w w w w w w w w w w w w w w w w w w w w w w w *.*.0 w *.*.*.*.*.0 w 0 e w 8 8 8 8 q q q q q q q q q q 6 6 w P P P w P P P 6 P w P P w t t O.!.!.!.!.!.!.!.!.!.!.!.!.+X%X%X$.F $ X O O O O O O O O O O o $ O o O O O O O O O O O O O O O O O O O O O O O O O O O O O O O O O O O O O O O O O O O O O X O O o o o o o @ O X X X @ X X X   X X . . .   .             . .         . X .           % o.cXnXsX#X..O.L.$XiXNXVXVXVXVXNXZXVXZXNXNXbXvXrX@XL.O.$.o.o.#XL.#X%XrXsXvXiXbXVXbXbXbXcXcXvXvXvXvXsXvXsXtXsXvXvXvXcXmXtX[ ; , % % , 0 F mXBXcXmXVXVXcXcXVXNXVXcXVXVXVXcXbXcXbXMXbXbXcXcXbXcXVXVXBXVXVXVXNXVXNXNXNXNXNXNXNXNXZXNXNXSXNXNXNXNXVXNXVXVXcXbXcXmXtXeXD k b.!.z.= F #XD = o # < n n n n 1 u v.c.y A 8.8.8.8.8.8.8.8.7.7.d s f 5.y.u.u.q.d z e.9.9.8.q.q.q.8.9.9.9.9.e.e.V 9.V 9.9.V V V V V B B A A * y a a a a p p p p * * A V ( V V V 9.( V e.( 9.V S.V S.V V IXIXIXIXIXIXIXIXIXIXIXIXIXIXIXIXIXIXIXIXIXIXIXIXIXIXIXIXIXIXIXIXIXIX",
"IXIXIXIXIXIXIXIXIXIXIXIXIXIXIXIXIXIXIXIXIXIXIXIXIXIXIXIXIXIXIXIXIXIXU w ) w w w U w w w w w w w w w w w w w w w w w w w w *.w w w w w w e *.*.*.w *.*.0 0 w w w 7 8 8 8 8 7 7 q 8 8 q q q 5 q q 6 w w w w w P w w P P P 6 w P 6 6 t D +X+X!.v.!.!.!.!.!.!.+X!.+X!.o.H F # O $ O O O $ O O O O O O O O O O O O O O O O O O O O O O O O O O O O O O O O O O O O X O O O O O O O O X O X O O O O O o O o o o o o o X X X X X X X . X X . . . .         .                       .         X 8 @XBXeXtXnXrXL.L.L.#X@XeXnXVXNXZXZXNXVXZXVXNXVXVXbXvXqX$X@Xo.o.o.O.O.O.L.#Xo.@XbXbXbXcXcXvXvXvXcXvXvXvXvXsXsXtXsXvXcXcXeXe ; % % , , 8 { mXNXcXVXVXVXcXcXVXVXVXVXVXVXcXcXcXMXbXbXMXNXbXcXmXcXMXVXVXVXVXVXNXBXVXVXNXNXZXNXNXNXNXNXNXVXNXNXVXNXNXVXVXNXmXbXbXmXvXtXO.l H v.C - #XdXD % 2 @ % < n n n h 1 c.c.l A 9.e.e.8.8.8.e.e.7.z s s 5.6.y.r.u.6.e.s V e.8.9.9.9.q.q.9.9.9.e.( 9.V V V V V V V V V V B A A : * p a a p p p u p p p * p A S.e.V V V V V V V V V V V e.V S.IXIXIXIXIXIXIXIXIXIXIXIXIXIXIXIXIXIXIXIXIXIXIXIXIXIXIXIXIXIXIXIXIXIX",
"IXIXIXIXIXIXIXIXIXIXIXIXIXIXIXIXIXIXIXIXIXIXIXIXIXIXIXIXIXIXIXIXIXIX) ) w w w w w w w w w w w w w w w w w w w w w w *.w w w w w w 8 w w 7 *.*.w *.*.*.0 w w q 7 7 8 8 8 8 8 8 6 5 q q q 5 q q q w 6 w w I U U P U w P 6 w L 6 q w t F O.Q.!.%X!.+X!.!.+X+X+X+X+XJ.o.H F t $ O O $ O O $ O O O O O O O O O O o O O O O O O O O O X O O O O O O O O O O O O O O O O O O O O O O O X O O X O O O O O O O X X X X X X O X X X . . X . X X . . .                   . . .     .           . X D sXBXqXo.qXNXbXrX$X#X$.L.#X$XeXvXNXZXZXZXVXVXVXVXVXVXbXnXnXsXrX@XL.$.o.L.$.O.#XvXbXbXnXcXvXvXsXvXcXcXvXsXtXtXvXvXsXcXmXqX9 ; ; % t 8 , O.mXVXcXVXNXVXcXVXNXVXcXcXNXbXcXcXcXbXMXbXmXcXbXvXvXvXcXNXNXVXVXVXNXVXVXNXNXNXNXNXZXVXNXNXZXZXZXZXNXNXNXVXVXVXNXVXmXcXvXeX#X..F H k m iXBX{ 2 3 2 & t n n v < 1 J v.k i V 7.8.8.8.8.e.7.7.d s 3.5.6.6.6.y.6.5.d g V 8.9.9.q.q.q.9.9.8.9.e.S.V V V V V V V V V B A B a * y a a p p p u p p p p * p A V 7.V 0.V V V V V V V V V V V S.IXIXIXIXIXIXIXIXIXIXIXIXIXIXIXIXIXIXIXIXIXIXIXIXIXIXIXIXIXIXIXIXIXIX",
"IXIXIXIXIXIXIXIXIXIXIXIXIXIXIXIXIXIXIXIXIXIXIXIXIXIXIXIXIXIXIXIXIXIX) w w w U w w w w w w w w w 7 w w w w w w w w w w w *.w w w w w w w w *.w *.e e w 0 w 8 8 q 8 8 8 8 8 8 8 8 5 q q 5 5 5 q q t 6 t 6 w w U U U P U U U I w L w t { v.~.%X!.!.!.%X%X+X+X+X+X+XO.+XH F t $ $ O $ O O O O O O O O O O O O $ $ O O O O O O O O O O O O O O O O O O O O O O O O O O O O O O $ O O O O O O O O O O O O o X X X X X X X X X X X X X X . X . .                 . . . . . . .               % #XVXNXbX$XO.@XcXBXbXtX@XL.L.#Xo.$.%XeXbXVXZXVXVXVXVXnXnXbXVXVXVXVXnXsXeXeXrX@XeXbXbXbXbXcXcXvXvXvXvXcXvXsXsXvXvXvXsXvXvX#X, , % % , 7 7 $.BXVXcXmXNXVXvXVXNXVXVXVXcXcXcXcXcXbXbXcXbXvXbXVXcXcXcXVXNXVXVXVXVXVXNXNXNXNXNXNXVXVXNXNXNXNXVXVXVXNXNXNXNXNXPXVXcXcXvXtXrX0X#Xo.H @XZXMXe 3 3 3 2 @ < n 0 < - k !.S - z 8.8.8.8.8.e.7.g s =.5.6.u.u.6.6.6.5.3.g g 7.8.q.q.q.9.D.9.8.9.9.e.9.e.V V V V V A B A A A p u p a a i p p p p p p p p * p A ( V V V V V V V V V V V V V S.IXIXIXIXIXIXIXIXIXIXIXIXIXIXIXIXIXIXIXIXIXIXIXIXIXIXIXIXIXIXIXIXIXIX",
"IXIXIXIXIXIXIXIXIXIXIXIXIXIXIXIXIXIXIXIXIXIXIXIXIXIXIXIXIXIXIXIXIXIX) w w w w w w w w w w w w w w w 7 w w w w w w w w w 0 w w w w w w 6 8 w w w w *.w q , 8 8 8 q 8 q 6 8 8 8 8 5 5 2 5 q 8 q 5 q t 6 8 8 q w q w P w 6 6 6 w w t t *.Q.O.!.~.!.!.!.%X+X%X!.v.Q.H J J J # $ O O O O O O O O O O O O O O O O O O O O O O O O O O O O O O O O O O O O O O O O O O o O O O O O O O O O X O O O O X X X O X X O X X X O X X X X X X X . X .   . .         . . . . .   .   . .   .         F tXVXNXNXVX@Xo.L.eXVXNXVXvXrX@Xo.D o.L.$.#XrXbXVXVXVXbXbXcXbXVXVXVXVXNXVXVXZXMXVXbXbXcXbXbXvXsXsXvXsXcXvXtXvXsXvXvXvXvXtXo., , % % , 7 7 @XBXVXmXVXNXVXcXVXVXVXVXbXbXcXvXcXcXbXbXMXbXbXmXmXVXmXcXmXNXNXVXVXNXNXVXVXNXNXZXZXZXNXNXVXNXNXNXNXNXNXNXBXBXNXVXmXcXcXcXvXtXrXtXeXqXsXZXsXw 3 ^ 3 3 & , F < < < k ~.S - j 8.8.9.9.8.7.3.s d 5.y.y.y.i.6.6.6.6.8.g g A 7.9.9.q.q.9.e.9.8.9.e.V V V V V V V V A V A p y s a i i a p p p p p p p p : * p V 7.9.7.V V V V V V ( V 7.7.7.IXIXIXIXIXIXIXIXIXIXIXIXIXIXIXIXIXIXIXIXIXIXIXIXIXIXIXIXIXIXIXIXIXIX",
"IXIXIXIXIXIXIXIXIXIXIXIXIXIXIXIXIXIXIXIXIXIXIXIXIXIXIXIXIXIXIXIXIXIXw w w U U w w w w w w w w w w 8 w w 8 w w w w 0 w w w w w w w w w w w w w w w w 7 7 7 8 8 8 8 8 8 8 8 7 5 6 5 q 5 2 5 5 5 5 6 2 6 t 6 q q q q w 6 w 6 6 w w w t t O.@.!.Q.!.!.Q.!.+X!.v.J J o.Q.o.F = $ O O O O O $ O O O O O O O O O O O O O O O O O O O O O O O O O O O O O O O O O O O O O X X O O X X o O O O X X O O O O O O O O O O X o X X X X X X X X X X X .   .     .     . . .   . . . . . . .       O L.bXNXVXVXNXVXrXo.O.@XiXVXVXZXVXvX@X#Xo.O.O...L.@XeXvXbXbXcXcXnXnXbXVXVXVXVXbXbXbXbXnXvXnXcXvXvXvXsXvXvXvXvXsXvXvXsXvXvXeXO., , % t , 7 8 qXNXbXbXNXVXVXcXVXVXVXVXmXVXbXvXcXbXbXbXvXvXbXvXmXmXVXcXvXVXVXNXVXVXVXVXVXNXNXZXZXNXNXNXVXVXNXVXNXNXBXNXNXBXNXmXVXVXmXcXvXsXtXcXbXbXMXZXrX2 3 L L 6 2 % 0 < v 1 k ~.f.1 p 7.9.8.9.e.e.g s e.w.u.u.i.i.6.6.6.6.5.e.g A 7.9.9.9.q.q.9.8.8.9.V S.e.V V V V V V A A A * y p a i a s a u p p p p p p : * * A ( 0.9.V V V V V V V V V V S.IXIXIXIXIXIXIXIXIXIXIXIXIXIXIXIXIXIXIXIXIXIXIXIXIXIXIXIXIXIXIXIXIXIX",
"IXIXIXIXIXIXIXIXIXIXIXIXIXIXIXIXIXIXIXIXIXIXIXIXIXIXIXIXIXIXIXIXIXIX*.w w P w w w w w w w w w q 6 w q q w w w w *.w w w w 0 w w w w w w w 6 w 8 w 8 7 q 8 7 6 8 8 8 5 8 2 2 & 2 2 2 2 2 2 2 2 2 2 2 2 5 2 6 8 q 6 q q 8 q q q q t t @ { O.!.+X!.!.v.v.v.{ O.O.v.#X#X+XF $ O O $ $ $ O O O O O O O O O O O O o O O O O O O O O O O O O O O X O O O O O O O O O O O O X O X O O X X O X X X O O X O O O X O X X X X X X X X X X X . . X . .       . .       . . .   . .   . .         0 rXNXVXeX%XbXNXBXtX#X..O.#XiXNXZXZXZXVXsX%XL.D D ..o.#X@XqXeXvXnXbXbXbXVXVXnXnXnXnXvXsXvXvXsXcXcXcXvXsXvXvXsXvXvXvXsXvXtXrX{ t % % , , , 0 rXBXVXcXNXVXcXVXNXVXmXVXVXmXbXcXcXVXcXcXvXmXbXcXcXVXmXvXcXcXcXVXVXVXVXVXNXNXNXZXZXNXNXNXVXVXVXVXVXNXBXNXBXNXBXVXVXcXNXmXvXvXsXvXbXbXVXGX0X2 3 L P L 2 @ 0 v < 1 l ~.H l * e.8.8.8.e.V s f q.y.6.6.i.y.5.5.5.6.6.6.3.d V 7.8.9.9.9.9.9.e.e.V S.V V V V B V V B A y y i a i a j i u u p a a a p p p * * y V 0.7.V 9.A V V V V V S.7.7.IXIXIXIXIXIXIXIXIXIXIXIXIXIXIXIXIXIXIXIXIXIXIXIXIXIXIXIXIXIXIXIXIXIX",
"IXIXIXIXIXIXIXIXIXIXIXIXIXIXIXIXIXIXIXIXIXIXIXIXIXIXIXIXIXIXIXIXIXIX) w w w w w w w w w w w w q 6 w w w q w w w w w *.w w w w w w w 8 w w w w w q q 8 8 8 7 8 5 5 8 8 2 2 & % 5 5 6 5 5 2 5 5 8 8 8 8 2 % 2 8 8 7 7 8 8 7 q w 2 t t t *.O.f.J v.v.J O.O.J J J *.n n 1 1 $ O O O O O O O O O O O O O O O O O O O O O O O O O O O O O O O O O O O O O X O O O O O X X O O O O O X O X O O O X X O O X O X X X X X X X X X X X X X X . . .                   . .     . .     .       X o.bXVXVX@X#X$XtXVXVXcXqXQ.O.O.#XrXhXVXZXSXZXbXrX#X..O.$.| O.O.o.#XqXeXnXNXNXVXbXcXnXvXvXsXsXtXcXcXvXcXvXsXvXsXsXvXtXvXcXsXqXF , ; t % 7 8 *.rXBXcXNXNXVXVXcXVXNXVXVXcXVXbXcXcXmXcXcXcXcXcXcXcXcXcXVXcXcXcXmXVXVXVXVXNXNXNXZXZXNXNXNXVXVXNXMXNXNXNXNXNXBXNXBXmXVXmXcXvXvXvXvXbXbXMXSX#X% 3 L K 3 2 % 0 n < 1 1 ~.c.k p A 8.8.8.7.d s 4.u.5.6.i.u.6.6.6.6.6.5.2.2.g A V 8.9.8.9.9.9.9.V 9.9.V V V V V B B B u y u a a a a a i p p p a g g d p p p u * a 0.S.0.S.V V V V V V V 0.V IXIXIXIXIXIXIXIXIXIXIXIXIXIXIXIXIXIXIXIXIXIXIXIXIXIXIXIXIXIXIXIXIXIX",
"IXIXIXIXIXIXIXIXIXIXIXIXIXIXIXIXIXIXIXIXIXIXIXIXIXIXIXIXIXIXIXIXIXIXw w w w w 6 t w w w w q q w w w w q w w w w w w w w w w w w w w w 6 w 6 w 6 q q 6 8 8 8 8 5 2 5 5 2 2 &.0XtXtXtXtXeXrXyXqXyXrXyX0X$.%./ 2 % t 8 8 8 8 8 % % t # # *.J *.O.J { O.J J J J J f.J J n 1 = O O O O O O O O O O O O o O O O O O O O O O O O O o O O X O O O O O O O O O O O O O X O O O O O O O X X X O X X O X X X X X X X X X X X X X X   X . . . . . .                   .   .   . . .     X     , eXNXNXVXrX#XqX#XwXvXVXVXvXqXQ.....O.#XrXbXVXZXZXVXvXqX#X$.O.O.{ D D D o.@XrXvXbXbXcXVXvXsXsXvXvXvXvXvXvXvXsXvXvXcXsXsXsXsX@Xe , ; % t 7 7 [ tXNXmXmXNXVXVXVXNXNXNXVXVXbXcXcXcXcXcXcXVXcXcXcXcXcXvXVXVXvXcXVXVXVXVXNXNXNXNXZXZXNXNXNXVXmXMXMXNXBXNXBXNXVXNXVXNXVXVXmXmXvXvXbXbXbXNXGXo.2 3 L L 6 2 # 0 0 < 1 k !.b.S * A 9.e.7.g s =.5.i.6.u.6.1.6.6.5.6.5.6.5.6.e.d A 7.e.S.9.9.9.9.9.V e.V V V V V B B a y u a d a i a i i p a a g g z g z g s u y y A S.0.9.V V V V A ( V 9.V IXIXIXIXIXIXIXIXIXIXIXIXIXIXIXIXIXIXIXIXIXIXIXIXIXIXIXIXIXIXIXIXIXIX",
"IXIXIXIXIXIXIXIXIXIXIXIXIXIXIXIXIXIXIXIXIXIXIXIXIXIXIXIXIXIXIXIXIXIXw w w w w w w w w w q q q q 8 w 6 w w w w 8 8 w w w w 8 w w q 6 w q w w w 8 w q 8 8 8 8 8 8 8 5 5 2 5 $.FXFXLXFXFXFXMXdXFXFXFXFXLXLXFXtX$., t 8 t 8 , t % t t t t t *.v.Q.J *.J J v.!.v.f.f.v.H J < ; $ O $ O $ O O O O O O O O O O O O O O O O O O O O O O O O O O O O X O X O O O O O O O O O O O X O O O O O X O X X O X X X X o O X X X X X X X X X . . . . . . .                   . . . .   .     .   O %.VXNXVXVXVXtX@X$.$.%XsXbXNXNXnXeX#Xo.O.O.O.#XqXsXnXVXVXbXsX%X@X#XO.{ ..O.O...o.#XqXrXeXsXvXsXvXcXcXcXsXvXvXvXvXcXvXvXcXtXtX$.e , , % , t , O.mXNXVXNXNXNXVXNXBXNXVXVXVXcXcXcXcXcXvXcXvXcXcXcXcXcXmXcXcXVXmXcXcXVXNXNXNXNXNXZXZXZXNXNXVXVXMXMXNXNXNXBXBXBXVXVXVXNXmXVXVXbXbXbXbXbXBXZX{ 2 3 L K 6 2 # < n 7 1 l c.~.S p g 9.8.V s d 2.u.u.u.6.6.2.2.6.6.5.6.6.6.6.5.3.d V 7.9.9.9.e.9.9.9.9.V V V B V B B u i a a i a j i i a a a a g g 3.=.e.7.z A u * a V 9.9.V S.V V 9.e.9.V ( IXIXIXIXIXIXIXIXIXIXIXIXIXIXIXIXIXIXIXIXIXIXIXIXIXIXIXIXIXIXIXIXIXIX",
"IXIXIXIXIXIXIXIXIXIXIXIXIXIXIXIXIXIXIXIXIXIXIXIXIXIXIXIXIXIXIXIXIXIXw w w w w w 6 w w q 6 q q q q q q w w w w q q w w w w q w q w q w q w q q q w 8 8 8 7 8 7 8 8 5 5 5 ; 5 0 &.@XeXtXPXsXtXtXeXrXrXyXqX0X#X&.7 ; r [ &.| $.0X0X0X0XQ.*.0 ..H J o.~.%X!.!.f.f.f.!.v.H k t $ O O O O O O O O X O O O . O O O O O O O O O O O O O O O O O O O X O X O O O O O O O O X O O O O O X O X O X O X X O O X O X X X X X X X X . X . . . . X . .                     .     . .           9 eXBXVXeXeXVXNXsX$X#XL.#X%XvXVXZXZXNXsXrX#XO.{ ..O.$.qXeXsXsXvXsXtXeXrX@X#X#Xo.O.$.$.o.o.#X@X$XsXtXvXcXcXbXbXcXbXNXMXvXsXsXrXo.0 t % % , , t O.mXNXVXNXNXMXNXNXNXVXVXcXmXcXcXcXcXcXcXcXvXvXvXvXvXmXvXVXVXVXvXvXmXVXNXNXNXNXNXZXZXZXNXBXNXbXbXbXNXNXVXBXNXBXNXVXVXbXbXNXbXnXbXbXbXbXVXBX..8 3 3 3 6 2 o 9 n 9 : l ~.!.S k l 9.7.d s e.i.u.u.y.y.6.2.6.6.5.6.5.6.2.6.6.q.g a 7.e.9.9.9.9.9.e.V V V A V V V a s s d i i i a i i a a a a z f e.3.3.e.3.z d p y A 7.S.e.9.V V e.9.V V V IXIXIXIXIXIXIXIXIXIXIXIXIXIXIXIXIXIXIXIXIXIXIXIXIXIXIXIXIXIXIXIXIXIX",
"IXIXIXIXIXIXIXIXIXIXIXIXIXIXIXIXIXIXIXIXIXIXIXIXIXIXIXIXIXIXIXIXIXIXw w w w w q q q w 6 w q q q q q q q q w q q q q q w q q q q q q 8 w w w 8 w w 6 8 8 8 8 8 2 5 5 8 5 2 % & % % ; 8 / [ | &.{ F 0 9 7 t , ; ; % M tXmXdXPXFXFXBXFXFXtXD n #X+X+X+Xv.!.!.~.!.!.oX%Xo.F = O O O O O $ O O O O O O O O O O O O O O O O O O O O O O O O O O O O O O O X O O X O O O O O O O O O O O X O O X O O X O X O X X X . X X . X X . X . . . . . .                           . . .       o $.bXNXbXqX#X%XvXNXVXeX#XQ.o.$.rXVXZXZXZXVXVXtXqXL.o.D D ..o.Q.qXrXvXMXbXnXvXvXtXeXrXqXL.#XL.L.o.$.#X#X@XqXqXeXeXeXtXtXtXqXrXyXO.9 t t 7 7 7 , $.mXNXcXNXNXVXVXNXNXVXcXVXVXcXvXcXcXmXcXcXVXvXvXvXcXcXvXPXvXVXmXVXbXVXVXVXNXNXNXNXZXZXNXNXMXNXbXVXNXBXNXBXNXBXBXNXVXNXnXbXNXnXVXbXbXbXbXdXN 5 w I 3 3 3 o 9 n 0 = k f.!.c.k u 0.z s f w.u.y.u.y.u.6.5.6.6.6.5.6.6.6.6.6.5.e.d g e.e.9.9.9.9.S.S.V e.V V V A A a a i i j i a i a p a a g g e.g f =.=.e.g g a y s A V S.V S.9.( V V V V IXIXIXIXIXIXIXIXIXIXIXIXIXIXIXIXIXIXIXIXIXIXIXIXIXIXIXIXIXIXIXIXIXIX",
"IXIXIXIXIXIXIXIXIXIXIXIXIXIXIXIXIXIXIXIXIXIXIXIXIXIXIXIXIXIXIXIXIXIXw w w q w q 6 6 6 6 q q 6 w q q q q q q q q q q q w w q q q q q w q w 8 8 8 w w 7 8 8 7 7 5 5 5 5 5 5 5 5 2 2 % % % + 0 L. .& & # ; 7 7 8 ; # ; ] L.tXFXFXFXFXFXJXJXvX$.O.+X!.~.!.!.!.!.!.~.|.=X#XF = O O O O O O O O O O O O O O O O . O O O O O O O O O O O O O O O O O O O X O O O O O O O O X O O O O X X X X O X O O X X O X X X X . X . . . . X . . . . . .                     . .       . . . .   9 eXVXbXbXeX#Xo.J.qXcXNXvXrX#X#Xo.#XsXNXBXVXVXNXVXMXtX0Xo...{ [ { O.#XrXtXcXbXVXVXbXbXcXsXtXqX@X#X#Xo.o.o.$.#XO.O.O.o.%.O.Q.tX@X .7 % % , 7 8 , Q.VXVXcXNXNXVXNXNXNXVXVXmXmXvXcXcXcXcXVXcXvXvXcXcXcXvXvXvXcXVXVXVXMXVXVXVXVXNXBXZXZXZXZXNXNXbXbXVXVXBXVXmXBXVXBXVXVXbXbXbXbXbXMXMXbXbXZX$X; # r q 3 3 6 @ 0 n < 1 l f.|.f.S u 7.i s 2.i.u.u.y.y.u.6.6.5.6.5.6.6.6.6.6.6.6.2.g d V 7.9.V 9.9.V 9.V V V V V g s a s a a a a a a i a a i d f f =.f =.z 3.z f d s y A V 9.V V V V V V V V IXIXIXIXIXIXIXIXIXIXIXIXIXIXIXIXIXIXIXIXIXIXIXIXIXIXIXIXIXIXIXIXIXIX",
"IXIXIXIXIXIXIXIXIXIXIXIXIXIXIXIXIXIXIXIXIXIXIXIXIXIXIXIXIXIXIXIXIXIXw w q w w 6 6 6 6 q 6 6 w 6 q q 6 q q q q q q q q q q q q w 8 q q w q 6 w q q q q 8 8 8 5 2 2 8 8 5 5 8 7 8 8 5 8 7 ; &.tX%.% , , 8 7 8 9 7 % $ + # 0 O.0XwXtXtXeXmXNXeXO.k J o.v.!.!.!.!.!.!.=X+XH # $ O O O O O O O O O O O O O O O O O O O O O O O O O O O O O O O O O O O O O O X O O O O O O O O O O X O O O X X X X X X X X X O X X X . X . O . . . O . . . .                             . . .   + $.nXbXbXVXbXcXqXO...@XtXbXbXrX@X$.L.L.%XtXNXNXVXMXVXnXcXvXrX#X..D F { O.$.@XqXeXeXcXbXVXbXMXcXvXtXrXrXrX%X0XqX#XL.$.#X#X#X@XtX#XF , , , , 7 8 7 #XNXmXmXNXBXVXVXNXNXVXVXVXcXvXcXvXcXcXcXvXvXvXPXcXvXcXcXVXcXcXVXcXMXbXMXbXbXVXNXNXZXZXZXNXVXNXMXVXNXNXBXVXBXBXNXNXNXNXbXbXNXMXBXNXbXbXNXo.: 8 q Y 3 3 2 + 9 n 1 1 k f.|.b.k * g s f i.i.u.u.u.u.y.6.6.6.5.2.6.6.5.6.6.6.2.5.8.s d V A e.9.9.9.V 7.V V V A d d d a a i i a i a a i i d g g g g g d f g g g a g a y A V 9.7.V S.V 7.V V IXIXIXIXIXIXIXIXIXIXIXIXIXIXIXIXIXIXIXIXIXIXIXIXIXIXIXIXIXIXIXIXIXIX",
"IXIXIXIXIXIXIXIXIXIXIXIXIXIXIXIXIXIXIXIXIXIXIXIXIXIXIXIXIXIXIXIXIXIXw w 6 w w q 6 6 t 6 w 6 8 w q q 6 w q q q q q q q q q q q q w q q q w 8 q q q q q q 8 8 7 2 8 5 7 5 5 7 5 8 7 5 8 8 % %.sX$., 9 9 9 8 7 , ; % ; # # % = ; ; , , 9 ..D D n < *.~.Q.!.!.~.~.oX!.+X%XL.= $ O O $ O O O O O O O O O O O O O O O O O . O O O O O O O O O O O O O O O O O O O O O O O O O O O O O O O X X X X X X X X X X X X X X + X . . . . . .   X . .                             . . .   M eXbXbXnXbXbXbXnXeXo...o.@XeXVXbXqX#XL.o.o.#XrXhXNXVXcXcXcXcXvXeX0X$.O.{ ..O.o.o.Q.@XrXrXsXvXbXbXbXbXnXbXcXvXvXvXtXvXvXcXtXtXtX$.e ; , , , , 8 7 @XmXmXcXNXNXVXVXVXNXVXVXcXvXvXcXcXcXmXmXvXvXcXcXcXcXcXcXmXmXcXVXmXMXbXMXnXbXVXVXZXNXVXNXNXVXVXVXbXmXNXVXVXVXBXNXNXNXbXVXbXbXMXbXVXbXVXNXJ.; r q I P 3 2 $ < n 1 < l a.|.!.S * y s 2.u.i.u.u.u.u.y.u.y.5.5.2.6.6.6.6.5.5.6.5.q.3.d A e.7.9.7.7.7.V V V B d d d d d a i i i i a i i i d d f g g f g g d g f a d a y A V 9.V V 0.7.V V S.IXIXIXIXIXIXIXIXIXIXIXIXIXIXIXIXIXIXIXIXIXIXIXIXIXIXIXIXIXIXIXIXIXIX",
"IXIXIXIXIXIXIXIXIXIXIXIXIXIXIXIXIXIXIXIXIXIXIXIXIXIXIXIXIXIXIXIXIXIXw w w 6 6 6 6 6 6 6 6 6 6 6 q q q q q 6 q q q q q q q q 6 q w q q q q q 7 q 8 q 8 8 8 8 8 7 8 7 5 8 8 7 8 8 8 8 7 7 2 L.mX$.< 9 0 9 , ; ; % ; % ; ; ; ; ; % t # M eX[ ; 0 n t O.!.!.Q.~.!.!.!.+XhX@X1 = # $ O $ O O O O O O O O O O O O O O O O O O O O O O O O O O O O O O O O O O O O O O O O O O X O O O O O O X X O X X X X X X X X X X . . . X X . . . . . . .                             . .   @ L.nXbXbXbXnXbXbXnXVXvX@X....o.@XvXVXsX@X$.o.#X$.$.$XtXnXcXcXsXsXsXsXsXeX0X#X$.O.O.......O.#X@XrXrXrXeXsXtXtXsXtXsXvXvXcXmXcXvXtX$.0 ; % , , 7 7 0 qXBXcXVXNXNXVXmXVXVXVXVXVXmXvXvXcXvXmXcXvXcXcXvXcXcXcXcXMXVXcXcXVXbXbXMXbXbXVXVXZXZXVXNXNXNXVXVXVXNXNXNXNXBXBXBXBXNXbXbXNXbXbXbXVXnXVXMXL.; M q q U 6 2 o 0 n 0 1 1 S (.~.S p y d i.u.y.u.y.i.i.u.u.y.6.2.2.5.6.5.5.5.2.6.5.5.q.d g V 7.7.7.7.7.V V V g f g f g d d i i i i i a a a d d g f g g d d g g d d d g s p A ( 7.9.V V S.( 7.IXIXIXIXIXIXIXIXIXIXIXIXIXIXIXIXIXIXIXIXIXIXIXIXIXIXIXIXIXIXIXIXIXIX",
"IXIXIXIXIXIXIXIXIXIXIXIXIXIXIXIXIXIXIXIXIXIXIXIXIXIXIXIXIXIXIXIXIXIXw q 6 q w 6 6 t 6 6 6 w 6 w 6 q 6 q q q 6 q q q q q q q 6 q 6 q 7 8 7 q 7 q q q q 8 8 8 8 8 8 8 8 5 8 7 7 7 5 8 7 , % #XFX%., 9 , % # % # ; % ; % # % # % : , # [ sXM < < 1 t v.%X!.v.~.!.!.!.+XiXrX< 1 1 > $ $ $ $ $ O O X X . O O O O O O O O O O O O O O O X O O O O O O O O O O O O O O O O O O O . O O O O X X X X O O X X X X . . X X . . . . . . . . . .   .                             . . X D sXnXnXnXnXbXnXnXVXnXbXnXrX$...O.L.rXvXmXrX%X#X#Xo.$.L.@XrXsXcXvXvXsXtXsXvXvXtXeXrX@X#X$.O.%.$.#XQ.o.$.L.$.#XQ.$.o.o.o.$.Q.#XeXtX$.0 , ; , 7 8 7 *.tXNXcXmXVXNXMXmXVXVXVXmXVXcXvXvXcXcXVXmXmXcXcXcXcXcXcXcXMXbXbXbXbXbXmXbXVXMXnXNXBXZXVXNXVXNXVXVXVXVXVXVXBXBXNXNXVXBXMXbXVXbXNXbXbXbXVXAXO.5 Y r q U 4 6 o 1 F 0 1 1 a.!.^.f.l s =.r.y.u.i.u.u.i.u.y.i.6.5.2.2.6.6.2.2.6.6.r.r.y.e.s A e.7.7.7.7.V 7.g f 3.=.g d d d i a i i a i a d d d g d g f g g g f g g s a a y a V 9.S.A V V V 7.IXIXIXIXIXIXIXIXIXIXIXIXIXIXIXIXIXIXIXIXIXIXIXIXIXIXIXIXIXIXIXIXIXIX",
"IXIXIXIXIXIXIXIXIXIXIXIXIXIXIXIXIXIXIXIXIXIXIXIXIXIXIXIXIXIXIXIXIXIXw w 6 6 6 6 6 6 6 6 6 6 6 w q q q q q q q q q q q q q q q w q q 8 8 8 q 8 q q 8 q q 8 8 8 q 8 8 5 8 8 8 8 8 8 8 8 5 % 0XdX| = ; # # # # ; = ; = ; ; : 5 : 9 < ; &.eX< : 1 h t O.!.Q.!.!.~.!.!.!.>XiXD 1 x d i u y u y y * > > > O O O O O O O O O O O O O O O O O O O O O O O O X O O O O O O O O O O O O O O O X X O . X X X . X X X X X X . . . X . . . . .                                       % 0XbXbXbXnXnXbXbXbXnXnXvXbXvXvXqX$.D ..Q.rXNXBXbXeX@X@X#XO.O.L.@XqXqXeXtXtXsXvXcXmXmXmXtXeXeX$X#X#X#Xo.O.O.O.O.H { ..{ { D { %.rXeX$.7 % t ; 7 8 t F tXNXmXVXNXNXVXVXNXMXNXmXVXmXvXcXvXcXmXVXcXmXcXvXcXcXcXcXmXMXmXVXcXMXbXbXMXbXVXVXNXZXNXZXNXNXVXVXVXmXVXVXVXVXVXVXNXMXbXVXVXbXNXNXNXVXAXAX{ ; 8 5 q q 3 2 @ < n n 1 1 S Z.|.f.l i 5.r.u.u.u.u.u.y.y.i.u.2.5.6.2.5.6.6.2.2.u.u.u.i.q.e.s e.7.7.7.7.0.V d =.4.4.f f d d i i i i s i d d d d d g d g d f g d g d d d g s p A e.V 9.V V 7.V IXIXIXIXIXIXIXIXIXIXIXIXIXIXIXIXIXIXIXIXIXIXIXIXIXIXIXIXIXIXIXIXIXIX",
"IXIXIXIXIXIXIXIXIXIXIXIXIXIXIXIXIXIXIXIXIXIXIXIXIXIXIXIXIXIXIXIXIXIXw q q q 6 6 6 6 6 6 6 6 6 q 6 I q q 6 q q q q 6 q q q q q 6 q q 8 8 8 8 8 q 7 8 8 q 8 q 7 8 8 8 8 8 8 7 7 8 7 5 5 ; % 0XsX[ = h 9 9 v 9 v v v v v v N v r v v ; &.tX1 > i l t J +X!.!.!.!.!.!.+X>XxXo.1 c 4.=.4.4.c 4.c c f i y > > $ O O O O O O O O O O O O O X O O O O O O O X O O O O X O O O O O O O O O O . O . O X O X X X . X X . X X . . . . X . . .                                     o { sXVXnXnXnXnXbXnXbXbXbXbXvXvXbXbXtX@X..D O.#XeXMXGXmXtX@XL.$.O...e F F ..$.@XrXeXmXmXbXcXcXbXbXmXvXtXrXqX@X#X#X#X$.$.o.$.$.Q.@XvXqX| , % t t 7 9 t [ mXmXVXVXVXVXmXVXVXVXmXVXcXcXcXcXcXPXcXVXmXcXcXcXcXcXmXmXcXVXVXmXmXcXcXcXMXbXVXVXNXNXZXSXNXNXNXNXVXNXVXVXVXVXVXmXNXMXMXVXVXNXNXnXNXNXZXdXM % 8 2 U 6 3 3 o 9 n < 0 1 S ~./.c.l i <.r.y.u.u.u.y.u.i.i.6.6.2.6.2.6.2.2.2.6.u.u.i.i.i.2.s A e.7.e.7.e.d =.=.<.4.f f f d s i i i d d d d d d d d f d g d d g d f d d d s s A V 0.7.V V V 0.IXIXIXIXIXIXIXIXIXIXIXIXIXIXIXIXIXIXIXIXIXIXIXIXIXIXIXIXIXIXIXIXIXIX",
"IXIXIXIXIXIXIXIXIXIXIXIXIXIXIXIXIXIXIXIXIXIXIXIXIXIXIXIXIXIXIXIXIXIXq 6 6 q 6 6 8 6 6 t 6 6 6 q q 6 q q 6 q q 6 w 6 q 6 6 q 6 q q q q q q q q 8 q q q 8 w 6 8 8 8 5 8 8 2 5 5 7 , 9 v M 5 rXdX( b Z Z C B Z B N N N N b v N b b N : ..tX: i c c 1 J %X+X!.!.!.!.!.!.%XVX%Xh c <.;.;.;.;.;.<.<.4.=.=.f i * > > O O $ O O O O O O O X O X O O O O O X O O O O O O O X X O X O X O O O O O O O O O X X X X X X X . . . . . . . . .                           .     . .   : qXbXZXnXnXnXbXbXbXbXnXnXvXvXvXnXbXVXVXrXL.......o.qXsXNXvXsXqX#X#X0 0 0 9 0 0 0 e o.qXrXeXsXcXbXbXVXVXMXvXcXvXvXtXvXtXtXtXvXvXtXmXqX .7 % % , , 8 t &.MXmXcXcXVXVXNXVXmXVXcXmXVXcXcXcXcXVXvXmXcXcXvXcXcXcXcXmXcXcXcXbXVXVXcXbXbXbXbXMXVXVXNXNXZXNXNXVXVXVXNXVXVXVXVXVXNXMXbXVXVXNXNXNXNXNXAXiX7 5 / Y w 4 3 2 o < F 0 l 1 l g.|.!.k y 5.y.6.u.u.u.r.u.u.y.6.2.6.6.2.2.<.2.2.u.u.y.u.i.u.i.e.d A 7.8.8.g f :.5.2.6.4.f d d d d i d d d g d d d d g g g d g g g d d d d d g a s g S.V 7.7.V V IXIXIXIXIXIXIXIXIXIXIXIXIXIXIXIXIXIXIXIXIXIXIXIXIXIXIXIXIXIXIXIXIXIX",
"IXIXIXIXIXIXIXIXIXIXIXIXIXIXIXIXIXIXIXIXIXIXIXIXIXIXIXIXIXIXIXIXIXIXq 6 q q q 6 w 6 6 6 6 6 q 6 q 6 6 6 6 6 6 q q 6 6 6 q w 6 q q q q q q q q q q q q 6 q q 8 8 5 5 5 q < 9 v b Z ( S.( v rXdXX.Z 0.( 0.0.Z Z Z Z ( B b A / N / v : | eXh i f c l k +X+X+X!.!.!.!.!.%XvXiXm i 4.;.;.;.;.<.<.;.<.<.;.4.4.=.d i y - > $ O X O O O O O O O O O O O O X O O O O O O O O O O O X O O O O O X O O O X X X X . . X . X . . . . . . . . . .                       .         + O.sXMXbXbXbXbXbXnXnXbXbXnXcXbXvXnXbXNXVXnXvX@Xo.{ [ | $.@XrXvXbXvX@X9 9 0 e M M e , F { O.%.#X#X0XeXtXvXtXtXtXsXvXcXtXsXvXPXvXvXsXsX0X{ 8 t ; t 7 0 t $.BXVXvXVXVXMXMXVXMXmXVXVXmXcXcXcXcXvXvXvXvXcXcXcXcXcXcXVXNXVXcXvXVXMXvXcXMXbXbXbXbXVXVXNXZXNXNXNXNXVXNXVXPXmXNXVXVXMXVXMXNXNXNXNXZXNXAXiX7 2 w U 3 3 3 6 @ < n 1 0 1 k b./.!.S y ;.1.1.y.u.y.y.u.y.6.2.2.5.2.5.1.<.1.y.u.u.y.u.i.u.u.i.f d V 8.z d =.5.1.6.1.4.f f f d f d d f d d d d d f d g g f g g g d f g g d g g d a A 7.S.V V B IXIXIXIXIXIXIXIXIXIXIXIXIXIXIXIXIXIXIXIXIXIXIXIXIXIXIXIXIXIXIXIXIXIX",
"IXIXIXIXIXIXIXIXIXIXIXIXIXIXIXIXIXIXIXIXIXIXIXIXIXIXIXIXIXIXIXIXIXIXq 6 6 L 6 6 w 6 w 6 6 6 q q q q q 6 w 6 6 6 6 6 q q 6 6 q 6 q q q q q q q q 8 q q 8 7 8 9 9 v v ( ( Z S.S.S.0.0.9.( p wXdXX.0.9.0.S.S.0.0.S.S.S.( Z / B N a : > ..eXl f f c l l +X+X!.!.!.!.!.!.+X<XnXX.y =.;.4.4.;.;.<.<.;.<.<.<.<.<.<.4.;.f d y * > $ O + O O O O O O O O O O O O O O O O O O O O O O O . . . X O . O O X X X X X X X . . X . . . . . . . .                       . . . . .   n wXcXnXnXnXVXbXnXbXbXnXnXvXvXvXvXvXcXcX%XeXVXVXtXqX#XO.o.{ { o.#XeX$., 9 , 0 M e F , [ #X$.%.......O.o.$.$.#XL.@X@XqXrXrXqXqXeX0XrXtX#XF t , , , 7 9 , Q.BXmXvXmXVXVXVXVXMXVXVXvXcXcXcXvXcXvXvXvXvXcXmXmXcXmXcXPXNXBXNXVXVXNXVXMXVXMXmXVXNXVXVXNXZXZXNXNXNXNXBXNXVXVXmXVXVXbXVXNXNXVXMXNXNXZXAXuX9 5 6 3 3 L 3 2 & 0 n n 1 1 l ~.|.|.S u =.<.r.u.u.u.u.y.6.6.5.6.6.6.5.6.5.2.y.u.y.u.u.i.u.r.i.8.s d V d f :.r.r.6.<.;.f z d d d d d d d d d d d d d g g g f d g f g g g d f g A s a V V V A A IXIXIXIXIXIXIXIXIXIXIXIXIXIXIXIXIXIXIXIXIXIXIXIXIXIXIXIXIXIXIXIXIXIX",
"IXIXIXIXIXIXIXIXIXIXIXIXIXIXIXIXIXIXIXIXIXIXIXIXIXIXIXIXIXIXIXIXIXIXq q q 6 6 6 6 6 q 6 6 6 w q q 6 w 6 6 6 q 6 6 q 6 q 6 q q q q q q q q q 6 q 8 5 5 9 v b Z G.G.S.S.S.D.S.G.0.9.0.S.Z p rXdXG.0.0.0.0.0.0.0.S.0.0.Z Z b n p u p > &.eXu f f f l 1 %X!.!.!.!.!.!.!.#X%XnX%Xu f ;.4.;.;.;.<.<.<.;.<.<.<.<.<.1.6.6.5.4.=.i u * > > O O O O O O O O O O O O O O O O O O O . O O O O O X . X O X O X X X X X X X . . . . . . . . . .                         . . .   & P.vXVXnXnXbXbXVXnXbXnXbXnXvXvXsXsXsXvXrX..o.qXvXvXNXmXrX@XO.{ { D ..{ 7 7 , e e e 0 , &.vXvXrX@X#XQ.L.o.O.O.{ { | O.| &.O.| O.%.$.qXeX$.0 ; , , , 8 7 , 0XBXcXcXVXmXMXVXVXBXVXVXcXvXvXvXvXvXvXvXvXcXmXcXcXmXmXcXbXcXrXrXeXtXeXeXBXMXcXcXmXVXVXVXNXNXZXNXNXNXNXVXNXNXVXmXVXVXMXbXbXNXNXbXVXVXVXAXuX; 6 3 3 6 3 6 6 @ < n 0 1 1 l f./.|.f.y f 1.6.y.u.u.6.2.2.5.5.6.6.6.6.6.5.2.i.u.u.i.u.u.u.u.u.w.e.s s f =.6.r.r.6.;.=.=.f d d d d f d d d f d d d d d g d d f g d g d g d d g g g a a V V A a IXIXIXIXIXIXIXIXIXIXIXIXIXIXIXIXIXIXIXIXIXIXIXIXIXIXIXIXIXIXIXIXIXIX",
"IXIXIXIXIXIXIXIXIXIXIXIXIXIXIXIXIXIXIXIXIXIXIXIXIXIXIXIXIXIXIXIXIXIXw q q 6 w 6 6 w 6 6 q q q 6 6 q 6 6 6 q w 6 6 q 6 6 6 6 6 q q q q 3 5 5 5 5 : v B ( G.G.H.H.H.F.D.H.H.D.D.S.S.0.0.V v wXmX/ 0.9.S.0.0.Z 0.Z Z Z Z B b : : j B p &.iXl f f =.f t v.!.!.!.!.!.!.!.!.%XsXeXm i ;.;.;.;.;.<.<.<.<.<.<.<.<.<.<.<.1.1.1.<.5.;.c j y > > > O O O O O O O O O O X O O O X . . . O . . O X O X O X . X . X X X . O . . . . . . . . . . .                     . . . . . D sXbXbXbXbXnXnXnXnXnXnXnXnXvXsXsXsXsXsXrXo.| ..o.#XrXvXMXbXeXqX$.{ { F , 7 8 r *.0 0 7 [ #X%XeXvXvXvXtXeXeXqX%X@X@X@X@X#XQ.$.$.0XqXtXeXO.0 , % t , 0 9 , qXNXcXcXNXNXNXVXVXmXVXVXmXvXvXvXvXvXcXvXvXPXcXmXcXmXmXmXMXrX0 *.] F e O.BXMXcXmXVXVXNXVXNXNXZXNXNXNXNXNXNXMXVXVXmXNXNXbXNXbXNXZXbXbXAXAX$X5 3 3 6 3 3 4 6 @ 0 F 0 1 = l f.|./.c.u d ;.1.y.u.u.y.2.2.2.5.6.6.6.6.6.5.2.u.u.u.u.u.i.i.u.y.u.8.s s f 2.y.r.y.6.4.;.f f d d d d d d d d d d d d f g g f g g d g g f f d d d g A a a a a s a IXIXIXIXIXIXIXIXIXIXIXIXIXIXIXIXIXIXIXIXIXIXIXIXIXIXIXIXIXIXIXIXIXIX",
"IXIXIXIXIXIXIXIXIXIXIXIXIXIXIXIXIXIXIXIXIXIXIXIXIXIXIXIXIXIXIXIXIXIX8 q q w w w w 6 w 6 6 q 6 q 6 w q 6 6 6 6 6 6 6 q 6 q 6 q q 6 2 % 5 q 9 9 N Z G.F.U.H.H.H.D.H.H.H.D.H.D.S.S.0.0.0.C v tXdXN 0.0.0.0.S.0.0.V B B b p - p j z V y X.wXu f f f f u J !.!.!.!.!.!.!.!.+X>XvXX.i f ;.;.;.;.;.;.<.<.;.<.<.<.<.<.<.1.1.1.1.1.<.6.5.4.f i u * $ $ O O O O O O O O O O X . O O O . O O O X O O O O X X . X X X X . . . . . . . . X .   X                     . . . . 7 qXAXNXbXnXvXvXvXvXvXnXvXvXvXsXsXsXsXsXvXsXtXqX#Xo...D O.#XrXeXtXsXrX$.0 , 7 7 0 w 0 8 0 &.$.{ O.$.L.@XqXrXrXeXtXtXsXtXtXeXeXtXtXcXvXtXqXO.9 t t % 7 8 7 7 rXNXVXMXNXBXNXNXVXbXvXvXVXvXvXPXtXvXvXvXvXvXmXcXcXmXmXmXBX0X, 9 0 0 0 O.MXNXVXcXVXVXVXVXVXNXZXZXVXNXNXNXNXVXNXMXVXMXNXnXbXNXNXbXVXnXAXCX$X2 3 3 6 3 3 3 2 o 1 n l 1 1 1 S |./.b.p i ;.1.1.y.u.6.u.6.6.2.6.2.2.6.6.6.u.u.u.u.r.u.u.i.y.y.i.8.s s d <.y.r.y.<.;.4.f f f d d d d d d d d d d d d g g g f g d d f g d d d d d g g d i s i a IXIXIXIXIXIXIXIXIXIXIXIXIXIXIXIXIXIXIXIXIXIXIXIXIXIXIXIXIXIXIXIXIXIX",
"IXIXIXIXIXIXIXIXIXIXIXIXIXIXIXIXIXIXIXIXIXIXIXIXIXIXIXIXIXIXIXIXIXIX8 7 2 2 t 8 w w w q q 6 w 6 q 6 6 q 6 6 q 6 6 q q q q 8 5 6 5 : b ( ( G.D.H.H.Y.Y.H.H.H.H.F.F.H.D.F.D.S.S.S.0.0.0.B 9 tXsXb 0.0.S.0.V V B b b p : p j c z g g - P.P.u f =.=.4.u *.o.+X!.!.!.!.+X!.+X%XsXrXk i 4.;.;.4.<.<.<.6.;.<.<.<.<.<.<.<.<.<.1.<.1.1.1.1.6.<.4.4.c d l 1 > O X O O O O O O O O . O X . O O . . . . . . . X X . X . . . . . . . . . . % % ; #     .             . . X ; P.NXBXbXdXfXfXsXsXdXnXvXvXsXsXvXiXsXsXeX#XqXeXnXvXvXrX0X#X$.O.$.$.#X@X$.9 7 7 7 r e 0 8 [ rXeXqX$.O...{ ..%.%.%.o.$.$.$.$.#XQ.#XQ.@X0XqX0X| , , % % 7 0 , *.PXmXmXNXNXNXVXVXMXMXVXvXvXvXvXvXvXtXtXvXvXvXcXcXcXmXmXmXFX#Xt 9 e *.e Q.BXMXbXVXVXVXVXVXVXNXNXBXNXNXNXNXNXNXbXbXMXVXbXNXMXVXbXNXMXdXZXfXJ.2 3 3 4 3 3 4 6 @ , *.0 1 1 1 S ~./.!.l i ;.1.1.1.y.u.u.u.u.6.6.2.2.6.6.i.u.i.i.i.u.u.i.i.u.i.2.f d d d =.6.1.1.;.=.=.f f f d d d d d d d d d f s d d g =.g f f g d d g g d d d d g i i s g B IXIXIXIXIXIXIXIXIXIXIXIXIXIXIXIXIXIXIXIXIXIXIXIXIXIXIXIXIXIXIXIXIXIX",
"IXIXIXIXIXIXIXIXIXIXIXIXIXIXIXIXIXIXIXIXIXIXIXIXIXIXIXIXIXIXIXIXIXIX7 8 7 ; % & 2 q w w q q q q q q 6 6 3 8 6 q q 6 6 5 5 5 5 p ( S.G.H.H.H.H.Y.H.Y.Y.H.F.H.F.H.F.D.D.D.D.D.S.S.S.0.0.b v sXtXA S.7.0.V V B B b - : p j c d d i y * 0XL.y =.=.=.4.s 1 v.~.~.!.!.Q.Q.~.!.%X<XvXQ.t c -.-.;.;.<.<.<.;.<.<.<.<.<.<.<.1.<.1.1.<.1.1.1.1.1.1.1.6.6.4.l.C h > . X O O O O O X O X X X O X X . X X . . . X X X . X X . . . . . . X % , , 7 7 o   X           . . . # O.dXZXNXnXdXfXnXdXiXsXsXnXsXsXsXsXsXeXvXrXL.o.$.@XrXnXNXNXbXtX$X#XL.o.o...9 8 7 7 *.e 0 7 O.cXtXsXeXrXqX@XQ.Q.$.%.&.| ..O.{ ..O.O.{ ....$.#XF t t t , 7 0 t [ mXMXNXMXNXVXNXVXNXVXcXcXcXmXcXcXtXtXvXvXvXvXPXcXcXVXPXmXBX%., 0 e n e @XbXBXbXbXbXbXNXVXNXVXBXNXNXNXVXBXVXNXVXVXNXVXMXMXVXVXbXNXNXVXAXfXJ.2 3 4 6 I U 3 2 & , n 0 < 1 = S ~./.|.k - ;.1.1.1.y.y.u.u.u.5.2.2.5.2.6.i.i.i.i.i.u.i.i.i.i.i.g d e.q.f s =.2.<.;.=.=.f f f d d d d d d d d d d d d d f f z f f f d g z f g d d g a y s y d V IXIXIXIXIXIXIXIXIXIXIXIXIXIXIXIXIXIXIXIXIXIXIXIXIXIXIXIXIXIXIXIXIXIX",
"IXIXIXIXIXIXIXIXIXIXIXIXIXIXIXIXIXIXIXIXIXIXIXIXIXIXIXIXIXIXIXIXIXIX8 8 7 7 5 % % % 8 q q q q q w q q 6 q 3 6 q q 2 5 5 < b B S.H.H.H.H.H.H.H.F.H.F.F.U.U.F.F.D.D.D.D.D.S.S.S.9.0.0.0.A v sXeXb V S.V S.V B p : - l j j d i u u p * 0XL.i f =.=.4.l 1 H Q.!.!.!.~.~.Q.!.%X%X<X0Xl l =.-.=.;.<.<.<.<.<.<.<.<.<.<.<.<.<.<.1.<.1.1.1.1.1.1.1.6.6.6.a.b.K.z.j * + X X O X X X X O X O O X X . . . X X . . X . . . . . . . . o , , , , , 9 , O             X . + N wXAXAXVXnXnXnXdXsXdXsXsXsXsXiXiXsXvXtXvXeXrX@X#X$.o.P.rXsXNXNXBXcXeXrX@X{ 9 8 7 8 F *.0 8 #XmXvXtXeXvXvXsXrXrXrX0X#X#X$.$.Q.Q.Q.o.$.$.O.Q.#X] t 7 t , 8 e , | BXcXmXbXNXVXVXVXNXmXVXvXcXmXmXcXvXvXtXvXvXmXmXcXvXmXVXmXmX*., w e *.*.$.cXMXbXbXMXMXbXNXbXbXVXNXNXNXNXNXNXNXmXNXVXVXmXVXVXVXNXBXVXVXCXaXX.5 3 3 I I U q 2 @ 1 n 0 < 1 1 S j.(.|.S > 4.6.6.1.y.y.y.y.y.6.5.2.2.2.i.i.i.i.i.i.u.u.i.r.q.:.d g 8.q.e.s f ;.2.<.;.;.;.4.=.f c d d d d d d d d d c f f f f f f d g f f z z f d i y y a s a g IXIXIXIXIXIXIXIXIXIXIXIXIXIXIXIXIXIXIXIXIXIXIXIXIXIXIXIXIXIXIXIXIXIX",
"IXIXIXIXIXIXIXIXIXIXIXIXIXIXIXIXIXIXIXIXIXIXIXIXIXIXIXIXIXIXIXIXIXIX5 7 7 5 5 , 5 % % 2 2 6 q w q q q q 6 q q 6 5 ; v b S.G.H.H.H.H.H.H.F.U.F.U.U.F.H.H.F.F.D.D.D.D.D.D.D.D.S.9.S.0.7.A v dXqXA ( 7.7.V j p u p j j a u l l u l p ; 0XJ.s =.=.=.4.i 1 ..~.v.Q.!.!.v.f.~.!.Q.<XyX..u f =.=.;.;.<.<.4.;.;.<.<.<.<.<.<.<.<.1.1.1.1.1.1.1.1.<.6.4.f c d.Z.Y.b.z.x = O X X X X X X X X X X X . X . . X X X . X X . . . . . O % , , , , , 8 8 % . . .   . . . . : P.vXZXAXVXAXnXnXdXdXsXdXsXiXsXtXsXsXiXsXvXeXeXvXeX$XP.o...o.@XwXsXvXbXBXrXF 9 , , 7 0 e 0 e rXvXtXsXtXvXeXvXeXeXtXtXtXtXtXtXtXrXrXeXrXrXrX0X#X*., t % t 8 0 # o.MXcXmXMXNXVXNXVXVXcXcXvXcXcXvXvXvXtXvXvXmXmXmXcXcXcXmXmXrX7 7 0 e *.F Q.BXMXbXbXbXbXVXNXMXbXVXNXVXNXNXNXVXVXVXNXVXVXVXVXVXVXNXBXbXNXAXfXH 2 2 3 q q I U 6 o ; n F < = 1 k g.|.|.a.* f 6.<.1.y.y.1.y.6.2.2.2.2.5.u.u.i.i.i.i.i.i.u.i.2.s s e.q.q.q.=.f =.5.1.<.<.6.5.;.=.f d d d d d d d d d d d f f f f f f f f f z 3.f g i y A A g i d IXIXIXIXIXIXIXIXIXIXIXIXIXIXIXIXIXIXIXIXIXIXIXIXIXIXIXIXIXIXIXIXIXIX",
"IXIXIXIXIXIXIXIXIXIXIXIXIXIXIXIXIXIXIXIXIXIXIXIXIXIXIXIXIXIXIXIXIXIX, 8 8 8 8 7 7 7 2 2 2 % % 2 8 q q q q 5 5 5 v Z S.U.H.H.H.H.U.F.H.U.F.F.F.F.F.F.H.F.D.D.D.D.D.D.D.S.D.D.S.S.9.S.Z A N dXqXN 0.0.B p u u j j j i u p u u u u : : 0Xo.i =.=.4.=.d = H O.~.~.!.Q.f.f.v.v.!.Q.<X%Xn d =.=.;.4.<.;.;.;.<.<.<.<.<.<.<.<.<.<.1.1.1.1.1.1.6.6.=.d c 9.A.A.A.A.|.|.v.x - O O X X X X X X X X . . X X . X . X . . . . . . X = ; , , , , , , 9 7 # . . . . O X > X.uXMXVXVXbXbXnXcXdXsXsXsXsXsXsXeXiXsXsXsXvXrX#XeXnXdXrXqX#Xo.....X.L.qXeX0XF 7 , , 8 e 0 0 F rXsXtXsXsXtXvXtXtXrXeXrXrXeXtXtXvXtXtXtXtXtXtXtX$.F , , % 7 0 0 % $.mXcXmXMXNXNXVXVXmXcXcXmXmXvXvXvXvXvXvXcXcXmXmXmXcXmXmXBX@Xt 7 e M M F 0XBXVXbXbXcXcXcXcXMXVXNXbXBXBXNXNXVXVXVXmXNXVXVXVXVXVXNXZXVXAXAXaXN 3 3 2 2 2 6 q 6 o ; n n 0 = # J h.M.oXc.* d ;.<.1.1.y.y.6.6.u.y.6.u.u.i.i.i.i.i.u.i.i.u.q.g s g q.q.q.q.8.f d =.6.<.6.6.5.4.4.f d d d d d d d d d d f f f f f f f f f f 3.3.z a y s V V V d i IXIXIXIXIXIXIXIXIXIXIXIXIXIXIXIXIXIXIXIXIXIXIXIXIXIXIXIXIXIXIXIXIXIX",
"IXIXIXIXIXIXIXIXIXIXIXIXIXIXIXIXIXIXIXIXIXIXIXIXIXIXIXIXIXIXIXIXIXIX5 5 5 5 5 7 5 7 2 8 5 2 % % % 2 5 5 5 5 b ( D.U.F.U.H.H.H.H.H.H.H.F.F.F.F.F.F.H.U.D.D.D.D.D.D.9.D.D.D.D.D.9.S.0.7.p ( mXqXb B a * u j j j j l l u u p u l u p = qXJ.d f ;.4.=.d > F !.v.~.v.f.f.f.v.v.Q.Q.<XeXD u d =.;.;.;.;.;.;.;.<.<.<.<.<.<.<.<.<.<.1.<.<.<.6.4.d i c x.Y.A.A.A.A.A..XoX|.f.k = $ X X X . X . X X . X . X . . . X . . . . . O ; ; , , , , , , 7 8 , @ X . O ; + n I.dXbXbXVXbXbXnXdXsXdXdXvXsXsXiXrXsXeXeXsXeXeXL.@XeXMXnXdXsXwXqXqX@XL.#X$...F 9 , , 9 w 0 0 D eXtXeXtXtXvXsXtXtXrXtXrXrXrXtXtXtXtXtXtXtXtXtXyX$.M , , % 7 0 8 t #XmXcXVXVXVXVXbXNXBXmXcXcXcXcXmXvXtXvXcXcXmXmXPXcXcXmXmXBX0X, 7 0 e F ] rXNXVXbXcXvXcXbXcXbXbXcXVXVXNXVXNXNXVXVXVXVXVXVXbXVXVXNXNXVXNXAXpXv 2 3 2 6 q 3 2 2 @ ; 0 0 < = = k ~.~.oXb.= d ;.<.<.1.6.y.6.y.u.i.u.u.u.i.i.u.W.W.i.i.r.2.e.s s q.q.q.8.8.q.8.d d ;.6.5.2.2.;.=.f d d d d d d d d d d f f f f f f f f f f 3.3.z s y A 7.7.7.V i IXIXIXIXIXIXIXIXIXIXIXIXIXIXIXIXIXIXIXIXIXIXIXIXIXIXIXIXIXIXIXIXIXIX",
"IXIXIXIXIXIXIXIXIXIXIXIXIXIXIXIXIXIXIXIXIXIXIXIXIXIXIXIXIXIXIXIXIXIX5 5 5 5 5 7 5 5 5 2 5 5 2 ; ; , ; < N ( G.H.H.Y.Y.Y.H.H.H.H.F.Y.F.H.H.H.U.F.H.H.D.D.D.D.D.D.D.D.D.D.D.D.D.S.7.S.0.v [ MXUX* * u a c j a a a j l u l u u u l - = qXo.i =.;.4.4.d > J !.+X%X!.v.~.f.~.!.~.%X%XsX#Xh s f =.;.4.<.;.;.<.4.<.<.<.<.<.<.<.<.<.<.<.<.<.-.d i c x.A.A.C.A.A.A..X XXXXXXX|.f.l = $ X X X . X X . X X . X . X . . . . . . X & , , , , , , , , 7 0 , # . X > = ..$XdXdXVXnXVXbXdXdXiXsXsXiXsXsXsXsXvXvXeXeXeXeX@XL.#X@XiXdXnXnXvXtX#X#XqXqX{ 0 7 , 7 0 0 0 0 | tXrXeXtXtXvXeXvXtXeXtXtXeXeXtXtXvXeXtXtXtXtXeXrX%.0 , % t 7 w , 8 rXMXVXmXVXNXVXMXBXBXmXcXvXmXVXmXmXtXtXcXcXcXmXmXcXmXmXmXBX0Xt 8 *.*.*.] eXNXVXbXvXcXcXcXcXbXVXNXVXMXNXNXBXNXNXVXmXNXmXMXVXNXNXNXNXVXAXAXiXn 2 8 2 w I I w 2 % ; 0 n < = = k f.~.oX!.- y ;.6.<.<.1.1.y.y.u.r.i.u.y.y.i.u.r.u.u.i.i.8.d s e.q.q.q.8.8.q.8.g s d ;.6.<.;.4.f f d d d d c d d d f d d z f f 3.3.f f f f =.3.g y a V 7.9.7.0.g IXIXIXIXIXIXIXIXIXIXIXIXIXIXIXIXIXIXIXIXIXIXIXIXIXIXIXIXIXIXIXIXIXIX",
"IXIXIXIXIXIXIXIXIXIXIXIXIXIXIXIXIXIXIXIXIXIXIXIXIXIXIXIXIXIXIXIXIXIX; ; 5 8 7 5 5 ; ; ; ; 5 5 ; : : b S.D.H.H.H.H.H.Y.H.H.H.H.U.H.U.F.H.H.H.H.H.F.F.F.D.D.D.D.D.D.D.D.D.D.D.S.S.9.7.0.p [ FXP.> a a c d d l a j i l u i l u u l - < rXO.d =.;.;.;.f - F v.v.+X!.Q.v.Q.Q.Q.Q.%X%XrXrXD * i =.;.;.<.;.<.;.<.<.<.<.<.<.<.<.<.<.<.1.<.=.d d 0.Y.Y.C.C.A.C.A.A..X/.'.}.XXXXoX~.S u $ . . . X X . X . X . . . . . . . . . . . % , , , t 7 , , , 0 8 , @ + > : J.wXdXvXAXVXnXnXnXdXsXsXsXiXiXvXvXvXsXtXsXtXtXeXeX@X$.o.o.L.wXnXVXeX0 0 O.rX&.8 7 7 , 0 *.0 0 Q.sXrXrXtXtXtXtXtXtXtXtXtXtXtXtXeXtXtXrXtXtXtXrXqXO.< , ; t 9 *.7 0 tXmXmXVXVXNXtXvXmXNXBXmXmXmXPXmXmXvXvXVXmXmXmXmXmXcXmXmXBXQ., 8 e *.F *.tXBXbXbXcXcXcXcXmXmXMXbXbXMXNXNXVXBXNXVXVXNXBXNXVXNXNXBXBXVXVXAXuX5 2 6 6 I U U I q & ; 0 n 0 1 = l f.~.oXj.1 y =.<.<.<.<.6.6.u.u.r.i.u.u.u.u.u.u.u.t.i.q.:.d =.q.q.q.q.8.8.8.8.7.d s =.5.<.4.;.f d d d d d d d d d d d d f f f =.=.3.4.f =.3.z s a V 0.7.9.8.7.7.IXIXIXIXIXIXIXIXIXIXIXIXIXIXIXIXIXIXIXIXIXIXIXIXIXIXIXIXIXIXIXIXIXIX",
"IXIXIXIXIXIXIXIXIXIXIXIXIXIXIXIXIXIXIXIXIXIXIXIXIXIXIXIXIXIXIXIXIXIX% 2 5 5 % % 2 5 2 ; 5 5 ; : m S.G.H.H.H.Y.Y.H.H.H.H.H.H.F.Y.H.H.H.U.F.H.H.H.H.H.H.D.D.D.D.D.D.D.D.S.S.S.S.9.S.0.B p X.dX%.y A c d c d d j d i l l u u u i u - < sX..d =.;.4.;.c - k v.+X!.!.~.~.~.~.~.~.!.%X%XrXP.< y f 4.;.;.4.<.;.;.<.<.;.<.<.<.<.<.<.<.4.f d z x.Y.C.C.C.C.C.A.A.]. X X/.'. X XXXXXoXb.k * . . . . X . X . X . . . . . . . . . . O % , , 7 , , , , 8 9 9 ; = - m P.rXiXdXnXnXbXbXnXdXsXsXsXsXsXsXeXiXeXeXeXsXsXsXvXtX$XL.O...O.#XwX@X, , , { F 7 , , , 0 e 0 *.@XeXtXeXeXeXtXvXvXtXeXtXeXrXeXtXtXtXrXrXrXeXeXeX0X| , , % , 8 0 , *.sXmXMXVXVXvX$.O.$.#XqXrXtXvXmXcXcXcXPXmXmXmXmXmXVXVXPXBXmX%., 0 *.F 0 F sXBXMXVXcXcXcXcXcXbXmXMXNXcXVXMXVXmXNXVXVXVXVXVXVXNXVXNXBXbXAXkXI.; 2 q q q I I 3 6 & $ < n < 0 = l f.~.^.|.h - =.<.<.1.1.1.6.2.u.i.i.t.u.u.i.i.i.u.i.i.2.s g 8.q.q.q.8.8.8.8.8.0.g s s z :.=.=.f d d d d d d d d d d d d c f f =.3.3.3.=.3.3.d y g 9.9.9.S.8.9.9.IXIXIXIXIXIXIXIXIXIXIXIXIXIXIXIXIXIXIXIXIXIXIXIXIXIXIXIXIXIXIXIXIXIX",
"IXIXIXIXIXIXIXIXIXIXIXIXIXIXIXIXIXIXIXIXIXIXIXIXIXIXIXIXIXIXIXIXIXIX% 5 ; % , 2 2 5 ; ; 5 : A ( H.U.F.Y.H.H.H.F.H.H.H.F.H.H.H.H.H.H.H.H.H.H.U.F.F.H.U.D.F.H.D.D.D.S.S.D.q.S.9.9.0.V p > X.FXL.p c c c d c i d l l j a u i u u l - N sXX.s :.;.;.=.4.u l Q.v.!.!.v.v.v.v.v.v.!.+X%XrXrXO.- s f -.;.;.<.;.;.;.<.<.<.<.<.<.;.<.=.d i 7.H.Y.C.C.C.C.C.Z.A.A.'. X X/./.(._.[. XXXXXoXf.h + X X X X . . . . . . . . . . . .   X @ % , , , , , , 7 7 9 7 1 v D J.wXsXsXnXnXbXbXbXsXeXsXsXsXiXeXeXrXrXrXeXnXrXrXsXbXnXsXqXL...D X.[ , 9 9 0 0 7 7 , , 0 e 0 *.rXtXtXtXtXtXtXtXsXtXtXtXtXrXrXtXeXeXrXrXrXeXeXtX@X[ , , % , 0 0 t { mXcXVXMXNXcXQ.O.| { { | O.$.#X#X#XqXrXrXtXvXvXcXMXBXmXBXmX| 7 9 *.F F } mXBXNXNXMXmXmXbXmXbXNXVXVXVXMXBXMXBXBXNXNXNXVXNXNXNXNXNXNXVXVXfXP.5 2 3 I 2 q 3 4 3 & # < 0 < F 1 1 S j.|.|.J - f ;.6.<.1.6.6.2.6.y.y.r.y.u.u.u.u.r.i.i.f d e.q.q.q.q.q.8.8.e.7.7.7.g s s f f f d d d d d d d d d d d d d f f =.3.3.3.3.3.3.f s A 9.9.q.q.9.8.8.7.IXIXIXIXIXIXIXIXIXIXIXIXIXIXIXIXIXIXIXIXIXIXIXIXIXIXIXIXIXIXIXIXIXIX",
"IXIXIXIXIXIXIXIXIXIXIXIXIXIXIXIXIXIXIXIXIXIXIXIXIXIXIXIXIXIXIXIXIXIX1 ; % , % ; 5 ; ; ; v N S.H.H.F.H.U.H.H.H.U.H.H.U.F.H.H.H.H.H.H.U.F.H.H.H.H.H.H.H.D.D.D.D.D.D.D.S.9.S.0.S.0.b * * > o.FXL.p c c d d d d j l k l j i u u l j y D sXH d -.;.;.;.;.i 1 v.!.v.H !.!.v.v.v.v.!.+X$X$XeXqXD * d =.;.4.;.<.6.<.<.<.<.<.<.<.;.f d g x.Y.Y.C.C.C.C.C.A.A..X X/._.^./.[.[.[._.'.}.{.XXoX|.S = . . . . . . . . . . . . . . . .   + # ; , , , , t 7 8 0 9 0 D H X.qXdXdXsXvXdXdXvXsXhXsXsXsXsXsXvXtXeXeXtXvXrXL.@XsXnXsXsXsXqX$...< , 7 7 , 7 8 , , 7 0 e 0 { rXtXtXsXtXtXtXtXeXsXeXtXrXrXtXeXtXtXtXrXtXtXrXrXQ.[ , t % , 0 0 t O.mXcXmXBXVXNXVXtXeXqX#XO.O.O.@.{ { | | O.$.Q.#X#X@X@X0X0X#XF , 0 *.F *.{ BXbXmXbXbXbXbXMXVXcXcXvXsXtXvXvXmXmXsXvXnXVXZXNXZXBXSXZXZXVXbXAXP.5 2 6 w 8 2 2 3 3 4 ; < n F k 1 1 S ~./.|.H = d 2.1.1.6.6.2.6.6.6.y.r.y.r.i.i.u.u.i.e.s f q.q.q.q.q.q.9.8.e.7.7.7.7.a y d d d d d d d d d d d d d d d d f 4.3.f =.=.=.=.3.s s e.9.q.q.q.9.9.9.8.IXIXIXIXIXIXIXIXIXIXIXIXIXIXIXIXIXIXIXIXIXIXIXIXIXIXIXIXIXIXIXIXIXIX",
"IXIXIXIXIXIXIXIXIXIXIXIXIXIXIXIXIXIXIXIXIXIXIXIXIXIXIXIXIXIXIXIXIXIXG n 1 # ; , ; 5 9 V G.H.H.H.H.H.H.F.H.H.H.F.U.H.H.Y.H.H.H.H.H.F.H.U.F.H.H.H.F.H.H.D.D.D.S.D.D.D.D.9.9.S.V a y i A u o.FXJ.u d d d d d d d i d l a l i i i l - [ mXZ f -.-.;.;.;.l 1 v.!.H !.v.v.v.!.%X%X%X%X%XeXsXtX#Xh y f =.;.;.;.;.<.<.<.<.<.;.=.d i V F.Y.Y.C.C.C.C.C.C.Z..X X'.(.(.(._._.(._.(._._._.{. XXXoXh.l O . . . . . . . . . . . . . . . X @ % t , t , , 7 7 8 9 7 9 N H P.wXsXsXsXsXsXsXsXsXsXsXsXsXsXvXeXvXvXvXvXrX$.O.#XwXsXvXsXsXdX#X, , 9 9 , , 7 7 7 7 7 0 0 *.O.0XrXtXtXeXtXtXtXtXrXeXtXtXrXrXrXrXeXrXtXtXrXrXQ.] , , % , 9 0 t Q.MXmXNXBXBXFXBXBXBXmXmXvXPXtXrX0X#XQ.O.$.$.O.O.&.O.| O.O.{ 0 , e F *.n O.cXQ.o.$.o.o.#X#XL.$.$.O...| ....O.O.O...O.o.o.o.L.@X$XsXNXAXbXAXL.5 2 2 w q I 3 3 6 & # n F J k 1 1 S h.|./.v.> f 1.y.y.6.6.5.5.6.y.u.i.y.i.i.i.u.u.q.s s e.q.q.q.q.q.9.e.8.7.7.7.7.7.A s y d d i d i i d d d d i i d d d d z 4.4.3.=.=.f d i 7.q.q.q.q.q.9.9.9.8.IXIXIXIXIXIXIXIXIXIXIXIXIXIXIXIXIXIXIXIXIXIXIXIXIXIXIXIXIXIXIXIXIXIX",
"IXIXIXIXIXIXIXIXIXIXIXIXIXIXIXIXIXIXIXIXIXIXIXIXIXIXIXIXIXIXIXIXIXIXc.c.J 1 = # ; v Z G.H.F.D.H.F.H.H.F.U.H.H.H.F.H.F.U.H.F.U.H.H.H.F.F.U.F.H.F.H.D.D.D.D.S.D.D.D.D.D.S.0.B u i a 3.z y L.FXX.y d f c d d d d c c i i i i l i i * X.mXC f -.;.;.;.4.S t O.v.!.v.v.v.%X%X%X%XqX%XeXcXcXsXrXo.- s =.=.-.;.;.<.<.<.<.5.3.g g 0.Y.Y.Y.Y.Y.C.C.C.C.C.A./.'.(.(._./.(.(.(.(.(.[._._._.}.XXXXXX!.S > . .   . X . . . . . . . . . . X + % , , , , , , 7 8 9 9 m X.J.@XtXsXsXdXsXvXsXsXsXsXsXsXsXvXsXiXsXvXsXsXrX$.D ..#XrXsXcXtX.., 9 8 8 , , 7 9 , 8 9 0 0 w e F { o.$.0XqXrXrXqXrXrXtXtXtXtXtXtXtXtXtXtXeXrX$.F t , t 7 w 9 t 0XBXmXMXtXqXqXeXcXmXmXcXmXVXvXmXmXcXsXtXsXtXtXrXeXtXeXrXqXO.7 7 0 e F *.O.vX#X$.o.o.O.O.O.$.%.$.$.#X#X$.$.#X@X#XL.L.Q.$.L.L.#X@XrXZXbXZXAXJ.5 3 3 w q I 3 3 6 & # v F F k t = S j.|.oXv.= f y.r.r.1.1.6.5.2.y.6.6.u.u.u.u.i.i.=.s e.q.q.q.q.q.8.8.e.e.7.7.7.7.7.e.A * y i i i d i l i d d i i i d d f =.=.4.=.=.=.c y V 9.q.q.q.q.9.8.8.9.9.IXIXIXIXIXIXIXIXIXIXIXIXIXIXIXIXIXIXIXIXIXIXIXIXIXIXIXIXIXIXIXIXIXIX",
"IXIXIXIXIXIXIXIXIXIXIXIXIXIXIXIXIXIXIXIXIXIXIXIXIXIXIXIXIXIXIXIXIXIX!.b.v.J 1 1 ; p Z H.H.H.D.F.U.H.H.H.U.F.H.H.U.H.H.H.F.F.U.F.H.H.H.H.H.H.F.H.D.D.S.D.D.S.D.D.S.S.9.V a s d z 3.4.f y L.mX..s f f f c d d d d d d d i a i i l * X.dXC =.4.;.<.;.=.c - H !.!.v.v.v.%XQ.@XrXrXeXsXeXtXvXeXrX..- d f =.-.4.;.<.<.4.f d 3.w.Y.Y.Y.Y.C.C.C.C.C.C.A.^.^.^.'././././.(./.(.(._.(.(.(./._.}.}. X|.f.1 O X .   . . . . . . . . .   . O @ % , , , , , 7 7 9 9 < D X.P.qXeXsXvXsXvXvXiXsXsXsXsXsXsXsXsXtXvXeXtXsXeX0X..F O.@XsX@X7 9 9 0 7 , , 7 , 7 7 , 9 8 0 e e e 0 0 F ] [ { O.%.$.$.Q.#XQ.#X#X@X0XqXqXqX0X%.0 % t % 7 0 9 7 rXmXVXMX@X{ | Q.$.#X#X#X0XrXtXtXmXcXmXMXBXmXBXNXBXBXBXNXBX%., 7 0 e F *.%.BXcXvXtXvXtXtXtXsXsXvXvXmXbXcXmXNXBXBXNXNXBXNXbXMXZXVXnXVXVXNXAXo.3 3 3 3 6 3 3 6 3 2 # n J J n 1 = S f./.|.c.- s 6.y.r.1.y.6.y.5.5.2.2.y.y.i.y.i.2.d f 8.q.q.q.q.q.q.e.e.7.7.7.7.7.7.7.V s * i i d d i i i d i i i i i d c =.=.=.4.4.g s d 9.9.q.q.q.q.q.q.q.9.9.IXIXIXIXIXIXIXIXIXIXIXIXIXIXIXIXIXIXIXIXIXIXIXIXIXIXIXIXIXIXIXIXIXIX",
"IXIXIXIXIXIXIXIXIXIXIXIXIXIXIXIXIXIXIXIXIXIXIXIXIXIXIXIXIXIXIXIXIXIX!.~.j.v.H J = : b G.H.H.H.U.F.H.H.H.H.H.H.H.F.H.H.H.U.Y.H.H.F.H.H.H.H.F.U.H.H.D.S.D.S.D.H.D.S.A a u i z =.4.4.=.f u L.dXD s c c c f c d d d c d c d i d i d * L.dXb =.;.;.4.;.=.c - D +XO.f.v.O.J Q.rX0X$.#X@XqXeXtXsXtXrXN * i f =.;.;.;.=.f g 9.H.Y.C.C.C.C.i.i.C.C.C.C.A.Z.^.(.).'.'.(.).(._._.(.(.(.(.).).(.[.[. X X|.c.l O     . . . . . . . . . . . X O # % , 7 , , , , 7 8 8 v [ o.@XrXsXsXsXvXvXsXsXsXsXsXsXsXsXvXiXeXeXsXeXeXtXqX%.F D L.O., , , , 7 , < 9 9 9 9 9 7 , , 7 0 e 0 0 0 0 0 8 8 0 *.e 0 *.n F *.F | &.&.@.O.{ , % % % 8 0 , 7 rXPXmXBXVXrX@X#X$.%.%.| O.%.%.#X0X0XrXtXtXcXmXmXBXBXBXNXBXO., 7 9 F F e $.GXBXFXFXFXMXNXBXVXBXNXBXBXFXBXFXBXFXBXZXNXZXZXZXZXZXZXAXAXAXVXAXO.2 3 3 3 4 3 3 3 6 2 # n D J k 1 = S g.!.|.!.- s 2.r.r.r.r.y.u.6.5.5.6.r.t.y.u.q.g d e.q.q.q.q.q.q.q.e.e.e.7.7.7.7.7.7.V A y * i d i i i i i i i i i i i d f =.=.4.3.s p 7.q.q.q.q.q.q.q.q.q.9.8.IXIXIXIXIXIXIXIXIXIXIXIXIXIXIXIXIXIXIXIXIXIXIXIXIXIXIXIXIXIXIXIXIXIX",
"IXIXIXIXIXIXIXIXIXIXIXIXIXIXIXIXIXIXIXIXIXIXIXIXIXIXIXIXIXIXIXIXIXIX|.(.j.h.v.H m : = p Z H.H.H.H.H.H.H.H.H.H.H.F.U.H.H.H.H.H.U.U.D.F.H.F.D.D.H.H.D.F.D.D.D.D.Z A s a g 3.4.4.4.4.4.=.u L.sXN s f f f f f f f f f f f f c d f c y P.nXj =.;.<.<.;.;.f - ..v.v.v.J J *.J F 9 < < n D #XrXeXsXsXo.> * z 3.4.-.f d z 9.Y.Y.C.C.C.i.C.i.C.C.C.C.C.Z.N.^.^.(.^./.(.(.(.(.(.(.(.(.(.).(.(./.[.[.}.XXoXb.k $   . . . . . . . . . .   . X X # , 7 , , , , , 8 9 9 n X.P.rXeXsXsXvXvXsXsXsXsXsXsXsXvXsXtXtXtXtXrXeXeXtXrX@X..F M 0 9 e 8 , , 7 9 9 9 0 7 , 7 9 7 7 , 8 0 9 e 0 e e 0 r 0 0 0 0 7 0 0 0 0 0 e F 0 , t t t 0 0 t , { O.&.%.#XqX@X0X0X#X$.%.o.O.{ { { | O.%.Q.0X@XrXvXmXmXsXrX] , , w M F e ] o.O.o.Q.o.| @XBXmXcXvXtXeXrXrXtXeXvXtXsXeXeXiXnXvXvXVXZXZXNXAXkX..3 3 3 3 3 3 3 3 6 & # h J F n 1 1 S f.(.|.b.l > f 1.y.r.y.6.y.6.2.y.6.1.t.y.y.e.s :.q.q.q.q.w.q.q.8.e.e.7.7.7.7.7.7.7.7.7.a * * i i i i i i i i i i i i d f =.3.3.g s 7.q.q.q.q.q.q.q.q.q.q.q.9.IXIXIXIXIXIXIXIXIXIXIXIXIXIXIXIXIXIXIXIXIXIXIXIXIXIXIXIXIXIXIXIXIXIX",
"IXIXIXIXIXIXIXIXIXIXIXIXIXIXIXIXIXIXIXIXIXIXIXIXIXIXIXIXIXIXIXIXIXIX|.|.|.j.h.c.c.S 1 * : V D.H.H.H.F.U.H.H.H.F.F.F.H.H.H.D.S.S.S.H.H.F.D.U.D.H.H.H.H.U.G.S.a y s A e.3.4.4.4.4.4.=.=.u P.dXN a c f f f f f f f f f f f f d f d * qXdXl 4.<.<.;.=.-.4.1 J +Xo...J *.*.t 1 D ..O.J h < D X.$.O.v 1 = i z.3.g i 3.x.Y.C.C.C.C.C.C.W.C.C.C.C.C.C.|.|.'.].).(./.(.(.(.(.(.(.(.(.(.(.(.(.(.(.[.[.}._./.!.S > . . . . . . . . . . . . X X @ # , , , , , , , 9 9 9 M L.qXrXeXeXeXeXsXsXsXsXsXsXsXsXeXtXtXtXtXeXrXrXrXeXtXrX#XO.F *.D F 0 , 8 9 9 9 0 7 , , , , 8 7 , 7 , 8 8 9 9 0 0 0 0 *.0 0 0 e e 0 0 0 8 7 7 , t , 0 e 8 0 *.*.0 9 0 0 0 *.e *.*.F F  .] F F F *.0 F D { | %.%.O.| D 0 , 7 9 F D M 7 9 8 8 < < , #XtX#X#X$.$.Q.$.o.$.J.Q.o.o.$.$.L.#X@XsXVXVXAXVXbXVX[ 2 6 3 6 3 3 6 3 2 2 $ n H J F 1 1 k h.|.|.|.l > y 3.y.r.r.y.6.6.y.u.6.r.t.u.8.d g 8.i.q.q.q.w.w.q.8.8.e.7.7.7.7.e.7.7.7.7.A y * y l i i i i l i i i y i d d f =.g s A q.9.q.8.q.q.9.q.q.q.q.8.8.IXIXIXIXIXIXIXIXIXIXIXIXIXIXIXIXIXIXIXIXIXIXIXIXIXIXIXIXIXIXIXIXIXIX",
"IXIXIXIXIXIXIXIXIXIXIXIXIXIXIXIXIXIXIXIXIXIXIXIXIXIXIXIXIXIXIXIXIXIX|.|.(.(.j.g.b.b.S l = - B G.F.F.H.H.U.F.H.D.H.F.H.H.G.S.S.D.H.D.U.D.D.H.D.U.H.H.H.S.B i u d 3.8.4.4.4.4.4.4.4.=.f p P.sXb d f f c f =.=.f f f f f f f f f d : rXdXs =.<.;.;.;.;.3.- ..+XO.J 0 t t J J H ..H ..X.G 1 1 1 < F F - = l a i 0.x.C.C.Y.C.C.C.C.C.C.C.w.C.C.C.C.Z.^. X^.^.^.^.(.^.(.(.(.(.(.(.(.(.(.(.(.(._._.[.{.}./.!.S = X X . . . . . . .       . X o % , 7 , , , , , 7 9 0 [ #XrXeXtXqXeXvXvXvXsXsXsXsXtXtXeXsXtXtXtXrXrXrXrXrXtXtXyX%XQ.] F 0 , 7 7 0 0 7 , 7 9 ; , 7 , , 7 7 7 7 , , 7 0 9 7 9 7 9 9 0 0 0 9 0 9 9 8 7 , , 0 e e 0 e F *.F *.F F e n *.n 9 0 0 9 0 8 8 8 0 r 8 7 8 7 7 < 8 8 < 8 0 e F F e 0 0 *.0 *.0 7 $.mX$.o.Q.0XeXtXtXeXrXrXrXtXtXtXtXsXsXVXNXZXAXVXbXnXD 2 3 3 L 6 3 3 6 % @ + h G J F 1 1 l f.~.|.|.x > y d y.r.r.y.y.u.y.y.r.r.y.6.g d e.q.q.q.q.q.2.q.q.8.8.e.8.e.e.7.7.7.7.7.7.V a * * y y i y y s i i u y s d d f z s a e.9.9.9.q.9.q.q.q.8.q.q.q.q.IXIXIXIXIXIXIXIXIXIXIXIXIXIXIXIXIXIXIXIXIXIXIXIXIXIXIXIXIXIXIXIXIXIX",
"IXIXIXIXIXIXIXIXIXIXIXIXIXIXIXIXIXIXIXIXIXIXIXIXIXIXIXIXIXIXIXIXIXIX|.|.~.~.~.~.j.~.f.S l > y B H.U.H.H.H.H.H.D.S.U.D.F.D.G.S.S.S.G.G.S.H.H.D.H.H.U.( p y a V 7.7.8.4.5.4.4.4.4.4.=.3.y #XtXb g 4.3.f f f f f f f f f f f =.f g h eXdXa =.>.<.;.;.6.c - ..J.H n t t 0 *.n 1 1 1 l k H ..H D J n h m k = - Z x.C.C.C.C.w.i.C.Y.Y.C.C.i.C.C.C.A.Z.A./.^.].^.^.^.^.(.(.j.j.(.(.(.(.(.(.(.(.(.(.(._.{.[. X~.S 1 O   . . . . . .         . X @ t , , , , 7 7 0 7 7 *.O.0XqXrX@X0XsXcXvXsXsXvXsXsXtXtXtXeXtXtXtXrXrXeXtXrXrXtXrXrXrX$.0 7 , , 0 0 9 , &.0X%...F 9 , , , , , , , 8 9 7 7 7 7 7 7 7 7 7 t t 7 7 , 7 , 7 0 e 0 8 8 0 0 e e e *.e M e e F e F F F F F F F F 0 0 F n 0 e *.*.F F ] F F F 0 *.F F F 0 *.< O.BXcXcXmXVXNXVXFXBXVXFXBXBXBXZXNXBXZXBXVXbXnXbXAXnXD 2 3 3 3 6 3 2 % & % + h G J J 1 = l f.~.|.|.G $ u y =.y.r.y.y.y.y.1.1.y.u.3.s =.8.q.q.q.q.q.q.q.q.8.9.8.8.8.9.9.7.7.7.7.7.7.V u * * y y u y y y y y y y i d A s s e.9.9.q.q.q.q.q.q.q.q.q.q.q.q.IXIXIXIXIXIXIXIXIXIXIXIXIXIXIXIXIXIXIXIXIXIXIXIXIXIXIXIXIXIXIXIXIXIX",
"IXIXIXIXIXIXIXIXIXIXIXIXIXIXIXIXIXIXIXIXIXIXIXIXIXIXIXIXIXIXIXIXIXIX|.|.(.(.~.(.j.j.j.c.S k = - B G.H.H.Y.H.F.G.G.S.G.G.G.S.S.S.S.H.D.D.H.F.H.H.( A a a V 7.7.3.4.4.4.5.;.4.4.4.4.;.e.- 0XsXv g 4.=.f f 4.f f f f f f f f =.=.d b sXiXa 4.;.<.;.<.;.c - F O.F , t 0 k 1 H v.!.!.J 1 l J F F 1 < O.+Xv.n - C x.C.C.w.i.w.w.i.C.i.C.C.C.C.C.C.A.Z. X^.^.^.^.^.^.(.(.(.(.g.~.(.(.(.(.(.[.(.[.(.(.(.[.}.}.[.|.S - O   X   . . .         . . X # , , , , 7 7 , 9 7 9 *.%.qXqX@XL.@XeXvXvXsXsXsXsXeXtXeXeXtXtXtXtXtXtXrXrXrXeXrXrXtXQ.0 7 7 9 0 0 , 9 0XrXwXrX0X#X&.M 7 , , , , , , t , , , 7 7 , , 7 7 , , , , , , 8 0 e 7 8 8 9 7 0 7 0 0 0 0 0 0 0 0 e e e 0 e e e *.F F F F e F *.e F F F F *.e 0 0 9 0 0 9 9 , D cXmXMXMXNXMXMXNXNXNXNXBXMXBXVXVXNXZXBXbXbXbXbXnXnXF 3 3 4 L 6 2 o % % @ = h J m F 1 t l S ~.|.|.z.> B i i 1.r.r.y.y.1.1.t.y.e.s d e.q.q.q.q.2.q.q.q.q.q.9.8.e.9.S.8.8.e.7.7.7.7.7.B u > * p u u u y y y y y i a a s A 9.q.q.q.q.q.q.q.q.q.q.q.q.q.q.IXIXIXIXIXIXIXIXIXIXIXIXIXIXIXIXIXIXIXIXIXIXIXIXIXIXIXIXIXIXIXIXIXIX",
"IXIXIXIXIXIXIXIXIXIXIXIXIXIXIXIXIXIXIXIXIXIXIXIXIXIXIXIXIXIXIXIXIXIXoX~.(.(.(.(.~.g.~.~.c.a.k = * A S.H.H.H.H.H.H.U.G.S.D.S.G.S.S.G.H.H.H.U.G.b p a B V 7.3.3.3.3.8.4.4.4.4.4.4.;.=.=.y @XdXp d 3.4.f =.f f f f f =.f f f =.=.c N dXwXa ;.;.2.;.;.<.d > 1 < 1 % t 1 J ~.|.oX!.!.!.H n l k F O.%X%X%X%X!.J p z.x.w.i.w.i.i.C.C.C.C.C.C.C.x.x.Z.N.^.^.^.^.^./.^.^.(.(.j.~.~.(.(.(.(.(.(.~.(.(.(.(./.[.[.}.XX|.S = .     .                 . X # , , 8 8 8 7 8 8 8 8 F $.0X0X$.#X@XeXvXvXvXsXtXvXtXtXeXtXtXrXyXtXtXtXrXeXrXtXtXtX%.7 7 7 9 9 8 , F wX0X0XrXrXeXqX0X@X#X| F 0 7 , % # # t # t t t t t t , t , t , 9 0 w 7 7 7 8 7 , , 7 9 9 9 8 9 9 9 9 0 0 0 0 0 0 0 0 0 *.e e e 0 e 0 e *.F F e 9 7 8 9 , , 9 { @XbXcXcXmXVXcXcXNXNXmXNXNXNXNXcXVXNXNXbXnXnXnXnXnXiXM 3 3 3 3 2 o # % % % $ h J m k < # l f.j.|.|.S > Z 7.y f 1.r.r.r.r.r.y.1.f s e.q.q.q.2.q.q.q.q.q.q.q.q.q.q.9.9.9.9.e.9.7.7.7.7.7.B * * - u u u u y u u u i p y a e.9.q.9.q.q.q.q.q.q.q.q.q.q.q.q.IXIXIXIXIXIXIXIXIXIXIXIXIXIXIXIXIXIXIXIXIXIXIXIXIXIXIXIXIXIXIXIXIXIX",
"IXIXIXIXIXIXIXIXIXIXIXIXIXIXIXIXIXIXIXIXIXIXIXIXIXIXIXIXIXIXIXIXIXIX!.(.(.(.~.~.(.~.~.~.~.c.c.J : * l 0.H.H.H.H.U.H.U.S.G.S.S.G.H.H.H.U.G.Z j a A V 7.7.3.3.3.4.3.4.4.4.4.4.4.4.4.4.z y qXdXp g 4.4.f f f f f f f f f f f =.=.d b sXwXs ;.<.4.;.;.;.f = = ; = , < n !.!.b.~.h.a.f.!.v.H !.#X%X%X%X+X#X+X+Xk l z.x.w.i.x.i.C.C.C.C.C.C.C.C.x.Z.Z.^.^.^.^.^.^.^.^.(.g.g.~.g.(.(.(.(.(.(.(.(.(.(.(.(.[.[.[.[.oX!.S =                         X X % t 7 8 8 7 8 7 7 8 8 ] %.0X0XP.$.#XqXtXbXvXsXsXtXvXtXtXrXrXrXrXeXeXrXtXeXtXtXrX| , 9 9 9 0 7 , { 0X0X0X0XqX0XqX0X0XrXyXrXqX0XQ.O.D *.9 7 , % t , , t t % t t , 8 0 0 , , , t , , , , , 7 7 7 , 9 7 0 9 , 9 9 9 9 7 0 9 7 0 7 8 8 7 , 8 7 9 *.M q , , , 0 O.0XcXmXmXcXvXvXcXVXmXcXcXmXNXVXNXVXVXVXVXbXnXcXnXbXnXVXiXM 2 3 2 2 & & ; % % # = 1 J m J < = l S j.~.|.S = Z F.g s e.r.r.y.r.r.6.=.s g 8.q.q.q.q.2.q.q.q.2.q.q.q.q.q.q.9.9.9.8.e.7.7.9.7.7.V A * * y u p u y y u u u y p A 9.9.9.8.q.q.q.w.q.q.q.q.q.q.q.q.IXIXIXIXIXIXIXIXIXIXIXIXIXIXIXIXIXIXIXIXIXIXIXIXIXIXIXIXIXIXIXIXIXIX",
"IXIXIXIXIXIXIXIXIXIXIXIXIXIXIXIXIXIXIXIXIXIXIXIXIXIXIXIXIXIXIXIXIXIXj.j.g.(./.|.(.(.(.(.~.!.c.f.x : * p G.H.H.H.H.H.H.G.U.S.D.G.H.H.S.( b p a C 0.3.7.7.4.7.3.z 3.4.4.4.4.4.;.4.-.=.f * 0XsXp d 4.=.4.=.f f f f f f f f =.=.=.g v sX$Xd ;.;.;.;.;.4.d 1 0 F D F h H v.S S f.c.a.f.c.!.v.H +X+X%XQ.#Xo.v.!.H * u 0.w.w.w.w.w.i.C.C.C.C.C.C.C.C.Z.|.^.].^.^.^.^.^.(.g.g.g.~.g.~.(.(.(.~.(.(.(.(.(.(._._._.[.[.}.|.S # .                     . X O t , 8 7 8 7 7 8 9 8 8 F #X0X0X0X%.$.qXtXmXvXvXvXvXtXtXvXtXeXrXrXrXeXrXrXeXeX0XF 7 9 9 9 0 , 8 #XrXqXqXqXqXyX0X0X0X0X0XrXeXtXrXrXyXqX0X0X#X#X#XQ.%.D 9 % t t 7 0 *.8 0 $.@.] 0 < , , , , , , , , , 7 , , 7 9 7 8 7 0 , , 7 7 7 7 , 7 7 7 9 0 F F | $.@XtXmXVXmXVXbXvXcXvXmXcXmXcXmXcXcXbXmXVXVXVXbXnXvXvXnXbXnXbXeX0 3 3 2 & X # % % ; % $ = J F m k = 1 f.f.!.!.z.* 7.W.9.s d 2.y.r.r.r.2.s s e.i.q.q.q.q.q.q.q.q.q.q.q.8.8.q.e.8.8.9.8.9.7.7.7.7.7.V V p * * y u u p u u u * p A V 9.9.9.q.q.q.w.q.q.q.i.q.q.q.q.q.IXIXIXIXIXIXIXIXIXIXIXIXIXIXIXIXIXIXIXIXIXIXIXIXIXIXIXIXIXIXIXIXIXIX",
"IXIXIXIXIXIXIXIXIXIXIXIXIXIXIXIXIXIXIXIXIXIXIXIXIXIXIXIXIXIXIXIXIXIXb.h.g.(.~.(.(.|.(.~.(.|.~.j.l.J u * p G.H.H.F.U.H.H.S.U.G.G.G.( B p b B C 0.7.4.0.3.7.4.3.4.=.4.4.3.4.;.;.4.=.z z m P.L.p i d f =.f f f f f f f f f =.=.=.d N MX@Xd ;.<.;.;.;.5.d - 1 n 0 h l H f.f.c.f.c.f.f.c.f.f.H J o.%X+XO.%Xv.v.H h * l z.x.w.w.w.i.C.C.C.C.C.C.C.C.C.|.N.N.^.^.^.^.^.(.g.g.~.(.~.g.~.~.~.(.(.(.(.(.(.(.(.(.).[._._.[.~.J O                         X # % , , 7 7 8 7 8 7 8 7 M L.0X0X#X| $.@XeXcXmXmXvXtXeXtXtXvXtXtXeXeXrXrXrXeX#X8 9 0 9 0 0 , 0 0XrXrXrXrXqX0X0X0XqXyX0XrXrXrXyXqXrXeXtXrXrXeXeXrXyX%.*.% % t 7 0 r 7 *.tXBXmXtXrX#X{ F 0 0 , , , , t , t ; ; ; t t t , t t t t 7 , , 8 9 9 8 0 { vXBXNXNXmXcXVXcXVXmXvXcXmXbXcXcXbXcXcXcXMXVXmXNXbXnXvXsXnXnXbXbXsXe 5 8 % o X @ % % # % $ 1 J J J 0 = 1 S h.~.!.l.- A W.W.g y g 1.r.r.2.f s e.q.q.q.q.q.2.q.q.q.q.q.8.q.q.8.q.8.8.q.8.8.e.7.7.7.7.7.V V A - * * u p p p p y * a e.9.9.9.9.9.q.q.q.q.q.q.q.q.q.q.w.q.IXIXIXIXIXIXIXIXIXIXIXIXIXIXIXIXIXIXIXIXIXIXIXIXIXIXIXIXIXIXIXIXIXIX",
"IXIXIXIXIXIXIXIXIXIXIXIXIXIXIXIXIXIXIXIXIXIXIXIXIXIXIXIXIXIXIXIXIXIXb.j.g.~.(.(.(.|.oX(.(.(.(.~.b.f.J 1 = A S.H.U.H.U.D.G.S.S.G.( p p Z V V V 7.7.0.3.z.z.0.4.4.4.4.4.4.=.;.=.f B G.J.G.O.J.L.X.C d f =.f f 4.=.=.f =.f 4.=.=.d Z FXqXi -.;.;.;.;.;.i = 1 - l l J c.S a.f.f.z.f.f.S S S J J J %X%X#X%X#XJ.G n 1 - b q.w.w.C.i.i.C.C.C.x.x.x.C.C.Z.Z.N.^.^.(.(.(.(.(.g.~.(.g.g.g.g.g.~.(.~.(.(.~.(.(.(.(.[.[._.[.oX~.l .                         o # t , , 7 7 7 7 8 9 8 8 e o.0X0X$.O.%.#XrXtXmXcXvXvXtXtXtXtXsXtXtXtXtXtXeX$.7 0 7 7 0 9 , [ qXrXqXqXrXrXqXqX0X0X0X0X0XrXyXrXrXrXqXrXqXyXrXyXqX0X%.0 % % % 7 0 0 7 *.eXBXBXNXBXmXvXtXeXqX0XQ.o.O.{ ..{ { { ..{ D { D D O.O.O.{ , 7 9 8 9 9 9 | cXNXMXVXcXcXcXvXvXcXcXcXVXcXcXcXbXcXcXcXcXcXbXmXbXnXvXsXvXnXnXvXsXn 8 2 o X o @ % ; % # $ : J J k k 1 l H b.!.!.v.y a W.i.q.g s =.r.r.:.s g q.q.q.q.q.q.q.q.q.q.8.q.q.8.q.q.q.8.8.q.8.8.9.e.7.9.e.7.V V V A > * y u p a p * u V e.9.9.9.9.9.9.9.q.q.q.q.q.q.q.q.q.q.IXIXIXIXIXIXIXIXIXIXIXIXIXIXIXIXIXIXIXIXIXIXIXIXIXIXIXIXIXIXIXIXIXIX",
"IXIXIXIXIXIXIXIXIXIXIXIXIXIXIXIXIXIXIXIXIXIXIXIXIXIXIXIXIXIXIXIXIXIXb.j.g.~.(.(.[.(.|.oX(.(.(.(.~.~.f.J 1 > j Z G.H.G.G.S.G.S.b p j C Z V V 7.0.0.Z z.H.U.x.7.4.4.4.4.;.;.=.4.7.Z B g i u u h X.@XG.g d f =.=.=.=.f f =.=.=.=.g X.GX@Xd -.;.;.-.;.4.y - H v.c.S f.a.S f.f.S S S S S S S S H H H Q.o.H H J 1 t = = - c z.x.w.x.C.C.C.x.x.x.x.C.C.C.Z.Z.N.|.(.^.^.(.g.g.~.~.g.(.~.g.g.g.~.(.(.~.g.(.(.(.(.(.(.(._././.f.- .                       X @ % % , , 7 8 8 7 7 9 7 , 0 O.0XqX#X%.O.$.@XrXvXVXmXvXvXtXtXtXtXvXsXtXtXtX.., 9 8 0 0 9 , Q.eXqXqXqX0XrXyX0X0X0X0X0XrXqXtXqXeXeXrXrXqXrXrXyXyX@X&.0 % % % , 0 0 t F eXBXBXNXMXVXcXmXmXmXBXFXBXBXBXBXBXFXFXFXBXBXBXNXNXBXBXBXrX, 7 7 8 0 9 , O.MXBXNXMXMXMXMXtXtXvXbXvXbXbXmXbXbXMXVXcXcXbXmXcXbXbXcXvXvXbXnXnXeXn , O X + X @ % ; % % $ : J m k n = 1 f.~.!.!.b.l u F.i.i.8.s s :.2.s d 8.q.q.q.q.w.q.q.q.q.8.8.8.8.q.q.q.q.e.8.8.8.8.8.8.e.e.7.7.7.7.7.V p > * p u p * y a 0.9.9.e.9.9.9.9.8.q.q.q.q.q.q.q.q.q.q.IXIXIXIXIXIXIXIXIXIXIXIXIXIXIXIXIXIXIXIXIXIXIXIXIXIXIXIXIXIXIXIXIXIX",
"IXIXIXIXIXIXIXIXIXIXIXIXIXIXIXIXIXIXIXIXIXIXIXIXIXIXIXIXIXIXIXIXIXIXb.h.g.j.~.~.~.(.(.!.|.|./.(.(.(.b.S x 1 > 1 B ( G.S.( N p p C V V V 7.7.7.7.7.0.G.U.H.x.0.4.4.4.4.=.4.=.z.H d =.4.3.z f i s i H H d 3.=.=.=.=.=.=.=.=.=.f a G.cXP.a f =.-.;.;.4.y u v.c.l.a.S S S S S S c.S S a.c.H J J J k 1 1 < 1 1 0 1 1 1 = * V w.w.w.Y.C.C.C.C.C.C.C.C.C.C.C.C.Z.Z.|.Z.(.(.g.g.g.g.g.g.g.g.g.g.~.~.g.g.g.~.(.(.(.(.(.).[.(.a.x * X                         X # % , 8 8 7 7 7 8 0 7 8 8 F $.0X#X%.{ ..#X@XeXvXmXcXvXtXsXtXsXtXtXtXrXF , 0 , 0 e 9 7 @XeXeXrXrXqXqXrXqXqX0X0XqXrXyX0XeXqXyXyXtXqXqXrX0XqX#X| , % % t 7 e 0 t F tXBXmXmXmXmXcXvXcXcXcXVXMXVXbXVXMXMXBXBXNXBXHXBXGXGXBXGX0X# , 9 7 9 7 7 O.BXFXBXBXNXNXVXNXcXcXVXvXcXbXbXbXcXbXbXMXMXbXcXbXcXVXvXvXvXnXvXnXeXv # X X X X @ % % % % $ : k J k n = 1 H f.h.~.!.1 u w.i.i.W.e.s d d s :.q.q.q.q.q.q.2.2.8.8.8.8.8.e.q.q.e.8.8.8.8.e.8.8.8.8.e.7.7.7.e.7.7.A * * y * * * a V 9.9.9.9.9.9.9.9.8.8.8.q.q.q.q.q.q.q.q.IXIXIXIXIXIXIXIXIXIXIXIXIXIXIXIXIXIXIXIXIXIXIXIXIXIXIXIXIXIXIXIXIXIX",
"IXIXIXIXIXIXIXIXIXIXIXIXIXIXIXIXIXIXIXIXIXIXIXIXIXIXIXIXIXIXIXIXIXIXb.k.g.g.g.g.g.(.~.(.(.|.(.~.(.(.|.b.a.k 1 = : b Z N < p b Z V Z Z V 7.V V Z G.G.G.U.G.G.0.3.4.4.=.=.=.3.U.z 4.<.;.;.=.=.=.=.z i H a z 4.=.=.=.=.=.f d B G.J.qXwX0XJ.X.z f -.;.3.- l z.v.S a.a.f.a.S S c.!.S S c.J.S l l 1 l n F F F J J J 1 1 = > u 7.w.w.w.x.C.C.C.C.x.C.C.C.C.x.x.Z.Z.Z.b.j.j.~.g.~.(.~.~.~.~.g.(.g.g.g.~.~.(.(.(.(.(./.[./.g.c f c * O                       . + % % , , , 8 7 8 7 9 7 8 7 e O.0XqX#XO.O.o.$.Q.tXtXmXvXvXvXeXtXsXtXqX9 7 0 0 0 0 7 *.rXeXtXeXtXrXrXrXrXrXqXqXrXrXrXrXeX0X0XyXrX0X0XrX0X0X#X{ t % % , 0 e 0 % ] eXmXNXmXMXmXvXtXcXmXcXcXNXMXMXVXbXmXMXNXmXrX%XrXeXvXcXZX#X, 7 7 9 9 , , o.BXFXMXMXVXNXBXBXcXvXVXcXvXmXcXcXcXbXbXMXVXcXbXbXcXcXcXcXvXvXsXvXeX< X X X o X @ % % % % @ 1 k J k k = = S f.~.~.b.l * D.W.W.W.q.d y s z q.q.q.q.q.q.2.9.q.8.8.8.8.q.e.8.q.8.8.8.8.8.e.8.e.8.8.e.7.7.7.7.7.7.V p > > * * * B 0.9.9.9.9.9.9.9.9.9.8.8.8.q.q.8.8.q.w.q.IXIXIXIXIXIXIXIXIXIXIXIXIXIXIXIXIXIXIXIXIXIXIXIXIXIXIXIXIXIXIXIXIXIX",
"IXIXIXIXIXIXIXIXIXIXIXIXIXIXIXIXIXIXIXIXIXIXIXIXIXIXIXIXIXIXIXIXIXIXh.j.g.g.g.g.g.~.(.(.~.(./.(.(.(.(.!.~.f.k = > = : : v b Z V V V Z 7.V V H G.G.G.G.z.0.8.3.3.4.4.4.=.=.G.0.=.;.<.;.;.;.-.;.<.;.f j B d =.=.=.=.4.f c H J.Z j y p p b G.U.z.f f d * k v.v.c.c.v.c.v.f.f.!.S S k J J.k k J l n 0 < 1 1 1 *.1 J n , # > h 0.w.w.w.w.x.C.x.w.x.C.C.C.x.H.x.x.x.x.b.j.~.g.g.~.(.~.~.g.g.g.g.g.g.~.~.~.~.(.(.[././.j.S 4.4.;.f * O                         . @ % , 7 7 7 7 7 7 8 7 8 7 0 [ $.0X0X$.O.O.$.Q.#XrXtXvXvXvXsXtXtX#X< , 7 < w 0 , { tXtXtXtXtXtXeXrXrXrXrXeXyXtXtXtXeXyX0XrXqX0X0X0XyX0XQ. .t % t t 9 0 r % 0 %.tXNXMXmXmXcXvXmXmXNXmXNXmXBXBXmXVXNXBXrX..D D { | O.#X{ ; 9 < 9 9 7 0 ..$.@XL.$.$.@XeXeXeXvXmXVXVXMXVXNXbXbXmXVXcXcXcXcXbXbXcXvXvXvXvXvXrX; . X X X X + % ; ; # $ , k F k k = 1 J f.!.!.!.k * 9.i.W.i.i.e.y s e.q.q.q.q.q.q.8.8.e.8.q.8.8.8.q.8.8.8.8.8.8.e.8.8.8.8.8.8.7.7.7.7.7.7.V A * > > * p V 9.9.7.9.9.e.e.9.9.9.8.8.8.q.q.8.e.q.q.w.IXIXIXIXIXIXIXIXIXIXIXIXIXIXIXIXIXIXIXIXIXIXIXIXIXIXIXIXIXIXIXIXIXIX",
"IXIXIXIXIXIXIXIXIXIXIXIXIXIXIXIXIXIXIXIXIXIXIXIXIXIXIXIXIXIXIXIXIXIXf.g.g.g.g.g.g.g.~.(.(.~.(.(.~.~.[.(.(.!.v.k - $ = v B C C V V V V z V Z z.G.G.G.S.Z z z 3.3.=.=.4.=.3.G.z ;.;.<.<.<.>.;.<.<.<.-.d m d 3.4.=.=.=.0.G.j i d f f =.z f i j J.G.c g > j H c.v.v.v.v.v.H S S S k k H v.1 J G 0 1 1 1 1 1 0 ..o.Q.O.F t # = k 0.w.w.w.w.x.x.w.x.Y.C.x.x.x.H.x.x.x.x.b.~.g.g.~.~.~.g.g.g.g.g.~.~.~.~.(.(.(././.oXM.a.=.<.1.<.;.f = .                       . . $ % t 7 7 7 , , 7 8 9 7 , 7 *.&.Q.0X0XQ.%.&.O.O.#XqXtXvXcXvXvXO.8 0 9 7 0 0 , $.vXtXtXtXtXtXtXtXeXtXtXeXtXtXyXtXtXqXqXrXrX0X0XyX0XrX$.F % t % t 8 e w % F F #XtXcXVXmXmXmXVXbXcXbXmXmXVXmXMXmXcXNXtX$.$.#X#Xo.{ | 0 , 9 7 7 8 7 0 { ..{ | O.O.o.#X@XtXVXNXBXBXMXVXMXbXcXvXbXbXcXcXbXcXcXbXbXcXbXvXsXqX% X X X X X O # ; ; % = 1 h J J n = = S f.!.!.b.k * 9.W.i.W.i.g * s e.q.q.2.q.2.q.8.8.8.q.q.8.8.8.8.8.8.e.8.8.8.e.8.e.8.9.8.8.8.8.7.7.7.7.7.V u > > * A 7.0.9.9.V 9.9.8.9.9.9.8.8.9.q.q.q.8.8.q.q.IXIXIXIXIXIXIXIXIXIXIXIXIXIXIXIXIXIXIXIXIXIXIXIXIXIXIXIXIXIXIXIXIXIX",
"IXIXIXIXIXIXIXIXIXIXIXIXIXIXIXIXIXIXIXIXIXIXIXIXIXIXIXIXIXIXIXIXIXIXh.g.g.g.g.g.g.g.g.g.g.g.~.~.(.(.(.(.(.~.b.c.S - $ 1 m C Z V V V Z V V V B Z X.z.0.V z z z 4.=.=.=.=.0.z.f ;.<.;.<.<.<.<.<.<.<.;.f j d 3.;.=.=.0.X.u d f 4.=.:.:.;.;.3.g p H I.j = J H H G x J H v.v.H k k J o.J.k h G n 1 n F n F F J Q.Q.v.O.{ 1 # $ - V w.q.S.w.x.x.w.w.x.x.x.x.x.H.H.H.x.x.c.f.h.g.g.g.g.g.g.h.g.g.~.~.(.~.(.~.(.~.~.h.4.-.;.<.1.1.1.;.d =                         . . + # t , 8 8 7 7 , , 7 8 7 , 0 { $.#X@X0X#X%.&.O.%.#XrXtXcXtX] 0 9 7 0 0 7 7 @XsXtXtXtXtXvXsXsXsXtXtXtXtXtXtXtXtXeXqXqXrX0XqX0XyX0X%.0 # % % t 0 e 9 # e { O.@X0XeXcXmXmXmXcXcXcXmXbXcXMXMXVXMXbXNXNXMXMXmXsXrXqXe , 7 9 9 8 7 0 @XrXrXrXrXeXeXrXvXmXBXNXNXVXNXMXMXNXcXbXcXmXbXbXcXcXVXbXcXbXcXvXsXqX% X @ X X X X % ; % ; # ; h J k n = = k f.~.h.f.k * 7.W.W.i.8.s s s d 2.8.q.8.8.8.8.8.8.q.q.8.8.8.8.8.e.8.e.8.8.8.8.e.e.8.8.8.8.8.8.7.7.7.V A * > > * A V 7.9.9.9.9.e.8.8.8.9.8.8.9.q.q.8.8.q.w.w.IXIXIXIXIXIXIXIXIXIXIXIXIXIXIXIXIXIXIXIXIXIXIXIXIXIXIXIXIXIXIXIXIXIX",
"IXIXIXIXIXIXIXIXIXIXIXIXIXIXIXIXIXIXIXIXIXIXIXIXIXIXIXIXIXIXIXIXIXIXh.g.g.g.g.g.g.g.g.g.g.~.~.~.~.(.~.(.~.(.(.~.c.k > > : j Z Z Z V 7.Z V Z B Z Z G.X.7.c 3.c =.=.4.4.f H.H =.;.<.<.<.<.<.<.<.>.<.<.=.C j f ;.;.=.K.b d =.=.=.-.:.:.;.-.=.3.i - D < : n n p 1 1 h 1 l J H k J H H l l G J 1 0 F F n 0 0 1 F #XQ.o...F # # $ a 0.0.9.w.x.x.w.x.x.x.x.z.z.x.x.x.l.l.f.f.f.f.g.g.g.g.f.g.g.g.~.g.(.(.g.h.h.h.a.=.=.;.<.<.1.1.<.<.=.u X                             X # t , , 7 8 7 7 , 7 8 7 , , F O.#X0X0X0XQ.O...O.Q.#XrXqX*.0 0 < 0 0 7 M rXvXtXtXtXtXtXtXtXtXtXtXtXtXtXtXtXtXeXyXqXrXqXrXqXyX0XO.9 # % % , 0 e 7 % 9 | %.@.%.Q.0XtXvXPXcXcXmXmXmXvXcXcXcXbXMXbXMXbXbXmXbXBXbXF , 9 7 7 8 7 *.cXSXZXZXZXBXZXNXNXNXNXBXVXNXbXNXVXMXbXcXcXbXVXbXcXcXbXcXbXcXvXvXvXrX, , 7 , & X X @ % ; % # : h J J J = = k S ~.~.f.J > e.W.i.w.g y =.e.s f 8.q.q.q.q.8.8.8.8.8.8.8.8.8.8.8.e.e.e.8.8.8.e.e.8.9.8.9.e.8.7.7.7.g p * * * * y A 0.0.7.9.9.7.e.9.e.9.8.8.9.9.q.q.q.8.q.q.IXIXIXIXIXIXIXIXIXIXIXIXIXIXIXIXIXIXIXIXIXIXIXIXIXIXIXIXIXIXIXIXIXIX",
"IXIXIXIXIXIXIXIXIXIXIXIXIXIXIXIXIXIXIXIXIXIXIXIXIXIXIXIXIXIXIXIXIXIXf.g.h.g.g.h.f.g.g.g.g.g.~.(.~.~.~.(.(.~.(.~.~.c.J - > p C V V V Z 0.Z G.S.G.G.G.Z 0.0.0.3.f f =.=.4.G.Z =.<.<.<.<.>.>.>.<.>.>.<.=.g B f <.;.4.I.a f :.-.;.;.:.-.4.=.=.f d u : > ; h F D F m F m 1 - 1 l 1 1 1 l G J , , 0 < *.n 0 1 1 0 ..%XQ.Q...0 # $ > V S.w.w.w.w.w.x.x.x.x.9.w.0.0.z.l.l.f.f.a.f.f.f.~.f.f.g.g.~.~.(.~.f.a.S a.c f =.-.>.>.>.,.1.1.1.1.f >                               X @ ; 7 7 7 , , 7 , , 7 7 8 , 0 ] O.$.$.#X0X%.| ..{ O.&.F 0 7 7 0 0 7 F @XyXrXrXeXtXtXtXsXtXeXeXtXtXrXtXtXtXyX0X0X0XyX0X0X0X#X&.8 % % % , e e 8 % 7 F o.Q.Q.0X@XqXrXtXcXmXmXmXmXVXVXbXbXbXMXBXBXMXbXbXbXNXtX0 , 9 7 7 0 t F vXBXNXNXNXNXNXNXNXNXNXMXVXVXbXbXbXbXbXVXbXbXcXcXcXcXcXcXcXvXvXtXsX@X, < 8 7 # X X + % % ; # ; h J J k ; = n f.!.~.f.G > 7.W.W.e.s d 2.2.d d e.q.q.q.q.8.8.e.8.8.8.8.8.8.8.e.8.8.e.8.e.e.8.8.9.8.8.8.8.9.8.8.e.g s y p A * y A V 7.S.9.V 7.7.7.8.8.8.8.9.8.q.q.8.8.q.w.IXIXIXIXIXIXIXIXIXIXIXIXIXIXIXIXIXIXIXIXIXIXIXIXIXIXIXIXIXIXIXIXIXIX",
"IXIXIXIXIXIXIXIXIXIXIXIXIXIXIXIXIXIXIXIXIXIXIXIXIXIXIXIXIXIXIXIXIXIXf.f.f.g.g.s.g.g.g.g.g.g.g.g.g.g.~.~.(.~.~.~.~.~.f.J ; = h C Z V Z G.G.X.G.X.G.G.Z Z 3.7.z f =.=.=.=.G.c ;.>.>.<.<.>.>.>.<.>.>.<.;.g Z f <.<.5.I.i 4.;.;.;.;.;.=.=.f d i a j : > = m D n < = ; n J k h n k k J H J t t t 0 1 *.*.J 1 *.t J Q.!.O.Q.*.t # $ k 0.w.q.w.w.w.x.x.x.S.0.w.0.G.l.z.l.f.f.a.S ~.S S f.~.~.f.~.~.f.f.S S S c f =.:.>.>.>.>.>.>.1.1.1.5.i >                             X O @ t , 7 , t 7 7 , , 7 7 8 , , 7 F  .O.Q.Q.%.&.| { D 0 9 9 8 0 0 7 *.[ | ..O.o.$.Q.0XqXeXeXeXtXtXtXtXtXtXeX0X0X0X0XqX0X#XQ.{ , # t % , e e 7 t , , 0 { $.0X0X0X0XqXeXmXmXmXVXmXNXMXMXBXBXNXNXMXMXBXVXBXeX, , 9 7 9 9 , { cXVXbXbXVXVXBXMXNXVXbXbXVXbXbXcXbXbXbXbXcXcXcXvXvXnXvXnXvXvXsXsXsXL., 0 7 7 % X X + # ; % @ ; < J J k 1 = k S !.!.h.G > V W.F.d y :.y.6.:.s d 8.q.q.q.8.8.8.8.e.8.8.8.8.e.e.8.8.e.7.e.8.e.9.9.8.8.8.8.8.e.8.7.d s d g g u y y B 7.7.9.7.7.7.0.V 9.e.9.e.9.8.q.8.q.q.q.IXIXIXIXIXIXIXIXIXIXIXIXIXIXIXIXIXIXIXIXIXIXIXIXIXIXIXIXIXIXIXIXIXIX",
"IXIXIXIXIXIXIXIXIXIXIXIXIXIXIXIXIXIXIXIXIXIXIXIXIXIXIXIXIXIXIXIXIXIXf.f.f.h.s.g.h.s.g.g.g.g.g.g.g.g.g.g.(.(.~.~.~.g.~.f.J - > j Z V Z G.G.G.X.X.G.S.Z z z z c f =.=.=.3.J.f ;.<.;.<.<.<.>.<.<.<.<.<.;.=.z.z ;.<.w.G.s ;.;.4.;.=.=.f i i i j C j : = = ; , # # % # # < F H v.H H J k # t *.*.1 0 J F F *.*.*.1 v.#XQ.Q.{ 0 # $ 1 0.0.9.x.w.q.w.q.w.9.z.l.0.9.x.z.l.f.S f.~.S ~.J S S ~.~.~.S S S S c c c =.-.:.<.>.>.>.,.1.1.1.,.<.4.y O                             . X @ % , , , 7 8 7 7 , , 7 7 9 8 , 8 9 F { O.%.%.| F 8 8 8 8 0 0 0 | %.O.| | O.{ D { { &.%.#X0X0XrXtXtXtXeX0XqXtXqX0X#XQ.#X{ , % % % , r 0 8 0 0 , % t e F | | @.%.$.0XtXtXmXMXMXBXBXMXBXmXBXBXBXMXBXBXqX, 9 9 , 9 9 7 ..VXNXVXbXVXVXVXVXVXbXbXcXbXbXbXcXbXbXbXbXcXbXbXbXnXvXVXbXvXcXcXsXqXD 8 8 7 7 # X X + % ; ; # = h J k k = = l S b.~.f.z.* g q.f y d 5.1.r.6.f s f 8.q.2.8.8.8.e.8.8.e.e.e.e.e.e.e.e.e.7.8.8.8.9.8.8.8.8.8.8.9.g s d =.f d d y y a V ( 7.V e.9.V 9.9.9.9.9.e.8.9.8.q.q.q.IXIXIXIXIXIXIXIXIXIXIXIXIXIXIXIXIXIXIXIXIXIXIXIXIXIXIXIXIXIXIXIXIXIX",
"IXIXIXIXIXIXIXIXIXIXIXIXIXIXIXIXIXIXIXIXIXIXIXIXIXIXIXIXIXIXIXIXIXIXf.f.f.s.h.g.h.h.s.g.h.g.g.g.g.g.g.g.g.(.(.(.~.g.~.~.c.G > * C V V z.G.G.( X.G.X.V 3.z z z =.=.=.=.g G.=.;.<.<.<.<.>.<.>.<.<.<.<.<.=.x.z ;.<.4.z.s ;.4.;.=.=.d i y j x C C m : > # # # # , 7 9 , ; = < J J 1 1 1 t *.0 1 0 *.*.J *.*.t 0 1 *.Q.Q.Q.O.F t t # b 0.w.w.q.q.x.w.0.0.z.z.z.9.z.z.c.S S S S ~.S S S f.f.S S S S S S c f =.=.;.<.>.>.>.>.>.,.1.1.,.>.<.4.* X                               X X % , , 8 , 7 , , , , , 8 0 0 9 7 8 7 0 *.[ { ) 7 8 8 7 0 9 8 $.qX@X#X$.#X#X%.O.&.| { | [ { O.%.%.$.%.0X0X0XL.Q.%.$.Q.F , # % % t 0 0 0 w 9 9 0 r w 0 e e *.0 9 e ] [ O.#X0XrXvXcXmXNXNXNXNXMXmXFXqXt 9 7 7 0 8 0 O.MXNXMXNXVXVXNXNXVXNXbXbXbXbXVXcXVXVXNXVXVXbXNXVXbXVXnXtXtXrX#XO.F 0 8 9 7 9 & . X X # ; % # ; h G k k 1 # 1 S b.h.f.f.- a z s d 2.1.r.1.1.:.d s 3.q.8.8.8.e.8.8.e.e.e.8.e.e.7.e.e.e.e.e.8.8.8.8.8.8.8.9.9.e.g =.=.:.=.f f s y y a A 7.7.7.V V 9.9.9.9.9.8.8.8.e.q.q.q.IXIXIXIXIXIXIXIXIXIXIXIXIXIXIXIXIXIXIXIXIXIXIXIXIXIXIXIXIXIXIXIXIXIX",
"IXIXIXIXIXIXIXIXIXIXIXIXIXIXIXIXIXIXIXIXIXIXIXIXIXIXIXIXIXIXIXIXIXIXH a.a.f.g.s.g.s.g.s.s.h.g.g.g.g.g.g.g.g.~.~.(.~.~.~.~.c.x - p B Z V 0.X.G.( X.0.z z z 3.z c =.=.f c H =.<.;.;.<.;.-.;.>.;.>.>.;.;.:.G.g ;.<.q.Z d 4.=.=.d i u h k k C C C j 1 O # % t , , , , 9 7 , % % # t t 0 1 0 0 *.0 *.*.*.J *.0 *.0 1 { %X+XQ...7 t t : 7.9.q.q.q.q.x.x.x.0.0.0.z.l.z.a.S S J J J J J S S J S S J J k c f f -.;.;.<.>.>.>.>.>.>.1.,.,.,.1.<.c > .                               X @ # t , 7 7 , , , , 7 7 8 0 0 0 0 0 0 0 0 e e e 0 0 8 9 7 0 | %.%.o.$.0XqXyXrXqX0X$.$.$.L.%.&.&.$.Q.#XQ.%.O.| &...O.M t % % % t 0 0 0 0 0 8 9 9 9 9 9 0 e 0 e 0 7 , t 7 7 0 F | Q.0XeXtXvXcXmXBXQ.% , 7 , 7 9 9 L.BXMXVXVXVXbXVXVXMXNXbXbXbXbXbXcXVXbXbXvXvXvXeXrX0X#XO...{ F *.0 9 0 9 7 8 8 @ . X @ % ; ; & ; 9 J k n 1 t l S !.j.f.H : * y s -.y.r.r.r.,.2.=.s s e.9.8.8.8.8.e.e.e.e.e.e.7.7.7.7.e.e.9.8.8.8.8.8.8.8.8.8.f f ;.2.2.=.f f z s y y A V 0.7.9.7.9.9.9.9.9.8.8.8.8.q.q.q.IXIXIXIXIXIXIXIXIXIXIXIXIXIXIXIXIXIXIXIXIXIXIXIXIXIXIXIXIXIXIXIXIXIX",
"IXIXIXIXIXIXIXIXIXIXIXIXIXIXIXIXIXIXIXIXIXIXIXIXIXIXIXIXIXIXIXIXIXIXu i l S a.g.g.g.s.g.g.g.g.s.g.g.g.g.g.g.g.(.(.~.~.~.~.~.f.S = - C V V 0.G.X.X.0.z 3.3.3.z =.=.=.=.j Z =.<.<.;.<.-.-.>.;.;.<.<.;.-.=.G.g ;.<.8.H i 3.f i u 1 j C C k x C C m h + # ; , , 7 t , 9 9 0 0 1 t 0 0 0 0 *.*.t *.0 *.*.J *.1 *.t *.F Q.+XQ.Q.*.t t $ b 9.D.q.q.q.q.x.z.0.S.0.0.G S k k J J k J J J J J J S J k l l f =.-.-.-.>.>.>.>.>.>.>.>.>.,.,.,.1.<.5.d O .                               . o @ # t 7 , , , 8 7 7 8 7 0 0 0 0 0 0 0 0 e e *.e e e r ] O.| &.| | &.&.$.$.@X0X#X0XL.0X$.%.o.$.O.| | { ..| { O.o.F % , % % , 0 0 0 8 0 0 0 7 0 0 9 0 0 0 r 0 e r r r 9 , t t % 0 F { $.Q.@XrX[ % , , , , , 9 0XNXcXcXcXvXbXbXcXcXvXtXtXeXrXrXrX0X0X#XL.o...D *.*.9 0 e e *.0 0 0 0 9 8 8 , o . X @ % 5 ; # = < n k n 1 # 1 S ~.~.f.v.1 > * f 1.r.r.r.r.1.1.5.d y s e.8.8.8.e.e.7.3.3.7.7.7.e.e.7.7.e.8.8.8.8.8.8.8.8.e.f d :.1.2.1.-.=.f f d y * s A 7.V 7.9.9.9.9.9.8.8.8.8.8.8.q.w.IXIXIXIXIXIXIXIXIXIXIXIXIXIXIXIXIXIXIXIXIXIXIXIXIXIXIXIXIXIXIXIXIXIX",
"IXIXIXIXIXIXIXIXIXIXIXIXIXIXIXIXIXIXIXIXIXIXIXIXIXIXIXIXIXIXIXIXIXIX- * - - l S a.g.g.g.s.s.s.g.g.g.g.g.g.g.g.g.g.g.g.g.~.~.j.c.S = u V z z Z X.G.G.z z 3.3.=.f =.=.f A V =.<.;.>.;.<.<.-.<.<.-.;.<.;.=.G.g ;.;.4.G.* d i p h C C k k k C C k C : O % % , , , , , , 7 8 0 t 0 0 0 0 0 0 0 1 1 0 *.J J *.*.1 *.0 1 J Q.%XQ.{ t t # : 0.0.q.q.w.9.w.z.0.z.Z C J J k F F k k k J J J J J J J l l c =.:.-.-.>.:.-.>.>.>.>.>.>.>.>.,.,.1.1.1.;.u X .                                 o @ # % , , , 7 , 7 , 7 7 8 0 0 0 e 0 e 0 e e e *.e *.0 0 e ] ] | | | | &.o.O.&.O.O.%.&.X.| ..O...{ { D H { ..D < ; % % % 7 0 w 9 8 0 0 0 0 9 0 0 0 0 9 9 0 9 0 0 r 9 r e 0 0 8 7 , 8 0 e e t % 9 9 7 7 7 0 $.#X#X#X#X0X0X#X#X#X#X#X#X$.O.....[ F e 0 0 9 9 e e 0 0 0 0 0 w 0 0 0 8 8 9 % . X X @ ; 7 % % # 1 m k k 1 = 1 S !.f.h.v.h > s 5.y.r.r.1.r.1.1.1.3.s y d e.8.8.e.3.e.7.3.7.e.e.7.7.e.7.8.8.8.8.8.8.8.8.8.=.s =.>.1.1.1.<.-.=.f f s * * a V S.7.e.8.8.8.q.9.q.8.8.8.q.q.F.IXIXIXIXIXIXIXIXIXIXIXIXIXIXIXIXIXIXIXIXIXIXIXIXIXIXIXIXIXIXIXIXIXIX",
"IXIXIXIXIXIXIXIXIXIXIXIXIXIXIXIXIXIXIXIXIXIXIXIXIXIXIXIXIXIXIXIXIXIXi l u u * y l S f.g.g.s.s.g.g.h.g.g.g.g.g.g.g.g.~.~.g.(.~.~.c.k * i z z z 0.0.7.z z f =.=.=.=.=.g B z -.;.;.<.<.<.;.<.;.;.<.;.<.<.=.G.z 4.:.w.X.* p b C C C C k k x C m k C < O % % , , , , , , , , , 0 , 7 0 0 1 t 0 1 1 0 1 *.*.*.t 0 1 *.t *.v.+Xv.O.*.t ; > B 0.q.w.w.S.0.0.0.Z Z G m k k F k m k J J J J J J k l d =.=.:.-.-.-.-.-.-.>.>.>.>.>.>.>.,.,.>.1.1.,.1.f * .                                   . o @ # t , , 7 , 7 7 7 7 8 8 9 0 0 0 w 0 e *.e e 0 0 0 8 9 8 9 0 0 M M ] [ { ..[ [ [ D F F 0 9 < < < 0 < 9 , # , % % t 8 0 0 , , 7 7 , 9 8 8 r 0 0 0 9 9 r 9 0 0 9 0 0 0 r e e e r r 0 0 7 0 *.M e e M M ] D F ] ] F F M e M 0 0 w 0 e 0 0 0 0 0 0 0 0 e 0 0 0 0 e e 0 0 0 0 9 8 7 , X . X X o ; ; % # = 1 n k n 1 $ 1 S !.b.h.c.l * =.y.r.r.y.1.1.1.1.2.5.z y s e.8.7.3.3.3.3.e.7.3.e.7.e.e.e.8.e.8.8.8.9.8.8.e.s f :.2.1.1.1.<.;.-.f f i y * * A 7.S.8.8.8.8.8.9.9.8.8.8.8.w.q.IXIXIXIXIXIXIXIXIXIXIXIXIXIXIXIXIXIXIXIXIXIXIXIXIXIXIXIXIXIXIXIXIXIX",
"IXIXIXIXIXIXIXIXIXIXIXIXIXIXIXIXIXIXIXIXIXIXIXIXIXIXIXIXIXIXIXIXIXIXi i i u i i * y c a.a.g.g.g.g.h.h.s.g.g.g.g.~.g.g.g.h.g.~.j.j.c.k = i z f z z z =.=.=.=.=.=.=.=.d C z -.;.<.<.<.;.<.>.;.<.<.<.;.;.=.G.a z f G D : C C C C x m k k k k k k m < O # , , , , , , , , , t 0 , 0 0 0 0 , t t 0 0 *.*.1 *.*.1 *.0 0 *.*.!.~.Q.F t , # : 0.q.q.w.w.z.0.Z C m J F k F k k J k J k k J F J l i f =.=.-.-.-.>.:.:.;.>.>.>.>.>.>.>.>.,.,.,.,.1.1.1.s >                                     . X @ # % ; , , 7 , 7 7 t 7 7 7 7 7 0 9 0 e e e e e e e F e e 8 9 9 8 9 , < 9 9 8 7 , ; % # ; # % % = = ; # # , % % t 8 e 9 t , t 7 t t 7 7 7 7 7 8 8 9 8 9 9 9 0 0 0 9 9 r 0 0 0 r r 0 0 0 0 0 0 e e 0 0 9 0 8 0 0 8 8 0 0 0 0 9 0 0 0 0 0 e e r 0 r e 0 0 w 0 9 9 9 9 8 8 8 9 9 % X X X X + ; ; 5 @ = : m m n 1 $ 1 S c.j.f.f.l y <.y.r.r.r.r.1.1.1.2.5.2.d y d z 7.3.z 3.7.7.7.3.e.e.e.7.7.e.8.8.8.e.e.8.e.d f :.<.1.t.1.1.1.<.<.-.f d i * * y A 9.9.9.8.8.9.8.8.8.q.q.q.q.q.IXIXIXIXIXIXIXIXIXIXIXIXIXIXIXIXIXIXIXIXIXIXIXIXIXIXIXIXIXIXIXIXIXIX",
"IXIXIXIXIXIXIXIXIXIXIXIXIXIXIXIXIXIXIXIXIXIXIXIXIXIXIXIXIXIXIXIXIXIXi i i i i i i i u u c a.g.g.g.g.g.s.s.g.g.g.g.g.g.g.g.g.g.~.g.j.f.l - i =.=.=.f =.=.=.=.=.=.=.=.d H c =.:.>.;.;.<.;.;.-.>.>.-.;.;.z G.p a a X...p G C C C k k k k k k k k m h $ % % 7 7 , , , 7 , , , 7 , 0 0 1 t 7 , , , *.0 0 0 0 0 1 *.t t *.1 O.Q.Q...1 t # = V 0.q.w.x.z.0.Z C k m F n k n F k k J k F F J l s f =.=.=.-.-.-.-.-.-.>.>.>.>.>.>.>.>.>.>.>.,.,.,.,.1.4.u X .                                       + # % t t , , 7 , , 7 8 7 , , 7 , 8 8 9 9 0 8 0 *.0 e e e e M *.e e 0 r r 0 e 0 0 0 q 9 8 9 9 7 7 7 , , t ; t , 9 e 9 t t , , , , , , , , 7 7 7 7 7 8 8 9 8 0 0 9 0 0 0 0 0 0 0 0 0 w 0 0 0 0 0 0 9 9 9 0 0 0 0 0 0 e e 0 0 0 e 0 e 0 q 0 9 8 8 8 0 9 8 9 9 8 0 9 8 0 0 9 t . X X X X + ; ; , % % < k m 0 , $ = S b.f.f.c.n * <.y.r.r.r.r.1.1.1.1.6.5.3.y y g z 3.3.e.z 3.7.3.3.7.e.7.3.e.7.8.8.8.7.e.d s f ;.1.1.r.1.1.1.1.1.<.=.f d u * y i 7.9.9.8.9.8.9.9.8.q.q.q.q.q.IXIXIXIXIXIXIXIXIXIXIXIXIXIXIXIXIXIXIXIXIXIXIXIXIXIXIXIXIXIXIXIXIXIX",
"IXIXIXIXIXIXIXIXIXIXIXIXIXIXIXIXIXIXIXIXIXIXIXIXIXIXIXIXIXIXIXIXIXIXi i i i i i i i u i u i S f.g.g.g.g.g.g.g.g.g.g.~.g.g.f.g.g.g.g.f.S 1 - d f =.=.=.=.=.=.=.=.=.f g H g -.;.;.;.>.<.<.>.;.<.;.;.;.:.g X.p B Z G.N h C C x k k k k k k k k k m h O % % , , t t , , , , , , , 0 0 0 t t , t t *.0 0 *.t 0 0 *.1 1 1 *.J Q.+XO.*.t , # p 0.9.D.G.9.Z Z C k n k k k n F J n k m k k 1 u d f =.=.=.=.=.=.=.-.;.<.>.>.>.>.>.>.>.>.>.1.,.>.,.,.1.1.=.* . .                                       + # # # t t , , , , , 8 7 , , , , 7 , , 7 8 7 8 9 q 0 r e e e e e w e e e e e r e 0 0 9 9 8 7 8 8 , , , , , , 0 e 7 t , , t % , , t t t 7 7 7 7 , 7 , 7 7 8 7 7 8 8 7 0 0 0 9 9 0 0 0 *.0 0 0 0 0 0 0 0 e 0 9 9 0 8 0 9 0 w 9 9 8 8 7 7 9 7 0 9 9 9 9 8 9 0 0 0 0 0 , @ X . . X X X o , % ; % # = m k n = $ 1 S !.j.f.f.k - ;.r.r.t.r.r.1.1.1.1.1.6.5.g y s g z 7.7.7.7.e.7.7.7.z 3.7.7.7.7.8.8.7.g s s f -.<.1.1.1.1.1.1.1.1.;.=.f i i y y V 9.9.9.8.8.9.8.8.8.q.q.w.q.IXIXIXIXIXIXIXIXIXIXIXIXIXIXIXIXIXIXIXIXIXIXIXIXIXIXIXIXIXIXIXIXIXIX",
"IXIXIXIXIXIXIXIXIXIXIXIXIXIXIXIXIXIXIXIXIXIXIXIXIXIXIXIXIXIXIXIXIXIXu i l i i i i i i i i u u i a.f.g.g.g.g.g.g.g.g.g.g.g.g.g.g.j.~.~.f.S = * d f =.=.=.=.=.=.=.=.f d X.f -.;.>.;.-.;.<.;.>.;.-.-.=.i h X.v G.G.U.N h C m k k k m m k k k k k m n O % % t t % % t t t , , , , , , t t 1 , t t 1 1 0 1 0 0 0 1 1 1 *.1 *.Q.!.Q.*.% ; # - 0.z.q.0.0.Z B m m k m m k n F n F k J n 1 i d f f =.=.=.=.f f f =.=.;.<.>.-.>.>.>.>.>.>.>.,.,.,.,.,.1.1.f * . .                                       X @ @ @ @ % t , , , , , , , 7 , , t , , 7 , 7 , , 7 7 9 8 0 8 9 0 9 0 8 9 0 0 0 8 9 8 8 7 , 7 , t , % t % 7 w e 7 t , , % % , t , , , 7 7 , 7 , 7 7 7 7 7 7 7 7 8 8 7 7 8 8 8 7 9 8 8 8 8 8 8 8 9 9 0 8 7 7 8 8 7 7 7 , 9 7 9 9 0 0 0 9 0 9 0 0 0 0 0 8 0 w , , @ o X X X X X X X o % , % # # : n n h ; O # S c.c.f.f.k * -.y.r.t.r.r.r.1.1.1.1.1.2.=.s y d V z 7.7.e.7.7.7.7.7.z 7.7.e.7.e.7.3.s d d f -.<.<.1.1.1.1.1.1.1.<.;.=.f i s y i 7.9.9.9.8.8.8.8.q.q.q.w.w.IXIXIXIXIXIXIXIXIXIXIXIXIXIXIXIXIXIXIXIXIXIXIXIXIXIXIXIXIXIXIXIXIXIX",
"IXIXIXIXIXIXIXIXIXIXIXIXIXIXIXIXIXIXIXIXIXIXIXIXIXIXIXIXIXIXIXIXIXIXu i i i i i i i i i i u u * u c f.h.g.g.g.g.f.g.g.g.g.g.g.f.h.f.j.~.b.J > * d =.=.=.f =.f =.=.=.g X.g -.;.;.;.>.;.-.:.:.-.=.f s a C J.b D.G.G.v h C k m k k k k m k k k k C n o @ % % % % % t t % t , t 1 t t t , t t t , , 1 *.*.0 0 *.0 t t 0 *.*.J %XQ.*., ; ; # Z 0.0.G.Z Z Z C m k m m n k k k 0 n l 1 - i d f f f f =.=.f f f f =.-.>.>.>.>.>.>.>.>.>.>.,.,.,.,.,.1.r.<.d > .                                   .     . . o @ $ @ # t % , , , , , , , , , , , , , , , , % 7 , , 7 8 8 8 8 7 7 , 7 , 7 7 , , , , , , % % , % % , 0 e 9 t % % % % t % , , 7 8 8 t 7 , , 7 7 7 7 8 8 8 7 8 7 8 7 8 8 8 7 8 7 8 7 8 8 8 8 7 8 7 8 9 7 9 9 0 0 9 9 0 0 0 0 9 0 0 9 9 8 7 7 ; % # X X . X   . X X X X X X X o ; % , ; $ ; h n 0 = $ 1 J !.f.f.c.k * f r.t.t.r.r.r.1.1.1.1.1.2.2.=.s s g 7.e.7.e.3.3.3.7.z z z 7.7.7.e.z d d d d f =.;.<.<.1.1.1.1.1.1.1.<.=.f f i y s g 8.9.9.8.8.8.9.q.q.q.q.w.IXIXIXIXIXIXIXIXIXIXIXIXIXIXIXIXIXIXIXIXIXIXIXIXIXIXIXIXIXIXIXIXIXIX",
"IXIXIXIXIXIXIXIXIXIXIXIXIXIXIXIXIXIXIXIXIXIXIXIXIXIXIXIXIXIXIXIXIXIXu i i i i u i i i i i i u u u u c f.f.s.g.g.g.g.g.h.f.f.f.S S S S f.v.H k > u f =.=.=.=.=.=.=.f d X.g -.-.;.;.>.:.-.-.:.f a a B ( X.P.B H.G.J.v p m m k k m k m k k h j k b n O # % % % % % t # t t t t t t t t t t t t t 0 *.1 *.*.0 *.t 0 *.t *.1 *.Q.Q.{ n , , # 1 Z 0.0.Z Z C C m G G N n n 1 n h 1 - u i d d f f f =.f f d d f f =.-.<.>.>.-.>.>.>.>.>.,.>.,.,.,.,.,.t.t.<.i > .                                             X X X O @ # % ; , , , , , , , , , , , , , , , ; , , 7 7 8 7 , ; , , , , , , , , , , % , % % , % % , 0 e 7 % , t % , 7 , 7 7 8 7 7 7 7 , , , 7 8 7 7 7 9 9 9 9 8 7 8 7 7 7 7 7 7 8 8 8 7 9 8 9 9 9 8 0 9 0 0 0 0 9 8 , t % % @ o O o o o     .   X X . X X X . X X X X . X + % 8 t % @ = n k 0 = $ = S f.f.f.f.0 = f 6.t.r.r.r.r.r.1.1.1.1.<.1.2.d y i g 7.7.e.7.z 3.z g V z 7.V e.7.d s d d d d =.-.;.<.1.1.1.1.1.1.1.1.;.f f d s s s V e.9.9.8.9.9.9.q.q.q.q.IXIXIXIXIXIXIXIXIXIXIXIXIXIXIXIXIXIXIXIXIXIXIXIXIXIXIXIXIXIXIXIXIXIX",
"IXIXIXIXIXIXIXIXIXIXIXIXIXIXIXIXIXIXIXIXIXIXIXIXIXIXIXIXIXIXIXIXIXIXu s i i i i i i i i i u i u u u - c f.f.s.g.h.h.f.f.S 1 l l l l - 1 l l h = * i f =.=.=.=.=.=.=.g X.d -.-.-.-.:.-.=.f d s A S.S.G.Z P.N G.0.J.v h m m m h j k h m h h h j m m # @ % t % % % t % t t t t t t t t t t 1 t 0 *.t *.1 t 1 t t 1 1 1 0 1 *.v.Q.Q.F t , # > x Z 0.C C C m C Z H H n 1 1 0 1 - u i d d d f f f f d d d c d d f =.<.>.>.>.:.>.>.>.>.>.,.>.,.,.,.,.t.r.y.;.y O                                                 X X X X @ @ # % % % % % % , , t , , , , , ; ; , , ; , ; % , , % , , , , , t , , , % % % % % , 7 e 0 7 % 7 7 7 7 8 9 7 8 9 8 8 7 8 8 7 8 7 9 9 0 7 7 0 0 9 0 0 0 9 0 7 0 9 9 0 9 9 9 9 0 0 9 0 0 8 7 7 % @ o O . o .     . X . X X X X X   X X X X X X X X X X X X X X X % , 7 , o 1 n n n t O = J v.f.f.f.k = s 1.r.t.r.y.1.r.1.1.y.1.1.1.<.4.i y a 7.7.7.z z z V z z z V 7.7.d s s d d f f =.-.<.<.1.1.1.1.1.1.1.1.;.=.d d d s s d e.e.8.e.9.8.8.9.9.q.q.IXIXIXIXIXIXIXIXIXIXIXIXIXIXIXIXIXIXIXIXIXIXIXIXIXIXIXIXIXIXIXIXIXIX",
"IXIXIXIXIXIXIXIXIXIXIXIXIXIXIXIXIXIXIXIXIXIXIXIXIXIXIXIXIXIXIXIXIXIXu i i i i i i i i i i i i i u y u u c a.f.s.h.a.S - u k S f.f.a.a.S l 1 = - > * d =.=.f =.=.=.=.j o.d -.-.-.-.-.=.f s a Z G.G.D.G.G.P.b ( Z J.v h C k j h h h v m h h k k k n # @ # % % % % % % % # % t t t # t t t t 0 *.t *.0 1 *.1 t *.1 *.t 1 *.1 J !.Q.{ 7 t t + O.wXP.N b b m N Z G N 1 0 1 1 = u l i d f f c f f d d d d d d d f -.<.>.:.>.-.:.>.>.>.>.1.>.,.,.,.,.,.t.t.r.=.* .                                                         X X + o + # % % % % % t , t ; ; ; % % % ; ; ; ; , ; ; ; ; , % , , , , t t % t % % , 7 0 0 8 , 7 7 , 7 7 8 7 7 7 7 8 9 9 8 7 0 9 7 9 9 7 9 9 9 8 9 9 9 9 9 0 9 9 7 0 9 9 9 9 , , % # o X X .           . X X X X X X X X . X X . X X X X X X X X X X X X X X o % % 7 % O 1 0 n 0 = O t J v.f.f.f.J > s 6.y.r.r.r.r.1.1.1.1.1.1.1.1.2.=.y y g 7.3.7.z z z z z V V 7.z s s d g d f f =.-.;.<.1.1.1.1.1.1.1.1.<.=.d d d i s s A V e.8.8.9.8.8.8.q.q.IXIXIXIXIXIXIXIXIXIXIXIXIXIXIXIXIXIXIXIXIXIXIXIXIXIXIXIXIXIXIXIXIXIX",
"IXIXIXIXIXIXIXIXIXIXIXIXIXIXIXIXIXIXIXIXIXIXIXIXIXIXIXIXIXIXIXIXIXIXy i s i i i i i i i i i s u i u u u u l a.f.f.l u S f.k.g.~./.~.(.~.h.f.x l > > y f f =.f =.=.f C G.d =.=.=.=.=.d a B 0.G.G.G.H.G.0.P.b Z Z P.< h m m v m v k m h v v n m k n t @ @ @ % % % % % % % % t # t t t t t t t t 0 1 1 0 *.*.1 t 0 1 *.t *.t J J Q...F , , @ { JXJXwXN v m N N N v 0 1 1 = u a i d d f d d d d d d d d d f f =.-.>.-.>.>.:.-.>.>.>.>.>.>.1.,.,.,.t.t.t.r.1.d > . .                                                                 X @ o @ % # % % % % ; ; ; % ; ; % ; ; ; % ; % ; , , t % % t % , , % % , 9 0 0 t # @ & O o % % % t % % t % t % % % % % % % % % t t % % t t % % t , t % % # @ o o o         X . . X X X X o X X . X X X . X X X X X X X X X X X . . . X X X X X X O % t , % $ = v n n t O 1 J f.f.a.f.J $ * ;.r.r.r.r.1.1.1.1.1.1.1.1.1.>.4.g u s g 7.V z z z z z z 7.7.d s s d f f f f =.;.<.<.<.1.1.1.1.1.1.1.4.=.s i s d i y y A V e.9.9.9.9.8.8.q.IXIXIXIXIXIXIXIXIXIXIXIXIXIXIXIXIXIXIXIXIXIXIXIXIXIXIXIXIXIXIXIXIXIX",
"IXIXIXIXIXIXIXIXIXIXIXIXIXIXIXIXIXIXIXIXIXIXIXIXIXIXIXIXIXIXIXIXIXIXu i i i i i s s y i i i s u u u u u * - x S l l s.g.j.j.(.M.(.(.(.(.(.(.g.S k = > i f =.=.=.=.f C H g =.f f d a B ( S.G.U.G.G.H.G.( P.b C G P.h h m h v n h v m < < , , , = , @ o # # % % % % % % % % % % % t % % t t t 7 0 0 0 0 0 1 t t *.1 t 0 1 1 *...Q.O.D t , # 0 FXJXJXdXo.N [ } / M t t # 1 p p u i d f d d d g d d d d d f =.=.-.;.;.;.>.-.>.>.>.>.>.>.>.>.>.,.,.,.t.t.t.r.;.s > .                                                                           .   o o o o @ & # % % ; % ; ; % % % % % @ + o o X o % t t % t 7 0 0 t X         .     . . . . . .     .       .         . . .   .           .         . . . . . . . . . + O . . . + . . X X X X . X X X X X X X . X . X . X X X X X X X % % , % # , n h n ; $ = S f.f.f.H J o = 4.r.r.t.1.1.1.1.1.1.1.1.1.1.<.<.4.i y s 7.V z V g z z z 7.g s s d f f f f =.=.;.<.<.<.1.1.1.1.1.1.1.;.d s s s d d u y u A V 8.9.9.9.9.8.9.IXIXIXIXIXIXIXIXIXIXIXIXIXIXIXIXIXIXIXIXIXIXIXIXIXIXIXIXIXIXIXIXIXIX",
"IXIXIXIXIXIXIXIXIXIXIXIXIXIXIXIXIXIXIXIXIXIXIXIXIXIXIXIXIXIXIXIXIXIXy i i i i i i i i i i i u y i y u u u * - u i f.g.g.j.(.(.M.g.M.(.M.(.(.(.~.h.J > * d f f =.=.f N ( a g d d A S.G.G.S.S.D.D.S.H.D.X.P.h C C P.: h N v v h n < % t 7 q e w w , @ X @ # % % % % % % t % % % % % % % t t t 7 , , 0 0 1 0 *.1 *.*.1 1 *.1 *.J O.O..., t % 5 dXJXHXJXFX0X .+.5X4X{ *.0 1 ; : - * * y i i d i d g d d d f =.=.-.-.;.-.>.;.:.:.-.:.>.>.>.>.>.>.,.,.,.t.r.t.1.d y O                                                                                                     . . . X                 o , , % % t 7 0 0 %                           . .   . . .         X   . . . . . . . . . . . . . . . . . . . . . . . . . . . . . . O X . X X . X X . X X . X X . . X . X . X X X X X . % , , % $ , n n < ; O # J c.f.~.S J $ = f y.r.,.,.1.1.1.1.1.1.1.1.1.<.<.<.z s y a z z V z g z V V s y s f 4.f =.=.=.-.;.<.<.<.1.1.1.1.1.1.<.;.f s s s i u u u * u B 7.e.9.9.9.9.9.IXIXIXIXIXIXIXIXIXIXIXIXIXIXIXIXIXIXIXIXIXIXIXIXIXIXIXIXIXIXIXIXIXIX",
"IXIXIXIXIXIXIXIXIXIXIXIXIXIXIXIXIXIXIXIXIXIXIXIXIXIXIXIXIXIXIXIXIXIXy i i i i i i i i i i s y i s y s u u * > > S j.M.(.M.(.M.M.g.M.(.M.M.(.M.g.~.f.l > y f f =.=.f Z ..a a A Z G.S.S.G.G.G.S.D.G.H.S.D @Xb b G L.= < n v v < % t w U ) ) ) ) U % ) 0 & # % % % % % @ % % % % % % % % @ t 1 , 7 1 0 *.t *.*.t *.0 t t *.t *.*.O.O.O.0 t 7 % qXJXHXGXJXHX0X+.~ / ) w *.q ] #XqX#XL.O.b : * u i i d d d f =.=.=.-.;.;.-.;.:.:.-.-.>.>.>.>.>.>.>.>.,.t.t.t.1.;.s = X                                                                                                                           o t % % t , 8 0 0 %                         .   . .   . . . . .   . . . . . . . . . . . . . . . . . . . . . . . . . . . . . . . . . X . . . . . . . X X . . X X X . . . X X . X X X + & , , % $ ; n n < ; $ $ J H ~.S S J $ - f r.1.1.1.1.1.1.1.1.1.1.1.1.<.<.<.4.d y s g z z z z V V d s y d 3.=.f =.=.;.;.<.<.1.<.1.1.1.1.1.1.<.=.f s s y y u u y * * p V V 7.9.9.8.8.IXIXIXIXIXIXIXIXIXIXIXIXIXIXIXIXIXIXIXIXIXIXIXIXIXIXIXIXIXIXIXIXIXIX",
"IXIXIXIXIXIXIXIXIXIXIXIXIXIXIXIXIXIXIXIXIXIXIXIXIXIXIXIXIXIXIXIXIXIXu u i i i i i i i i i s i u u y u u - * > l f.~.(.M.M.(.(.(.(.(.(.(.(.M.M.M.j.j.S u * l f f f d Z / p V G.G.S.S.S.S.H.H.G.H.F.G.S.Z P.h k G $.= < v v < # q ) ) ) ) U w q 2 ] tX0X@ o @ % % % % t % % % % % % % t t t t t 0 0 0 0 0 1 1 0 1 1 *.1 1 *.*.J O.O...F , , @ %.HXHXHXHXJXHX0X5 3 )  .| ]  .PXJXJXKXJXFXeXX.h * y u s i d f f =.;.-.-.-.>.:.>.-.>.:.:.>.>.>.>.>.>.,.,.,.,.,.<.f u > .                                                                                                                         & , % % t t 9 0 8 %                           . . . X   .     .   . . . . . . . . . . . . . . . . . . . . . . . . . . . . . . . . . . X . . . . X X . . X . X X . . . . . . X . X X o o , 7 , $ # v 0 1 t O o J v.f.S S J $ * =.r.1.1.1.1.<.1.1.1.1.1.1.1.<.;.;.;.3.s y s A g g z V g y y d z =.=.=.=.;.;.;.<.<.1.1.1.1.1.1.1.1.1.=.d s u u * * * y y y y a V V 7.9.8.8.IXIXIXIXIXIXIXIXIXIXIXIXIXIXIXIXIXIXIXIXIXIXIXIXIXIXIXIXIXIXIXIXIXIX",
"IXIXIXIXIXIXIXIXIXIXIXIXIXIXIXIXIXIXIXIXIXIXIXIXIXIXIXIXIXIXIXIXIXIXy i i i i i i i i i i i i i y u u u - > > S g.g.(.(.g.g.f.f.f.g.g.~.(.(.(.(.(.M.g.x = - g V g i D N ( G.S.S.G.H.G.D.G.D.D.H.G.S.Z N L.p b X.O.$ 9 v < ; 8 Y ) R w 6 5 q % r sXJXtX& & & % % % % % % % % % % t t t t , 0 0 0 *.0 0 0 1 1 1 0 *.*.1 1 *.*.*.J O.O.D 0 , % M BXHXGXHXGXHXHXUX/ F  .|  .] PXJXJXJXKXKXKXKXsXO.- < h j i d f =.=.-.;.>.-.:.:.-.-.:.>.>.>.>.:.>.>.>.,.,.,.,.,.-.d - O .                                                                                                                       O t , ; t 8 9 0 7 o                         . . . . . . . . . . . . . . . . . . . . . . . . . . . . . . . . . . . . . . . . . . . . X . . . . . X . . . . . X . . . . . X . X . X X X @ , , % X = 0 0 < 1 O $ J c.f.S S J > > =.y.1.1.1.1.1.>.1.1.1.1.1.<.<.4.=.=.=.d y y a g z z g p * s f =.=.;.;.;.;.;.<.<.<.1.<.<.1.1.1.1.1.;.=.d y y * * * * : - - * y B V 7.9.9.q.IXIXIXIXIXIXIXIXIXIXIXIXIXIXIXIXIXIXIXIXIXIXIXIXIXIXIXIXIXIXIXIXIXIX",
"IXIXIXIXIXIXIXIXIXIXIXIXIXIXIXIXIXIXIXIXIXIXIXIXIXIXIXIXIXIXIXIXIXIXy u i i i i i i i i i i i u y y y - - * - a.M.(.(.~.S S l - u l S a.f.(.(.(.(.(.g.f.- > j x a p X.( S.H.G.G.S.G.S.S.U.D.G.S.S.H.S.N o.: v X...+ h v ; 2 U U q 6 6 q e r ; 0XJXLXrX@ & % % % % % % % % % % % t t 7 t 7 , , t 1 *.0 0 *.0 0 0 *.1 *.1 t 1 t J O.O.J 0 ; ; , sXHXGXGXHXHXHXKXUXe ] | { r rXLXHXGXJXJXJXJXKXMXe w +. .M v j d f -.:.;.-.:.:.-.-.>.:.-.-.-.>.>.>.>.>.>.,.,.>.>.=.i > . .                                                                                                                     X , t % % , w 0 , o                       . . .     . . . . . . . . . . . . . . . . . . . . . . . . . . . . . . . . . . . . . . . . X   . . . . . . . . . X . . X . . . . X X . X X X & % ; % X # n n < t O O J f.f.f.J k $ > =.y.t.1.1.1.<.>.>.<.<.1.<.;.;.=.f f f f s * y A g A A * y d f =.=.4.;.<.;.<.<.<.1.1.1.1.1.1.1.1.<.;.f s y * * * : : * * * - * a V 7.7.9.9.IXIXIXIXIXIXIXIXIXIXIXIXIXIXIXIXIXIXIXIXIXIXIXIXIXIXIXIXIXIXIXIXIXIX",
"IXIXIXIXIXIXIXIXIXIXIXIXIXIXIXIXIXIXIXIXIXIXIXIXIXIXIXIXIXIXIXIXIXIXy s i i i i i i i i i i i s u y y u - > u S h.~.g.S - 1 - 1 1 1 - l S f.g.(.(.(.(.g.k > - p N Z X.Z G.H.S.S.S.S.S.D.G.G.G.S.S.G.V ( o.: v L.{ @ 9 < % w U L 3 e / Y M ; M FXJXJX0X+ @ % % % % % % % % % % t t t t t t t t t t 1 0 0 , 0 9 0 t 0 1 t *.1 t J O.O.{ *.5 : 5 wXHXHXGXHXHXHXHXHX$.M [  .e rXLXHXGXHXLXJXJXJXFX/ ) ' ` +. ./ b a f -.-.-.:.-.-.-.>.:.:.:.>.>.>.>.>.>.>.,.>.,.>.-.f u + .                                                                                                                     @ , ; t , , 9 0 7 o                       X   .   . . . . . . . . . . . . . . . . . . . .     . . . . . . . . . . . . . . . . . . . . . . . . . . . . . . . . . . . . . X X . X . X X @ ; , t o # 9 0 9 , X $ J c.f.S S m = > f r.r.,.1.1.1.>.>.<.<.<.<.;.-.f f f f f d s y s A g y * s f =.=.=.4.<.<.<.<.<.1.<.1.<.<.1.1.1.<.;.=.f i y * * * u * : u - y * y A 7.9.8.q.IXIXIXIXIXIXIXIXIXIXIXIXIXIXIXIXIXIXIXIXIXIXIXIXIXIXIXIXIXIXIXIXIXIX",
"IXIXIXIXIXIXIXIXIXIXIXIXIXIXIXIXIXIXIXIXIXIXIXIXIXIXIXIXIXIXIXIXIXIXy i i i l i i i i u i i i i i y - * * > - l S h.S l 1 l l l l 1 l 1 l l f.g.(.(.(.~.S 1 = h G.Z X.C G.H.S.S.S.S.S.H.S.D.S.S.S.S.V [ X.9 v P.D + , , t U 6 4 U ] *.e 9 # 0XJXJXLX&.. o % % % % % % % t % % % % t t # # @ # t t t t 1 , 0 0 0 *.1 0 0 1 *.1 *.F ..F F 5 5 & I.HXHXGXHXHXHXHXHXFX&.*. .e 0XHXHXHXHXHXJXJXJXFXw ) 3X+.` ` +.+.[ b g =.-.-.-.;.-.-.:.:.:.:.:.:.:.>.>.>.>.>.,.>.>.=.i * X                                                                                                                     & , t % % 7 9 0 ;                             . . .   . . .   . . .   . . . . . . . .   .   . . . . . . . . . . . . . . . . . . . . . . . . . . . . . . . X . . . . . . . . . X X X o & t 7 % o $ 0 0 < 1 X $ S c.c.f.S J > * =.y.r.,.1.1.1.-.<.<.<.<.;.=.4.f f f f f d d y y a p * y d =.=.=.-.<.<.<.<.<.<.<.<.<.<.1.1.<.<.=.=.f d i u y * * * : * - * u u y u A 0.9.q.IXIXIXIXIXIXIXIXIXIXIXIXIXIXIXIXIXIXIXIXIXIXIXIXIXIXIXIXIXIXIXIXIXIX",
"IXIXIXIXIXIXIXIXIXIXIXIXIXIXIXIXIXIXIXIXIXIXIXIXIXIXIXIXIXIXIXIXIXIXy u s i i i i i i i i i i i u y u * * > > 1 k x l - l l l 0 l l l k 1 1 k f.~.(.(.(.f.1 > j Z Z X.H x.D.9.0.H.D.H.H.H.F.S.G.S.S.A X.X.< 9 L.e X ; # 2 6 L 2 6 Y ) r % *.MXHXJXFX] . @ # % % % @ % % % % % % % % % # @ o @ o @ @ $ o @ , 0 0 0 0 0 *.0 0 9 , t 1 1 F 0 , # o.GXGXHXHXHXfXHXHXJXeXn M r 0XHXHXJXHXHXJXJXKXtX% U ` ` ' ` ' ` +.&./ z :.-.-.:.-.-.-.:.:.:.-.:.:.>.:.>.>.>.>.>.>.>.f u +                                                                                                                     o , % % t 8 0 0 t                             . . . . .     . . . . . . . . . . . . . . .   . . . . . . . . . . . . . . . . . . . . . . . . . . . . . . . . . . . . . . . . X X X X o o % 7 % o $ 9 0 9 , o # J !.v.S S J # * f y.t.,.<.1.1.<.;.<.<.<.;.=.f f f f f f f f d y y y y d =.=.=.=.;.;.<.<.<.<.<.<.<.<.<.<.;.=.f f d d d d a y * * * : : * : p a u y a B 7.9.IXIXIXIXIXIXIXIXIXIXIXIXIXIXIXIXIXIXIXIXIXIXIXIXIXIXIXIXIXIXIXIXIXIX",
"IXIXIXIXIXIXIXIXIXIXIXIXIXIXIXIXIXIXIXIXIXIXIXIXIXIXIXIXIXIXIXIXIXIXy y s i i i i i i i i i i i y y u u * * * * 1 u - 1 l l l l l k l l l 1 1 S f.(.(.(.j.l > F z.Z X.Z x.z.z.x.H.H.G.H.D.H.G.S.S.S.A O...; v #X9 X ; % % 6 6 w & % 9 7 # 0XHXJXJXmX0 o @ # # % % % % % % % % % # % % O o , *.D { | { F , % , 9 0 9 0 1 , , = t t F *.0 *., t F FXHXGXGXHXHXHXHXGXGX0X9 5 $.HXHXHXJXGXJXJXKX0XX 2 I _ ' ' _ R ' R U b g d f :.:.-.-.:.:.:.-.>.:.:.:.>.>.>.>.>.>.>.-.a = .                                                                                                                   & t % % t 8 r 0 %                               . . . . .     . . . . . . . . . . . . . . . . . . . . . . . . . . . . . . . . . . . . . . . . . . . . . . . . . . . . . . X X X X X o o , , % X $ 0 1 0 1 o # J H ~.~.H J = * =.r.1.1.1.<.<.;.<.<.<.<.;.=.f d f f f f f =.z i * y d c =.=.=.=.-.;.;.<.<.<.<.<.<.;.;.4.f f d d d d i g a p * * * * : * * p a a p y s g 0.IXIXIXIXIXIXIXIXIXIXIXIXIXIXIXIXIXIXIXIXIXIXIXIXIXIXIXIXIXIXIXIXIXIX",
"IXIXIXIXIXIXIXIXIXIXIXIXIXIXIXIXIXIXIXIXIXIXIXIXIXIXIXIXIXIXIXIXIXIXu y s i d i i i i i i i l i u i u * * * * * > = - - 1 l l l k 1 k 1 l l 1 k f.(.(.(.(.k - z.S G X.C l.s.x.x.l.x.G.H.S.S.S.S.S.S.b $.[ : v #X9 O ; # o 2 U U 6 2 % & F mXJXHXJXeX% o @ @ % % % % % % % % % # % # o ; { $.#X@X@X%X@X#X$.0 # < 0 t t # # t 0 ..#XqXQ.< n , % , fXHXHXHXHXHXHXHXHXJXHX0X; { FXJXJXJXJXHXJXJXL.% r q 3 U @.%.%.#.6X6X$.J.0.a =.:.:.:.:.:.:.:.-.-.:.:.>.>.>.>.>.>.>.;.d p + .                                                                                                                 $ ; , % , 8 0 0 #                               . . .   .   . . . . . . . . . . . . . . . . . . . . . . . . . . . . . . . . . . . . . . . . . . . . . . . . . . . . . . X X X X X X X o % % ; o $ 0 0 0 , o # S ~.H H H J = - =.r.r.1.1.1.<.>.<.<.<.<.-.f f d f f f f f =.f s y * i =.=.=.=.=.-.=.-.<.<.<.<.<.;.-.-.=.s s i i i i i a s p : * * * * * u p a a a u y s z IXIXIXIXIXIXIXIXIXIXIXIXIXIXIXIXIXIXIXIXIXIXIXIXIXIXIXIXIXIXIXIXIXIX",
"IXIXIXIXIXIXIXIXIXIXIXIXIXIXIXIXIXIXIXIXIXIXIXIXIXIXIXIXIXIXIXIXIXIXu y y i i i i i i i i i i i i y y * * * * * * > > > 1 1 l l 1 l l l l k l 1 S ~.(.(.|.S p a.a.Z X.C x.a.s.s.a.0.x.D.S.S.S.S.S.( b L.D < n P.9 O = # X % q P R q 2 o L.LXHXHXJX@XX & # % % % & o o @ o @ % % # o 8 Q.qX#XO...D { O.L.@X$.0 % t # # , ..#X0XqXQ.F O.D , t *.0 UXHXHXHXHXHXHXHXHXGXHXHXO.r qXHXJXLXJXJXJXGX| 8 [ M | 0XLXKXKXKXLXJXKXKXJXI.i =.=.:.:.:.:.:.-.-.-.-.-.>.>.>.>.>.>.>.f i > . .                                                                                                               # , , % , 9 0 9 @                       .       . . . . . . . . . . . . . . . . . . . . . . . . . . . . . . . . . . . . . . . . . . . . . . . . . . . . . . . . . . . . X X X X . . X o , % % @ @ 0 0 0 1 $ # S S ~.S H J 1 * =.r.1.1.<.<.<.<.<.<.;.;.=.=.f s d d f f f =.f y * * y z =.=.=.=.=.-.-.;.<.<.<.;.-.-.f d s s i i i i i s p p * * * * * * p p p a a a i a i IXIXIXIXIXIXIXIXIXIXIXIXIXIXIXIXIXIXIXIXIXIXIXIXIXIXIXIXIXIXIXIXIXIX",
"IXIXIXIXIXIXIXIXIXIXIXIXIXIXIXIXIXIXIXIXIXIXIXIXIXIXIXIXIXIXIXIXIXIXy u y s i i i i i i s s y s u y u u - - * - * * * > $ - l 1 1 k l l l l l 1 c f.(.(.~.S l S a.c X.C a.s.s.a.a.a.0.H.S.S.S.S.( ( / L.n < v @X7 O # $ @ @ 2 w R Y % ] MXJXGXGXHX$.& @ % @ @ o   0 ] ] ) ; X & $ 7 #X0X| < : < < 1 - , D @X$.e 1 ..Q.%XrX@XO.F 9 ; ] F 8 #XFXQ.X.HXHXHXHXHXHXGXGXHXGXJXdX[ { sXKXLXHXLXGXrX8 e / { FXLXLXJXJXLXLXLXLXKXKXKXU.s f :.-.-.:.:.:.:.:.>.-.:.:.>.>.>.>.>.-.i : + .                                                                                                               % , % t t 9 0 9 $                       .     . . . . . . . . . . . . . . . . . . . . . . . . . . . . . . . . . . . . . . . . . . . . . . . . . . . . . . . . . . . . . X X X X . X o X % , ; o # v 0 0 1 o t S ~.S S H m > - f r.1.<.1.<.<.<.<.;.;.;.=.f d d s d d d f d s * y * y i 3.=.=.=.=.-.;.;.<.5.<.;.=.f d i s i i u y y u p y * * * * * * * p p u a a a a a a IXIXIXIXIXIXIXIXIXIXIXIXIXIXIXIXIXIXIXIXIXIXIXIXIXIXIXIXIXIXIXIXIXIX",
"IXIXIXIXIXIXIXIXIXIXIXIXIXIXIXIXIXIXIXIXIXIXIXIXIXIXIXIXIXIXIXIXIXIXu y s i y i i i s y y y y s u y u u - - - * * * * * > > 1 l l 1 l l l l l 1 l f.(.(.(.l.1 S a.Z z.x d.s.a.a.a.a.a.G.S.S.S.S.( S.b o.9 9 9 0X9 @ # O O X o 6 R w 6 rXJXGXFXGXGX| % @ % @ o & { yXPXvXtX0X| , @ { #XM = , F G J l k k = D @X#X@XtXrX#XH 0 8 { o.0 % ] tXLXLXtX~ dXHXHXfXGXGXHXGXHXGXHXHXeXM &.0X$.$.@X@XF % r Y | FXLXLXJXHXHXHXLXLXHXLXKXHXX.s :.-.-.:.:.:.:.:.:.-.:.:.>.>.>.>.<.f d A : . .                                                                                                           . % , ; % t 0 w 7 o                   .           . . .   . . . . . . . . . . . . . . . . . . . . . . . . . . . . . . . . . . . . . . . . . . . . . . . . . . . . . . . . . X X X X X X X % ; ; @ # v 0 0 7 $ 1 S S ~.f.S J = * =.y.1.1.1.<.<.<.<.<.;.;.4.f d s s d d d f s * y A a * y f =.=.=.=.=.;.<.<.<.<.;.-.d i s y u u u * * u : * * * > : > * * p u p a a a a a i IXIXIXIXIXIXIXIXIXIXIXIXIXIXIXIXIXIXIXIXIXIXIXIXIXIXIXIXIXIXIXIXIXIX",
"IXIXIXIXIXIXIXIXIXIXIXIXIXIXIXIXIXIXIXIXIXIXIXIXIXIXIXIXIXIXIXIXIXIXu y i u y i i i y y y y y y i u u u u u - * * * - - = > = l 1 l l l l l l 1 1 a.(.(.~.c.u Z a.C X.x a.a.a.a.a.a.z.S.S.S.S.( S.( v %.9 : v @X, + # O O $ t t 6 2 ] FXGXGXFXGXFX] , % % @ + &.tXmXmXmXFXmXFX0X&.[ 0 = k l u k S l J G m = D L.L.o.F , e { %.$.$.F , qXHXFXFXPX/ dXHXHXHXHXGXGXHXGXHXGXHXHXL.5 8 e 8 r 8 % % & & M &.0XtXFXLXJXLXLXHXHXLXHXJXqXs :.:.-.:.-.>.-.:.:.:.:.:.>.>.>.>.f s V S.B >                                                                                                               # , , % , w 0 7 o             .       . .       . . . . . . . . . . . . . . . . . . . . . . . . . . . . . . . . . . . . . . . . . . . . . . . . . . . . . . . . . . . X X X X . X X X X % ; ; o $ 0 0 F 0 X = H f.f.f.S C > - =.r.1.<.1.<.<.<.<.;.;.;.=.=.f d s d d d s y * a 9.e.u y i f =.=.=.=.4.;.;.;.4.;.=.d s s y y * * * * * * * * : * : * * * : p p a a a a a s IXIXIXIXIXIXIXIXIXIXIXIXIXIXIXIXIXIXIXIXIXIXIXIXIXIXIXIXIXIXIXIXIXIX",
"IXIXIXIXIXIXIXIXIXIXIXIXIXIXIXIXIXIXIXIXIXIXIXIXIXIXIXIXIXIXIXIXIXIXu u i s y y y y y u y i y i y y u u u y * * * * - * * > > 1 l l l l l l l l l f.M.~.(.h.- S a.z X.d a.a.s.s.a.a.z.0.( S.S.S.S.B p P.v < n 0X< + = O O O 8 *.5 & &.FXFXGXGXHXmX0 ; % & o F eXtXtXFXmXsXtXFXFXFXrX*.1 F 1 l J S k J H m > > 9 n F ..o.o.$.o.O.[ , 8 #XFXFXLXPX( UXHXHXHXHXHXHXGXGXHXHXHXJXFX[ &.tXFXPXtXqX0X0X%.0X%./ %.P.L.0XtXFXKXJXKXJXKXFXa d -.:.:.-.-.-.:.:.:.:.:.>.>.>.f y A H.H.D.p .                                                                                                           . ; , % % 7 0 0 t X           . . . . . . .     . . . . . . .   . . . . . . . . . . . . . . . . . . . . . . . . . . . . . . . . . . . . . . . . . . . . . . . . . . . . . X X X X . X X X @ 5 % @ = 9 < 0 , X t H S f.f.S m > * f 1.1.1.1.<.<.<.;.;.;.=.=.f f f s d d d s y a 9.q.q.g u * d z =.=.;.=.=.=.-.=.=.=.d i y y y * * * - = * * > * * * * * > * p p p a a u s g IXIXIXIXIXIXIXIXIXIXIXIXIXIXIXIXIXIXIXIXIXIXIXIXIXIXIXIXIXIXIXIXIXIX",
"IXIXIXIXIXIXIXIXIXIXIXIXIXIXIXIXIXIXIXIXIXIXIXIXIXIXIXIXIXIXIXIXIXIXu u i i u y y y y y y y y y u y u y * y u * - * * * * * > > h l l l l l l l l f.M.(.~.f.- x a.S X.c a.a.d.s.a.s.l.0.0.S.( S.( B v P.9 v v #X7 $ = + O + 7  .F & &.FXGXFXGXHXmX8 % % t % 8XmXmXtXmXmXFXFXFXdXFXFXtXX.9 b G J J J J k u = n O.J.L.L.X.] M [ { &.n r M %.tXLXFXw 0XHXGXHXHXHXHXHXHXHXHXHXHXHXUX%.HXKXKXJXKXKXKXLXJXFX$.%.yXqXUX&.o.0XtXsXFXLXLX/ s =.:.:.-.:.:.:.>.-.:.:.>.-.=.a A D.F.F.F.( >     . .                                                                                                     ; ; , % , 0 0 , .             . .   . .     . . .   . . . . . .   . . . . . . . . . . . . . . . . . . . .   . . . . . . . . . . . . . . . . . . . . . . . . . . . X . . X X X . X X X . @ ; ; & # 9 0 0 , O = S S f.S S J $ * f <.1.>.<.<.<.<.;.-.;.=.=.=.f d d d d s y a e.9.q.q.8.s * y g =.=.=.=.=.=.3.f f d s y y * * : * : : * * * * 5 * * > * * * * u p a a y A V IXIXIXIXIXIXIXIXIXIXIXIXIXIXIXIXIXIXIXIXIXIXIXIXIXIXIXIXIXIXIXIXIXIX",
"IXIXIXIXIXIXIXIXIXIXIXIXIXIXIXIXIXIXIXIXIXIXIXIXIXIXIXIXIXIXIXIXIXIXu i i i i u y y y y y y y u u y y y u u u * - * * * * - * > 1 l l l l 1 l l u s.M.g.~.f.- c a.c X.x a.a.s.a.a.a.z.V S.S.( ( ( Z N P.p v v UX, ; ; + X O , ] ] 7 | FXGXGXGXJXtX2 2 % % % 0XFXFXcXsXFXdXFXFXmXdXPXFXdXo.v G J k l l l m h n P.X.D O.L.0XsXMXGXHXeX[ &.| M &.rXe L.HXHXHXHXfXHXfXHXHXHXHXHXHXHXo.PXLXLXJXLXJXJXJXKXKXFXL.0XdXdXsX0X&.|  .&.$.L.v s f :.-.-.:.:.-.-.-.-.:.-.f y p D.F.W.F.F.S.:   . .       .                                                                                               % , % , 7 0 0 %           . . . . . . . . . . . . . . . . . . . . . . . . . . . . . . . . . . . . . . . . . . . . . . . . . . . . . . . . . . . . . . . . . . . . . . X X X X X . X X o + ; ; @ @ < 1 0 , X 1 J S S S S F $ * f 1.>.<.1.<.<.;.-.-.=.=.=.=.f d d i i y y V 8.8.q.q.q.V * * s =.=.=.=.=.=.=.f f d y y p * : * : * : * * * * ; * 5 > * * * * * p a u s V 7.IXIXIXIXIXIXIXIXIXIXIXIXIXIXIXIXIXIXIXIXIXIXIXIXIXIXIXIXIXIXIXIXIXIX",
"IXIXIXIXIXIXIXIXIXIXIXIXIXIXIXIXIXIXIXIXIXIXIXIXIXIXIXIXIXIXIXIXIXIXu i i i i u y y y y y i y u i u y u u u - - - * * * * - * $ 1 h l l 1 l 1 l u f.M.~.(.f.= l 4.z.G.k a.a.a.a.a.l.7.V S.( Z ( Z / / P.r v v P.7 ; , = O O 7 e 8 t [ mXGXFXBXGXtXt Y U 6 % *.0XtXcXdXFXFXFXmXFXmXdXtXsXP.: h k l u l l G 9 v [ D eXFXJXJXJXJXJXHXJX0XM $.&.% 9 5 %.GXGXHXHXfXGXLXHXHXfXHXHXHXHXeXUXLXLXHXLXLXHXLXLXKXKXsX| tXFXtXFXtXtX0XUX&.5 2 a d -.:.>.:.-.:.:.:.>.:.=.y y ( F.F.F.W.W.H.( X . .                                                                                                     . ; , t % 8 e 9 %       .   . . . . . . . . . . . . . . . . . . . . . . . . . . .   . . . . . . . . . . . . . . . . . . . . . . . . . . . . . . . . . . . . . . . . . . X X . . X X . X X . ; ; @ + < , < , O 1 J S S S S n $ * f 1.<.<.<.<.<.;.-.=.=.=.=.f d d d i y y A 9.8.8.q.q.q.8.a * y g =.=.=.=.f f f d i y y * * * * : * * * * * * * : > > 5 * * : * * p y A V 9.IXIXIXIXIXIXIXIXIXIXIXIXIXIXIXIXIXIXIXIXIXIXIXIXIXIXIXIXIXIXIXIXIXIX",
"IXIXIXIXIXIXIXIXIXIXIXIXIXIXIXIXIXIXIXIXIXIXIXIXIXIXIXIXIXIXIXIXIXIXi i i i i u y y y y y u s s i y y y y u - y * y - - - * > > = h k l k l l l l f.M.(.~.a.= l a.z.P.S l.f.l.l.S S G.G.( X.N A Z Z N P.v v v %.7 % , ; O O % 0 q # [ mXGXMXFXHXtX2 U ) ) U 6 2 ) #XsXdXFXsXsXsXtX$.|  .[ [ N : k S J l k < > = #XJXJXHXGXGXGXGXGXJXFX[ ] #X| % & X.GXHXHXHXFXHXFXHXHXHXHXfXHXHXFX%.mXHXLXHXLXHXLXJXKXFXyX] 8XFXtXtXFXmXtXtX%.5 5 y f -.:.:.:.-.>.:.>.-.=.s * B U.F.F.F.F.F.F.S.*     .     .                                                                                             X ; , t t 9 0 0 @             . . .   . .   . . . .   . . . .   . . . . . . . . . . . . . . . . . . . . . . . . . . . . . . . . . . . . . . . . . . . . . . . . . . . . X . X X X X X X X X % 5 @ + < 1 0 , $ = J S S S J k O > =.>.<.<.<.<.;.;.=.=.=.=.=.f f d i s * a 8.8.q.9.q.q.q.9.7.y > u 3.=.=.f f f f d i u - * : * * * * * * * * * * * : * * 5 > * * * * a V V 0.IXIXIXIXIXIXIXIXIXIXIXIXIXIXIXIXIXIXIXIXIXIXIXIXIXIXIXIXIXIXIXIXIXIX",
"IXIXIXIXIXIXIXIXIXIXIXIXIXIXIXIXIXIXIXIXIXIXIXIXIXIXIXIXIXIXIXIXIXIXi a i i i i y y y y i u y y y y y y y y u - y u * * * * * + t 1 k l l l l 1 1 f.g.j.~.a.- l S z.@XI.H x k j m Z ( J.J.P.G.o.G.( [ @Xv m 0 O., ; , ; O O @ w / # Y FXGXFXFXGX0X@ U ) ) ) ) ) 6 7 ] #XyXrX0X%.P.0XqXtXtXtXeX..k H G k 1 = $ : M wXHXHXGXGXHXHXGXGXJXsX0 &.P.r & X.GXGXGXGXHXHXFXfXHXHXHXHXHXHXJXUX0XFXLXKXKXKXGXtX#X .o.&.| FXtXFXtXtXtX0XM 2 ; y =.:.-.:.>.>.>.:.:.=.s * a H.F.F.F.F.F.F.F.F.A o   .   . . .                                                                                           o , , % , 0 0 0 @ .         X   . . . . . . . . . .   . . .   . . . . . . . . . . . . . . . . . . . . . . . . . . . . . . . . . . . . . . . . . . . . . . . . . . . . . . . X X X X X X X + ; 5 # $ , 1 0 t o 1 J S S S J F $ * f 1.>.<.<.<.<.;.-.-.=.=.=.f d d i y y e.9.8.9.q.q.q.q.q.9.a * * g 3.=.f f g d d u y - * * * * * * : * : * > : * * * : : > > > > : V V V 9.IXIXIXIXIXIXIXIXIXIXIXIXIXIXIXIXIXIXIXIXIXIXIXIXIXIXIXIXIXIXIXIXIXIX",
"IXIXIXIXIXIXIXIXIXIXIXIXIXIXIXIXIXIXIXIXIXIXIXIXIXIXIXIXIXIXIXIXIXIXa i d d i i i y y i i y u y y i u y y y u u u u * * * * * > = 1 n 1 l l l k l f.g.M.~.f.* j a.a.J.v h j j k j a v p p v v / [ [ ] M = = t F ; # ; ; O O + 8 } 7 e sXGXFXMXGXQ.o q ) R R R ) ) U 6 2 5 M | UXtXmXdXtXtXtXdX0X0 J J u - $ ; F r n 0XHXHXGXGXGXGXGXHXHX| ] 0Xr % UXHXHXHXGXHXHXHXHXHXHXHXHXHXfXJXeXO.sXFXtXUX&.| | @.0XsX0X/ PXtXtXyXyX0Xe 2 w 5 s =.-.:.-.-.>.-.:.=.s y a G.F.F.F.F.D.F.F.F.U.S.= . .   . . .                                                                                           o , ; % % 8 e 8 o           . . . . . .   . . . . . . . . . . . . . . . . . . . . . . . . . . . . . . . . . . . . . . . . . . . . . . . . . . . . . . . . . . . . . . . . . . . X X X X X o % , # O < 1 1 , o t J f.S S J n $ * =.1.1.<.<.<.<.-.-.=.=.=.f f g i y y g 8.8.e.8.8.q.q.8.9.e.e.y * s g z z f g f d a y p p : * * : * : : : * : : 5 * 5 * * * : > * A V V V 7.IXIXIXIXIXIXIXIXIXIXIXIXIXIXIXIXIXIXIXIXIXIXIXIXIXIXIXIXIXIXIXIXIXIX",
"IXIXIXIXIXIXIXIXIXIXIXIXIXIXIXIXIXIXIXIXIXIXIXIXIXIXIXIXIXIXIXIXIXIXi i d d i i i s y y i i u y y u y y y y y u u * y * * * > O = 1 n l l l l 1 l a.g.g.g.a.> l a.a.J.l H a.z.z.Z Z ( B ( A v : = @ # O % % t t $ O + $ O O O , ] w 0 sXGXFXFXFX%.o 6 6 L U E R ) _ ` ) q 2 r &.0XPXtXtXtXtXsXtXo.h J n = @ F { [ n v wXHXHXGXGXGXGXGXJX0XM | / L.FXHXHXHXGXGXFXFXHXfXHXHXHXHXHXJXdXM /  .[  .$.qXtXFXFXFXP.e tXFXyX0X| q 6 ) Y : f :.:.:.>.:.:.:.=.d y p H.H.F.F.F.F.F.F.F.F.F.D.: . .   .                                                                                               @ , ; t t 0 0 9 o             .   . .   . . . . . . . . . . . . . . . . . . . . . . . . . . . . . . . . . . . . . . . . . . . . . . . . . . . . . . . . . . . . . . . . . . . . X O . X X X # ; ; @ , 1 0 , o , J f.S S J v + * =.1.<.<.<.<.<.;.-.-.=.=.f f f s y s 7.q.e.8.8.q.q.q.q.9.8.8.A * * i d d d d i i u * u p * * : * : * y p * y * > : * * * * > > A A V V V V IXIXIXIXIXIXIXIXIXIXIXIXIXIXIXIXIXIXIXIXIXIXIXIXIXIXIXIXIXIXIXIXIXIX",
"IXIXIXIXIXIXIXIXIXIXIXIXIXIXIXIXIXIXIXIXIXIXIXIXIXIXIXIXIXIXIXIXIXIXi d i d d i i s s s i s s y y y y u y u y u y * - * * * * > # 1 J l l l l k 1 f.g.g.~.a.> l a.c J.X.c z.0.0.( S.( ( ( / v : ; , 0 ) F ] *.*.7 # o . X O O % *.0 v dXGXGXFXGX%.# 8 t 2 2 q U R ) ) ) ) U 8 2 q } %.0XqXtXtXtX0X< 0 < ; , [ [ [ [ / / dXHXHXfXGXGXGXLXqX, &.wXFXHXGXGXGXGXGXfXFXfXHXHXHXfXHXHXHXHX| ] qXPXFXdXdXsXtXFXtXUXM yX0X .q U R ) ) q p 4.:.:.:.:.:.-.=.d y y G.H.F.F.F.F.F.F.F.F.F.F.D.Z + .   .                                                                                               @ ; % t 7 0 0 7 o           . . . . .     . . . .   . . . . . . . . . . . . . . . . .   . . . . . . . . . . . . . . . . . . . . . . . . . . . . . . . . . . . . . . . . . . . X X X X X X o & ; # # , 1 1 7 o 1 J v.~.v.J h + y =.<.<.>.<.<.<.<.-.-.=.=.=.=.f s s V 9.8.8.e.e.8.q.8.q.q.8.9.e.s > y a d s s s s u y - * * * : * * * * * p : * : * * 5 5 * > : A V A V V S.IXIXIXIXIXIXIXIXIXIXIXIXIXIXIXIXIXIXIXIXIXIXIXIXIXIXIXIXIXIXIXIXIXIX",
"IXIXIXIXIXIXIXIXIXIXIXIXIXIXIXIXIXIXIXIXIXIXIXIXIXIXIXIXIXIXIXIXIXIXy i d i d d d s s s i i s s y y y y u u y y y * * y * * * > $ 1 k l l l l 1 l g.~.g.g.S = k a.z.G J.H b 0.Z ( ( ( ( b v ; 5 *.) @.@.| @.@. .| F 9 # o o o t e e 0 mXGXGXGXFXX.; e e w 8 6 q 6 U ) ) ) ) ) U U w 8 6 e { %.#XL.0 = 7 t F { { { { { 0 O.FXGXGXHXHXHXtXr [ dXHXHXHXHXHXHXHXHXFXFXfXFXHXHXHXfXHXHXHXU.4XFXFXFXmXmXsXmXtXqX@.@ ) ) q Y ) ) ) ) 5 d >.-.:.-.:.:.:.f y * Z H.F.D.F.F.D.F.F.F.F.F.F.F.S.: . . .                                                                                               & , ; t , 0 0 8 o           . . . . . .   . . . . . . . . . . . . . . . . . . . . . . . . . . . . . . . . . . . . . . . . . . . . . . . . . . . . . . . . . . . . . . . . . . . X X X X X X + , % $ < 0 1 *.$ 1 H !.S ~.J *.# y =.>.<.<.<.<.<.<.<.-.=.-.4.3.s s g 9.8.8.8.e.8.q.q.q.q.q.8.8.8.A * > * i i i y y y - - * * * - * y : : : p : : p * : * 5 * * A A V V A V 0.IXIXIXIXIXIXIXIXIXIXIXIXIXIXIXIXIXIXIXIXIXIXIXIXIXIXIXIXIXIXIXIXIXIX",
"IXIXIXIXIXIXIXIXIXIXIXIXIXIXIXIXIXIXIXIXIXIXIXIXIXIXIXIXIXIXIXIXIXIXu d d d d d s s s i i i i i s y y y y y y u y * - * - * * O $ 1 l l k l l l 1 f.g.g.h.S > S l.l.G C X.N Z B A p a b 9 5 r Y )  .@. .@. .@.@.@.@. .) 7 @ @ t r 0 0 mXHXGXGXFX/ 5 ] ] F *.e 8 8 2 2 6 U U ) R R R Y w q q 6 % % +   % % { ..&.O.X...[ 9 @XHXGXHXGXP.r [ tXGXHXHXHXHXfXHXHXfXFXFXFXFXHXHXHXHXHXHXHXUX( tXtXtXyXyXP.&.] 8 % % I ) ) ) ) R ) U = =.>.:.:.-.:.=.f s y b U.F.F.F.F.F.F.F.F.F.F.F.F.F.H.A .     .                                                                                             # ; ; , , 0 r ,             . . . . .     . . . . . . . . . . . .   . . . . . . . . . . . . . . . . . . . . . . . . . . . . . . . . . . . . . . . . . X . . . . . . . . . . O . X . X X X O + ; ; # 9 1 0 0 $ l S H f.J J l # * d :.<.;.<.<.<.5.<.;.;.=.4.g s i 9.8.q.8.8.8.8.q.8.e.q.q.q.9.9.e.p > * y u u y y * * * * * - - * : : * : * * * p p : : > * v A A A A V V 0.IXIXIXIXIXIXIXIXIXIXIXIXIXIXIXIXIXIXIXIXIXIXIXIXIXIXIXIXIXIXIXIXIXIX",
"IXIXIXIXIXIXIXIXIXIXIXIXIXIXIXIXIXIXIXIXIXIXIXIXIXIXIXIXIXIXIXIXIXIXi i d d d d d d s i i i d i s s s s y u u y y * - u - * * > $ - k l l l l l l f.g.g.g.S > x c c B j b H ( [ / C N / , 8 Y ) ) ) ) ) *.' ) ) ) @.@.@. .*.w t 8 9 e MXGXGXGXFX9 9 ] ] ) ] ) *.e w w w 6 6 U U U ) U Y U Y Y w w 8 % & % 7 e F [ ..%.O.F M eXFXdX/ 3 ( sXGXHXGXfXHXHXHXHXfXfXFXfXFXfXFXHXHXHXHXHXHXPX^ w M e 8 2 % 2 U U U Y R ) R P ) E ) q y 4.>.:.=.:.=.=.d y p G.F.F.F.F.F.F.F.F.F.F.F.F.F.F.F.S.+   . .                                                                                           X % ; ; , 7 0 e t             . .   . .     . . . . . . . . .   . . . . . . . . . . . . . . . . . . . . . . . . . . . . . . . . . . . . . . . . . . . .   . . . . . . . . . . X . X X . . O . @ ; % # 0 < < n $ 1 f.c.f.f.S n $ * s =.:.-.<.<.<.<.<.;.;.-.=.s s 7.9.9.8.8.8.e.q.8.8.8.8.8.8.8.8.9.A > > * y y y * - * - * * * : * - * : * y p * p * : : * p A B ( A A V B V IXIXIXIXIXIXIXIXIXIXIXIXIXIXIXIXIXIXIXIXIXIXIXIXIXIXIXIXIXIXIXIXIXIX",
"IXIXIXIXIXIXIXIXIXIXIXIXIXIXIXIXIXIXIXIXIXIXIXIXIXIXIXIXIXIXIXIXIXIXs d d d d i d s s i d i i s s s i i y y y y - - - y - * * > $ 1 l l l l l l l f.g.g.h.x > m b B b a b b b v N [ o.o.8 ) ) ) ) P ) ) ) U ) ) ) ) ) @.@. .} w t ; / GXGXGXFXdX8 9 @.&.} F ) ) ) *.e ) e w 6 6 6 U U Y ) U U U Y Y U w w 8 5 % % 7 0 e e ; [ &.5 2 P.dXFXGXGXHXHXHXHXHXHXFXFXFXHXFXFXFXHXfXHXHXHXHXtX5 % q w U U Y ) ) ) ) R U U Y ) _ +.E = s 2.:.:.:.-.f s y y S.F.F.D.F.D.F.D.F.F.F.F.F.F.F.F.F.D.v .   .                                                                                           . % t % t 8 0 0 t             . . . . . .   . .   . . .   . . . . . . . . . . . . . . . . . . . . . . . . . . . . . . . . . . . . . . . . . . . . . . . . . . . . . . . . . . . X . X X o . o + , % # < < < n O 1 H ~.c.f.S k > * y d :.:.-.;.<.<.<.<.;.4.d y d 8.8.8.8.8.8.8.e.e.8.8.q.8.8.q.9.9.e.y > > y y y y - * * : * * * * * * * : : p : : : : : : A ( B A A V A A V IXIXIXIXIXIXIXIXIXIXIXIXIXIXIXIXIXIXIXIXIXIXIXIXIXIXIXIXIXIXIXIXIXIX",
"IXIXIXIXIXIXIXIXIXIXIXIXIXIXIXIXIXIXIXIXIXIXIXIXIXIXIXIXIXIXIXIXIXIXi d d d d d d d d s d i d i s s i i s y y y y - * * u * * > O 1 k l l l l l l h.g.g.h.k = k b B b b b B Z b p > 9 8 w ) ) U w U U ) ) U w P P ) ) ) @.Q.) *.t @ { GXGXGXHXtX7 e $.#.@.| ] ) ) ] ) *.*.*.e Y w 6 8 6 6 q w U U e U U w Y Y w w q 8 2 2 % # o K 5XdXFXHXHXHXHXHXfXHXFXHXfXFXFXFXFXFXfXHXHXHXfXHXJXPX5 I } _ ) ) ) ) ) R U w U U )  . .} 8 > d :.=.:.-.:.s y y ( D.D.D.D.D.D.D.D.F.D.F.F.F.F.F.H.F.F.( & X . .                                                                                         X t t % % 8 0 e %               . . .       . . . .   . . . . . . . . . . . . . . . . . . . . . . . . . . . . . . . . . . . . . . . . . . . . . . . . . . . . . X . . . . . . . X . X X . + X O % ; @ < n 1 0 $ 1 f.b.b.c.S k $ a i s f -.-.;.;.;.>.<.2.3.s s e.q.q.8.8.8.q.8.q.8.8.8.8.8.9.q.9.9.V A * > * u * * * * * - * * * * * * * * : : * * * > * A B V A A V V A V B IXIXIXIXIXIXIXIXIXIXIXIXIXIXIXIXIXIXIXIXIXIXIXIXIXIXIXIXIXIXIXIXIXIX",
"IXIXIXIXIXIXIXIXIXIXIXIXIXIXIXIXIXIXIXIXIXIXIXIXIXIXIXIXIXIXIXIXIXIXi d d d d d d s s d i d i d i s i i s u u y y y u u y * - > $ - k l l l l l l h.g.g.g.l = h k b b b b Z Z Z Z b 0 t E ) ) U P w U w P U P P P U ) ) } ' } *.% o $.GXHXGXHXwX% ] $.@.@.%.%.@. .] ) F *.) e ) ) ) ) *.r q 7 2 2 6 q w w ) w U Y w Y U Y r & % U.dXFXHXHXfXHXHXHXHXHXHXHXHXFXFXFXFXFXHXFXFXHXHXHXHXqX5 E E ) Y U ) U U Y U ) } } { ] Y 7 # * =.=.-.-.=.f y p ( D.D.D.D.D.D.F.D.D.D.D.F.F.D.D.F.Y.F.F.S.:   . .                                                                                         o % % % , 8 0 e @             . . . . . . . .   . . . . . . . . . . . .   . . . . . . . . . .   . . . . . . . . . . . . . . . . . . . . . . . . . . . . . . . . .   . . . . . X X X X X X . X o % % # 9 0 < n # , f.v.b.~.J 1 > j g a d =.=.-.-.-.<.<.=.s y g 9.q.9.q.8.8.q.8.q.q.8.8.8.q.8.8.8.9.9.V p > > * * - * - y * * * * * * * * * : * * * * * p B A A B V A A A B A IXIXIXIXIXIXIXIXIXIXIXIXIXIXIXIXIXIXIXIXIXIXIXIXIXIXIXIXIXIXIXIXIXIX",
"IXIXIXIXIXIXIXIXIXIXIXIXIXIXIXIXIXIXIXIXIXIXIXIXIXIXIXIXIXIXIXIXIXIXs i d d d d d s s d d s d i d d i i s i u y y u - - - * * > O = k k l k l l k j.g.g.g.l # k j B B B B V Z Z B N 9 7 ) ) U w w P w w w w 6 P U P P P ) U ) w % o 0XJXGXGXGX0Xt | %.@.@.%.%.%.%.@. . .} ) *.e ) ) ) ) ) ] ) ) e 7 2 % 2 6 6 q q w w w q & % %.PXFXHXHXHXHXHXHXHXHXHXHXHXHXFXHXfXFXFXFXfXFXHXHXHXHXUX2 E Y ) ) ) ) ) ) } ] ] ] *.9 t , 8 + s -.-.-.=.d p > r ( S.S.( S.S.S.S.D.D.D.D.D.D.D.D.F.H.F.F.F.B o . .                                                                                         o , ; t 7 8 0 r @             . . . .   . . . . . . . . .   . . . . . . . . . . . . . . . . . . . . . . . . . . . . . . . . . . . . . . . . . . . . . . . . . . X . . X . . X . . X X O + X + + % ; % 0 < 1 0 # - c.c.b.f.S k > A 7.d y g =.-.;.;.2.:.g y d 8.q.q.8.8.q.8.8.e.q.8.8.8.e.8.8.8.9.9.e.V A > > > * * * * * * * * * * * * * * * : * : * * A B B B B A A V V B B IXIXIXIXIXIXIXIXIXIXIXIXIXIXIXIXIXIXIXIXIXIXIXIXIXIXIXIXIXIXIXIXIXIX",
"IXIXIXIXIXIXIXIXIXIXIXIXIXIXIXIXIXIXIXIXIXIXIXIXIXIXIXIXIXIXIXIXIXIXu s d d d d d d d d s i i d d s s s s y y y y y y * * * * > > * k k k l k l l g.g.g.f.l # l j b b B B B B V B N 9 q ) ) U L w 6 w 6 t @ t t 6 w P w P P U ) % 8 eXHXFXGXGXP., | @.@.@.@.@.@.%.@.%.&.| } ) *.e w *.*.*.*.*.) ) ] ) Y w 6 8 % 2 5 8 q % 2 @.dXFXfXHXHXfXHXHXfXHXHXFXfXHXfXFXFXFXHXfXFXFXHXfXHXHXGX( q }  .[  .) ] F ] w t & % % 5 w e 9 * f -.-.f f i > > : A A r p p p p A ( S.D.D.D.D.D.D.F.F.F.F.F.G.= . .                                                                                         o % % , t 9 0 r o             .   X . . . . . . . . . . .   . . . . . . . . . . . . . . . . . . . . . . . . . . . . . . . . . . . . . . . . . . . . . . . . . .   X . . . O + . X X X X o X X + # ; = < h < 0 = = a.f.c.S J 1 = B 8.z s s z =.-.:.:.f y y V 8.q.q.8.q.q.q.q.8.8.8.q.8.8.8.8.9.8.e.9.V V u + > > - * * - * * * * * * * * * * : > 5 * p A B B A B B A A A B B IXIXIXIXIXIXIXIXIXIXIXIXIXIXIXIXIXIXIXIXIXIXIXIXIXIXIXIXIXIXIXIXIXIX",
"IXIXIXIXIXIXIXIXIXIXIXIXIXIXIXIXIXIXIXIXIXIXIXIXIXIXIXIXIXIXIXIXIXIXu s s d d d d d d s s i d i i s s i s s y y y y y y * * * > $ - k k l l k u c g.g.g.h.h > h b B B B B B B B B B 9 r E U U U w 8 t o   o X X o % 6 U U P w *.& ..dXGXFXFXGXo.t | %.%.Q.@.@.@.@.@.@.@.@.@.@.}  .) *.) *.*.) ) ) ) e Y ) Y e w 8 8 8 , 8 &.sXFXFXFXHXHXfXHXHXHXHXHXFXHXFXFXFXfXfXFXFXFXfXGXFXGXJXtX0 , 0 0 , t t t % & % , w F }  .| | , y =.=.f s s = O + 7 9 v r e M M 0 ; * A D.D.D.D.D.D.D.F.F.F.F.U.v X .                                                                                         o % % , , 9 0 w X             . . . . . . . .   . .   . . . . . . . . . . . . . . . . . . . . . . . . . . . . . . . . . . . . . . . . . . . . . . . . . . . . . . . . X X X X X X o o o o X o X # ; , < 1 < 1 # = S f.h.f.S : > a e.V A s g z =.e.e.s * g 9.q.q.q.q.q.q.q.8.q.8.8.8.8.8.8.8.8.8.e.7.V V A * + > * * * * * - * * * * - * : * : * > : A A ( A A V A A A A B B IXIXIXIXIXIXIXIXIXIXIXIXIXIXIXIXIXIXIXIXIXIXIXIXIXIXIXIXIXIXIXIXIXIX",
"IXIXIXIXIXIXIXIXIXIXIXIXIXIXIXIXIXIXIXIXIXIXIXIXIXIXIXIXIXIXIXIXIXIXu s s i d d d d d d d s s d d i s i s y y y y y u u - * * > O 1 l k l k k 1 S g.g.g.h.l = j b B B B B V B A B B : U U Y U U w 7 &   o # $ O @ o 2 q w P P 6 8 UXGXGXFXGXGX| 8 | %.@.@.@.@.@.@.@.@.@.@.@.@.@.@.@. .{ ] ) ) *.e ) *.w w e e *.e w q 8 | tXFXFXfXHXHXHXFXHXHXHXfXFXfXHXFXHXFXHXFXFXFXFXFXGXFXGXGX$.t , t t t t 8 e e *. .&.@.@.@. .&.@.: a g s * > = , 8 } @.%.&.@.&.@.5X&.| 0 * 9.D.D.D.D.D.D.F.F.F.F.D.( + .                                                                                         @ % % % t 8 e 0 o             . . . . . . . . . . . . . . . . . . . . . . . . . . . . . . . . . . . . . . . . . . . . . . . . . . . . . . . . . . . . . . . . . . . . .     X X X X o o o + + + # ; , , < 1 < # = S c.c.f.H j > a V z A a u g 7.e.A y u e.q.q.q.8.8.8.8.8.q.8.q.8.8.8.8.8.8.8.e.9.V V A A u > > * * * * - * * - : - * - * * * : y A ( V A V A A V V A A B B IXIXIXIXIXIXIXIXIXIXIXIXIXIXIXIXIXIXIXIXIXIXIXIXIXIXIXIXIXIXIXIXIXIX",
"IXIXIXIXIXIXIXIXIXIXIXIXIXIXIXIXIXIXIXIXIXIXIXIXIXIXIXIXIXIXIXIXIXIXu y y s d d d d d d s s s d d s s i s y y y y y u - * * * > O * k k l k k 1 S g.j.g.g.l > h b B B A B A A g V B p w U ) Y w 6 2 o t t % % # % % o 2 6 ) U 7 | sXGXGXFXGXFXM t  .Q.@.#.@.@.@.@.@.Q.@.@.@.@.@.@.@.| | @.| @. . . . .} ] ) ) Y ) w 8 | tXFXFXGXFXHXFXHXHXHXHXFXFXfXHXFXHXfXFXHXFXFXfXFXFXFXFXHXvXF ) | |  .}  .| @.| @.|  . .|  .@.8X] = u * ; 0 M | #.5X6X5X6X6X5X6X5X5X6X6X#.N ( D.D.D.D.D.D.F.U.F.F.F.S.: .                                                                                         % t % , t 0 0 9 .             . . . . . . . . . . . . . . . . . . . . . . . . . . . . . . . . . . . . . . . . . . . . . . . . . . . . . . . . . . . . . . . . . . . . . X   X X X X o o o + @ + ; , < < 9 1 0 ; 1 S v.b.v.v.m * a A A A B p A V V y y A q.q.q.8.8.8.8.q.8.q.8.8.8.8.8.8.8.8.8.e.7.e.V V V A > + O * * * - - - - * * - * * * : > a A A V A A A V A A A ( B B IXIXIXIXIXIXIXIXIXIXIXIXIXIXIXIXIXIXIXIXIXIXIXIXIXIXIXIXIXIXIXIXIXIX",
"IXIXIXIXIXIXIXIXIXIXIXIXIXIXIXIXIXIXIXIXIXIXIXIXIXIXIXIXIXIXIXIXIXIXu u y s s d d d d s s s d d i s i s s y y y y y u * * * - > O - k k l k k - S M.g.g.g.1 > h j B B B A z z z 3.B p U ) ) ) U w & % t , , , , t % % @ % q 6 r 0XdXGXGXFXGXdXr X w  .@.@.@.@.@.@.@.@.@.@.@.@.@.@.@.@.@.@.@.@.@.&.| | @.|  .{ } w 8 { eXFXGXGXFXFXHXfXFXHXfXFXFXFXFXHXHXHXHXFXfXFXFXFXGXHXFXGXHX0XY ) @.| | @. .|  .|  .+.@.@.#.Q.8X8X/ = % r  .@.@.5X6X6X5X6X6X8X8X8X8X8X6X5X0X/ A S.D.D.D.D.D.F.F.F.F.F.D.v .                                                                                         @ % , , 7 8 0 8                   . . . . . . .   . . . . . . . . . . . . . . . . . . . . . . . . . . . . . . . . . . . . . . . . . . .   o . . . . . . . . + .   o . .   X   X X X o o X X O @ # , < < 1 0 n , 1 f.!.!.c.z.b * p a A A V a u B p * a 9.9.9.9.q.q.8.8.8.8.q.8.8.8.8.8.8.8.8.8.8.7.9.7.V V V p > > > * * * - * - - * * : * : * p A B V V V A A A A V V A B B IXIXIXIXIXIXIXIXIXIXIXIXIXIXIXIXIXIXIXIXIXIXIXIXIXIXIXIXIXIXIXIXIXIX",
"IXIXIXIXIXIXIXIXIXIXIXIXIXIXIXIXIXIXIXIXIXIXIXIXIXIXIXIXIXIXIXIXIXIXu y s s s d d d i d s s d d d s s s i y y y y * * * * y * > > > k k k l k l a.M.g.g.h.h = j j j B B g g 3.3.:.f a e ) ) ) 6 6 & 7 7 7 , , , , , % % # & 2 &.sXFXGXFXMXGXsX5 X @ t ) | @.@.@.@.@.@.#.@.@.@. .@.@.@.@.@.@.@.#.@.{ | | |  . .} ^ ( wXFXFXFXGXfXFXHXfXFXHXHXHXFXFXFXHXHXFXfXFXFXHXfXHXHXGXGXGXmX%.e &.&.)  .@. .@.@.%.%.%.8X8XQ.8X8X%.t 2 / +.@.@.@.@.#.@.+.#.#.#.@.#.6X6X#.#.0X/ A D.D.D.D.D.D.D.F.F.F.F.D.( &                                                                                         % % % , 7 8 0 ,                   .   . . . . .   . . . . . . . . . . . . . . . . . . . . . . . . . . . . . . . . . . . . . . . . . . . . . . o o o o & % 2 2 2 6 q w 6 w 6 q 8 t % % @ & @ & @ @ & # ; , 1 0 0 - v.=X!.v.X.C h p b A A B b p p * * A 9.8.8.9.9.8.8.q.e.8.9.8.8.8.8.8.9.8.8.8.e.e.9.7.V V B A y > > > * * * * * * - - p p * * A ( A V A A A A V A V A A B B IXIXIXIXIXIXIXIXIXIXIXIXIXIXIXIXIXIXIXIXIXIXIXIXIXIXIXIXIXIXIXIXIXIX",
"IXIXIXIXIXIXIXIXIXIXIXIXIXIXIXIXIXIXIXIXIXIXIXIXIXIXIXIXIXIXIXIXIXIXy y s s s d d d d d d s d s d i i s s s y y y y y * * * * > > > l k l k k l S M.M.g.j.h = h j B V V f z 3.e.=.3.a 0 ) ) ) U q % 7 7 7 7 7 , , % % # O X Y rXdXFXGXMXFXGXeX; o % o % , ) &.@.#.@.@.@.@.@.@.@.@.@.| @.@.#.@.@.| @.|  .@. . .q I UXFXFXGXGXFXFXFXFXFXFXFXHXfXHXFXFXFXFXFXHXFXFXFXHXHXHXGXHXFXqXw @.%.8X8XQ.Q.8X8X8X8X8X8XQ.8X8XQ.8X@.2 Y +.+.@.+.+.+._ +._ _ _ ) ) _ #.@.@.5X8X/ A S.D.D.D.D.D.D.D.F.F.F.F.S.p                                                                                         % % % % , 8 e t             .             . . . . .   . . . . . . . . . . . . . . . . . . . . . . . . . . . . . . . X . . . . . . X + o & % % 2 q q U Y E ) ) ' _ @.+.#.#.5X3X#.+.+.+.+. .) ) ) Y w w 8 t t # = # h G G H J v v p b A b p a p * > A S.e.e.8.8.8.8.8.9.8.8.9.8.8.8.8.8.8.8.e.e.e.e.e.7.V V V A A > + > * * * * u : p u p p > : A A V V A A V A A A A A V B B IXIXIXIXIXIXIXIXIXIXIXIXIXIXIXIXIXIXIXIXIXIXIXIXIXIXIXIXIXIXIXIXIXIX",
"IXIXIXIXIXIXIXIXIXIXIXIXIXIXIXIXIXIXIXIXIXIXIXIXIXIXIXIXIXIXIXIXIXIXy s y s s d d d d d d d s s d i i s s y y y y y * * * * - > $ > k k k l l l a.M.M.g.h.l = h j B 7.V z z 3.=.=.e.j 0 ) ) ) U q % , , 7 7 , , , ; # @ X % #XmXfXFXFXMXMXFXrXt & % t & o & t ) @.@.@.@.@.@.@.@.@.@.@.@.@.@.@.@.@. .@.+.@.@.Y % &.dXFXFXHXfXFXFXfXFXFXFXFXHXHXHXfXFXFXFXHXHXfXFXFXHXHXFXHXGXmX] w 8XQ.8X8X8X8X8XQ.8X8X8X8X8X8XQ.8X8X) ) } +.+.+.+.` _ _ _ _ _ _ _ _ _ +.+.#.5X0X/ A S.D.D.D.D.D.D.D.D.F.F.F.S.^                                                                                         % % % , , 0 0 %           .               . . . . . . . . . . . . . . . . . . . . . . . . . . . . X . . . + > > y p a i s i i p 9 8 r U Y ) E _ ~ E ' _ +.4X#.5X5X5X5X5X5X5X4X4X5X5X5X5X5X#.@.+.@.@.#.#. .) Y 0 8 q 2 % + + # > > = * * * * * > * A V 7.8.8.e.8.e.9.8.e.9.8.8.8.8.8.8.8.8.8.e.e.e.7.7.7.V V A A - > > * * * * u p y p p * * p B V V V A A V A V A V A A B B IXIXIXIXIXIXIXIXIXIXIXIXIXIXIXIXIXIXIXIXIXIXIXIXIXIXIXIXIXIXIXIXIXIX",
"IXIXIXIXIXIXIXIXIXIXIXIXIXIXIXIXIXIXIXIXIXIXIXIXIXIXIXIXIXIXIXIXIXIXu y y s s d d d d d s s s d i i s s s y y y y y u * * * * > > > k k l k k u a.M.g.g.h.l > b B Z 0.0.7.7.=.=.=.=.d < ) ) U ) w t t , 7 7 7 7 , , @ X X | mXFXFXGXFXFXFXHXqX% & 2 2 % % % & & t ) @.@.Q.@.@.@.@.@.@.@.@.@.#.@.@.@.@.| @.} 8 0 wXGXFXFXFXFXFXFXFXFXFXFXfXHXHXfXFXFXfXFXFXFXFXFXHXHXFXfXHXFX#Xw %.Q.@.8XQ.Q.@.#.#.Q.Q.Q.8XQ.8X8X0X@.w ) +.+.+.+.+.) E ) ) _ _ _ ) _ ' +.+.@.5X8X+.p S.D.D.D.D.D.D.D.D.F.D.D.U.( X                                                                                     . % % t , , 0 e %           . .     . . . . . .   . . . . . . . . . . . . . . . . . . . . . . . . . . > > y d f 3.;.5.6.2.2.2.4.3.B / E E ` ` +.+.+.4X#.5X5X5X4X5X4X4X#.3X3X3X+.` ` +.` +.+.` +.+.+.` ' +.+.+.+.+.+.+.+.} Y w q 8 7 , % + & > > > > p p A A V V e.V V e.e.e.9.8.8.8.9.8.8.8.8.8.8.9.7.7.V V V A A a > > * * * * - : y p * > p A V V A V V A A A A A A V V B B IXIXIXIXIXIXIXIXIXIXIXIXIXIXIXIXIXIXIXIXIXIXIXIXIXIXIXIXIXIXIXIXIXIX",
"IXIXIXIXIXIXIXIXIXIXIXIXIXIXIXIXIXIXIXIXIXIXIXIXIXIXIXIXIXIXIXIXIXIXu u s s s d d d d d d s s i s s s s y y y y y y u * * * * - O > l k k k k u a.M.M.g.h.l * B Z 0.S.0.7.7.=.:.=.=.d : / _ U U w 8 % 7 8 , 7 , ; ; + + / eXdXGXHXFXdXFXFXFXwX& 2 2 2 t % 2 & % @ & t )  .@.@.@.@.@.@.@.@.#.@.@.@.@.| | +.E 2 %.FXFXFXfXFXFXFXFXFXFXFXFXHXHXHXHXFXFXFXFXFXFXfXGXHXFXHXHXHXUX^ &.Q.#.Q.Q.8X8XQ.@.Q.6XQ.8X8X#.8X8X%.Y U _ _ +.+.E 3 5 * : v I E +._ _ _ +.+.@.5X8X .p S.D.D.D.D.D.D.D.D.F.D.D.H.( >                                                                                       % % % , , 9 0 @           . .   . . . . . . . . . . . . . . . . . . . . . . . . . . . . O > > * u g z 2.5.1.1.<.1.1.1.1.1.1.<.;.Z / ~ +.+.4X4X4X4X4X5X4X4X5X5X3X3X5X4X4X4X` ` #.2X' +.` ' +.+.+.+.+.' ' ` +.' #.` +.#.` @.+.+.@.+.} +.) e q 8 5 ; ; ; = * * * u p a a A V 7.7.e.9.9.e.8.9.e.7.e.7.7.7.7.7.V A A A : > > * * * * y p p > : A A V V V V A V A A A A V A A B B IXIXIXIXIXIXIXIXIXIXIXIXIXIXIXIXIXIXIXIXIXIXIXIXIXIXIXIXIXIXIXIXIXIX",
"IXIXIXIXIXIXIXIXIXIXIXIXIXIXIXIXIXIXIXIXIXIXIXIXIXIXIXIXIXIXIXIXIXIXu y s s s d d d d d u y d i s s s y y y s y y y - * * * * > > > k k k k k u a.N.M.j.g.l = C Z 0.0.0.0.7.3.3.=.=.e.a M / E U w q % 7 9 7 , , ; + . e qXFXFXFXFXFXFXfXFXGXUX& & 6 2 2 t 4 2 2 2 t & & t w ) @.&.@.@.@.@.@.@.@.@.@.@.@.| 3 / tXFXFXFXFXFXFXFXfXfXFXFXFXLXfXFXFXFXFXfXFXdXFXHXGXLXfXHXLXgX^ / 6X@.@.#.@.Q.@.#.Q.Q.#.#.Q.Q.8XQ.@.8 2 +._ ) ) 5 : A A ( ( ( B 5 E ) _ ' @.#.@.#.8X/ = S.D.D.D.D.D.D.F.D.F.D.D.F.( :                                                                                     o t % % 7 7 0 8 o         . . . .   . . . . .   . .   . . .     . .   . . . . . o . > > * a f =.5.2.2.<.1.1.1.1.1.1.1.,.1.1.1.1.1.3./ E ~ +.+.+.4X4X4X4X4X4X+.3X5X4X` 4X4X5X+.` 3X5X5X4X#.#.5X5X3X4X5X+.#.5X5X#.5X#.4X5X5X3X5X5X` +.+.+.#.+.+.+._ E R Y w q 2 2 ; > % * * : a A V V 7.9.8.7.7.9.9.7.0.7.7.9.7.V V V A * > * : - y y * * > p A V V V A V V A V A V A A V A B B IXIXIXIXIXIXIXIXIXIXIXIXIXIXIXIXIXIXIXIXIXIXIXIXIXIXIXIXIXIXIXIXIXIX",
"IXIXIXIXIXIXIXIXIXIXIXIXIXIXIXIXIXIXIXIXIXIXIXIXIXIXIXIXIXIXIXIXIXIX- y s s s s d d d d y * i i s s s s y y y y y y * * * * * > O > l k k k k - a.M.M.g.h.l = C Z 0.0.q.9.9.3.3.=.=.e.s v ] ) U w q % , 9 7 , , % X 5 P.mXFXFXMXdXMXFXFXMXFXP.o t t t 6 6 6 t t t t & & & o % t Y  .@.@.#.@.@.@.@.#.#.+.Y 7 6XdXFXFXFXFXfXFXFXFXFXFXHXFXHXfXHXHXFXFXFXFXFXGXGXFXHXHXHXPX] q &.&.@.Q.Q.@.' @.@.Q.@.Q.Q.8X8X#.) % 2 E } E w : N X.S.S.S.S.D.S.v ^ ) ) ' _ +.@.#.6XY * S.D.D.D.D.D.D.D.F.D.D.D.D.S.v                                                                                       t % t , 7 0 8 X             . . . . . . . .     . . .   . .   . . . . . O + * y i f ;.5.2.<.1.<.1.1.1.1.1.1.1.1.1.1.1.1.1.1.1.<.:.Z } _ ` +.+.+.+.4X+.4X+.+.4X4X5X3X3X+.4X5X#.5X5X5X5X5X5X#.#.5X5X5X#.5X5X5X#.5X5X5X5X#.5X5X5X+.+.+.+.+.4X4X4X+.+.` +.+.+.+.) E I 5 2 & + > > * y A A A V V 7.V V 7.7.7.7.7.V V V V p > > * y y : * > * A B V A A V V A A A A V V V A A B B IXIXIXIXIXIXIXIXIXIXIXIXIXIXIXIXIXIXIXIXIXIXIXIXIXIXIXIXIXIXIXIXIXIX",
"IXIXIXIXIXIXIXIXIXIXIXIXIXIXIXIXIXIXIXIXIXIXIXIXIXIXIXIXIXIXIXIXIXIXu i s s s s s d d d u * i i i s s y y y y y y y y * * * * * > > l k k J l - f.M.g.g.h.- = H Z 0.0.0.0.9.3.3.=.f f d p [ } ) U e , % 7 9 7 , + % %.dXMXFXFXFXdXMXMXFXFXFX$.X t 6 6 t t 6 6 6 4 t 2 2 t % t & o % 7 )  .@.@.@.@.@.@. .7 ] eXFXFXfXFXFXFXFXFXFXFXfXHXHXFXFXFXFXfXFXFXfXFXHXGXGXHXHXdX( 6 &.#.#.@.#.@.#.Q.@.Q.3X8XQ.8X@.{ t o 8 } } E q 9 Z S.S.S.S.S.D.S.S.S.r ) ' ) _ @.@.6X6X/ > S.D.D.D.D.F.D.D.D.D.D.D.D.S.b o                                                                                   . % % , , , 0 9 @         . . .   . . . . . . . . . .   . .   X   X O > * s f =.;.5.<.1.<.1.1.1.1.<.1.1.1.1.<.,.>.1.,.,.,.,.,.,.<.2.7./ } _ ` ` ` ` +.` +.2X3X4X#.` 5X5X` 5X3X5X3X#.4X5X5X3X5X5X3X5X5X3X5X5X5X3X5X5X3X5X5X5X3X5X#.4X+.+.+.+.+.+.` +.+.` ' ` +.+.+.+.+.+.E U 2 % + > > * y p p A A A A V 7.V 7.9.V V 7.A * > * : p p > > p A V V V V A V V A V A A A A A V A A IXIXIXIXIXIXIXIXIXIXIXIXIXIXIXIXIXIXIXIXIXIXIXIXIXIXIXIXIXIXIXIXIXIX",
"IXIXIXIXIXIXIXIXIXIXIXIXIXIXIXIXIXIXIXIXIXIXIXIXIXIXIXIXIXIXIXIXIXIXu y s s i d d d d d * - i s s s s s s y y y y y y * * * * > $ > k S k k l l s.M.g.g.h.- : S.0.7.0.S.0.9.3.3.e.=.=.g i M } ) Y w 8 @ 5 9 , ; + { tXMXdXFXMXdXdXdXMXFXMXFXo.o t 6 6 6 6 t 6 t 2 6 2 2 t & % % % & % & % 2 0 ) ] }  .) 5 U.tXdXFXFXFXfXFXFXFXFXFXfXFXFXfXFXFXFXHXFXFXfXGXGXGXGXHXFX&.t } %.#.#.@.@.%.Q.Q.8X8XQ.#.) ) % o % w ) _ E % 9 ( S.S.S.D.D.D.D.S.D.S.9 R Q ' ) @.@.#.6XY * S.D.D.D.D.D.D.F.D.D.D.D.D.D.V +                                                                                   X % ; , , , 0 8 &             . . . . . . . . .     . . . . X > * u d f 4.2.<.1.1.1.1.1.1.,.<.1.,.,.,.>.,.,.>.,.<.1.,.>.,.,.,.,.,.>.e.B } } _ _ E _ _ _ ` ` ` 4X+.4X` ` 3X3X5X5X3X5X5X5X5X5X3X5X5X3X5X5X5X5X5X5X5X#.5X5X#.4X5X5X5X5X5X4X4X#.+.+.` +.` ` ` ` +.` ` ` ` ` +.+._ E U q ; > * * * * * y p a A V A V V V V V A > * * p * > * A A e.V V V A V A A A A A A B A A V B IXIXIXIXIXIXIXIXIXIXIXIXIXIXIXIXIXIXIXIXIXIXIXIXIXIXIXIXIXIXIXIXIXIX",
"IXIXIXIXIXIXIXIXIXIXIXIXIXIXIXIXIXIXIXIXIXIXIXIXIXIXIXIXIXIXIXIXIXIXu y s s d d s d d d u * i s s s s y y y y y y y y * - * * > > $ l k x k l l g.M.g.k.h.u : 0.S.0.9.9.9.8.3.3.=.:.=.f d p ]  .) Y w % ; 9 ; + 9 0XFXdXmXdXmXdXFXFXdXMXMXFX&.& t 6 6 w w w 6 6 6 6 6 t 2 2 2 t & % % & & o o & % 2 t t ^ UXPXmXFXdXFXFXFXFXFXfXFXFXFXFXFXFXFXFXHXFXFXFXGXGXFXGXGX$.2 ) %.%.@.6X@.@.@.@. .) w q t o o & 6 ) _ ) / 3 < ( S.S.S.S.S.D.D.D.S.S.S.r R ' ) ) +.@.5X5XI * S.D.D.D.D.D.F.F.D.D.D.D.D.D.( %                                                                                   X t % , , 7 0 8 @       . . . . . . . . . . .   . . . O > * i f =.2.<.2.1.1.1.1.1.1.>.,.>.,.>.>.>.>.,.>.>.>.1.>.,.1.1.,.,.,.,.1.1.1.<.7.N } Y e e r r w ) ' ` 4X4X+.+.4X+.+.3X5X#.3X5X3X#.5X5X5X#.5X5X#.4X#.4X5X3X3X5X3X#.5X5X#.3X4X5X+.4X4X5X#.5X5X` +.` ` ` ` ` ` ' ` ` ` +.` +.} E 9 p A s y * * * * * p A V V V V A A p * * : > > p B V V A A A V A V V A V A A A B A B A IXIXIXIXIXIXIXIXIXIXIXIXIXIXIXIXIXIXIXIXIXIXIXIXIXIXIXIXIXIXIXIXIXIX",
"IXIXIXIXIXIXIXIXIXIXIXIXIXIXIXIXIXIXIXIXIXIXIXIXIXIXIXIXIXIXIXIXIXIXu y y s d d d f d d u * i s s s s s y y y y y y * > * - * * > > l k k k l l M.M.g.g.s.u p G.9.0.S.S.9.0.z =.f e.=.g g u :  .) w Y 8 # ; = & | dXdXFXFXdXFXMXdXFXFXdXMXFX[ & t 6 6 t 6 6 6 6 6 6 6 6 6 2 2 2 % 2 % t % % % % & o & & ( UXDXFXFXfXFXFXFXFXFXFXFXFXFXFXFXdXFXfXFXfXFXHXFXFXGXGX#X2 6  .| } ) ) *.w 6 2 & & & o & % 2 6 w ) ) ' E : ( ( ( 9.S.S.S.S.S.S.D.S.z.0 ) ' ) ' +.#.5X6X^ y S.D.D.D.D.D.D.D.D.D.D.D.D.D.S.; .                                                                                 X % % % t , 9 7 &           .   . . . . . . . . > > y d f 4.2.<.<.<.<.1.1.<.1.1.>.>.>.>.>.,.,.>.,.>.,.>.>.>.>.>.>.>.,.,.,.1.1.1.1.1.<.3.B 9 v | ..N 0 8 w U ` +.2X4X` +.` +.3X5X5X#.5X5X5X#.3X5X5X5X5X5X5X3X5X5X5X5X5X5X#.5X#.+.+.#.+.#.#.#.#.+.#.4X#.+.+.#.#.` +.+.` ` ` ` +.+.` +.+.] B V 3.e.f g i y * * y p A B V V V A * * > > : A B A V A V V A V A V A B V A A A A A A IXIXIXIXIXIXIXIXIXIXIXIXIXIXIXIXIXIXIXIXIXIXIXIXIXIXIXIXIXIXIXIXIXIX",
"IXIXIXIXIXIXIXIXIXIXIXIXIXIXIXIXIXIXIXIXIXIXIXIXIXIXIXIXIXIXIXIXIXIXy y s s d s d d i i * > * * y y y s y y y y y y * O - - * > > > l S k l l l g.M.g.g.h.l - G.H.D.D.G.9.7.e.e.=.3.f f f a y 9 ) ) ) U 5 $ # ; 0XmXdXdXMXmXmXdXMXFXFXdXMXdXM & t w 6 6 6 t 6 6 6 t 6 6 6 6 6 2 2 2 2 % % 2 % % % & & & ~ DXgXdXFXFXFXdXFXfXFXFXFXfXFXdXFXFXFXFXFXFXFXFXMXMXFX0X% . o % % & & & & & $ o & % 2 2 6 6 w ) ) ) _ _ ^ 2 ( ( V S.9.S.S.S.S.S.S.D.( 7 P ) ) ' +.#.5X#.K A S.D.D.D.D.D.D.D.D.D.D.D.D.D.G.:                                                                                   o t % % , 7 9 7 @             . . . . . X > > u g f 4.<.>.<.<.<.1.<.<.<.<.1.<.<.>.>.>.>.,.>.1.>.>.>.>.1.>.>.>.>.>.>.1.1.>.,.,.,.1.1.<.=.u v X.J.J.H n 0 w U _ +.` ` +.+.+.3X#.5X5X3X5X3X5X5X5X5X3X#.' 3X5X#.3X#.4X3X3X+.#.+.+.+.#.+.+.+.+.+.+.+.@.@.#.@.#.#.+.+.+.+.+.+.` +.+.` ` ` ` +.X.B =.<.<.2.:.:.f s y * * : : A A A p > + + A A A A V V A A A V V A A B A A A A A A ( IXIXIXIXIXIXIXIXIXIXIXIXIXIXIXIXIXIXIXIXIXIXIXIXIXIXIXIXIXIXIXIXIXIX",
"IXIXIXIXIXIXIXIXIXIXIXIXIXIXIXIXIXIXIXIXIXIXIXIXIXIXIXIXIXIXIXIXIXIXu y s s d d d d y > > $ > > > * * y y y y y y * > > > > * * > = l k x k l l j.M.j.g.f.u - H.F.D.D.D.S.e.e.3.=.3.3.f d d u = r } ) E w # # &.sXdXdXdXdXdXFXdXmXMXFXFXdX0X8 2 6 t 6 6 6 t 6 t 6 6 6 P 6 w 6 6 t t & t t 2 t & % % & % @.tXdXFXFXdXFXFXFXFXdXFXFXFXFXdXFXFXFXFXFXFXHXdXFXFXwX5 . o & & & & & & & % % t t 8 6 6 w ) ' _ _ _ _ +.8 : ( V ( S.S.9.S.9.S.D.S.S.B 6 ~ ) R _ @.#.5X} : Z D.D.D.D.D.D.D.D.D.D.D.D.D.D.S.r                                                                                 . @ ; % t 7 7 8 7 @         .   . . . + * p i z =.4.<.>.>.<.<.<.<.<.<.1.>.<.>.>.>.<.1.>.>.<.>.>.>.>.>.<.<.>.>.>.>.>.>.>.>.>.,.1.,.1.<.;.s h H J.K.K.J.H F 9 q ) ` ` ` ` #.4X4X` #.5X5X4X5X4X5X+.` ` ` ` ' ` ` ` ' ` ` +.+.+.+.+.+.@.@.+.+.+.+.+.+.+.+.+.#.#.@.#.+.+.#.` +.+.+.+.` ` +.` `  .[ z <.<.<.<.1.2.<.=.d y > > > * p - > > * A A A V V V A V A A A V A A A A A A A A A IXIXIXIXIXIXIXIXIXIXIXIXIXIXIXIXIXIXIXIXIXIXIXIXIXIXIXIXIXIXIXIXIXIX",
"IXIXIXIXIXIXIXIXIXIXIXIXIXIXIXIXIXIXIXIXIXIXIXIXIXIXIXIXIXIXIXIXIXIXu y s s s d d d s y - > p y > * * p * * > * * > > = > + * * > > k x x k l c k.g.g.g.f.- p G.U.H.D.D.S.7.e.e.3.7.e.z d d a y ; / ) ) q & F 0XdXmXmXdXdXdXdXFXmXMXMXsX0X/ & 2 2 6 6 t 6 w w 6 6 6 P P P w P 6 6 6 2 t & 2 2 t % & @ 6 #.tXdXFXFXFXFXFXFXFXFXdXfXFXFXFXFXFXfXFXFXGXFXFXFXdX( 2 & % q q 8 q 8 6 6 6 q 6 P q U ) ) ) _ _ _ _ _ ) ; 9 ( S.S.S.S.7.S.S.S.D.S.V : I ) ' R ) +.#.#.9 p S.S.D.D.D.D.9.D.D.D.D.D.D.D.S.S.: .                                                                               . % t % % , 7 8 7 &     .   X X & = : a d z 4.;.<.<.>.<.>.<.<.<.>.<.<.>.>.>.>.<.<.>.<.<.>.<.1.>.>.>.<.>.>.>.>.>.>.>.>.>.>.1.1.>.,.>.;.s : X.J.J.J.K.K.K.H D 9 L _ ' +.` ` ` ` ` +.4X4X` 3X3X` ' ` ' ' ' ` ' ' ` ' _ _  .@.@.%.#.@.&. .| &.+.| | +.@.+.+.+._ +.@.@.4X5X#.@.+.+.+.+.` ` +.+.` } B f :.1.<.1.1.1.<.;.3.d s * > > > > > - p b A A A V A A A V A A A A V A A A A b A IXIXIXIXIXIXIXIXIXIXIXIXIXIXIXIXIXIXIXIXIXIXIXIXIXIXIXIXIXIXIXIXIXIX",
"IXIXIXIXIXIXIXIXIXIXIXIXIXIXIXIXIXIXIXIXIXIXIXIXIXIXIXIXIXIXIXIXIXIXp y y s s d d d d d y * - - > + + > > > > > > > + > O > > > > > n k l k 1 S N.g.g.g.f.- p H.D.H.D.D.D.9.e.e.3.8.7.z g f a a - 9  .) 5 5 0XtXdXFXmXdXdXdXmXmXdXFXmX0Xe % 2 6 6 t 2 6 6 t 6 6 6 P R ' ' P w P 6 t 2 & 2 % % 2 % % & 2 %.FXFXFXdXFXfXFXFXdXFXfXFXFXfXFXfXFXFXFXGXFXFXHXdXUX& & & 7 q q 6 q U U q L U U R ) ) _ ) _ _ _ _ _ _ ) % p ( S.( S.S.V S.S.D.D.( A 2 U ) ! Q ' #.@.] 5 A S.D.D.D.D.S.D.D.D.9.D.D.D.D.D.G.v .                                                                           . . . @ t % t t 7 8 7 @   . o & % 5 7 ; j B 3.;.;.>.<.<.>.>.>.>.>.>.<.<.>.>.>.>.<.>.>.>.<.>.>.>.>.>.>.>.>.>.>.>.>.>.>.>.>.1.1.<.>.,.<.<.s > D J.J.J.J.J.K.K.J.D , 6 _ ` ` ` ` 4X3X2X` 5X3X+.' ' ' ' ' ` ' ' ' _ ) )  .{ | %.%.$.L.P.L.L.#X#X#X#X@XL.$.Q.#X%.&. .) ) ) ) } _ +.+.+.+.+.+.` +.+.#.+./ g =.<.1.1.1.1.1.<.<.<.;.=.d y * > > * * * u p A A A A V B A V A A A A A A A A v IXIXIXIXIXIXIXIXIXIXIXIXIXIXIXIXIXIXIXIXIXIXIXIXIXIXIXIXIXIXIXIXIXIX",
"IXIXIXIXIXIXIXIXIXIXIXIXIXIXIXIXIXIXIXIXIXIXIXIXIXIXIXIXIXIXIXIXIXIXp * y s s d d d d d u > - * : > > > + > + > + O > > > $ > $ > $ $ > - l - S Z.g.g.g.a.y p G.H.D.H.D.D.S.9.e.e.7.7.V V g a a p = r 9 & | yXtXmXdXsXsXdXdXmXdXdXsX0XY 2 2 6 6 6 6 6 2 6 6 P w ' ' ' ' ' ' P w P P 6 6 2 % 2 2 2 2 % 2 #.tXmXdXFXFXFXdXFXdXFXFXFXdXFXFXFXFXFXHXFXfXFXdX0X2 & & t q 6 q q w U U P R ) R ) ) _ ' _ _ _ ) ) _ _ ) % N ( ( V 9.S.S.S.S.S.V A & ^ E ' ' ) _ +.&.q : Z S.D.D.D.9.D.D.D.D.D.D.D.D.D.D.S.b .                                                                             .   % % t t t 8 8 7 @ & 2 q Y ] } +.e : g =.;.;.>.>.>.>.>.<.>.>.<.>.>.<.>.>.<.>.>.>.>.>.>.>.>.<.>.>.<.<.>.>.>.>.>.>.>.,.1.,.>.,.1.;.f * k J.J.J.J.J.J.K.J.D , % U _ ` ` +.` #.#.` ' ' ' ` ' ` ' +.' ' ) w ) ) | $.@X$X$X$X%X;X:XwX$X:X:X;X;X:X$X$XsXiXsXsXeXqX#X@. .F Y *.w Y ) _ +.+.+.+.+.` +.+.( z ;.<.1.1.1.1.1.>.<.<.<.;.=.f s * > > > > > * A A A V A V V V V A A A A p b b IXIXIXIXIXIXIXIXIXIXIXIXIXIXIXIXIXIXIXIXIXIXIXIXIXIXIXIXIXIXIXIXIXIX",
"IXIXIXIXIXIXIXIXIXIXIXIXIXIXIXIXIXIXIXIXIXIXIXIXIXIXIXIXIXIXIXIXIXIXp y y y s s d d g s * * : : p * : * - - : * * * - * - > > > > = k J k k - c j.M.g.g.a.u p H.H.H.D.D.D.D.S.7.e.7.7.V V V V A b : + ; 8 0XtXdXFXdXdXdXFXmXdXdXtX#Xw 2 2 6 8 6 t 6 t 6 P P P ' ' ' ' ' ' P ' w P P P 6 2 6 2 2 2 5 2 2 &.tXFXdXdXFXdXFXFXfXFXFXFXdXMXFXFXFXfXHXFXFXmXrX/ o & % 6 8 6 q 6 w w U R R R R ) ) ) ) ) ) ) _ ) ' ` Y & N ( ( V S.7.0.S.0.A p @ 6 U ) R R ) +.@.) 5 p S.S.D.S.D.D.D.D.D.D.D.D.S.9.D.D.S.Z X .                                                                             o t t t % t 2 8 6 6 U _ ` +.4X4X4X+.e - d :.<.>.>.>.>.>.>.>.>.<.>.>.>.<.>.>.>.>.>.<.<.>.>.<.<.>.>.>.>.>.>.>.>.>.1.1.1.,.,.1.1.1.=.y : G.J.J.J.J.J.K.J.D : ; q _ +.` 2X` +.4X+.` ` ` ' ` ' ` _ ) U ) ] o.#X%X$X>X;X;X:X:X:X:X:X;X:X:X:X:X:X:X$XhXnXhXiXvXhXvXvXvXrXqX@XQ.{ *.e w U U ) ) _ ) +.+.+.N 3.;.1.1.1.1.1.1.1.>.<.1.<.<.;.f s y > > > > * y A A A A V V V A A A A A A p IXIXIXIXIXIXIXIXIXIXIXIXIXIXIXIXIXIXIXIXIXIXIXIXIXIXIXIXIXIXIXIXIXIX",
"IXIXIXIXIXIXIXIXIXIXIXIXIXIXIXIXIXIXIXIXIXIXIXIXIXIXIXIXIXIXIXIXIXIXh y y y y s d d d s * > + > > + + > > > + > > O $ > > > = > > - k S x k l c N.M.g.g.a.- i H.H.H.D.D.D.S.S.S.9.9.7.0.0.S.V A : > > #  .tXtXdXsXsXdXFXmXmXsXtXQ.) % 6 6 t w 6 6 6 6 w ' ' ' ' ' ' ' ' ' ' ' ' ' ' ' P 6 6 6 2 8 8 2 % / 0XdXmXfXFXFXdXFXFXdXmXfXFXFXFXfXFXFXGXMXdXtX .& & % 2 8 q 6 6 q q q L U R Q ) P ' _ _ ) ' ' ) ) _ +.w o = v A A V A A B p ; 5 w R ) ' ' ' ' +.@.0 2 b S.S.D.D.S.S.D.D.D.D.S.D.S.S.D.D.S.( + .                                                                           . @ t t t 2 6 L ) ' ' ` 2X3X3X3X4X3X4X+.r * f >.>.>.>.>.>.>.>.>.>.1.<.>.>.>.>.>.>.<.>.<.>.>.<.>.>.>.>.>.>.>.>.>.>.1.1.>.>.1.<.1.:.y - ..J.J.J.J.+XJ.K.F ; ; q E +.2X2X3X` +.` ' ` ' ' ` ' ) R ) { o.%X@X>X;X;X:X:X:X:X:X:X:X;X:X+X+X:X:X+X:X:X$XiXhXvXiXhXiXiXiXhXsXhXvXvXtX@Xo.{ *.q q w ) ) E E } [ V =.<.1.1.1.1.1.<.<.1.<.1.<.>.;.-.3.d y * > > > y A A A A A A ( A A A A A v IXIXIXIXIXIXIXIXIXIXIXIXIXIXIXIXIXIXIXIXIXIXIXIXIXIXIXIXIXIXIXIXIXIX",
"IXIXIXIXIXIXIXIXIXIXIXIXIXIXIXIXIXIXIXIXIXIXIXIXIXIXIXIXIXIXIXIXIXIXh * y y y s d d s s u y y y * * * * * - * > > > > = = > = $ $ $ * k J k l S k.k.g.k.a.- j H.H.D.D.D.D.D.D.D.D.S.0.D.S.0.b : > * * : P.tXdXdXdXdXdXdXdXtXyX .6 t o w 6 6 6 8 6 6 6 ' ' ' ' ' ' ' ' ' ' ' ' ' ' ' ' ' ) P 6 6 2 5 2 % I $.mXdXdXFXFXFXdXdXFXmXFXdXFXMXFXFXFXFXdXdX&.@ & % % 2 8 q q q q w U P R P R P R _ _ _ ' _ ) ) _ _ +.2 % 9 > > > * 5 > ; 8 U U R ) ' ) ) ) +.@.) 5 = B S.S.D.S.9.S.D.9.9.S.S.9.S.D.D.S.S.( %                                                                             & & 2 3 P R ' ' 2X3X3X3X3X3X3X3X2X3X3X4X+.r y :.>.>.>.>.>.>.>.>.1.>.>.<.>.>.>.>.>.<.>.>.>.>.<.>.>.<.<.>.<.>.<.>.1.1.>.>.>.>.<.2.d * Z J.J.J.J.J.J.K.G : ; 8 U _ ` 3X2X2X` 2X` ` ' ` ' ' E  .%.#X%X$X>X:X&X$X:X:X;X:X:X&X:X+X+X+X+X+XK.+X+X:X+X>XhXvXhXiXhXhXvXiXrXrXrXrXrXeXeXeXqX#XO.e 8 8 q w Y E / N V 2.>.1.1.1.1.1.1.1.>.1.<.<.1.<.;.;.3.a y > > > * p A A V A V V A / A b A IXIXIXIXIXIXIXIXIXIXIXIXIXIXIXIXIXIXIXIXIXIXIXIXIXIXIXIXIXIXIXIXIXIX",
"IXIXIXIXIXIXIXIXIXIXIXIXIXIXIXIXIXIXIXIXIXIXIXIXIXIXIXIXIXIXIXIXIXIXp y y y y s d s s s s y y y u u u p y y y y y * y * * - - * > > h S x l - S j.M.g.g.a.u A H.D.D.D.D.D.D.D.S.D.D.D.D.S.A * > * u - : 0XsXdXdXdXdXdXsXtX0X/ 2 & 6 % 8 6 6 q 6 6 6 P ' ' ' ' ' ' ' ' ' ' ' ' ' ' ' ' ' ' ' U 6 2 2 2 % 6 &.tXFXdXFXFXdXdXFXdXFXdXFXdXFXFXFXFXdXsX$.% & & % 2 q q q q 6 q q U U R ) P R ) ) _ _ ) ) ) _ ) _ +.% r / q 5 2 5 q ^ U U U U ) ' ) _ ' ' +.@.7 = p B 9.S.9.9.9.9.D.D.D.D.9.S.S.S.D.D.S.( %                                                                         X & 6 L P ' ' ' 3X3X3X3X3X3X3X3X3X3X3X3X3X2X4X+.: s :.:.>.>.>.>.>.>.<.>.>.>.<.<.>.>.>.>.>.>.>.>.>.>.<.<.>.>.>.>.>.>.1.>.>.>.>.>.<.f * N J.J.J.J.J.J.J.m = ; 5 I E ' ` ` ` +.` ` ' ` ` _ U } %.qX$X:X:X:X:X$X&X:X:X:X:X:X:X:X&X+X:X+X+X+XK.+X+X+X%XrXhXiXrXrXiXhXvXvXhXeXeXeXiXeX>XrXrXrX%X#X..D 0 , 8 w Y ] B =.:.>.<.1.1.1.<.1.1.>.1.1.<.<.<.<.;.:.3.i y > > * p A A V A A V A A A b IXIXIXIXIXIXIXIXIXIXIXIXIXIXIXIXIXIXIXIXIXIXIXIXIXIXIXIXIXIXIXIXIXIX",
"IXIXIXIXIXIXIXIXIXIXIXIXIXIXIXIXIXIXIXIXIXIXIXIXIXIXIXIXIXIXIXIXIXIXh y y y y y s i s s y y y y y y y y y y y y y - y y * u * * > - l S k k 1 a.k.M.g.g.a.u B H.H.D.D.D.D.D.D.D.D.H.D.0.a > * y d d y v 0XsXdXdXmXdXdX0X&.5 & 2 q w % 6 6 6 6 6 w w ' ' ' ' ' P ' ' ' ' ' ' ' ' ' W ' ' ' P P w 6 2 2 2 2 ) rXdXdXFXmXFXFXMXdXFXMXFXFXMXdXFXFXwX0Xq & & % 2 6 8 q q 2 q q w U I R R P R ) ) ) ) ) ) ) ) _ _ ) & Y } ) Y ) Y U ) U U ) ) ) ' ) ) ` +.+.Y 5 : A V ( 9.9.9.S.9.D.9.D.D.D.D.D.D.S.D.S.( >                                                               .     o & P W W W ' 2X2X2X3X3X3X2X2X3X3X3X3X3X3X3X3X3X3X4X} A -.-.>.>.>.>.>.>.>.>.>.>.>.>.>.>.>.>.>.>.>.>.>.>.<.<.>.>.>.>.>.<.1.>.>.,.1.2.-.* n J.J.J.J.J.J.J.N ; ; , q E _ ` ` ` ` ` ` ' ` ' U w %.rXrX$X:X&X:X:X:X:X:X:X:X+X:X&X$X+X:X&X$X$X+X+X+X$X+X$X$XiXiXhXeXiXiXiXhXhXeXhXiXiXvXhXeXrX>X>XrX%X#XQ.O.{ F 0 6 0 m B f :.<.<.1.1.1.<.1.1.1.1.>.>.<.<.<.<.;.4.f s * > > 5 a A A A A V A A v IXIXIXIXIXIXIXIXIXIXIXIXIXIXIXIXIXIXIXIXIXIXIXIXIXIXIXIXIXIXIXIXIXIX",
"IXIXIXIXIXIXIXIXIXIXIXIXIXIXIXIXIXIXIXIXIXIXIXIXIXIXIXIXIXIXIXIXIXIXh u y y y y s i s s y y s y s s y y y y y y y y y y y y y * > 1 l S k k - S k.M.g.g.4.* V H.F.D.D.D.D.D.D.D.H.D.Z u > * s d f d y v wXdXdXdXsXtX%.M ; + # : 9 9 & 5 6 6 6 6 P *.' ' ' ' ' ' ' ' ' ' ' ' ' ' ' ' ' ' ' P P w q 2 2 2 % r 6XdXdXdXdXdXdXFXdXdXMXdXdXFXFXFXdX0Xe & & % % 2 2 q q q q q 6 U I I R R ) ) ' ) R ) ) ) ) ) _ _ Y % ] ) R U E R U P U R ) ) ) ) _ +.+.+.&.r > 5 b V 9.9.e.9.9.9.9.D.D.D.S.D.9.D.D.D.S.S.:                                                                 o 2 P Q Q ' 2X3X2X3X3X2X2X2X2X2X2X2X2X2X3X2X2X3X3X3X3X3X4X/ f -.-.>.>.>.>.>.>.>.>.>.>.>.>.>.>.>.>.>.>.>.>.>.>.<.>.>.>.>.>.>.>.>.>.>.<.:.s h G.J.J.J.J.I.J.G : ; : p v } ` ' ` ` ` ` ' ` } q *.L.sXhXiX$X+X+X+X:X:X:X:X&X&X+X&X$X+X:X$X$X%X$X$X$X$X$X$X$X$X>XeXsXhXvXhXvXhXvXhXvXiX<XeXiXhXeXeXrXeXtXrX%X#XL.o.O.D 0 , h j f =.;.>.1.<.1.<.>.<.1.1.<.>.>.>.>.>.;.;.=.d y * > > p A A A A A A b IXIXIXIXIXIXIXIXIXIXIXIXIXIXIXIXIXIXIXIXIXIXIXIXIXIXIXIXIXIXIXIXIXIX",
"IXIXIXIXIXIXIXIXIXIXIXIXIXIXIXIXIXIXIXIXIXIXIXIXIXIXIXIXIXIXIXIXIXIXh u y y y y y i s s y y y y y y y y y y y y y y y y y u * * > - l J l l - a.k.g.g.s.S y V H.D.D.D.D.D.D.D.D.S.B * * y i d d f d y A wXdXsXsX0X[ < > > p u s i u # 8 q 6 6 P ' ' ' ' ' ' ' ' ' ' ' ) ' ' ' ' ' ' ' ' P P P w q 2 2 2 2 2 @.tXdXdXdXfXFXFXdXFXFXdXFXMXdXFXsX/ & & % % % % 2 6 q q q q q q I T ) ) ) ' _ _ _ ) Q ) ) ) ) _ q % } ) E E ) P ) ) ) R _ ) ) ) ' +.+.#.} & > A A S.e.9.V 9.9.9.9.D.S.D.S.D.9.D.D.D.S.( : .                                                         . . & P ' ' ' 2X3X3X2X3X2X2X2X2X2X2X2X' ' ' ' ' ' ' 2X3X2X3X3X3X+.A =.:.:.>.>.>.<.>.>.>.>.>.>.>.-.>.>.>.>.>.>.>.<.>.>.>.>.>.>.>.>.<.>.>.>.:.i h J.J.J.J.G.J.I.H < = : : p b } +.` ` ` ` ` _ ) % w @XiXiXiXhX>X%X+X%X:X:X+X%X+X+X%X$X$XI.K.J.P.I.$XI.#X%X$X$X$X$XwXiXeXiXeXhXvXhXhXvXvXhXvXiXiXvXhXeXrXeXsXrXrXrX%X%X#X%.O.D 9 - u d =.-.<.1.1.1.<.1.>.<.<.<.<.1.>.<.<.;.;.;.3.s * > * : v A A A A b IXIXIXIXIXIXIXIXIXIXIXIXIXIXIXIXIXIXIXIXIXIXIXIXIXIXIXIXIXIXIXIXIXIX",
"IXIXIXIXIXIXIXIXIXIXIXIXIXIXIXIXIXIXIXIXIXIXIXIXIXIXIXIXIXIXIXIXIXIXh u y i y y y i s s y y s i s y y y y y y y y y y y u * * * > - k S k l - a.g.j.g.g.a.u V H.U.D.F.D.H.H.D.S.A * * y d d f f =.s y N I.uXuXP.b * * * a d d f d d > 2 U L P P P ' ' ' ' ' ' ' ' ' ' ' ' ' ' ' ' ' ' P P w P P 8 2 2 2 % & e rXmXFXdXFXFXdXFXdXFXdXdXFXdXFXtX8 & & % % % % 2 2 8 q q 6 w U U I R P ) ) ) ) ) ) ) ) ) ) _ ) 2 % } } ) ) ) ) ) ) ) ) ) ) ) ' +.+.+.+.3 > : v B 7.9.9.9.9.9.9.9.D.9.S.9.9.S.S.S.D.S.S.9 .                                                         o P ' ' ' 2X2X3X3X3X2X2X2X2X2X2X' Q ' ' ' ' 2X' ' ' ' ` 2X2X3X3X4X/ g :.:.>.>.>.<.<.>.>.>.:.:.:.-.>.>.>.>.>.>.>.>.1.>.>.>.>.>.>.>.<.>.1.<.d : X.J.J.J.J.J.J.X.h = : p u g g p } +.` ` ` _ 6 & 0 %XvXhX<XeXiXiX%X%X+X+X+X%X%X$X%X%XI.J.X...N n n < < h n j n n ..o.#XrXeXrXeXhXvXhXhXiXsXhXhXiXiXsXrXrXrXrXhXhXeXrXqXqX%X#X#Xo...< u d f f -.<.<.<.<.1.<.<.1.<.<.>.>.<.<.;.;.-.-.g y > > : p v A B b IXIXIXIXIXIXIXIXIXIXIXIXIXIXIXIXIXIXIXIXIXIXIXIXIXIXIXIXIXIXIXIXIXIX",
"IXIXIXIXIXIXIXIXIXIXIXIXIXIXIXIXIXIXIXIXIXIXIXIXIXIXIXIXIXIXIXIXIXIXj u u y y y y s s y y y i i s y y y y y y * y y y y y * * * * - k J k l l a.g.g.g.s.a.i z H.D.D.H.D.F.D.0.p > * s d f f f d f s y g H G.m u s s s d d f f f f f - 6 P w w *.' ' ' ' ' ' ' ' ) ' ' ' ' ' ' ' ' ) ) ) ) P 6 6 q 2 2 2 % % 2 $.tXdXdXFXFXdXFXdXdXFXdXFXMXdXdXY & % % % % % 2 6 q q q w U w w L U Q R ) ) ) _ ) R ) ) ) ) ) % 5 ) ) ) ) ) ) ) _ ) ) ) ) +.+.+.+. .w ; : v A B S.( e.9.9.9.9.D.9.9.S.D.9.S.S.D.D.D.( v .                                                       2 W ' ' 2X2X2X2X2X2X2X2X2X2X' ' ' ' ' ' ' ' ' ' ' ' ' ' 2X' ` 3X3X3X+./ :.-.-.-.>.<.>.<.>.>.:.:.-.:.>.>.>.>.>.>.>.>.>.>.>.>.>.>.>.>.>.>.;.d * H J.J.J.J.J.J.H v = ; : p f 4.4.i 9 } _ _ R t & F rXhXsX>XrX>XrXiX>X%X%X$X$X%X$XP.X.F n , ; % @ @ o o o o . . . . . X % 0 { o.#XqXrXsXiXsXhXhXiXiXiXhXsXrXeXeXhXtXsXeXeXrX%X%X%XrXqX#XG l s i d =.;.<.<.<.<.1.<.1.>.>.>.<.<.<.<.<.<.:.g y > > : p A A A IXIXIXIXIXIXIXIXIXIXIXIXIXIXIXIXIXIXIXIXIXIXIXIXIXIXIXIXIXIXIXIXIXIX",
"IXIXIXIXIXIXIXIXIXIXIXIXIXIXIXIXIXIXIXIXIXIXIXIXIXIXIXIXIXIXIXIXIXIXb u y y y y y y s y y s i i s y y y y y y y y y y y * * * * * l x x k l l a.g.g.g.g.4.u B H.D.H.H.H.H.( y * * a f f f f f f f d s i s y s d d d d d f f f d f f * t ' ' ' ) ' ' ' ' ' ' ' ' ' ' ' ' ' ' ' P ) ) P ) w w 6 t 2 5 2 2 2 & & r yXdXdXdXdXFXFXdXdXFXdXFXFXFXFX&.& % & % % % 2 8 q q q w U w U U U ) ) R R ) ) ) ) R ) ) ) Y & % r ] ) _ _ _ +._ _ _ _ _ +.+.} +.e % ; : v A V 7.V 9.9.9.9.9.9.S.D.S.9.9.D.D.D.D.S.( r X . . .                                             2 R ' ' 2X3X3X2X2X2X2X' ' ' 2X2X' ' ' ' ' ' ' ` ' ' ' ' 2X2X2X2X' 2X3X3X3X+.Z =.:.>.>.;.>.;.>.>.-.:.>.>.>.>.>.>.1.<.>.>.>.>.>.>.>.>.>.>.>.<.f y F J.J.J.J.J.J.o.< = < h p z ;.-.-.g s 7 ) w % o D rXvXhXiX>XrX>X>X>XiX$X$X%X#X..e , = o o @ & @ & & % % @ % @ & + o o o X   . @ ; , F { $.qXeXsXtXsXiXiXeXeXhXiXhXiXeXhXhXvXeXvXrXrX>XeX%X$.F u u s d -.<.<.1.<.>.>.>.>.>.>.<.<.<.;.<.:.:.f s > > * p b B IXIXIXIXIXIXIXIXIXIXIXIXIXIXIXIXIXIXIXIXIXIXIXIXIXIXIXIXIXIXIXIXIXIX",
"IXIXIXIXIXIXIXIXIXIXIXIXIXIXIXIXIXIXIXIXIXIXIXIXIXIXIXIXIXIXIXIXIXIXm u u y y y y y y y y i i i y y y y y y y y y y y y y * * * > l l S k l - f.g.g.g.s.a.u B F.H.F.H.D.b p * u i f f f f f f f f d d d s d d d d d d f d d f f f f t t ' ' ' ' ' ' ' ' ' ' ' ' ' ' ' ' ' ' ' ) ) ) ) w w 6 6 w 3 2 % % 2 % & & %.dXdXdXdXdXFXdXdXFXdXFXFXdXMXL.& 2 & t & 2 2 2 6 q q w w w U U U ) ) P R ) ) ) ) ) ) ) ) w X % 8 w U ) +.+. ._ ` _ } ` +.+.} E & % : : p B V V 9.V 9.9.9.9.9.9.9.D.D.D.9.D.D.D.S.S.v . . .                                           & I ' ` ` 2XW 2X2X2X2X2X2X' ' ' ' ' ' ' ' ' ' ' ' ' ' ' ' ' 2X` ` 2X2X` 2X3X3X4X+.z :.>.>.>.<.>.>.>.-.>.;.>.>.>.>.>.>.>.-.>.>.>.>.>.>.>.>.>.;.=.* n J.J.J.J.J.J.J.v = : < p d =.2.<.-.=.3.- ; o X D eXhXeXhX%X>X>X>XrXeXiX@XJ.m ; @ o o & & & % % t t 2 5 2 t % 5 , 2 5 ; t % @ # @ o X . X # 0 ] o.%XeXiXhXhXhXiXeXiXeXrXiXvXeXiXeXqX%X>XeXeXrXrXo.v * y d =.<.>.1.1.>.1.>.>.>.<.<.>.;.<.<.;.:.f a * > * p b IXIXIXIXIXIXIXIXIXIXIXIXIXIXIXIXIXIXIXIXIXIXIXIXIXIXIXIXIXIXIXIXIXIX",
"IXIXIXIXIXIXIXIXIXIXIXIXIXIXIXIXIXIXIXIXIXIXIXIXIXIXIXIXIXIXIXIXIXIXn * y y y u s y y y * i s s y s s y y y y y y y y y y y * * > l l l k l - a.g.g.g.s.c y V H.H.D.0.a u y d d d f d d f f d d d d d d d d d d d d d f d f d f 4.c 1 t ' ' ' ' ' ' ' ' ' ' ' ' ' ' ' ' ' ' ' ' ' ) U w 6 6 w t 2 % 2 2 % % 2 & r yXdXdXFXdXdXFXdXFXdXdXmXdXFXyX8 & % % % % % 2 6 6 q 6 w q w U U U U R R ) R ) R ) R ) } q . % 8 % 8 )  . . .) ) } +.+./ r q 5 > ; p v A A V V ( 9.e.S.S.9.9.9.S.9.S.9.S.D.D.S.S.( : . .   .                                       2 _ ' 2X2X2X2X2X2X2X2X' ' ' ' ' Q ' Q 2XQ ' ' ' ' 2X' ' ' ` ' ' ' ' ' 2X2X3X3X4X3X2X( f -.;.<.>.>.>.>.-.;.>.-.>.>.>.>.>.>.>.>.>.>.>.>.>.>.>.;.=.y : J.J.J.J.J.J.o.h = : : u d =.<.<.<.:.-.3.u X o { <XhXeXeX%XrX%X>XiXeXqXo.n # O O & % % % 7 8 8 8 7 8 8 8 7 7 8 8 8 8 8 8 8 8 8 % % # X X X X   X $ , { #XrXeXeXsXeXrXeXiXeXeXrX%XeXrXrX>X%XqX%X%XwX@XX.- y d =.-.<.<.<.<.>.>.>.;.>.>.>.<.<.<.:.:.g a p > * p IXIXIXIXIXIXIXIXIXIXIXIXIXIXIXIXIXIXIXIXIXIXIXIXIXIXIXIXIXIXIXIXIXIX",
"IXIXIXIXIXIXIXIXIXIXIXIXIXIXIXIXIXIXIXIXIXIXIXIXIXIXIXIXIXIXIXIXIXIXm u y y y u y y y y y y s i y y y y y y y y y y y y * * * > > l k k k l - f.k.g.s.s.a.y V H.H.Z p u d d d d d d d d d d d d s d d d d d d d d d d f f f f f =.=.u 2 ' ' ' Q ' ' ' ' ' ' ' ' *.' ' ' ' ' ' ' ' ) ) w w w w t 2 t 2 % % % t & & %.sXFXdXdXFXFXdXdXdXdXdXdXFXdX/ & 2 % % 2 2 2 2 q q q q w w U U U U U U E E ) ) ) ) ) ) t X t ; # & 5 Y ) ) ) *.] Y q 5 % & # * : v p A A A A A e.9.S.S.S.9.9.S.D.D.S.D.D.D.D.D.( v &   .                                       3 ' ' ' 2X2X2X2X2X2X2X2X' ' ' ' ' Q ' Q 2X' ' ' 2X' 2X' W ' ' ' ' ` 2X' 2X2X3X3X3X3X3X+.B =.>.>.;.>.<.>.:.-.>.>.>.>.>.>.>.>.>.>.>.>.>.>.<.>.>.=.s h X.J.J.J.J.J.J.n = ; p u d 4.;.<.<.<.<.;.=.- $ O.eXhXeX>X>XqX>X>XeX>XL.F @ o o & % t , 7 7 8 8 8 7 8 8 7 8 8 8 8 7 8 8 8 7 8 7 8 t t t @ o X X X X X . . @ e $.qXrXeXeXrXeXeXrXrX%X%XeXrXqXrX>X%X%X%XrXrXO.: y s f ;.<.<.<.>.>.<.<.<.>.<.<.<.;.<.-.-.f a y y - IXIXIXIXIXIXIXIXIXIXIXIXIXIXIXIXIXIXIXIXIXIXIXIXIXIXIXIXIXIXIXIXIXIX",
"IXIXIXIXIXIXIXIXIXIXIXIXIXIXIXIXIXIXIXIXIXIXIXIXIXIXIXIXIXIXIXIXIXIXD y y y y y y y y y y y u s y s y y y y y y y y y y y * > > - l l k l l x a.j.j.s.s.S s B S.B y * d d s d d d d d d d d s d d d s d d d d d d d f f f f f =.-.=.u 2 ' ' ' ' ' ' ' ' ' ' ' ' ' ' ' ' ' ' ' ' ' ' ' *.w 6 t w 2 2 t t % % t % @ 8 qXmXFXdXdXdXdXdXFXdXFXFXFXdX%.> & % % % & 2 6 q q q w q I U w U U U U U R E R ) ) ) ) % @ , % # o o X X X o o & & & o & & = 5 : p p A A V V S.S.S.S.S.S.9.9.9.D.9.9.S.S.D.D.D.( v &                                       o 3 ' ' ' ' 2X2X2X2X' 2X2XW ' ' Q ~ 2X' ' Q ' ' ' ' ' ' ' ' ' ' ' ' 2X2X2X` ` 2X2X2X3X3X3X4X[ g :.<.:.>.<.>.;.-.>.>.>.>.>.>.>.>.>.>.>.>.<.>.<.<.-.s < X.J.J.J.X.G.J.m = ; : p i 3.-.>.<.<.<.<.=.d $ O.iXiXeXeX>X>X%XrXeX@XD t X X % % 2 8 7 8 8 8 8 8 8 7 7 8 8 7 8 7 8 8 7 7 8 8 7 7 6 t 7 t % o X X X X X X X .   X % O.$XrXrX>XeXeXrX%X%XrXrX%XqXqXrX%X%XrXqX%X$.: * d =.<.<.<.<.<.>.<.>.<.>.;.<.;.;.>.;.=.=.d i a IXIXIXIXIXIXIXIXIXIXIXIXIXIXIXIXIXIXIXIXIXIXIXIXIXIXIXIXIXIXIXIXIXIX",
"IXIXIXIXIXIXIXIXIXIXIXIXIXIXIXIXIXIXIXIXIXIXIXIXIXIXIXIXIXIXIXIXIXIXJ.p y * * y y y * y y y y u y u y y y y y y y y y y * * > > - k x k l k k h.j.j.g.h.a.a a j y * a d d d s d d d d d d d d d d d d d d d d d d d f f =.=.=.=.=.=.u 5 ' ' ' ' ' ' ' ' ' ' ' ' ' ' ' ' ' ' ' ' ' @.' ' w w w t 6 2 2 2 % 2 2 % & & D rXFXmXdXFXFXFXFXdXFXfXFXFXyXY & & % % % 2 5 q q q q w I U U I w U U Y R R R R ) ) ) & , , # # # $ $ O X O o + + + > 5 v 9 : p v A N B Z ( S.S.9.9.S.S.D.D.D.9.9.D.D.D.D.D.D.S.^ > .   .                               o U ' ' ' ' ' ' ' ' W ' ' 2X' Q ' Q ' Q Q 2X' ' ' ' ' ' ' ' ' ' ' ' ' ' 2X' 2X2X2X2X2X3X3X3X4X#.( g -.>.>.>.<.>.-.>.>.>.>.>.>.>.>.>.>.>.>.<.-.>.-.d p X.J.J.J.J.J.J.m = ; : h i =.;.<.<.<.<.<.;.f - ..hXiXiX>XrX>X>XrXrXQ.*.@ X % t 8 7 7 8 8 8 7 7 7 7 8 8 7 8 8 7 8 8 8 8 7 7 8 0 7 8 t 8 8 2 % @ o X X X X X o X . X   X , O.qXrXrX%XrXrXrX%X%X%X%X%X%X%XrX%X%X%X$XJ.: - d =.<.<.<.>.<.<.>.>.<.-.;.>.<.;.;.;.-.;.=.d IXIXIXIXIXIXIXIXIXIXIXIXIXIXIXIXIXIXIXIXIXIXIXIXIXIXIXIXIXIXIXIXIXIX",
"IXIXIXIXIXIXIXIXIXIXIXIXIXIXIXIXIXIXIXIXIXIXIXIXIXIXIXIXIXIXIXIXIXIXo.v - * - * * * * * * * * * * * * * > * y > * > > > > > O > - l l S l m C s.j.b.h.h.l.c x a p u y s s s s s d s s d s s s s s d i d i d i i d d f f f d f 3.3.=.i 2 ) ' ' ' _ ' ' ' ' ) ' ) @.' @.) ' ) ) ' ' ) ' *.) w w w t 8 6 t 8 2 2 % % # & @.dXmXFXFXFXGXFXGXHXFXHXFXdX&.2 4 & % % 2 q q q w q w w w U w w U U ) Y Y ) ) ) ) ) & 7 , # % , = % = @ # % > : * v v b b v v ( Z ( V V V V S.( e.V S.9.D.D.S.9.D.D.D.D.D.D.S.A 5 . . .                             o U ' 2X' ' ' Q ' Q ' Q ' Q ~ ~ 2XQ ' ' ! ' ~ ' Q ' ' ' ' 2X' ' 2X' ' ' ' ' 2X2X2X3X3X3X3X3X3X3X4X+.V :.:.>.>.-.-.:.>.>.>.>.>.>.>.>.>.>.<.;.<.;.-.f y D P.o.H H J.J.F = = ; 1 a z =.;.;.;.<.;.;.=.y n eXhXrXiX>X>X>XrXrXo.1 X @ % 7 8 8 7 7 8 8 7 8 8 8 8 7 8 8 8 7 8 7 8 7 7 7 8 7 8 w t 8 8 8 t % @ o X X X X X O o X X X X . X *.#XrX>XrXrXrXrX%XrXqXrXrX%X%X%XrX%X%X#X..1 * d =.<.>.<.<.>.>.>.>.-.>.;.<.;.;.;.>.;.=.f IXIXIXIXIXIXIXIXIXIXIXIXIXIXIXIXIXIXIXIXIXIXIXIXIXIXIXIXIXIXIXIXIXIX"
};
