/* XPM */
static char *blue_stone[] = {
/* columns rows colors chars-per-pixel */
"500 500 173 2 ",
"   c #030304",
".  c #0C0C05",
"X  c #01010B",
"o  c #0D0D0A",
"O  c #111107",
"+  c #14140B",
"@  c #19190E",
"#  c #000013",
"$  c #0B0B13",
"%  c #00001C",
"&  c #0C0C1B",
"*  c #161611",
"=  c #191914",
"-  c #14141C",
";  c #1B1B1A",
":  c #222216",
">  c #21211C",
",  c #29291F",
"<  c #000023",
"1  c #0C0C23",
"2  c #00002C",
"3  c #0B0B2B",
"4  c #141423",
"5  c #1D1D23",
"6  c #15152C",
"7  c #1C1C2D",
"8  c #000034",
"9  c #0C0C34",
"0  c #00003C",
"q  c #0C0C3B",
"w  c #141434",
"e  c #1C1C33",
"r  c #14143B",
"t  c #1A1A3D",
"y  c #212123",
"u  c #2B2B24",
"i  c #23232B",
"p  c #2C2C2B",
"a  c #313127",
"s  c #33332C",
"d  c #39392F",
"f  c #232333",
"g  c #2C2C33",
"h  c #23233B",
"j  c #2C2C3B",
"k  c #343434",
"l  c #3B3B34",
"z  c #34343C",
"x  c #3B3B3A",
"c  c #404037",
"v  c #42423C",
"b  c #000044",
"n  c #0C0C44",
"m  c #00004B",
"M  c #0B0B4B",
"N  c #151544",
"B  c #191943",
"V  c #16164D",
"C  c #19194B",
"Z  c #000054",
"A  c #0C0C54",
"S  c #00005B",
"D  c #0C0C5C",
"F  c #161652",
"G  c #1B1B53",
"H  c #13135C",
"J  c #1B1B5C",
"K  c #242444",
"L  c #2C2C43",
"P  c #23234B",
"I  c #2B2B4A",
"U  c #323242",
"Y  c #3C3C43",
"T  c #34344A",
"R  c #3B3B4B",
"E  c #242453",
"W  c #2C2C53",
"Q  c #23235D",
"!  c #2C2C5C",
"~  c #343453",
"^  c #3C3C54",
"/  c #33335C",
"(  c #3B3B5C",
")  c #000063",
"_  c #0D0D64",
"`  c #00006C",
"'  c #0D0D6D",
"]  c #121264",
"[  c #1B1B63",
"{  c #12126A",
"}  c #1B1B6D",
"|  c #000073",
" . c #0D0D75",
".. c #00007C",
"X. c #0D0D7B",
"o. c #121272",
"O. c #181871",
"+. c #15157B",
"@. c #181879",
"#. c #232363",
"$. c #2F2F66",
"%. c #23236B",
"&. c #2F2F6A",
"*. c #333363",
"=. c #3A3A61",
"-. c #333369",
";. c #3B3B6B",
":. c #232372",
">. c #2E2E73",
",. c #23237C",
"<. c #2E2E7B",
"1. c #323274",
"2. c #3A3A74",
"3. c #32327B",
"4. c #454543",
"5. c #4A4A46",
"6. c #44444C",
"7. c #4C4C4C",
"8. c #51514D",
"9. c #59594E",
"0. c #444454",
"q. c #4C4C54",
"w. c #44445C",
"e. c #4B4B59",
"r. c #535354",
"t. c #595952",
"y. c #515158",
"u. c #434364",
"i. c #434369",
"p. c #000084",
"a. c #0A0A83",
"s. c #00008B",
"d. c #09098B",
"f. c #141485",
"g. c #191984",
"h. c #14148B",
"j. c #1B1B8E",
"k. c #000094",
"l. c #0A0A91",
"z. c #00009B",
"x. c #0A0A9A",
"c. c #131395",
"v. c #191994",
"b. c #171799",
"n. c #18189B",
"m. c #232383",
"M. c #2E2E84",
"N. c #23238B",
"B. c #232394",
"V. c #0000A4",
"C. c #0D0DA3",
"Z. c #0000AC",
"A. c #0C0CAC",
"S. c #1515A1",
"D. c #1818A4",
"F. c #0000B3",
"G. c #0E0EB1",
"H. c #0000BB",
"J. c #0000C3",
"K. c #0000CB",
"L. c #0000D4",
"P. c #0808D6",
"I. c #0101DB",
"U. c #0A0ADC",
"Y. c #0000E1",
"T. c #0C0CE1",
"R. c #1313E5",
"E. c #1616E9",
"W. c #1B1BEB",
"Q. c #2121EE",
"!. c #2626F1",
"~. c #2C2CF3",
"^. c #3131F5",
/* pixels */
"l x x x U L I E G D _ ` ` ` | | | ..| ..| ........| ........| ..| ............| ....| ..| ............| ..| ....| ......| ....| ....| ....| ..........| ..........| ..............| ..| ........| ..| ......| ..| ............| ....| ....| ..........| | ....| ......| ..| ........| ....| ..........| ....| ....| ........| ..| ..| | | | ` ` _ _ H G E K U z x x l c l c x x T I E [ { o.X.p.p.p.s.p.p.p.p.p.p.p.p.p.s.p.p.p.p.p.p.p.p.p.p.s.p.p.p.s.p.p.p.p.p.p.p.p.p.p.p.p.p.p.p.p.p.p.p.s.p.p.p.s.p.p.p.p.p.p.p.p.p.p.p.p.p.s.p.p.p.s.p.p.p.p.p.p.p.p.p.p.p.p.p.p.p.p.p.p.p.p.p.p.p.p.p.p.s.p.p.p.p.p.p.p.p.p.p.p.p.p.s.p.p.p.p.p.p.p.p.s.p.p.s.p.p.p.s.p.p.p.p.p.p.p.p.p.p.p.p.p.p.p.p.p.s.p.p.p.p.p.p.p.p.p.s.p.p.p.s.p.p.p.p.p.p.p.p.p.p.p.p.p.p.p.p.p.p.p.p.p.p.p.p.p.p.p.p.p.p.p.p.p.p.p.p.p.p.p.p.p.s.p.p.p.s.p.s.p.p.p.a...o.] J W I U x x l c l l x x U U P E G D _ ` ` ` | | | ..| | ..| ....| ..| ..| ........| | ..| | ....| ......| ..| ........| ..| ..| ..| | ........| | ..| | | | | | | ` ) _ D V N h h g p p p a ",
"l x x x z L I C G ] _ ` | | | | | ......................................| ......................| ..............................................| ............| ..........| | ..........................................| ........................| ..............................................| ................................| ..| | | ` ` _ H J P I U z x x c l l x x z U I E [ {  .X.p.p.s.s.s.s.p.s.p.s.p.p.p.p.p.p.s.p.p.s.p.p.s.p.p.p.p.p.p.s.p.p.s.p.p.p.p.s.p.p.s.p.p.s.p.s.p.p.p.p.p.p.p.p.p.s.p.p.s.s.p.p.s.p.p.p.p.p.p.p.p.p.p.s.p.s.p.p.p.s.p.p.s.s.p.p.s.p.p.p.p.p.s.s.p.p.p.p.p.p.s.p.p.s.p.p.s.s.p.p.p.p.p.p.p.s.p.p.s.p.p.p.p.p.p.p.p.p.p.p.s.s.p.p.s.s.p.p.p.p.s.s.p.p.p.p.p.p.s.p.p.s.p.p.s.p.p.p.p.p.p.p.p.s.p.p.s.s.p.p.s.p.p.p.p.s.p.p.s.s.p.p.s.p.p.p.p.s.p.p.s.s.p.p.s.p.p.s.p.p.p.p.p.p.p.p.s.p.s.s.p...X. .[ Q E L U z x l l c l l x z L I C G ] _ ` ` | | | | | ................| ........| ............| ........| ..........| ....................| ..................| | | ` ` _ D F N C h f g p s p ",
"l l l z z L I G H H _ ' | | | ....| ..............................................................................................................................................................................................................................................................................................| ....| | | ` ` ) D G G K L z z l l l l l x z U I E J {  .X.p.p.s.s.s.p.s.s.p.p.p.s.p.s.p.s.p.p.s.p.s.p.s.p.p.s.p.s.p.p.p.p.s.s.p.s.p.p.p.s.p.p.s.p.s.p.s.p.p.s.p.s.p.p.s.s.p.s.p.p.p.s.p.s.s.s.p.s.p.s.p.p.s.p.p.p.s.p.s.s.p.s.p.p.p.s.p.s.s.p.s.p.s.p.p.s.p.s.p.s.p.p.s.p.p.s.s.p.p.s.p.s.p.p.s.p.s.s.s.p.p.s.p.s.p.p.s.s.p.s.p.p.p.p.s.p.s.p.s.p.s.p.p.s.p.s.p.s.p.p.s.p.p.s.s.p.p.s.p.s.p.p.s.p.s.s.p.p.p.s.p.s.s.p.s.s.p.s.p.p.p.s.p.s.s.p.s.s.p.s.p.p.p.p.s.s.s.p.p.s.p.s.p.s.p.s.s.s.s.s.p.p...o.[ J E L U z l l l l l x x z L I G H H _ ` | | | | ..........................................................................................................| ..| | ` ` ) H V C K f g p p u s ",
"l l l z z L P P G _ ` ` | | | ..............................................................................p...........................................................p.........p.............................................................p.......p...................................................................................| | ' _ H J P I j z k l l l l l k z U I E [ }  .X.p.s.s.s.s.s.s.s.s.s.s.s.s.s.s.s.s.s.s.s.s.s.s.s.s.s.s.s.s.s.s.s.s.s.s.s.s.s.s.s.s.s.s.s.s.s.s.s.s.s.s.s.s.s.p.s.s.s.s.s.s.s.s.p.s.p.s.s.s.s.s.s.s.s.s.s.s.s.p.s.s.s.s.s.s.s.s.p.s.s.s.s.s.s.s.s.s.s.s.s.s.s.s.s.s.s.p.s.s.s.s.s.s.s.s.s.s.s.p.s.s.s.s.s.s.p.s.s.s.s.s.s.s.s.p.s.s.s.s.s.s.s.s.s.s.s.s.s.s.s.s.s.s.s.p.s.s.s.s.s.s.s.s.s.s.s.s.s.s.s.s.p.s.s.p.s.s.s.s.s.s.s.s.p.s.s.p.s.s.s.s.s.s.s.p.s.s.s.s.s.s.s.s.s.s.s.s.s.s.s.s.a.X. .{ [ W I U z l l l l l k z z L P P H _ _ ` | | ....................p.....p.............p...........p.............p.............p.........p.........p...............| | ` _ D H C B h f p p p a ",
"l l k z z L P G H ] ' ` | ..........p.....p...p.p.p.p...p...p.p.p.p...p.p.p...p.p...p.p.p.p...p.p.p...p...p.p.....p...p.p.p...p.p...p.p.p...p...p.p.p...p.....p...p...p...p.p...p...p...p...p...p.p...p...p.p.p...p.p...p.p.p...p.p...p...p...p...p.p...p...p.....p.p...p...p.p.p...p.p...p...p.p.p.p...p...p.p.p.p...p.p.p.p.....p.........| | | ' ] G G K L z k l l d l l l j L I E [ { X.a.s.s.s.k.s.s.k.s.s.s.s.s.s.s.s.s.s.s.s.s.s.s.s.s.s.s.s.s.s.s.s.s.s.s.s.s.s.s.s.s.k.s.s.s.s.s.s.s.s.s.s.s.s.s.k.s.s.s.s.s.s.s.s.s.s.s.s.s.s.s.s.s.s.s.s.s.s.s.s.s.s.s.s.s.s.s.s.s.s.s.s.s.s.s.s.s.s.s.s.s.s.s.k.s.s.s.s.s.s.s.s.s.s.s.s.s.s.s.s.s.s.s.s.s.s.s.s.s.s.k.s.s.s.s.s.s.s.s.s.s.s.s.s.s.s.s.s.s.s.s.k.s.s.k.s.s.s.s.s.s.s.s.s.s.s.k.s.s.s.s.s.s.s.s.s.s.s.s.s.s.s.s.s.s.s.s.s.s.s.s.s.s.s.s.s.s.s.s.s.s.s.k.s.s.s.s.k.k.s.s.s.s.a. .} J E I z z l l s d l l z z L P E H ] ' | | ......p...p.p.p.p...p.p...p.p.p.p.p.p.p...p.p.p.p.p.p.p.p.p.p.p.p.p.p.p...p.p.p.p.p.p.p...p.p.p.p.p.p.p.p.p...p...p.....| | _ D H C K h f p p u p ",
"s k k k j L P G J _ ' | ....p.p.p.p.p.p.p.p.p.p.p.p.p.p.p.p.p.p.p.p.p.p.p.p.p.p.p.p.p.p.p.p.p.p.p.p.p.p.p.p.p.p.p.p.p.p.p.p.p.p.p.p.p.p.p.p.p.p.p.p.p.p.p.p.p.p.p.p.p.p.p.p.p.p.p.p.p.p.p.p.p.p.p.p.p.p.p.p.p.p.p.p.p.p.p.p.p.p.p.p.p.p.p.p.p.p.p.p.p.p.p.p.p.p.p.p.p.p.p.p.p.p.p.p.p.p.p.p.p.p.p.p.p.p.p.p.p.p.p.p.p.p.p.p.p.p.p.p.p.p.p.p.X...| ' _ J G I j z k l s d s l k k j I G [ o.X.a.s.k.k.z.k.k.k.k.k.k.k.k.k.k.k.k.k.k.k.k.k.k.k.k.k.k.k.k.k.k.k.k.k.k.k.k.k.k.k.k.k.k.k.k.k.k.k.k.k.k.k.k.k.k.k.k.k.k.k.k.k.k.k.k.k.k.k.k.k.k.k.k.k.k.k.k.k.k.k.k.k.k.k.k.k.k.k.k.k.k.k.k.k.k.k.k.k.k.k.k.k.k.k.k.k.k.k.k.k.k.k.k.k.k.k.k.k.k.k.k.k.k.k.k.k.k.k.k.k.k.k.k.k.k.k.k.k.k.k.k.k.k.k.k.k.k.k.k.k.k.k.k.k.k.k.k.k.k.k.k.k.k.k.k.k.k.k.k.k.k.k.k.k.k.k.k.k.k.k.k.k.k.k.k.k.k.k.k.k.k.k.k.k.k.k.k.k.k.k.k.k.k.k.k.k.k.k.z.k.k.k.d.a. .{ [ E I j k k s s d s k k g K P G H _ ' ....p.p.p.p.p.p.p.p.p.s.p.s.p.p.p.p.s.p.s.s.p.p.s.p.p.p.p.p.p.p.p.p.s.p.p.s.p.p.p.p.p.p.p.s.p.p.s.p.p.p.p.p.p.p.p.p.p.p.p.p.....| _ D V B f f i p u u ",
"s s s g j h P G H '  ...p.p.p.p.s.p.p.s.s.s.s.s.p.p.s.s.s.p.s.s.p.s.s.p.s.s.s.p.s.p.p.s.p.s.s.p.s.s.s.s.s.s.s.s.s.s.s.p.s.p.p.s.s.p.p.s.s.p.s.s.s.s.s.s.s.p.s.s.s.s.s.s.p.s.s.s.s.s.s.s.s.p.s.s.p.s.p.s.s.s.s.s.s.s.s.s.s.s.s.s.s.p.s.s.s.s.p.s.s.s.s.s.s.s.p.s.s.s.s.s.p.s.p.s.s.p.p.s.s.s.p.s.s.s.s.s.s.s.s.s.s.p.s.s.s.s.s.s.s.p.s.s.p.s.p.p... ._ H G K j j g s s s s s p g j P G [ o.a.d.l.z.z.z.z.z.k.z.z.z.z.z.k.z.z.k.z.z.k.z.k.z.k.z.z.z.k.z.z.z.z.z.z.z.z.z.k.z.z.k.z.z.k.z.z.k.z.z.z.k.z.z.k.k.z.z.z.z.z.z.z.z.z.z.z.z.z.z.z.z.z.z.z.z.k.z.z.z.z.z.z.z.k.z.z.z.k.z.z.k.z.z.k.z.z.z.k.k.z.z.k.k.z.z.z.z.z.z.z.k.z.z.z.k.z.z.z.z.z.z.z.z.z.z.z.z.z.z.z.k.z.z.k.k.z.z.z.z.k.z.z.k.z.z.z.k.z.z.k.k.z.z.z.z.k.z.k.z.k.z.z.z.k.k.z.k.z.z.k.z.z.k.z.z.z.k.z.z.z.z.k.z.z.z.k.z.z.k.z.z.z.z.k.z.k.z.z.z.z.k.z.z.k.z.k.z.z.z.z.z.z.k.d.a.O.[ G K j g k s s s s p k j L P G ] { ....p.p.s.s.s.s.s.s.s.s.s.s.s.s.s.s.s.s.s.s.s.s.s.s.s.s.s.s.s.s.s.s.s.s.s.s.s.s.s.s.s.s.s.s.s.s.s.s.s.s.s.s.s.s.s.s.s.s.s.s.s.p.X.| _ H C C h f p p u u ",
"s p s g g K P G ] ' ..a.p.s.s.s.s.k.s.s.s.s.s.s.s.k.s.s.s.k.s.s.s.s.k.s.s.s.k.s.k.s.s.k.s.s.k.s.s.s.s.k.s.s.s.s.s.s.k.s.s.k.s.s.s.k.s.s.k.s.s.s.s.s.s.s.s.k.s.k.k.s.s.k.s.k.s.s.s.s.s.s.k.s.s.s.s.k.s.k.s.s.s.s.s.s.s.k.s.s.s.s.k.s.s.s.s.s.k.s.s.s.s.s.s.k.k.s.s.s.s.k.s.k.s.s.s.k.s.k.s.s.k.s.s.s.s.k.s.k.s.s.s.k.s.k.s.s.k.s.k.s.s.k.s.s.s.p.X.X.' ] G P h g p p a a a s g g j P J { o.a.l.k.z.V.V.V.V.V.z.V.V.z.V.z.z.z.V.z.z.V.z.V.z.V.z.V.z.V.z.V.V.z.V.z.z.V.V.V.z.z.V.z.V.z.z.z.V.z.z.V.V.z.z.V.V.z.z.V.V.z.V.z.V.z.V.V.V.V.z.V.z.V.V.V.V.V.V.z.V.z.z.V.V.V.V.z.V.V.V.z.V.V.z.V.V.z.V.z.V.z.z.V.V.z.z.V.V.z.z.V.V.V.z.V.V.V.z.V.V.z.V.V.V.z.z.V.V.z.z.V.z.V.V.z.V.V.z.z.V.z.z.z.V.z.z.V.V.z.z.V.V.z.z.V.z.V.V.z.V.V.V.z.V.z.V.V.z.V.V.z.z.V.V.z.z.V.z.V.z.z.V.z.z.z.V.z.z.V.z.V.z.z.V.z.z.V.z.V.z.V.V.z.z.V.V.V.V.V.V.V.V.z.x.l.a.o.} E P j g s s s a a p g g K C G ]  .X.a.s.s.k.k.k.k.k.k.k.k.k.k.k.k.k.k.k.k.k.k.k.k.k.k.k.k.k.k.k.k.k.k.k.k.k.k.k.k.k.k.k.k.k.k.k.k.k.k.k.k.k.k.k.k.k.k.k.z.k.k.k.s.s.X. .] F C h f i u y u ",
"u u p g j h C G ]  .X.s.s.k.k.k.k.k.k.k.k.k.k.k.k.k.k.k.k.k.k.k.k.k.k.k.k.k.k.k.k.k.k.k.k.k.k.k.k.k.k.k.k.k.k.k.k.k.k.k.k.k.k.k.k.k.k.k.k.k.k.k.k.k.k.k.k.k.k.k.k.k.k.k.k.k.k.k.k.k.k.k.k.k.k.k.k.k.k.k.k.k.k.k.k.k.k.k.k.k.k.k.k.k.k.k.k.k.k.k.k.k.k.k.k.k.k.k.k.k.k.k.k.k.k.k.k.k.k.k.k.k.k.k.k.k.k.k.k.k.k.k.k.k.k.k.k.k.k.k.k.k.k.z.k.k.k.s.s.X. .] G P h g p p a u a u p g h P G ] +.d.k.V.V.Z.Z.Z.Z.Z.V.Z.V.V.V.Z.V.Z.V.V.Z.V.V.V.Z.V.Z.V.V.Z.Z.Z.Z.V.V.Z.Z.V.Z.V.Z.V.V.V.Z.Z.V.V.Z.V.V.V.V.Z.V.Z.V.Z.Z.V.V.Z.Z.V.Z.Z.V.Z.Z.V.Z.Z.V.Z.Z.V.V.Z.V.Z.Z.Z.Z.V.V.Z.Z.V.Z.V.Z.Z.V.V.Z.V.Z.V.Z.Z.Z.V.V.Z.Z.V.V.Z.V.Z.V.Z.V.Z.V.Z.Z.Z.V.Z.V.Z.Z.V.V.Z.V.Z.V.Z.Z.V.Z.Z.V.V.Z.V.V.V.Z.V.Z.V.Z.V.V.V.Z.V.V.Z.Z.V.V.Z.Z.V.V.Z.V.Z.V.Z.V.Z.V.V.Z.V.V.Z.Z.V.V.Z.Z.V.V.Z.Z.V.Z.V.Z.V.V.Z.V.Z.V.V.V.Z.V.Z.V.Z.Z.V.V.Z.Z.V.Z.V.V.Z.Z.Z.Z.Z.Z.V.V.l.d.@.[ G P h p p a , a u u p f K P H {  .a.s.k.z.x.z.z.z.z.z.z.z.k.z.z.z.z.z.z.z.z.z.z.z.z.z.z.z.z.z.z.z.z.z.z.z.z.z.z.z.z.z.z.z.z.z.z.z.z.z.z.z.z.z.z.z.z.z.z.z.z.z.z.k.s.a. ._ H C t i p y u , ",
"u u y p f h C H ]  .a.s.k.z.z.z.z.z.k.z.z.k.z.z.z.z.k.z.k.z.k.z.z.z.z.z.z.z.z.z.k.z.z.k.z.z.z.k.z.z.z.z.k.z.z.z.z.z.z.z.k.z.z.k.z.z.k.z.z.k.z.z.z.k.z.z.z.z.z.z.z.k.z.z.z.z.z.z.k.z.k.z.z.z.k.z.k.z.z.z.z.k.z.z.z.z.z.z.z.z.k.z.z.z.k.z.k.z.k.z.k.z.z.z.z.z.z.z.z.z.z.z.z.z.z.k.z.z.z.k.z.z.z.z.z.z.z.z.z.z.z.z.z.z.z.z.z.z.z.z.z.z.z.z.z.z.z.k.s.X. .] F C h f p y , , , y u i f C J { X.d.z.Z.Z.Z.F.F.Z.Z.F.Z.Z.F.Z.Z.Z.Z.Z.F.Z.Z.F.Z.Z.Z.Z.Z.Z.Z.Z.Z.Z.F.Z.F.Z.F.F.Z.Z.F.F.Z.Z.Z.F.Z.Z.Z.Z.F.Z.Z.Z.Z.Z.Z.Z.F.Z.Z.Z.F.Z.F.F.Z.Z.F.Z.F.F.Z.Z.F.Z.F.Z.F.Z.Z.Z.F.Z.Z.F.Z.Z.F.Z.Z.F.Z.Z.F.Z.Z.Z.Z.Z.F.Z.Z.Z.F.Z.Z.Z.Z.F.Z.F.Z.F.Z.Z.F.Z.F.F.Z.Z.F.F.F.Z.F.F.Z.Z.F.Z.Z.Z.F.Z.Z.Z.F.Z.Z.Z.Z.Z.Z.Z.F.Z.F.Z.Z.Z.F.Z.Z.Z.F.F.Z.F.Z.Z.Z.F.Z.F.Z.Z.F.F.Z.Z.F.Z.Z.Z.F.Z.Z.Z.Z.Z.Z.Z.Z.Z.Z.Z.Z.Z.F.F.Z.Z.Z.Z.Z.Z.Z.Z.Z.Z.F.F.Z.F.Z.Z.F.F.F.F.Z.A.k.d. .{ G h h p u , , , u y p f t C H { X.d.k.z.V.V.V.V.z.z.V.z.V.V.V.V.z.z.V.V.V.z.V.z.V.V.V.z.V.z.V.V.V.V.V.z.V.V.z.V.V.V.z.z.V.z.V.z.V.V.z.z.V.z.V.V.V.V.V.V.V.V.V.V.z.z.d.X.' H C t f y y , , ",
", , y y i t C F '  .p.k.z.z.z.V.V.z.z.z.z.z.z.z.z.z.z.z.z.V.z.V.z.z.z.z.z.z.z.z.z.z.z.z.z.z.z.z.z.z.z.z.z.V.z.z.z.z.z.z.z.z.z.z.z.z.z.z.z.z.V.z.z.z.z.z.z.z.z.z.z.z.z.z.z.z.z.z.z.z.z.z.z.z.z.z.z.z.z.z.z.z.z.V.z.V.z.z.V.z.z.z.z.z.V.z.z.z.z.z.z.z.z.z.z.z.z.z.z.z.z.z.z.z.z.z.z.z.z.z.z.z.z.z.z.z.z.V.z.z.V.z.z.z.z.z.z.z.z.z.z.z.z.V.V.V.z.z.k.a. ._ F C e i y , , , , , y i f C F { X.l.V.A.F.H.H.H.H.F.F.F.F.F.F.F.F.F.F.F.F.F.F.F.F.F.F.F.F.F.F.F.F.F.F.F.F.F.F.F.F.F.F.F.F.F.F.F.F.F.F.F.F.F.F.F.F.F.F.F.F.F.F.F.F.F.F.F.F.F.F.F.F.F.F.F.F.F.F.F.F.F.F.F.F.F.F.F.F.F.F.F.F.F.F.F.F.F.F.F.F.F.F.F.F.F.F.F.F.F.F.F.F.F.F.F.F.F.F.F.F.F.F.F.F.F.F.F.F.F.F.F.F.F.F.F.F.F.F.F.F.F.F.F.F.F.F.F.F.F.F.F.F.F.F.F.F.F.F.F.F.F.F.F.F.F.F.F.F.F.F.F.F.F.F.F.F.F.F.F.F.F.F.F.F.F.F.F.F.F.F.F.F.F.F.F.F.F.F.F.F.F.F.F.F.F.F.F.F.F.H.H.H.F.Z.C.d.X.{ G B f i y , : , : y i f t C ] ' a.l.z.V.Z.Z.Z.Z.Z.Z.V.Z.V.V.Z.Z.Z.Z.V.Z.V.V.Z.Z.V.V.Z.Z.V.Z.V.Z.V.V.V.V.Z.V.Z.Z.V.V.Z.Z.V.Z.Z.V.Z.V.Z.Z.V.V.Z.Z.Z.V.Z.Z.Z.Z.Z.Z.V.z.d.a. .H C t i i y : : ",
": > y y 7 t N H ' X.d.z.z.V.V.V.V.V.V.V.V.V.V.z.V.V.V.V.z.V.z.V.V.V.z.V.z.V.V.V.V.V.V.V.V.z.V.V.V.V.V.z.V.z.V.z.V.z.V.V.V.V.V.V.V.V.V.V.V.z.V.z.V.V.V.V.z.V.V.z.V.z.V.V.V.z.V.V.V.V.V.V.V.V.V.z.V.V.V.z.V.V.z.V.V.z.V.z.V.z.V.V.V.z.V.z.V.V.V.V.V.V.V.z.V.V.z.V.V.V.z.V.V.z.V.V.V.z.V.V.z.V.V.V.z.V.z.V.z.V.z.z.V.z.V.V.V.V.z.V.V.z.V.V.V.V.z.z.k.a. ._ H B t 5 y > : : : > y i e C H { a.l.A.Z.H.H.H.H.H.H.F.H.H.F.H.H.H.H.F.H.F.H.H.H.H.H.H.F.F.H.H.F.F.H.F.H.H.F.H.F.F.H.F.H.F.H.F.H.H.F.H.H.H.H.H.F.H.H.F.H.H.F.H.F.H.F.F.F.H.F.F.F.F.F.H.F.F.H.F.F.H.F.F.H.H.F.H.F.F.H.F.H.H.F.F.H.H.F.H.F.F.H.F.H.H.F.H.F.H.F.F.H.F.H.F.F.F.H.F.F.F.F.F.H.F.F.F.F.H.F.F.H.F.H.F.H.H.H.F.H.F.H.H.H.H.F.H.H.H.F.F.H.H.F.H.F.F.H.F.H.H.F.F.H.H.F.H.F.F.H.H.F.F.H.F.H.H.F.F.H.F.H.H.H.H.F.H.H.H.F.H.H.F.H.H.F.H.H.H.H.F.H.F.H.F.H.F.H.H.H.H.H.F.F.Z.z.l. .] F t e y y : : : > > y i t V H  .a.k.z.Z.Z.F.Z.F.Z.Z.Z.Z.Z.Z.Z.Z.Z.Z.Z.Z.Z.Z.Z.Z.Z.Z.Z.Z.Z.Z.Z.Z.Z.Z.Z.Z.Z.Z.Z.Z.Z.Z.Z.Z.Z.Z.Z.Z.Z.Z.Z.Z.Z.Z.Z.Z.Z.Z.Z.Z.Z.Z.F.Z.Z.V.l.a.' ] N t 7 5 ; , : ",
"= : ; 5 7 w N D _ a.d.z.V.V.Z.V.V.V.V.V.V.V.V.V.V.V.V.V.V.V.V.V.V.V.V.V.z.V.V.z.V.V.V.V.V.z.z.V.z.V.V.z.V.V.V.V.V.V.V.V.V.V.V.V.V.V.V.V.V.V.V.V.V.z.V.V.V.z.V.V.V.z.V.V.z.V.z.V.V.z.V.z.V.V.V.V.V.z.V.V.V.V.z.V.V.z.V.V.z.V.z.V.V.V.z.V.V.V.V.V.V.z.V.V.V.V.z.V.z.V.V.V.V.V.V.V.V.V.V.z.V.V.V.z.z.V.z.V.z.z.V.z.z.z.z.z.z.z.z.z.z.z.V.z.V.z.z.k.s.a. ._ H t w 5 ; ; : : : : y 5 e C H { a.x.Z.F.H.J.H.J.H.H.H.H.H.F.H.H.H.H.H.H.H.H.H.H.H.H.H.H.H.H.F.F.F.F.F.F.F.F.F.H.F.H.F.H.H.H.H.H.H.H.H.H.H.H.H.F.H.F.H.F.F.F.F.F.F.F.F.F.F.F.F.F.F.F.F.F.F.F.F.F.F.H.F.F.F.H.H.F.F.H.F.F.F.H.H.H.F.H.H.H.H.H.H.H.F.H.H.H.F.H.F.H.F.F.F.F.F.F.F.F.F.F.F.F.F.F.F.H.F.F.F.H.H.F.F.H.H.H.H.F.H.H.H.H.H.H.H.H.H.H.H.F.H.F.H.H.H.F.H.F.F.F.H.F.H.F.H.H.H.F.H.H.H.H.H.F.F.H.H.H.H.H.H.H.H.H.H.H.H.H.H.H.H.H.H.H.H.H.H.F.F.H.H.F.F.H.H.F.H.H.H.F.F.F.Z.x.d.| _ V r 7 5 ; : : : : > y e t V ]  .d.x.V.Z.F.F.F.F.F.F.F.F.Z.Z.Z.F.Z.F.Z.Z.Z.Z.F.Z.Z.Z.Z.Z.F.Z.Z.F.Z.F.F.Z.Z.F.Z.Z.Z.F.Z.Z.F.Z.F.Z.Z.F.Z.Z.Z.F.Z.Z.Z.Z.Z.Z.F.Z.F.Z.V.V.k.a. .D N w 6 5 ; = : ",
"@ = = ; 4 w N D ` X.s.z.V.Z.Z.Z.Z.V.Z.V.V.V.Z.V.V.V.V.V.V.V.V.z.V.z.z.V.z.V.V.V.V.V.V.V.V.V.V.V.z.z.z.z.z.z.z.V.V.V.V.Z.V.V.V.V.Z.V.V.V.V.V.V.V.V.V.z.V.V.V.z.z.z.z.z.z.z.z.V.V.V.V.V.V.V.V.V.V.V.V.V.z.z.V.z.z.z.z.z.z.z.V.z.V.V.V.V.V.V.V.z.V.V.V.V.z.z.z.z.z.z.z.z.z.V.z.V.V.V.V.V.V.V.z.z.z.z.z.z.z.z.z.z.z.z.z.z.z.z.z.z.z.z.k.z.z.z.z.z.k.s...` D M r 6 4 ; = = = : = 5 i e B H { a.x.A.F.H.H.J.H.H.H.H.F.H.H.H.H.H.H.H.H.J.H.H.H.H.H.H.H.H.F.F.F.F.Z.F.Z.F.F.F.F.H.F.H.H.H.H.H.J.H.H.H.J.H.H.H.H.H.F.F.F.F.F.F.Z.Z.Z.Z.Z.Z.Z.Z.Z.Z.Z.Z.Z.F.F.F.F.F.F.F.H.F.F.F.F.F.F.F.F.F.F.F.F.F.H.F.H.H.F.H.F.H.H.F.F.F.F.F.F.F.F.F.F.Z.Z.Z.F.Z.F.Z.Z.F.Z.Z.F.F.F.F.F.F.H.H.H.F.H.H.H.H.H.H.J.J.H.H.H.H.H.H.H.H.H.F.F.F.F.F.F.F.F.F.F.F.F.F.F.F.H.F.F.F.H.H.H.H.H.H.H.H.H.H.J.H.J.J.H.J.H.H.H.H.J.H.H.H.F.H.H.H.H.F.H.H.F.F.F.F.H.H.F.F.Z.V.k.a. .D n w 6 ; = : @ @ : ; 5 5 t V H  .a.x.V.F.F.F.H.H.F.F.F.F.F.F.F.F.Z.Z.Z.F.Z.Z.Z.Z.Z.Z.Z.Z.Z.F.Z.Z.Z.Z.Z.F.F.Z.F.F.F.F.F.F.Z.F.F.F.F.F.F.F.Z.F.Z.Z.Z.Z.Z.Z.Z.F.Z.Z.V.z.s.X._ H N w 4 - ; = = ",
"+ @ * - 4 9 n A _ a.d.z.V.Z.Z.Z.V.Z.V.V.V.Z.V.V.Z.V.V.Z.V.V.V.z.z.z.z.z.z.V.z.V.V.V.V.V.V.V.z.z.z.z.z.z.z.z.z.z.V.V.V.V.V.V.Z.V.V.V.V.V.V.V.V.V.V.V.V.V.z.z.z.z.z.k.z.k.z.z.z.z.z.z.V.V.V.V.z.V.z.V.V.z.z.z.z.z.z.z.z.z.z.z.z.V.V.z.V.V.V.z.V.V.V.V.z.z.z.z.z.z.z.z.z.z.z.z.V.V.V.V.V.V.z.z.z.z.z.k.k.k.k.k.k.k.k.k.k.k.k.k.k.k.k.k.k.k.k.k.s.s.p. ._ Z n 9 3 - = * * = @ = > 5 e B F ' a.x.Z.F.H.J.J.H.H.H.H.F.F.H.H.H.H.H.J.H.J.H.H.H.H.H.H.H.F.F.F.F.Z.Z.V.Z.Z.Z.Z.Z.F.F.F.H.H.H.H.H.J.H.H.H.H.H.H.F.F.F.F.Z.Z.Z.Z.Z.Z.V.V.V.V.V.V.V.V.V.V.Z.Z.Z.F.Z.F.F.F.F.F.Z.F.Z.Z.Z.F.F.F.F.F.F.F.H.F.H.F.H.F.F.F.F.F.F.F.F.Z.Z.Z.V.Z.V.V.Z.V.V.V.V.V.Z.Z.V.Z.Z.Z.F.F.F.F.F.F.F.H.H.H.H.H.H.J.H.H.J.H.J.H.H.H.F.F.F.F.Z.Z.F.Z.Z.Z.Z.F.Z.Z.F.F.F.F.F.F.F.F.H.F.F.H.H.H.H.J.H.J.H.J.J.H.H.H.H.J.H.H.H.H.H.H.H.F.H.F.F.F.F.F.F.F.F.F.F.Z.Z.Z.V.z.s.X.` D n w 4 - * @ @ @ : > 5 7 t V ]  .d.z.V.F.F.H.H.H.F.F.F.F.F.F.F.F.Z.F.Z.Z.Z.Z.Z.Z.Z.Z.V.Z.Z.Z.Z.Z.F.Z.Z.Z.F.Z.F.F.F.F.F.F.F.F.F.F.F.F.F.Z.F.Z.Z.Z.Z.Z.Z.Z.Z.Z.V.V.z.k.d.| _ A n w 4 - * @ + ",
"O O $ $ 4 3 q A ) ..s.z.V.V.Z.Z.Z.Z.Z.Z.V.V.Z.V.V.Z.V.V.V.V.V.V.z.z.z.z.z.z.z.V.V.V.V.V.V.z.z.z.k.k.k.k.k.z.z.z.z.V.V.V.Z.Z.V.Z.Z.V.Z.V.Z.V.V.V.V.V.z.z.z.z.k.k.k.k.k.k.k.k.z.z.z.V.z.V.z.V.V.z.V.V.z.z.z.z.k.k.k.k.k.k.k.z.z.z.V.z.z.z.V.V.z.V.z.z.V.z.z.z.k.k.k.k.k.z.z.V.V.V.Z.V.V.V.V.z.z.k.k.k.s.k.s.k.s.s.s.s.s.s.s.s.s.s.s.s.s.s.s.p.p...| ` S M q 3 1 - * * * * @ : ; 5 e C H o.a.x.Z.F.H.H.J.H.H.F.F.F.F.F.F.H.H.H.J.H.H.H.J.H.H.H.H.F.F.F.Z.V.V.V.V.V.V.V.V.Z.Z.Z.F.F.F.H.H.H.H.J.J.H.H.H.F.F.F.Z.Z.Z.V.V.z.V.z.z.z.z.k.z.k.z.z.z.z.z.V.V.V.Z.Z.Z.Z.Z.Z.Z.Z.V.Z.V.V.Z.Z.Z.F.F.F.F.F.F.F.F.F.F.F.F.Z.Z.Z.Z.Z.V.V.V.V.V.V.z.z.z.z.z.z.z.z.V.V.V.V.V.Z.Z.Z.Z.F.F.F.F.H.H.H.J.H.J.J.H.H.H.H.H.H.F.F.F.Z.Z.Z.Z.Z.V.Z.V.Z.Z.Z.Z.Z.F.Z.F.F.F.F.F.F.F.F.F.H.H.H.H.H.J.H.J.J.J.J.J.H.J.J.H.H.H.F.F.F.F.F.F.F.F.F.Z.Z.Z.Z.Z.V.Z.z.z.k.p.| _ M q 3 & & * @ @ @ = ; 5 7 t V ]  .d.x.Z.F.F.H.H.H.H.H.H.H.F.F.F.F.F.Z.Z.Z.Z.Z.V.Z.V.Z.V.V.Z.V.Z.Z.Z.Z.F.Z.Z.F.Z.F.F.F.F.F.F.F.F.F.Z.F.Z.F.Z.Z.Z.Z.V.V.V.V.V.V.V.V.z.k.p.| _ M q 3 & $ + O . ",
". . o $ & 3 q Z ) | d.z.V.Z.Z.Z.Z.V.V.V.Z.Z.V.V.Z.V.Z.V.V.V.z.z.z.z.k.k.k.z.z.z.V.V.V.V.V.z.z.k.k.k.s.s.k.k.k.z.z.V.V.V.V.V.Z.V.Z.V.V.Z.V.V.V.V.z.V.z.z.z.k.k.k.k.s.s.s.s.k.k.z.z.z.z.z.z.V.z.z.z.z.z.z.k.k.k.k.k.s.s.k.k.k.k.z.z.z.z.V.z.z.V.z.z.z.z.k.k.k.k.s.s.s.k.k.z.z.V.V.V.V.V.V.z.z.k.k.s.s.s.p.s.p.p.p.p.p.p.s.p.s.p.p.p.p.p.p.......| ` _ Z b 8 3 & $ $ O O @ = = 5 5 7 C H o.a.x.Z.F.H.H.H.H.F.F.Z.F.F.F.F.F.H.H.H.J.H.H.H.H.H.H.F.F.F.Z.V.z.z.z.z.k.z.z.V.V.Z.Z.Z.F.F.F.H.H.H.J.H.H.H.H.F.F.Z.Z.V.V.z.z.z.k.k.k.s.s.s.s.s.s.s.k.k.k.k.z.z.V.V.V.Z.V.Z.V.V.z.V.V.V.V.V.V.Z.Z.Z.Z.F.Z.F.F.F.Z.Z.Z.Z.Z.Z.V.V.V.z.z.z.k.k.k.k.s.k.k.k.k.k.z.z.z.z.V.V.V.Z.Z.Z.F.F.F.F.H.H.H.H.J.J.H.H.H.F.F.F.F.Z.Z.Z.V.V.V.z.V.z.z.V.V.V.Z.V.Z.Z.Z.Z.Z.Z.Z.F.F.F.F.F.H.H.H.J.H.J.J.H.J.J.H.J.H.H.H.H.H.F.F.F.Z.Z.Z.Z.Z.Z.Z.V.V.V.V.z.z.z.k.s...` D b 9 1 & $ o + + @ @ = 5 7 t V ]  .d.x.V.F.F.H.H.H.H.H.F.H.F.F.F.F.Z.Z.Z.Z.Z.V.V.V.V.V.V.V.V.V.Z.Z.Z.Z.Z.Z.Z.Z.F.F.Z.F.F.F.F.F.F.F.F.F.Z.Z.Z.Z.Z.V.V.V.z.z.V.z.z.z.k.s...` D n 8 < & $ o . . ",
"  .   o & < 0 M _ ..s.z.V.V.V.Z.Z.Z.V.Z.V.V.V.Z.V.V.V.V.V.z.z.z.k.k.k.k.k.k.z.z.z.z.V.V.z.z.z.k.s.s.s.s.s.s.k.z.z.z.V.V.V.Z.Z.V.V.V.V.V.V.V.V.V.z.z.z.z.k.k.s.s.s.p.s.s.s.s.k.k.k.z.z.z.z.z.z.z.z.z.k.z.k.k.s.s.s.s.s.s.s.k.k.z.z.z.z.z.z.V.z.z.z.z.z.k.k.k.s.s.s.s.s.k.k.z.z.V.V.V.z.z.k.k.s.s.s.p.p.p...p.p...p.........................| ` ` ) Z M 0 9 < & X o o O + @ = ; 5 e B H ' a.l.A.F.H.H.H.H.F.F.Z.Z.Z.F.F.F.F.H.H.H.H.H.H.H.H.F.F.F.Z.V.V.z.k.k.k.s.k.k.z.z.V.V.Z.F.F.F.H.H.H.H.H.H.H.F.F.Z.V.V.V.z.z.k.k.s.s.p.p.p.p.p.p.p.p.p.p.s.k.k.z.z.z.V.V.V.z.z.z.z.k.k.z.z.V.V.V.V.Z.Z.Z.Z.Z.Z.Z.Z.Z.Z.V.V.V.z.z.k.k.k.k.s.s.s.s.p.p.p.p.s.s.s.k.k.k.z.z.z.V.V.V.Z.Z.F.F.F.H.H.H.H.H.H.H.H.F.F.F.Z.Z.Z.V.V.z.z.z.z.z.z.z.z.z.z.V.V.V.V.Z.V.Z.Z.Z.Z.Z.F.F.H.H.H.H.H.H.H.J.J.H.J.H.H.H.H.F.F.F.F.Z.Z.Z.Z.Z.Z.V.V.V.V.z.z.k.k.s.p...| S Z b 3 1 # o o o O + = ; 5 7 t V ]  .a.x.Z.Z.H.H.H.H.H.H.H.H.F.F.F.Z.Z.Z.Z.V.V.V.V.z.V.V.V.z.V.V.V.V.V.V.Z.Z.Z.F.Z.Z.F.Z.F.Z.F.F.F.F.F.F.F.Z.Z.Z.V.V.V.z.z.z.z.z.k.k.s.a.| ) Z n 9 1 $ X . . . ",
"        # < 8 m ) | s.z.V.V.Z.Z.V.V.V.V.V.V.V.V.V.V.V.V.V.z.z.k.k.s.s.k.k.k.k.z.z.V.V.z.z.z.k.s.s.p.p.p.s.s.k.k.z.V.V.V.V.Z.V.V.V.V.V.V.V.z.V.z.z.z.z.k.k.s.s.s.p.p.p.s.s.s.k.k.k.z.z.z.z.z.z.z.z.z.k.k.k.s.s.p.p.p.p.p.s.s.k.k.k.z.z.z.z.z.z.z.z.k.k.k.s.s.p.p.p.s.s.s.k.k.z.z.z.V.z.z.k.k.s.p.p.p...............| ..| ......| | | | | ` ` ` ) S Z b 0 2 % #   o . . + @ = 5 5 e C J o.a.x.A.F.H.H.H.H.F.Z.Z.Z.Z.Z.Z.F.F.H.H.H.H.H.H.H.F.F.F.Z.Z.V.z.k.k.s.s.s.s.s.k.z.z.V.V.Z.F.F.F.F.H.H.H.H.F.F.Z.Z.V.V.z.k.k.s.s.p.p.........| ........p.p.p.s.s.k.z.z.z.z.z.k.k.k.k.k.k.k.z.z.V.V.V.Z.Z.Z.Z.Z.Z.Z.V.V.V.V.z.z.k.k.k.s.s.s.p.p...p.......p.p.s.s.s.s.k.z.z.z.z.V.V.Z.Z.Z.F.F.F.H.H.H.H.F.F.F.Z.Z.Z.V.V.z.z.z.k.k.k.k.k.k.k.k.z.z.z.z.z.V.V.V.V.V.Z.Z.F.F.F.F.H.H.H.H.H.H.H.J.H.H.H.F.F.F.Z.Z.Z.Z.Z.V.V.V.z.z.V.z.z.k.k.k.s.p...| ) S m 0 2 & # X o . O @ = = 5 e t V ]  .d.x.V.Z.F.F.H.H.H.H.H.H.F.F.F.Z.Z.V.V.V.V.V.V.z.V.z.z.z.z.z.V.V.V.V.V.Z.Z.Z.Z.Z.Z.F.Z.F.F.Z.F.F.Z.Z.Z.Z.Z.V.V.V.z.z.z.k.k.k.k.s.p...` S m 0 2 & #         ",
"        # 1 8 m ) | p.z.V.V.Z.Z.Z.V.V.V.V.V.V.V.V.V.V.V.z.z.z.k.k.s.s.s.s.k.k.z.z.z.V.z.z.z.k.k.s.s.p.p.s.s.s.k.z.z.V.V.V.V.V.V.V.V.V.V.z.V.z.z.z.z.k.k.k.s.p.s.p.p.p.p.p.s.s.s.k.k.z.z.z.z.z.z.z.k.k.k.k.s.p.p...p.p.p.p.s.s.k.k.z.z.k.z.z.z.z.z.k.k.k.s.s.p.p.p.p.p.s.s.k.k.z.z.z.z.k.k.s.p.p.........| ..| | | | | | | | | | | | ` ` ` ) ) S Z m 0 8 < & # X     . O + = ; 5 e B H o.a.x.Z.F.H.H.F.F.F.Z.V.Z.Z.Z.Z.F.F.H.F.H.H.H.H.F.F.F.F.Z.V.z.z.k.s.p.p.s.s.s.k.k.z.z.V.V.Z.Z.F.F.F.F.F.F.Z.Z.Z.V.V.z.k.k.s.s.p.......| | | ` | | | | ....p.p.s.k.k.k.k.k.k.k.s.s.s.s.s.k.k.k.z.z.z.V.V.V.V.V.V.V.V.V.V.z.z.z.k.k.s.s.p.p.......| | ..| ......p.s.s.s.s.k.k.z.z.z.V.V.Z.Z.F.F.F.F.F.F.F.F.Z.Z.V.V.V.z.z.k.k.s.s.s.s.s.s.s.k.k.z.k.z.z.z.z.z.z.V.V.V.V.Z.Z.F.F.H.H.H.H.H.H.H.H.H.H.F.F.F.Z.Z.V.V.z.V.V.z.z.z.z.k.k.k.s.s.p.....| ) Z b 8 < % #   . . O O * = 5 5 t C ] o.d.x.V.F.F.H.H.H.H.F.H.H.F.F.Z.Z.Z.Z.V.V.V.z.z.z.z.z.z.z.z.z.z.z.V.V.V.V.V.V.Z.Z.Z.Z.F.Z.F.Z.F.F.Z.F.Z.Z.Z.V.V.V.z.z.z.k.k.s.s.p...| ` S m 8 2 % X         ",
"      X # < 8 b S | s.k.V.Z.Z.Z.V.V.V.V.V.V.V.V.V.z.V.z.z.z.k.k.k.s.s.s.s.k.k.z.z.z.V.z.z.k.k.s.s.p.p.p.s.s.k.k.z.z.z.V.V.V.V.V.V.z.z.z.z.z.z.k.k.k.k.k.s.s.p.p.p.p.p.p.p.s.s.k.k.k.z.z.z.z.z.z.z.k.k.s.s.s.p.p.......p.p.s.s.k.k.k.z.k.z.k.z.z.k.k.k.s.s.s.p.p.....p.p.s.k.k.z.z.z.k.k.s.s.p.p.......| | | | | | ` | | | | ` | | ` ` ) ) ) ) S Z b 0 2 < % X X     . O + = ; 5 e C F o.a.x.Z.F.H.H.H.H.F.Z.Z.Z.Z.Z.Z.F.F.F.F.H.H.H.F.F.F.F.Z.Z.V.z.z.s.s.p.p.p.p.s.k.k.z.z.V.V.Z.Z.Z.F.Z.F.Z.Z.Z.Z.V.V.z.z.z.k.s.s.....| | ` ` ` ` ` ` | ` | ....p.p.s.s.s.s.s.s.p.p.p.p.p.s.p.s.k.k.z.z.z.V.V.V.V.Z.V.V.V.V.z.z.z.k.s.s.s.p.p...| | | | | | | | ..p.p.p.s.s.s.k.k.z.z.z.V.V.V.Z.Z.Z.Z.Z.Z.Z.Z.Z.V.V.z.z.z.k.k.s.s.s.s.s.p.s.s.s.s.k.s.k.k.k.k.z.z.z.z.V.V.Z.Z.Z.F.F.F.F.H.F.H.F.F.F.F.F.Z.Z.Z.V.V.z.z.z.z.k.z.k.k.s.s.s.s.p.p...| ` ) Z b 8 < % X     . O O * ; 5 7 t C ]  .d.z.Z.Z.F.H.H.H.H.H.H.H.F.F.F.Z.Z.V.V.V.V.V.z.z.z.z.z.z.z.z.z.z.z.V.z.V.V.V.V.Z.Z.Z.Z.Z.Z.Z.F.Z.F.Z.Z.Z.Z.Z.V.z.z.z.k.k.k.s.p.p...| ) Z b 8 < # X         ",
"        X 1 8 m ) | s.z.V.V.V.V.Z.V.V.V.V.z.z.z.z.z.z.k.k.k.k.s.s.s.s.s.s.s.k.k.z.z.V.z.z.k.k.s.s.p.p.p.p.s.s.k.z.z.z.V.V.z.z.z.z.z.z.z.k.z.k.k.k.k.s.k.s.s.s.s.s.p.s.s.s.s.k.k.k.z.z.k.z.z.z.z.z.z.z.k.s.p.p.............p.s.k.k.k.z.z.z.z.z.k.z.k.k.k.s.p.p.....p.p.p.s.s.s.k.k.k.k.s.s.s.p.p.......| ..| | | | | | ` ` | | ` ` ` ` ` ) ) S Z Z b 0 8 < # X X   . . O + = ; 5 e C H o.a.x.A.F.H.H.H.H.F.F.F.Z.F.Z.F.F.H.F.H.H.F.F.F.F.F.Z.Z.V.V.z.z.k.s.s.s.p.s.s.k.k.z.V.V.V.V.V.V.Z.Z.Z.Z.Z.Z.V.V.V.z.z.k.s.s.p...| | ` ` ` ` ` ` ` ` | | | ....p.p.p.p.s.p.p.p.p.p.....p.p.s.s.s.k.z.z.z.V.V.V.V.V.V.V.V.V.z.z.z.k.k.s.p.p.p...| | | ` | | | ......p.p.s.s.k.s.k.k.z.z.z.V.V.V.Z.V.Z.V.V.V.V.z.z.z.k.k.k.s.s.p.p.p.p.p.p.p.p.p.s.s.s.s.k.s.k.k.k.z.z.V.V.V.Z.Z.Z.F.F.F.F.F.F.F.F.F.Z.Z.V.V.V.z.z.z.k.k.k.k.k.s.s.s.p.p.p...| | ` S m b 8 < # X   . . . + @ = 5 7 t V ]  .a.k.V.F.F.H.H.H.H.H.F.H.F.F.Z.Z.Z.V.V.V.V.z.z.V.z.z.z.k.z.z.z.z.k.z.z.z.z.V.V.V.Z.Z.Z.Z.Z.Z.Z.Z.Z.Z.Z.Z.V.V.V.V.z.z.k.k.s.s.p...| ` S Z 0 8 < # X         ",
"        # < 8 b S | s.z.z.V.Z.Z.V.V.V.z.V.z.z.z.z.k.k.k.k.k.s.s.s.s.p.s.s.k.k.k.k.z.z.z.z.k.k.s.s.s.p.p.s.s.k.k.z.z.z.V.z.z.z.z.z.k.k.k.k.k.k.k.s.s.s.s.s.s.s.s.s.s.s.s.s.k.k.k.k.k.k.z.z.z.z.z.z.z.z.k.s.p.....| | | ....p.s.s.k.z.z.z.z.z.z.z.z.k.k.k.s.p.p.p...p.p.p.p.p.s.s.s.s.s.s.p.p.p...........| | | | | | | | | ` ` ` ` ` ` ` ` ) S S Z b 0 2 < % X X   . . O O = ; 5 e C H o.d.x.A.F.J.J.J.H.H.F.F.F.F.F.F.F.F.H.H.F.F.F.F.F.Z.Z.Z.Z.V.z.z.k.k.s.s.s.s.k.k.k.z.z.V.V.V.V.V.V.V.V.V.V.V.V.z.V.z.z.z.k.s.p.....` ` ` ) ) ` ` ` ` | | | | ......p...p.........| ........p.s.s.k.k.k.z.z.z.V.V.V.Z.V.V.V.V.z.z.z.k.k.s.s.......| ` | | ` | ....p.p.p.p.s.s.s.k.k.k.k.k.z.k.z.z.z.z.z.z.z.k.k.k.k.k.k.s.s.s.p.p...p.p.....p...p.p.p.p.s.s.s.s.k.k.k.z.z.V.V.Z.Z.Z.Z.Z.Z.Z.Z.Z.Z.Z.V.V.V.z.z.k.k.k.k.s.s.s.p.s.p.p.p.......| | ` S Z b 2 < % X     . . O @ ; 5 7 t V ] o.a.x.V.Z.F.F.H.H.H.H.H.F.F.F.F.Z.Z.V.V.V.z.V.z.z.z.z.z.z.k.k.k.k.k.k.k.z.z.z.z.V.V.V.Z.Z.V.Z.Z.Z.Z.Z.Z.Z.V.V.V.V.V.z.k.k.s.p.p.| | ) S m 0 2 < # X         ",
"      X X % 8 m ) | p.k.V.Z.V.Z.V.V.V.z.z.z.k.z.k.k.k.s.s.s.s.s.s.p.s.s.s.s.s.k.z.k.z.z.z.k.k.k.s.s.s.s.s.s.k.k.k.z.z.z.z.z.z.k.k.k.s.k.s.s.s.s.s.s.s.s.s.s.s.k.s.k.s.k.k.k.k.k.z.k.z.z.z.z.V.z.z.z.z.k.s.p.....| | | ....p.p.k.k.k.k.z.z.z.z.z.z.k.k.s.s.s.p.p.p.......p.p.p.s.s.s.p.p.p.p...........| ..| ..| | | | | | | | | ` ` ` ` ) ) ) S Z m 0 8 < % X X     . O @ = ; 5 e C H o.h.x.F.H.H.J.J.J.H.H.H.F.H.F.F.H.F.F.F.F.F.F.F.F.Z.Z.Z.V.V.z.z.z.k.k.k.k.k.k.k.z.z.V.z.V.V.z.V.z.z.z.k.z.z.z.z.z.z.z.k.k.s.p...| ` ` ` ) ) ` ` ` ` | | | | | | ..| ....| | | | | | | | ....p.p.s.k.k.k.z.z.V.V.V.V.V.Z.V.V.V.z.z.z.k.s.s.p...| | ` ` ` | | | | ......p.p.p.p.s.s.s.s.k.s.k.k.k.k.k.s.k.k.k.s.k.s.s.p.p.p.p.p.p.............| ..........p.p.s.s.s.k.k.z.z.z.V.V.V.Z.V.Z.Z.Z.V.V.V.V.z.z.z.k.k.s.s.s.p.p.p.p.p.p...p.......| | ` S Z b 8 < # X     . . + @ = 5 5 t G ]  .d.k.A.Z.H.H.H.F.H.F.F.F.F.Z.Z.Z.V.Z.V.V.V.z.V.z.V.z.z.z.z.k.k.k.k.k.s.s.k.k.z.z.z.V.V.V.V.V.Z.V.Z.V.Z.Z.V.V.V.V.z.z.k.k.s.p...| ` ) Z m 0 2 % # X         ",
"        X < 8 m S | s.z.z.V.Z.V.V.V.z.z.z.z.k.k.k.s.s.s.p.s.p.s.p.p.s.p.s.k.s.k.k.z.z.z.k.k.k.k.k.s.k.s.s.k.k.k.z.z.z.z.z.k.k.k.k.s.s.s.p.s.p.p.p.p.p.s.s.s.k.s.k.k.k.k.z.k.k.z.z.k.z.z.z.z.z.V.z.z.z.k.s.s.....| | | | ....s.s.k.z.z.z.z.z.z.z.k.k.k.k.s.s.p...........p...p...p...p...p.....................| ..| | | | | | | ` ` ` ` ` ) ) S Z m b 8 < # X X   . . O + = ; 5 e C H o.a.x.Z.H.J.J.J.J.H.H.H.H.H.H.F.F.F.F.F.F.F.Z.Z.Z.Z.V.V.V.V.z.z.z.z.k.k.k.k.z.k.z.z.V.z.V.z.z.z.k.k.k.k.k.k.k.z.z.z.z.k.k.s.p...| ` ) ) ) ) ) ` ` ` | | ` | | | | | ` | | ` ` ` ` ` ` | | ....p.p.s.s.k.z.z.V.V.V.V.Z.Z.Z.V.V.V.V.z.z.k.s.p.....| ` ` ` | | | | ..........p.p.p.p.p.p.p.s.s.p.p.s.p.p.s.p.s.p.s.p.p.p.p.p.p...........| | | | | | | | | ....p.p.s.s.s.k.k.z.z.z.z.V.V.V.z.z.V.z.z.z.z.k.s.s.s.p.p.p...p...............| ..| | ` ) Z b 8 < # # X   . . O @ ; 5 7 t V ]  .a.x.V.Z.F.H.H.H.F.F.F.F.F.Z.Z.Z.V.V.V.V.V.z.V.z.V.z.z.z.k.k.k.s.s.s.s.s.s.k.k.k.z.z.V.V.V.V.V.Z.V.Z.V.Z.Z.V.V.V.V.z.k.k.s.p...` ` S Z b 8 2 % # X         ",
"        # < 8 b ) | s.k.V.Z.V.Z.V.V.z.z.z.k.k.s.s.s.p.p.p.p.p.p.p.s.s.p.s.s.k.k.k.k.k.z.z.z.k.k.k.s.k.k.k.k.k.z.z.k.k.z.k.k.k.s.s.p.p.p.p.p.p.p.p.p.p.p.s.s.s.k.k.z.z.z.z.z.z.z.k.z.z.z.z.z.V.z.V.z.z.k.s.p...| ` ` ` | ....p.s.k.k.z.k.z.z.z.z.z.k.k.k.s.s.p.p.p.........................................| ....| ....| | | | ` | ` | ` ` ) ) S Z m b 8 < % X X     . O + = ; 5 7 C J o.h.z.A.H.J.J.J.J.J.H.H.H.H.F.F.F.F.Z.Z.Z.Z.Z.Z.V.V.V.V.V.z.z.z.z.k.z.k.k.k.k.z.z.z.z.z.z.k.k.s.s.s.p.p.p.s.s.k.k.k.z.k.s.s...| | ` ) ) ) ) ) ` ` ` ` | | ` ` ` ` ` ` ) ) ` ) ) ) ) ` ` ` | | ....p.s.s.s.k.z.z.V.V.V.V.V.Z.V.V.V.z.z.k.s.p...| ` ` ` ` ` ` ` | | ..| ............p.............................................| | | | | ` ` ` ` ` ` | | | | ....p.p.p.s.s.k.k.k.z.k.k.z.z.z.k.k.k.s.s.s.p.p.........| | | | | | | | | | | | ` S Z b 8 < # X   . . . + @ = 5 7 t C ]  .d.x.V.Z.F.H.F.H.F.F.F.F.Z.Z.Z.Z.Z.V.V.V.V.V.V.V.V.V.z.z.z.k.s.s.s.p.s.p.s.s.k.k.z.z.z.z.V.V.V.V.V.V.Z.V.V.V.Z.V.V.V.z.k.s.p...` ) S Z b 8 2 % # X         ",
"        # % 8 m S | s.k.z.V.Z.V.V.z.z.z.k.k.k.s.s.p.p.p.p.p.p.p.p.p.s.s.s.k.s.k.k.z.k.z.k.z.z.k.k.k.k.k.k.z.z.k.z.z.k.z.k.s.s.s.s.p.p.....p.....p...p.p.s.s.k.k.z.z.z.V.z.z.z.k.k.z.z.z.z.z.V.V.V.z.z.k.s.p...| | ` ` | | p.p.s.k.k.k.z.z.z.z.z.k.k.k.s.s.s.p.p.........| ....| | ..................................| ..| | | ` ` ` ` ` ` ` ) ) S m b 8 2 % # X     . O + = ; 5 e C H { a.x.V.F.H.J.J.H.H.H.F.H.F.F.F.Z.Z.Z.V.V.V.V.V.z.z.z.z.z.k.z.k.k.k.k.k.k.k.k.k.z.z.k.k.k.k.s.p.p.........p.p.s.s.k.k.k.s.p...| ` ) S S S ) ) ) ) ` ` ` ` ` ) ) ) ) S S S S S S S S S S ) ` ` | ....p.p.s.s.k.z.z.V.V.V.V.V.V.V.z.z.z.k.s.p...| ` ) ) ) ) ` ` ` | ` | | | | | | | | | | | | ` | ` | ` ` | | | | | | | | | | | ` ` | ` ` ) ) ) ) ) ) ) ) ) ` | | | ....p.p.p.s.s.s.s.s.k.s.s.s.s.s.s.p.p.p.......| | ` | ` ` ` ` ) ` ` ` | | ` ) S Z b 8 < # X X   . . O @ = 5 5 t C ] o.d.x.V.Z.F.F.H.F.F.F.F.F.Z.Z.Z.Z.V.Z.V.V.V.V.V.V.V.V.V.z.z.k.s.s.p.p.p.s.s.s.s.k.k.z.z.z.z.V.V.V.V.V.V.Z.V.Z.V.V.V.z.z.k.p.....` ) S m b 8 < % X X         ",
"        # % 8 m ) | s.z.V.V.V.V.V.z.z.z.k.k.s.s.s.p.p.p.p...p.p.p.p.p.s.s.s.s.k.k.k.z.z.z.z.z.z.z.z.k.z.z.z.z.z.k.z.k.k.k.k.s.p.p...p.p.............p.p.p.s.k.k.z.z.z.z.V.z.z.z.z.z.k.z.z.V.z.V.z.V.z.k.s.p...| | ` ` | ....p.s.k.k.k.z.k.z.k.k.k.k.k.s.p.p.p.......| | | | | | | | | | | ..| ..| ......| ........| | | | | | | | ` ` ` ` ` ) ) S Z b 8 < % X X   . . O @ = ; 5 e B F { X.d.z.Z.Z.F.F.F.F.F.F.Z.Z.Z.Z.V.V.z.z.z.z.k.k.k.k.s.k.s.k.s.s.s.s.s.s.s.k.s.k.s.s.s.s.s.p.p...| | | | | | ....p.s.p.s.p...| | ) ) S Z S Z S ) ) ) ` ) ) ) ) S S S Z Z Z Z Z Z Z Z S S S S ) ` ` | ....p.s.s.s.k.k.k.z.z.z.z.z.z.k.k.s.p...| ` ` ) ) ) ) S ) ) ` ` ` ` ` ` ` ` ` ` ` ` ) ) ) ) ) ) ) ) ) ` ) ` ` ` ` ` ` ` ` ` ` ) ) ) S S S Z Z Z S S ) ) ) ` ` ` | | | ......p.p.p.p.p.p.p...p.....| | | ` ` ` ` ) ) ) ) S ) ) ) ) ` ` ` ) ) S m 0 8 < # X   . . o O @ ; 5 e t V ]  .d.x.V.F.F.F.F.F.F.F.Z.F.Z.Z.Z.V.Z.V.V.V.Z.V.V.V.V.V.V.z.z.z.k.s.s.s.p.p.p.s.k.k.k.z.z.z.V.V.V.V.V.V.V.V.V.V.V.V.V.z.k.k.s.p...` ) Z m 0 8 < % # X         ",
"        X < 8 b S | p.z.z.V.V.V.V.z.z.k.k.k.s.s.p.p.p.p.p.p.p...p.p.p.p.p.s.s.k.k.z.z.V.z.V.z.V.V.V.z.V.z.z.z.z.z.z.k.k.k.s.s.p.p...........| ......p.p.p.s.s.k.k.z.z.z.z.z.z.z.z.k.z.z.z.z.V.z.V.z.z.k.s.p.....| ` | | | ..p.s.s.k.k.k.k.k.k.k.k.s.s.s.p.p.......| | | | | | | | | | | | ............| ..| ..| | | | | ` | ` ` ` ` ` ` ` ) ) ) S m b 8 < % # X     . o + = ; 5 e t F D  .a.d.z.z.V.V.V.V.V.z.z.z.k.z.k.s.s.s.s.p.p.p.p.p.p.p.....p.p...p...p.....p.p.p.p.p.....| | ` ` ) ) S ) ) ` | | ......| ` ` S S Z m m m Z Z Z S S S S Z Z Z Z Z m m m m m b m b m m m Z Z S S ) ) ` ` | | ..p.p.p.s.s.s.s.s.s.s.p.p...| ` ` ) S Z Z Z Z S Z S S S ) ) S S S ) S S S S S Z Z Z Z Z Z Z S S S S S S ) S S S S ) S S S Z Z Z m m m m m Z Z Z S S S ) ) ` ` ` | | | | | | | | | | ` ` ` ` ` ) ) S S S S S Z Z Z Z Z S S S S S S S Z b 8 2 % # X   . . . O = ; ; 7 t V ]  .d.z.V.Z.F.F.F.F.F.Z.Z.F.Z.Z.Z.V.V.Z.V.V.Z.Z.V.Z.V.V.V.V.z.z.k.s.s.s.s.s.s.s.k.k.z.z.z.z.z.z.V.V.V.V.V.V.V.V.V.V.z.z.k.s.s.p.| ` ) S m b 8 < % # X         ",
"      X # % 8 m ) | s.z.V.V.V.V.z.z.k.k.k.s.s.s.s.s.s.p.p.p.p.p...p.p.p.s.s.k.k.z.z.V.V.V.Z.V.Z.V.V.V.V.V.V.V.z.z.z.z.k.k.s.s.p.p.......| ..............p.s.s.k.k.z.z.z.z.z.z.z.z.z.k.z.z.z.z.z.z.z.k.k.s.p...| | | | | ....p.p.s.s.s.k.s.k.s.s.s.s.p.p.p.....| | | | | | | ` | | | | | | | | | | ....| | | | | | | ` | ` ` ` ` ` ` ` ` ` ` ` ) S Z b 0 2 % X X   . . O + * ; 5 7 w N H _ ' ....s.s.s.s.s.s.s.p.p.p...p.......| | | ` | ` ` ` ` ` ` ` ` ` ` ` ` ` ` ` ` ` ` ` ` ) ) S Z Z Z Z Z Z S ) ) ) ` ) ) S S Z m b b b b b b b m m m m m m b b 0 0 0 0 0 0 0 0 0 0 b 0 b b b m Z Z S S ) ) ` ` ` | | | ........| | | ` ) S S Z m m m m b m m m m Z m m Z Z Z m m m m m m m m m b b b m b m m Z m Z m Z Z Z Z Z m Z m m b b b b b b b b b m m m Z Z Z Z S S S S ) ) ) ) ) ) ) S ) S S S Z Z Z Z Z m m m m m m b m m m m Z Z m m b 0 8 < % # X     . . O = ; 5 7 t C ]  .d.x.V.Z.F.F.F.F.F.Z.Z.Z.Z.Z.V.Z.Z.Z.V.Z.V.Z.Z.Z.Z.Z.Z.V.V.z.z.k.k.s.s.s.k.k.k.z.z.z.V.V.V.V.V.V.V.V.V.V.V.V.V.z.z.z.k.s.s.....| ) S Z b 8 2 % # X         ",
"        # < 8 m ) | s.k.z.V.V.V.z.k.k.k.s.k.s.s.s.s.s.s.s.p.p.p.p...p.p.p.s.s.k.z.V.V.Z.Z.Z.Z.Z.Z.Z.Z.Z.V.Z.V.V.z.z.z.k.k.s.s.p.p...........| ........p.p.p.s.s.k.k.k.k.z.k.k.k.z.k.k.z.z.z.z.z.z.k.k.s.s.p.....| | | | ..p.p.p.s.s.s.s.s.s.p.p.p.p.....| ..| | ` ` ` ` | ` | | | | | ..| ..| ..| | | | | | | ` | ` ` ` ` ` ` ` ` ) ) ` ` ) ) ) S Z b 8 2 % #     . . o * = ; 5 7 e r V M S _ ` ` ` | ` ` ` ` ` ` ` ) ) ) S ) S S S S Z S S Z S Z Z Z Z S Z Z S S S Z S Z Z Z Z m m b b 0 b b b b b m m Z Z Z m m m b 0 8 8 8 8 8 8 0 0 0 0 0 0 0 0 8 8 2 8 2 2 2 2 2 8 2 8 8 8 0 0 0 b b b m m Z Z Z S S S S S S S ) ) S S S Z m b b 0 0 0 8 0 0 0 0 0 0 0 b 0 0 0 0 0 0 0 0 8 8 8 8 8 0 8 8 0 0 0 0 b b b 0 b b b 0 b 0 0 0 0 8 8 8 8 8 8 8 0 0 0 b b b b b m m m m m Z Z Z m Z Z m m m m b m b b b 0 b 0 0 0 0 0 0 0 0 0 b 0 b 0 0 8 8 2 % # X       . . + * = 5 7 t C ] o.d.x.V.Z.Z.F.F.Z.Z.Z.Z.Z.Z.Z.Z.Z.V.V.Z.Z.Z.Z.Z.Z.Z.Z.Z.Z.V.V.V.z.z.k.z.k.z.z.z.z.V.V.V.V.V.V.V.V.V.V.V.V.V.z.z.z.z.k.k.s.p.p...| ` ) Z m 0 2 % # X         ",
"        X < 8 b S | s.z.V.V.V.z.z.z.k.k.k.s.k.k.k.k.k.s.s.s.p.p.p.......p.p.k.z.z.Z.Z.F.F.F.F.F.F.F.F.F.Z.Z.Z.V.V.z.z.k.k.s.s.p.p.........| ............p.p.p.s.s.s.s.k.k.k.z.k.k.k.z.k.z.k.k.k.k.k.k.s.s.p.p.....| ........p.p.p.p.p.p.p.p.p.....| | | | ` ` ` ` ` ` ` ` | ` | | | | | | | ..| | | | | | ` ` ` ) ` ) ) ) ) ) ) ) ) ) ) ` ` ) ) S Z b 0 2 % # X     . o * * ; 5 5 6 w r n n m Z Z Z Z Z Z Z Z Z Z m m m m m b b b b b b b 0 b 0 b b b b b b b b b b b b b b 0 0 0 0 8 8 8 2 2 2 8 8 0 0 0 0 0 0 0 8 2 2 2 < < < < < 2 2 2 2 2 2 2 < 2 < < < < < < % % < < < < < < 2 2 2 8 8 8 0 0 0 b b b m m m m m m b b b b 0 0 8 8 2 2 < 2 < < 2 2 2 2 2 2 2 2 2 2 2 2 2 2 2 2 2 < 2 < 2 2 2 2 2 8 2 2 8 8 8 8 8 8 8 8 8 2 2 2 2 2 < < 2 2 2 2 2 2 8 8 8 0 8 0 0 0 0 0 0 0 0 0 0 0 0 0 0 0 8 8 8 8 2 8 2 2 2 2 2 2 2 2 8 8 8 8 8 8 2 < % # # X X     . o O = = 5 7 t F ]  .a.x.V.Z.F.F.F.F.Z.Z.V.Z.V.Z.V.Z.Z.Z.Z.Z.Z.F.Z.F.F.F.F.Z.Z.Z.V.V.V.V.z.z.V.z.V.V.V.V.V.V.Z.V.Z.V.V.V.V.z.z.z.z.k.k.s.s.p.p.....| ` ) S m 0 2 < # X         ",
"      X X < 8 m ) | s.z.z.V.V.z.z.k.k.k.s.k.s.k.k.k.k.k.k.s.s.p...........s.k.k.V.Z.F.H.H.H.H.H.H.H.H.F.F.F.Z.V.V.z.z.k.k.s.s.p.p...........| ..........p.p.p.p.p.s.s.s.s.k.k.k.k.z.k.k.z.k.k.k.k.k.s.s.s.p.p.............p...p.p.p.p.........| | | | ` ` ) ` ) ) ) ) ` ` ` | | | ..| ..| | | | | ` | ` ` ` ) ) ) ) ) S ) S ) ) ) ) ) ) ` ) ) ) S Z b 0 2 % # X   . o O * * ; 5 5 5 6 3 9 9 8 8 8 0 0 0 0 0 0 8 0 8 8 8 8 8 8 2 8 2 2 2 2 2 2 2 2 2 2 2 2 8 2 2 2 2 2 8 2 2 2 2 < 2 < < % < < % < < < 2 2 2 < 2 < < < % % % % # % % % % % < % % % % % % # % # # % # % # % # % % % % < < < < < < 2 2 2 2 8 2 8 8 8 8 8 8 8 2 2 < 2 < < < % % % % % % % % < % < < < < % % % < % % % % % # % % % % % < < < < < < < < < < < < < < % % % % % % % % % < < < < < < < 2 2 < 2 2 2 2 2 2 2 2 2 2 < 2 < < < < < < < < < < % < % < < < < < < < < % % # X X X   X . . o @ * ; 5 7 t V ]  .d.x.V.Z.F.F.F.Z.Z.Z.V.Z.Z.Z.Z.Z.Z.Z.Z.Z.F.Z.F.F.F.F.F.F.F.Z.Z.Z.V.Z.V.Z.V.Z.Z.V.Z.Z.V.Z.V.Z.Z.V.V.V.V.z.z.z.k.k.s.s.p.p.p.......| ` S m b 8 < % X         ",
"        # % 8 m ) | p.k.z.V.V.z.z.k.s.s.s.s.k.k.z.k.z.z.k.k.s.p.........p.p.k.z.V.F.F.H.H.J.J.J.J.H.H.H.F.F.Z.Z.V.z.z.k.k.s.s.p.p.p...........................p.p.p.p.s.s.s.k.k.k.k.z.k.k.k.k.k.k.s.s.s.p.s.p.p.p.p.p.p.p...p.p...p.........| | | ` ` ` ) ) ) ) ) ) ) ` ` | | | ..| | ....| ..| | | ` ` ` ) ) ) ) ) ) S S S S S S S ) ) ) ) ) ) S Z b 8 < % X X     o o * ; ; 5 5 4 4 4 1 < 1 < < < < < < < < < < < < < < < % < % < % < % % % % % % % % % % % % % % % % % % % % % % # % # # # # # % # % % % % % % # # # # X # # # # X # # # # # # # X # # X # X # X X X X # # X # # # # # # % # % % % < % < % % % < % < % < % % % # # # # # # # # # # # # # # # # # # # # # # # # # # # # # # # # # # # % # # % % # # % # # # # # # # # # X # # # # # # # % # % % % % % % % % % % % % % % % % % # % # % # # # # # # # # # # # # % # # X X X X X           o + * = 5 7 t V ] +.a.x.V.Z.F.F.Z.Z.Z.Z.V.V.V.V.Z.V.Z.Z.Z.Z.F.F.F.F.F.F.F.H.F.F.F.F.F.Z.F.F.Z.Z.Z.Z.Z.Z.Z.Z.Z.Z.V.Z.V.V.V.z.z.k.k.s.s.p.p.p.p.p.....| ` ) Z b 8 < # X         ",
"        # < 8 m S | p.z.z.V.V.z.k.k.k.s.s.k.k.k.z.z.z.z.k.k.s.p.p.......p.s.k.z.Z.F.H.J.J.J.K.J.J.J.J.H.H.F.Z.Z.V.z.z.k.k.s.p.p.p...p.....................p.......p.p.p.p.s.s.k.k.z.z.k.k.k.k.k.s.s.s.p.s.p.p.s.p.p.p.p.p.p...p.p.......| | | ` ` ` ` ) ) ) ) S S ) ) ) ) ` | ..| | ....| ..| | | ` ` ` ) ) ) ) S S S S S S S S S S S ) ) ) ) ) Z Z b 8 < % # X   . o + * - ; ; ; 4 - - & & & # # % # % # % # % # # # % # # # # # # # # # # # # # # # # # # # # # # # # # # # # # X # X # X X # # X # # # # # X # X # # X X X X X X X X X X # X X X X X X X X X X X X X X X X X X X # X # X # # # # # # # # # # # # # # # # # # X # # X X X X # # X X # X # X X # X # # # X # X X X X X X X X X X X X X X X # X X X X X X X X X X X X X X X X X X X X X X # X # X X X X X X X # X # X X # # X X X # # X X X X X X X X X X X X X X X X X X X           . o o + * ; ; 7 t V ]  .d.x.V.Z.Z.F.F.Z.Z.Z.V.Z.V.V.Z.Z.Z.F.F.F.F.F.F.H.F.F.H.H.F.H.H.F.F.H.F.F.F.F.Z.F.Z.Z.Z.Z.Z.Z.Z.V.V.V.z.z.z.k.s.s.p.p...p.........| | ) Z b 8 < # X         ",
"      X # % 8 b ) | s.z.z.V.V.z.k.k.s.s.s.s.k.k.k.z.z.z.z.k.s.s.p.......p.s.k.V.Z.F.J.J.K.K.K.K.K.K.J.J.H.H.Z.Z.V.z.k.k.s.s.p.p.p.........| ......................p...p.p.s.s.k.k.k.k.k.k.k.k.s.s.s.s.s.s.s.p.s.s.p.p.p.p.p.p.p.p.........| | ` ` ) ) ) ) S S S S S ) ) ` ` | | ......| ..| | | | ` ` ) ) ) S S S S S Z S Z S Z S S S ) ) ) S S S m b 8 < % X X X   o o * = ; ; 5 ; - - $ & # # # # # # # # # # # # # # # # # # # # # # # # # # # # # # # # # # # # # # # # # # # # # # # # # # # # # # # # # # # # # X # # X # # # # # # # # # # # # # # # # X # X # # # X # # # X # # # # # # # # # # # # # # # # # # # # # # # # X # # # # X # # # X # # # X # # X # X # # # # # # # # # X X X X X X             X       X X       X       X X     X           X X   X         X             X                         X X     X X                   o O + * ; 5 7 t V ]  .a.x.V.Z.F.F.Z.Z.Z.V.Z.V.Z.Z.Z.Z.Z.Z.Z.Z.F.F.F.F.H.H.H.H.H.H.H.H.H.F.F.F.F.F.F.Z.Z.Z.Z.Z.V.V.V.V.V.V.z.k.k.s.s.p...................` ) S b 8 < % X         ",
"        # % 8 m ) ..s.k.V.V.z.z.k.k.s.s.s.s.s.k.k.z.z.z.k.k.s.p.p.p.....p.s.z.V.Z.H.J.J.K.K.K.K.K.K.K.J.H.F.Z.V.V.k.k.s.s.p.p.p.......................................p.p.s.s.k.k.k.z.z.k.k.k.k.s.s.s.s.s.s.s.s.s.s.s.s.p.s.p.p.p.......| | | ` ` ` ` ) ) ) S S S ) ) ) ` ` ` | ..| ......| | | ` ` ` ` ) ) S S Z S S Z S Z Z S Z S S S ) S S S Z m 0 8 2 # # X   . o o * = ; ; ; 5 4 - & & % % % % % % % % # % % % % % % % % % % % % % % # % % % % % % % % # % % % % % % % % % % % % % % % % % % % % % % % % % % % % % % % % % % % % % % % % % % % % % % % % % % % % % % % % % % % % % % % % % % % # % % % % % % % % % % # % % % % % % % % % % % % % % % % % % % % % % % % % % % % % % % # # # # o             o   X     .   .   . X     .   .             .       .       .   o       .       .                     .     . X     .         X     . o o + * = ; 5 7 t F ]  .d.z.V.Z.F.F.F.Z.Z.Z.Z.Z.V.Z.Z.Z.Z.Z.F.F.F.F.H.F.H.H.H.H.H.H.H.H.H.H.H.F.F.F.Z.Z.Z.Z.V.V.V.V.V.V.z.z.k.k.s.s.p.p.................| ` ) Z b 8 < % X         ",
"        # < 8 m S | s.k.z.z.z.z.k.k.s.s.s.s.s.k.k.k.k.k.k.k.s.s.p.p.p.p.s.k.z.Z.F.H.J.K.K.K.L.L.K.K.J.J.H.F.Z.V.z.k.s.p.p...p...........| ..................| ..........s.s.s.k.k.z.z.k.k.k.k.s.s.s.s.s.s.s.s.s.s.s.s.s.s.s.p.s.p.p.p.......| | ` ` ` ) ) ) ) ) S ) ) ) ` | | | | ..| ..| ....| | | ` ` ) ) S S S Z Z Z S Z S Z Z S Z S S S S Z Z m 0 8 < % X X     . + * = ; 5 5 4 4 1 1 3 3 2 2 2 2 < 2 2 2 2 2 2 < 2 2 2 2 < 2 2 2 2 2 2 2 2 2 2 2 2 2 2 2 2 2 < 2 2 2 2 2 2 2 2 2 2 2 2 2 2 2 2 2 2 2 2 2 2 2 2 2 2 2 2 2 2 2 2 2 2 2 2 2 2 2 2 2 2 2 2 2 2 2 2 2 2 2 2 2 2 2 2 2 2 2 2 2 2 2 2 2 2 2 2 2 2 2 2 2 2 2 2 2 2 2 2 2 2 2 2 2 2 2 2 2 2 2 2 2 2 2 2 2 2 2 2 2 2 2 2 2 2 2 < < & # # $ o o . . . . . o   . .   o . . . . . . . . . . . . . . . . . . . . . . . . . . . . . . . . . . . . . . . . o . . . . . . . . . . . .   o .   o o o o @ * = ; 5 7 t C ]  .a.x.V.Z.F.F.F.F.F.Z.Z.Z.Z.Z.Z.Z.Z.Z.Z.Z.Z.F.F.F.F.F.H.H.H.H.H.H.H.H.F.F.F.Z.Z.Z.V.V.V.V.z.z.z.z.z.z.k.k.s.p.p.....| | | | | | | ` ` ) Z b 8 < # X         ",
"        # % 8 m ) | s.k.V.V.V.z.k.k.s.s.s.s.s.s.s.k.k.k.k.k.s.s.p.s.s.s.k.z.V.Z.F.J.J.K.K.L.L.K.L.K.K.J.H.F.V.z.k.s.p.p.................................| | ..........p.p.s.s.k.k.z.z.z.z.k.k.k.k.s.k.s.s.k.s.k.k.s.s.s.s.s.s.s.s.p.p.p.......| | | ` ` ` ) ) ) ) ) ) ) ` ` | | | ....| ....| | | | ` ` ) ) S S Z Z Z Z Z Z S S Z Z S S S Z Z Z m b 8 2 < # X X   . o o * = ; ; 5 6 6 w 9 0 0 0 b 0 0 b b 0 0 0 b 0 0 0 0 0 0 b 0 0 0 0 0 b b 0 0 0 0 b 0 b b 0 0 b 0 b 0 b 0 0 b 0 b b b b 0 b b b 0 b 0 b 0 b 0 b 0 b b 0 b b b 0 b 0 b b b b b b b b b b 0 b b b b 0 b b b b b 0 b b b b b 0 b b b 0 b 0 b 0 0 b 0 0 0 b b 0 b 0 0 0 0 b 0 b b b b 0 b b b b b 0 b b b b b b b b b 0 0 0 8 3 1 & $ $ o O o o o o o o . o o o . . o . . . O . O . O O . O . . O O O O . . . . . O . O . O . O O O . . o O . O o . . . o . O o . o . o o o o o o o $ * * = = = ; y 7 t C ]  .d.x.V.Z.F.F.F.F.F.F.Z.Z.Z.Z.F.Z.Z.Z.Z.Z.F.Z.F.F.H.F.H.H.F.F.H.H.F.F.F.F.Z.Z.V.V.z.z.z.k.z.k.k.k.k.k.s.s.p.p...| | | | ` | | | | ` ) S m 0 8 < # X         ",
"        # % 8 m S | s.z.z.V.z.z.k.k.s.p.p.s.s.s.s.s.s.s.s.s.s.s.s.s.s.k.k.z.V.Z.F.J.J.K.K.K.K.L.K.K.K.J.H.F.V.z.s.p.....| ..| | ..| ..........................| | ....p.p.s.s.k.z.z.z.z.z.z.z.k.k.k.s.k.k.s.k.s.k.k.k.k.k.s.s.s.s.s.p.p.p.p.......| | | ` ` ` ) ` ) ` ` ` ` | | | | | ..| | ....| | | ` ) ) S S S Z S Z Z Z Z Z Z S Z Z Z Z Z m b 0 8 2 % # X X X   o + $ = ; 5 5 7 w r n M M Z Z Z S Z Z Z S Z Z Z Z S S Z Z Z S S Z Z S Z Z Z S S Z Z S Z Z S Z Z S Z S Z Z S Z S Z Z S Z S S Z S S Z Z S S Z S Z S Z S S S Z S Z S S S Z Z S S S Z S S S S S S S S S Z S Z S S S Z Z S Z S Z Z Z S Z Z S Z Z S Z Z S S Z Z S Z S Z S S Z S S Z Z S Z Z S Z Z Z S Z S Z S Z S S S S Z Z M b 9 3 1 - $ * * @ O + * o * + + + o + + O @ O + O + O O + O + O + + + O O O O O O O O O + O O O O + O + + O O O @ O + + O @ O @ O O @ + + + * o * * $ * $ * = = = = ; 5 7 t V ]  .a.x.V.Z.F.H.F.F.F.F.F.F.F.Z.Z.Z.Z.Z.Z.Z.Z.F.F.F.F.H.F.F.H.F.F.F.F.F.Z.Z.Z.V.V.z.z.k.k.k.k.k.k.s.k.s.s.p.p.....| | ` ` ` ` ` ` ` ) ) S m 0 2 % # X         ",
"        X < 8 m S | s.k.z.V.z.z.k.k.s.s.p.p.s.p.p.p.s.s.s.s.s.s.s.s.k.z.z.V.Z.F.H.J.J.K.K.K.L.L.K.K.K.H.F.Z.z.k.s.....| | | | | ....| ....................| ..........p.p.s.k.k.z.z.V.z.z.z.z.k.k.k.k.k.k.k.k.k.k.k.k.k.k.k.k.k.s.s.s.s.p.p.p.p.......| | ` ` ` ` ` ` ` ` | | | | | ..| ....| ..| | | ` ` ) ) S S S Z Z Z S Z Z Z Z Z Z Z Z m m b 0 8 < % # X X     . + * = ; 5 7 e t V A D _ ` ` | | | ` | ` ` ` ` ` ` | ` | ` ` ` ` ` ` | ` ` ` ` | ` ` | ` ` | ` | ` | ` | ` | ` | ` | | ` | | | ` | ` | ` | ` | | ` | ` | ` | | ` | ` | | | ` | | | ` | | | ` | | ` | ` | ` | | ` | | | ` | | ` | ` | ` | ` | ` | ` ` | ` ` ` | | ` ` | ` | ` | ` | ` | ` | ` | ` | | | | | | | | ` ` S A n q w 4 - * * = = * * * * * * * * * * = * * * @ * @ @ @ = @ @ @ * @ * @ @ * @ @ @ @ * @ * * * @ @ @ @ * @ * * * @ * @ * * * * * * * * * * * * = - ; * = = = ; = > > 5 7 t V ]  .d.x.V.Z.F.H.F.H.F.F.F.F.F.F.Z.Z.Z.Z.Z.Z.Z.Z.Z.F.F.F.F.F.F.F.F.F.Z.Z.Z.Z.V.z.z.k.k.s.s.s.s.s.s.s.p.p.p.p.....| | | ` ` ` ` ) ` ) ) S Z b 0 2 % # X         ",
"      X # % 8 m ) | s.z.z.V.V.z.k.k.s.p.s.p.p.p.p.p.p.p.p.p.s.s.k.k.z.z.V.Z.Z.F.H.H.J.J.K.K.K.K.K.K.J.J.F.Z.z.k.p...| | ` ` | | | ....................................p.s.s.k.k.z.z.z.V.z.z.z.z.k.k.k.k.k.k.k.k.z.k.k.k.k.k.k.k.k.k.k.s.s.s.p.p.p.p.....| | | | ` ` ` ` ` ` ` | | | | | | ..| ....| | ` ` ) S S Z Z S Z Z Z S S S Z Z Z Z m m b 0 0 8 < % # X X X . . O * * ; 7 7 r N A _ ` | p.p.p.p.s.p.p.p.p.p.p.p.p.p.p.p.p.p.p.p.p.p.p.p.p.p.p.p.p.p.p.p.p.p.p.p.p.p.p.p.p.p.p.p.p.p.p.p.p.p.p.p.p.p.p.p.p.p.p.p.p.p.p.p.p.p.p.p.p.p.p.p.p.p.p.p.p.p.p.p.p.p.p.p.p.s.p.p.p.p.p.p.p.p.p.p.p.p.p.p.p.p.p.p.p.p.p.p.p.p.p.p.p.p.p.p.p.p.p.p.p.p.p.p.p.p.p.p.p.p.p.p.p.p.p.p.p.s.s.p..... .) A M 9 6 5 ; ; = = = ; ; ; ; ; ; ; = ; = = = = ; ; = ; ; = = ; ; = ; = = ; ; * ; = = = ; = = * ; ; ; = ; = = ; ; = ; = = ; ; = ; = = ; ; ; ; = - = ; ; ; ; ; ; ; > > 5 7 t V H  .a.z.V.F.F.F.H.H.H.H.H.F.F.F.F.Z.Z.V.Z.V.Z.Z.Z.F.Z.Z.F.F.F.F.Z.Z.Z.Z.V.V.z.z.k.k.s.s.p.p.p.p.p.p.p.p.p.....| | ` ` ` ` ` ) ) ) ) ) S Z b 8 2 % # X         ",
"        # % 8 b ) | s.z.z.V.z.z.z.s.s.s.s.p.p.p.p.p.p.p.p.s.s.s.k.z.z.V.V.Z.F.F.H.J.J.K.K.K.K.K.K.K.J.H.F.Z.z.s.p...` ` ` ` | | | ..........p.......................p.p.s.s.k.z.z.z.V.V.V.z.z.z.z.k.z.k.k.k.z.k.k.k.k.z.k.z.k.k.k.k.k.k.k.s.s.s.p.p.p.....| | | ` ` ` | ` | | ` | | | | | ........| | ` ` ) ) S S S Z S S S S Z Z Z Z Z m m b b 0 0 2 < % # X     . o o @ * ; 5 7 r N H '  .s.s.k.z.k.z.z.k.k.z.k.k.z.k.k.k.k.k.k.k.z.k.k.k.z.k.k.k.k.k.k.k.k.k.z.k.k.k.k.k.k.k.k.k.k.z.k.k.k.k.k.k.k.k.k.k.k.k.k.k.k.k.k.k.z.k.k.k.k.k.k.k.k.k.k.z.k.k.k.k.k.k.k.k.k.k.k.k.k.k.k.k.k.k.k.k.z.k.k.k.k.k.k.k.k.k.k.k.k.k.k.k.k.k.k.k.k.k.z.k.k.k.k.k.k.k.k.k.k.k.k.k.k.k.k.k.k.z.z.k.z.k.s.a. ._ V r w 5 5 ; = : ; ; ; y ; 5 5 ; 5 ; 5 5 5 5 5 ; 5 5 5 5 ; 5 5 ; 5 5 5 5 5 5 ; 5 5 5 5 5 5 5 5 5 5 ; 5 5 5 ; 5 ; ; 5 5 5 5 ; 5 5 5 5 5 ; 5 ; 5 ; ; ; > ; ; > > ; y y 7 t V ]  .d.l.Z.Z.F.H.H.H.H.H.F.F.F.F.Z.Z.V.Z.V.Z.Z.Z.Z.Z.Z.Z.F.F.Z.Z.Z.Z.Z.V.V.z.z.k.k.s.p.p.p.p...p.....p.......| | | ` ) ) ) ) ) ) ) S S Z m b 8 2 % # X         ",
"        # < 8 m S | s.k.V.V.V.z.z.k.k.s.s.p.p.p...p.p.p.p.s.s.k.k.z.z.V.Z.F.F.H.H.J.J.J.J.K.K.K.K.J.J.H.F.V.z.s.p.| | ` | ` | | ....p...p.....p...p...p...........p.p.p.s.s.k.z.V.z.V.V.V.V.z.z.z.z.k.z.z.z.k.z.z.k.z.k.z.k.z.k.z.k.k.k.k.s.s.p.p.p.p.......| | | | ` | ` ` ` | | ` | | | | | | | | ` ` ) ) ) S S Z S S Z S S S S S Z Z Z m m b b 8 2 < % X X X     . O + * ; 5 e t F D  .a.d.x.V.V.V.V.V.V.V.V.V.V.V.z.V.V.V.V.V.V.V.V.V.V.V.V.V.V.V.V.V.V.V.V.V.z.V.V.z.V.V.V.V.z.V.z.z.V.z.V.V.z.z.V.z.V.V.z.V.z.V.V.V.V.V.V.V.z.V.V.V.z.V.z.V.z.z.V.z.V.z.V.z.V.V.V.z.V.V.V.V.V.z.V.z.V.z.z.V.z.V.z.z.V.z.V.z.V.V.z.V.V.V.V.V.V.V.V.V.V.V.V.V.V.V.V.V.V.V.V.V.V.V.V.z.V.V.V.V.V.V.z.k.p. ._ A N e 6 5 ; > ; > > ; > 5 5 5 5 7 5 7 7 7 5 7 7 7 5 7 7 7 7 7 7 7 7 5 7 7 7 7 7 7 7 7 7 7 5 7 5 7 7 5 7 7 7 7 7 7 7 7 5 5 7 7 5 5 5 5 5 5 5 y 5 5 > 5 5 > ; > > ; y 7 t V D  .a.x.V.F.F.F.H.H.H.F.H.F.F.F.Z.Z.Z.V.V.V.V.V.Z.Z.Z.F.Z.Z.Z.Z.Z.V.V.V.z.z.k.k.s.s.p.p...p.....p...p.......| | ` ` ` ) ) ) ) ) ) S S Z m 0 8 < % # X         ",
"      X X % 8 m S | s.k.z.V.V.z.z.k.k.s.p.p.p.p.p.p.p.p.p.s.s.k.z.z.V.Z.Z.F.F.H.H.H.J.J.J.J.J.J.J.J.J.F.F.V.z.k.p...| | | | | ....p.p.p.p.p.p.p.p.p.p...p.p.p.p.p.p.s.s.s.k.k.z.z.V.V.V.V.z.V.z.z.z.z.z.z.k.z.z.z.k.z.z.k.z.k.z.z.k.k.k.s.s.s.s.p.p.p.......| | | | ` ` ` ` | ` ` ` | | | | | | | ` | ` ) ) ) S S S S S S S S S S S S Z Z Z m m b 8 8 < % # X X   . . O * = ; 5 e B F _  .d.z.V.Z.Z.Z.Z.Z.Z.Z.Z.Z.Z.Z.Z.Z.Z.Z.Z.Z.Z.Z.Z.Z.Z.Z.Z.Z.Z.Z.Z.Z.Z.Z.Z.V.V.V.Z.V.V.V.V.V.V.V.V.V.V.V.V.V.V.V.V.V.V.V.V.Z.V.V.Z.Z.Z.Z.Z.Z.Z.V.V.V.V.V.V.V.V.V.V.V.V.V.V.V.Z.V.Z.Z.V.Z.V.V.V.V.V.V.V.V.V.V.V.V.V.V.V.V.V.V.V.Z.Z.Z.Z.Z.Z.Z.Z.Z.Z.Z.Z.Z.Z.Z.Z.Z.Z.Z.Z.Z.Z.Z.V.Z.V.V.Z.Z.Z.Z.Z.V.V.z.d.X.` A N w 5 ; ; : : ; > > 5 5 i 5 i e e e t t t t t t t t t t t t t t t t t t t t t t t t e t t e t t t e e e t t t e t e t e w e w e 7 e 5 5 5 5 5 5 y y > > , > > > y 7 t C ]  .d.x.V.F.F.F.H.H.F.F.F.F.F.Z.Z.Z.V.V.V.V.V.V.V.Z.Z.Z.Z.Z.Z.Z.V.V.V.z.z.k.k.s.s.p.p.......p.............| | | ` ` ) ) ) ) ) S ) S S Z m b 8 < % X X         ",
"        # < 8 m ) | s.z.z.V.V.V.z.k.s.s.s.s.p.s.p.p.p.p.s.s.k.z.z.V.V.Z.Z.F.F.H.H.H.H.J.J.J.J.J.J.H.H.F.Z.V.z.s.s.p...| ......p.p.p.p.s.s.p.s.p.p.s.s.p.s.p.p.p.s.s.s.s.k.k.z.z.z.V.V.V.V.V.z.V.V.z.z.z.z.z.z.k.z.k.z.k.z.z.z.z.z.z.k.k.k.s.s.p.p.........| | | | ` ` | ` ` ` ` ` ` ` ` | ` ` | | ` ` ` ) ) ) ) S S ) S S ) ) S S S S S Z Z m m b 0 8 < % # X       . O + * ; 5 e t F ]  .d.k.V.Z.Z.F.F.F.Z.Z.F.F.F.F.F.F.Z.F.F.F.Z.F.F.Z.F.F.Z.Z.F.Z.Z.Z.Z.Z.Z.Z.Z.Z.Z.Z.Z.Z.V.Z.Z.Z.V.V.Z.V.V.V.V.V.V.V.V.V.Z.Z.Z.Z.Z.Z.Z.F.Z.Z.Z.Z.Z.Z.Z.V.V.V.V.V.V.Z.V.V.Z.Z.Z.Z.Z.Z.Z.Z.Z.Z.Z.Z.V.V.V.V.V.V.V.V.V.Z.V.V.Z.V.Z.Z.Z.Z.Z.Z.Z.Z.Z.F.F.Z.F.F.F.F.F.F.F.Z.F.Z.Z.Z.Z.Z.Z.V.Z.Z.Z.F.Z.Z.V.z.d.X._ A N 6 4 ; = = = : ; > y y i e t t B B C V V C N C N C N N V V N C N N C N C N C N V V N V N N V N N N B N N C N N B N N N N t t r t w w e e 7 7 y 5 y y > : : > y 5 7 t V H  .a.x.V.Z.F.H.F.F.F.F.F.F.Z.Z.Z.V.V.V.V.V.V.V.Z.V.Z.Z.Z.V.V.V.V.z.z.z.k.k.s.s.s.p.p...p.......p...p.......| | ` ` ` ) ) S ) ) S S S Z m b 8 2 % # X         ",
"        # % 8 b ) | s.k.V.V.V.z.z.k.k.s.s.s.s.s.s.p.s.s.s.k.k.z.V.V.V.Z.Z.F.F.F.H.H.H.H.H.H.H.H.H.H.H.F.Z.V.z.k.s.p.p.p.p.p.p.p.s.s.s.s.s.s.s.s.s.s.s.s.s.s.s.s.s.k.k.k.k.z.z.z.V.V.V.V.V.V.z.z.z.V.z.z.z.z.z.z.z.z.k.z.z.z.z.k.k.z.k.k.s.s.p.p.p.......| | | | ` | ` | ` ` ` ` ` ` ` ` ` ` ` ` ` ` ` ) ) ) ) S S S S ) ) ) ) ) ) ) S S S S Z Z m 0 8 2 < # X X   . o O + * ; 5 e B F ]  .d.x.V.Z.Z.F.H.F.F.F.F.F.F.F.F.F.F.F.F.F.F.F.F.F.F.F.F.F.F.Z.F.Z.F.Z.Z.Z.Z.Z.Z.Z.Z.V.Z.V.V.Z.V.V.V.V.V.V.V.V.V.V.V.V.V.V.Z.F.F.F.F.F.F.F.Z.Z.Z.V.V.V.V.V.V.V.V.V.V.V.Z.V.Z.Z.Z.F.Z.Z.Z.Z.Z.V.Z.Z.V.V.V.V.V.V.V.V.V.V.Z.Z.Z.Z.Z.Z.F.F.F.F.F.F.F.F.F.F.F.F.F.F.F.F.F.F.F.Z.F.Z.Z.Z.Z.Z.F.Z.F.Z.Z.z.d...` A q 6 4 - * @ = = > 5 y 5 e e t C V F H H H H H H ] H H H H H H H H H H H H H H H H ] H H H H H H H H H F H H H H H A F F F V V N N N r t e e 5 i i y , y > > > y 5 e t V ]  .d.z.V.Z.F.F.F.F.F.F.Z.Z.Z.V.V.V.V.z.z.V.V.V.V.Z.V.V.Z.V.V.V.z.z.k.k.k.s.s.s.p.p.p.p...p...p.......p.....| | ` ` ) ) ) ) S ) ) S S Z m b 8 < % # X         ",
"      X # < 8 m S | s.z.z.V.V.V.z.z.k.k.k.k.s.s.s.s.s.s.s.k.k.z.V.V.Z.Z.F.F.F.F.H.H.F.H.H.H.H.H.F.F.F.Z.Z.V.z.z.k.s.s.s.p.s.s.k.k.k.k.k.k.k.k.s.k.s.s.s.s.k.k.k.k.k.k.z.z.z.V.V.V.V.V.V.V.V.V.V.V.z.z.z.z.z.z.z.k.z.z.z.k.z.z.z.z.k.k.k.s.s.p.p.....| ..| | | | | | ` ` ` ` ` ` ` ` ) ` ) ` ) ` ` ) ) ) ) ) S ) ) ) ) ) ) ) ) ) ) ` ) ) ) S S Z m b 0 2 < # X       . o + = ; 5 e B F ]  .d.k.V.Z.F.F.F.F.H.F.H.F.H.H.H.F.H.H.F.H.F.H.F.H.F.F.F.F.F.F.F.F.Z.F.Z.F.Z.Z.Z.Z.Z.Z.V.Z.V.V.V.V.V.V.V.V.V.z.V.V.V.V.V.Z.Z.Z.F.F.F.F.F.F.Z.Z.Z.V.V.V.V.z.V.V.V.V.V.V.V.Z.Z.Z.Z.Z.F.F.Z.Z.Z.V.V.V.V.z.V.V.z.V.V.V.V.V.V.Z.Z.Z.Z.Z.F.F.F.F.F.H.F.H.H.F.H.H.H.H.H.F.H.F.F.F.Z.Z.Z.Z.Z.Z.Z.Z.Z.Z.V.z.s..._ M 0 3 & $ + @ @ = ; ; 5 i e t C F H ] { ' '  . . .'  .' o.' '  .'  .' o.'  . .'  .' o.' ' ' ' _ ' _ { _ ' _ _ _ { ' _ _ _ D D A M M n N r r e e 5 5 y y y : > > > y 7 t V ]  .a.x.V.Z.F.F.F.Z.Z.Z.V.V.V.V.V.V.z.z.V.z.z.V.V.Z.V.Z.V.V.V.z.z.k.k.s.s.s.s.p.p.p.p.p.p.p.p.p.p.p.p.p.....| | ` ` ) ) ) ) ) S ) ) S Z Z b 8 2 % X X         ",
"        # < 8 m S | p.z.z.V.V.V.z.z.k.k.k.k.k.s.k.s.k.k.k.k.z.V.V.V.Z.Z.Z.F.F.F.F.F.F.F.F.F.F.F.F.Z.Z.Z.V.V.V.z.z.k.k.k.k.k.k.k.k.z.z.k.z.k.k.k.k.k.k.k.k.k.k.k.z.z.z.z.z.z.z.V.V.V.V.V.V.V.V.V.V.z.V.z.V.z.z.z.z.k.z.k.z.k.z.z.z.k.k.k.s.p.p.......| | | | | | | ` ` ` ` ` ` ` ` ) ` ) ) ) ) ) ) ) ) ) S ) ) ) ) ) ) ) ` ) ` ` ` ) ` ) ) ) S S Z m 0 8 < # X X   . . O + = ; 5 7 B F ]  .a.k.V.Z.F.F.F.H.F.H.H.H.F.H.H.F.H.F.H.H.F.H.F.H.F.F.F.F.F.F.F.F.F.Z.Z.Z.Z.Z.V.Z.V.V.Z.V.V.V.V.V.V.z.z.z.z.z.z.z.z.V.V.V.Z.F.F.F.F.H.F.F.Z.Z.V.V.V.z.z.z.z.z.V.z.V.z.V.V.Z.Z.Z.Z.Z.Z.Z.Z.V.V.V.V.z.z.z.z.z.z.z.V.V.z.V.V.V.Z.Z.Z.F.F.F.F.H.F.F.H.H.H.H.F.H.H.H.H.F.F.F.F.Z.Z.Z.Z.Z.Z.Z.Z.Z.Z.V.z.s.| ) M q 1 $ $ o + @ @ = > y 7 e B V H _  .X.X.a.a.a.a.a.a.a.a.X.X.a.a.X.X.a.a.a.a.a.a.X.a.a.a.X.X.X.X.X.X.|  .X..... .X.|  .' ' _ _ D A A M N r w e 7 5 y y : , > > > y 7 t N ]  .d.x.V.Z.F.F.Z.Z.Z.V.V.V.z.z.z.z.z.z.z.z.z.V.V.V.V.V.V.V.V.z.k.k.s.s.p.s.p.p.p.p.p.p.p.p.p.p.p.p.p.p.....| | ` ` ) ) ) ) ) ) ) ) ) S m b 8 2 % # X         ",
"        # % 8 b ) | s.z.V.V.V.V.V.z.z.k.k.k.k.k.k.k.k.k.z.z.z.V.V.Z.Z.Z.F.Z.F.F.F.F.F.F.F.F.F.Z.Z.Z.Z.Z.Z.V.V.z.z.z.z.z.z.z.z.z.z.z.z.z.z.z.z.k.k.k.k.k.k.k.z.z.z.z.z.z.V.V.V.V.V.V.V.V.V.V.V.V.V.V.z.V.z.z.z.z.z.z.z.k.z.z.z.k.z.k.k.s.s.p.....| | | | ` | | ` | ` | ` ` ` ` ) ) ) ) ) ) ) S ) ) S S ) ) S ) S ) ) ) ) ` ` ) ` ` ` ` ) ` ) ) S Z m 0 8 < % X X     . O + = ; 5 e B F _ X.a.l.V.V.Z.F.F.F.F.F.H.H.H.H.H.H.H.H.H.H.H.H.H.H.H.H.H.H.F.H.F.F.Z.Z.F.Z.Z.Z.Z.Z.Z.V.V.V.V.z.z.z.z.z.z.z.z.z.z.z.z.z.V.V.Z.Z.Z.F.F.F.F.F.Z.V.V.V.z.z.z.z.z.z.z.z.z.z.V.V.V.V.Z.Z.Z.Z.Z.Z.V.V.V.z.z.z.z.z.z.z.z.z.z.V.V.V.V.V.Z.F.Z.F.F.F.F.H.H.F.H.H.H.H.H.H.H.H.F.F.F.Z.Z.Z.V.V.V.Z.V.Z.V.V.V.k.p.| S b 8 1 #   o . O + = ; 5 7 t C H ]  .X.d.s.k.k.l.l.l.d.s.d.k.k.d.l.s.k.d.s.d.k.d.k.d.d.s.s.d.s.d.a.p.a.a.s.a.a.a.p.a.a.a...| ` ` ) D Z A n n r e 7 5 5 > > > : > y y 7 t F ]  .a.x.V.Z.Z.Z.Z.Z.V.V.z.V.z.z.z.z.z.z.z.z.z.V.z.V.V.V.V.z.z.k.k.s.s.p.p.p.p.p.p.p.p.p.p.p.s.s.p.s.p.p.p.p...| | ` ` ) ) ) ) ) ) ) ) S Z b 0 2 % # X         ",
"        X < 8 b ) | s.k.V.V.V.V.z.z.z.z.z.k.k.k.k.k.k.k.z.z.V.V.Z.Z.Z.F.Z.F.F.F.F.F.F.F.F.Z.Z.Z.Z.Z.V.Z.V.V.V.V.V.z.V.z.z.z.z.V.z.V.V.z.z.z.z.z.z.k.k.k.z.z.z.z.z.z.V.V.V.V.V.V.V.V.V.V.V.V.V.V.V.z.V.V.V.z.z.z.z.z.k.z.k.z.z.k.z.k.k.k.s.p.....| | | | ` | ` | | ` | ` ` ) ) ` ) ) ) ) S ) S S S S S S S ) ) ) ) ) ) ) ) ` ` ` ` ` ` ` ` ` ) S Z m b 8 2 % X X     . O @ * ; 5 e t V _  .a.k.z.V.Z.F.F.F.H.F.H.H.H.H.H.H.H.H.H.H.H.H.H.H.H.H.H.H.H.F.F.F.F.Z.F.Z.Z.Z.Z.V.V.V.V.V.z.V.z.z.z.z.z.k.z.k.z.z.z.z.V.V.Z.Z.F.F.F.H.F.F.Z.V.V.z.z.z.z.k.z.k.k.z.z.z.V.V.V.Z.Z.Z.Z.Z.Z.V.V.V.z.z.z.z.z.k.z.z.z.z.z.z.V.V.V.Z.Z.Z.Z.F.F.F.H.F.H.H.F.H.H.H.H.F.H.H.F.F.F.Z.Z.Z.Z.V.V.V.Z.Z.Z.V.z.k.p.| S b 8 & #     . O + = ; 5 7 t V H ' X.d.k.z.V.z.V.z.z.z.z.z.z.z.x.z.z.z.x.z.x.z.k.x.k.k.z.z.k.k.l.k.s.k.k.l.s.s.k.k.d.s.p.p.X...| ` ) S Z M n r w e 5 5 > > : > : ; y 7 t V ]  .d.k.V.Z.F.Z.Z.Z.V.z.z.z.z.z.z.k.z.z.z.z.z.z.V.V.V.V.V.z.z.k.k.s.p.p.p...p.p.p.p.p.s.p.s.p.s.s.s.p.p.p.....| | ` ` ` ) ) ) ) ) ) ) S Z b 8 2 % # X         ",
"        # < 8 m S | s.z.V.V.V.V.V.z.z.z.k.z.z.k.z.k.z.z.z.z.z.V.V.Z.Z.Z.Z.F.F.F.F.F.F.Z.F.Z.Z.Z.V.Z.V.V.V.V.V.V.V.V.V.V.V.V.V.V.V.V.V.z.z.z.z.z.k.z.k.k.k.k.z.z.z.z.z.z.z.z.z.V.V.V.V.V.Z.V.V.V.V.V.V.V.z.V.z.z.k.z.z.k.z.z.k.z.k.k.s.s.p.p.p.....| | ` | | | | ` | ` ` ` ` ` ) ) ) ) S S S S S S S S S S S ) S ) ) ` ) ` ) ` ` ` ) ` ` ) ) ) S S m 0 8 < % # X   . . O + = ; 5 7 B V ]  .a.k.V.Z.Z.F.F.F.H.H.H.H.H.H.H.H.H.H.H.H.H.J.H.H.J.J.H.H.H.H.H.H.F.F.F.Z.F.Z.Z.V.Z.V.V.V.V.z.z.z.z.z.z.z.z.k.z.z.z.z.V.V.Z.Z.F.H.F.F.F.Z.Z.Z.z.z.z.z.k.z.k.k.z.k.z.z.z.V.V.V.Z.Z.Z.Z.Z.V.V.V.z.z.z.z.z.z.z.k.z.z.z.z.z.V.Z.Z.Z.F.F.Z.F.F.F.H.H.H.H.H.H.H.H.H.H.H.F.F.Z.Z.Z.V.V.V.V.V.V.V.Z.Z.V.k.s.| S b 8 % X   . . O + = ; 5 e t V ]  .a.k.z.V.V.V.V.V.V.z.V.V.z.V.z.V.z.V.z.z.V.z.V.V.V.z.z.z.z.z.z.z.z.k.k.k.k.z.k.k.k.k.s.s.p...| | ) _ Z A n q w 6 5 ; ; > = : > > 5 7 r V ]  .d.x.V.Z.Z.Z.Z.V.z.z.z.z.k.k.z.k.z.z.z.z.z.V.z.V.V.V.V.z.z.k.s.s.p...........p.p.p.p.s.p.s.s.p.p.s.p.p.p.....| | ` ` ) ` ` ` ` ) ) S Z m 0 2 < # X         ",
"        X < 8 m S | s.k.V.V.Z.V.V.z.z.z.z.z.z.z.z.k.k.z.z.z.V.V.V.Z.Z.Z.F.Z.F.Z.Z.F.Z.Z.Z.Z.Z.Z.Z.V.V.V.V.Z.Z.V.V.V.V.V.V.V.V.V.V.z.V.V.z.z.z.z.k.k.k.k.k.k.k.k.z.k.z.k.z.z.z.V.V.V.V.V.Z.V.V.V.V.V.V.V.V.z.z.z.z.z.z.k.k.z.k.z.k.k.s.s.s.p.p...| | | | | | | | | | | ` ` ` ` ) ) ) S ) S ) S S S S S ) S S ) ) ) ) ) ) ) ) ) ) ) ) ) ) ) ) ) S Z m b 8 < % X X X . . O + * ; 5 7 B V ] X.a.l.V.V.Z.F.F.F.H.F.H.H.H.H.H.H.H.H.H.H.J.J.J.J.J.J.J.J.J.H.H.H.H.F.F.F.F.Z.Z.Z.Z.V.V.V.V.z.z.z.z.z.z.z.z.z.z.V.z.V.V.Z.Z.Z.F.F.F.F.F.Z.Z.V.V.z.z.z.k.k.k.k.z.k.z.z.z.z.V.V.Z.Z.V.Z.V.Z.V.V.V.z.V.z.z.z.z.z.z.z.V.V.V.V.V.Z.Z.Z.Z.F.F.F.F.F.F.F.H.H.H.F.H.H.F.F.F.F.Z.Z.Z.V.V.V.V.V.V.Z.Z.V.z.z.p.` S b 2 % X   . . . + = ; 5 e B F ]  .a.l.z.V.Z.Z.V.Z.V.V.V.V.V.V.V.V.V.V.V.V.V.V.V.V.V.z.V.z.V.z.z.z.z.z.z.z.z.z.k.k.k.k.s.s.p.....| ` S D A n 9 w 6 4 - ; ; = : : > y e t V ]  .a.x.V.Z.Z.Z.Z.V.V.z.z.z.k.k.k.z.k.k.z.z.z.z.z.V.V.V.z.z.z.k.s.p.............p.p.p.s.s.s.s.s.s.p.p.s.p.p.p...| | ` ` ` ` ` ` ` ` ) ) Z b 0 2 % # X         ",
"      X # % 8 b ) | s.z.z.V.V.Z.V.V.V.z.z.z.z.z.z.z.z.z.z.V.z.V.V.Z.Z.Z.Z.Z.Z.F.F.Z.Z.F.F.Z.Z.Z.Z.Z.Z.V.Z.V.V.V.Z.Z.V.Z.Z.V.V.V.V.V.V.z.z.z.k.k.k.k.k.s.s.s.s.s.s.k.k.k.k.z.z.V.V.V.V.V.V.V.Z.V.Z.V.V.V.z.V.V.z.z.z.k.z.k.k.k.k.k.k.s.s.p.p.........| | | | | | | | | ` ` ` ` ) ) ) ) S S S S S S S S S S ) S S ) ) S ) ) ) ) S ) S ) ) ) S S Z m m 0 2 < # X       . O @ * ; 7 e B F _  .a.l.z.Z.Z.Z.F.F.F.H.F.H.H.H.H.H.H.H.J.H.J.J.J.K.J.K.K.J.J.J.J.H.H.H.F.F.F.F.Z.Z.Z.Z.V.V.V.V.V.z.V.z.z.z.z.z.V.V.V.V.V.Z.Z.Z.F.F.F.F.Z.Z.V.V.V.z.z.k.z.z.k.k.z.k.z.k.z.z.V.V.V.V.Z.V.Z.V.V.V.V.z.V.V.z.z.V.V.z.V.V.V.V.V.Z.V.Z.Z.Z.Z.F.F.F.F.F.F.F.F.F.F.F.H.F.F.F.F.Z.Z.V.V.V.V.V.V.Z.V.Z.V.V.k.p.| S b 8 % #   o . O O * ; 5 7 t F ]  .d.x.V.V.Z.Z.Z.Z.V.V.V.V.V.V.V.V.V.V.V.V.V.z.V.z.V.V.z.z.z.V.z.z.z.z.z.z.z.z.z.k.k.k.s.s.p.p.| | ` ) D M b q 9 4 - - = = = = : ; 5 7 t V ]  .d.x.V.Z.Z.Z.Z.V.z.z.k.k.z.k.z.k.k.k.z.k.z.z.V.V.V.V.V.z.k.k.s.p.......| ......p.p.p.p.s.p.s.p.s.s.p.p.p.........| | ` | ` ` ` ` ) S Z b 0 2 < # X         ",
"        # < 8 m S | s.k.V.V.Z.V.V.V.V.z.z.z.z.z.z.z.z.z.z.V.V.V.V.Z.Z.Z.Z.Z.F.Z.Z.Z.F.Z.Z.Z.Z.Z.Z.Z.V.Z.V.V.Z.Z.V.Z.V.V.Z.V.V.V.V.V.V.z.z.z.k.k.k.s.s.s.s.s.p.p.s.p.p.s.s.k.z.z.V.V.V.Z.V.Z.V.Z.V.V.V.V.V.V.z.z.k.z.z.k.k.k.k.k.k.s.s.s.s.p.p...............| | | | | ` ` ` ) ) ) ) ) S ) S S S S S S S ) S S ) S S S S S S S S S S S Z S Z Z Z m b 0 2 < # X X   . . o @ = ; 5 7 t F _  .a.k.V.V.Z.F.F.F.F.H.H.F.H.H.H.H.H.H.J.J.J.K.J.K.K.K.K.K.K.K.J.J.J.H.H.H.F.F.F.Z.Z.Z.Z.Z.V.V.z.z.z.V.z.V.V.V.V.V.Z.Z.Z.Z.Z.Z.F.F.F.Z.Z.Z.V.V.z.z.k.k.k.k.z.k.k.k.k.z.z.z.z.z.V.V.V.Z.V.V.V.V.V.V.V.V.V.V.V.V.V.V.V.V.V.Z.V.Z.V.Z.Z.Z.Z.Z.F.F.F.F.F.F.F.F.F.F.F.F.F.Z.Z.V.V.V.V.z.V.V.V.Z.V.V.V.k.s.| S b 8 % X     . . @ * ; 5 e t F ] X.a.x.V.V.Z.Z.Z.Z.V.V.V.V.V.V.V.V.V.V.V.V.V.V.z.z.z.z.z.z.z.z.z.z.z.z.z.z.z.k.k.k.k.s.s.p.p...| | ` ) S Z n 9 3 1 & * * @ @ = = ; y 7 t V ]  .a.x.V.Z.Z.Z.Z.V.z.z.z.k.k.k.k.z.z.z.k.z.z.z.V.z.V.V.z.z.k.s.s.p...| | | ......p.p.p.p.p.s.s.s.s.p.p.p.p.p.......| | | | | ` ` ` ) ) Z m 0 2 < # X         ",
"        X < 8 b ) | s.k.V.Z.V.Z.V.V.V.V.z.V.z.z.z.z.z.z.z.z.z.V.V.V.V.Z.Z.Z.Z.Z.F.F.Z.F.F.Z.F.Z.Z.Z.Z.Z.Z.Z.Z.V.Z.V.Z.V.V.V.V.V.V.z.z.z.k.k.k.k.s.s.s.p.p.....p.....p.p.s.s.k.z.z.V.V.V.Z.V.Z.V.V.Z.V.V.V.z.z.z.z.z.k.k.k.k.k.k.k.s.s.s.p.p.p.p.p.................| | | ` ` ` ` ) ) ) ) S ) S S S S S S S S S S S S S S Z Z Z Z Z Z Z Z Z Z Z m b b 8 2 % % X X     . o + * ; 5 e B V _  .a.l.z.Z.Z.Z.F.F.F.F.F.H.F.H.H.H.H.H.H.J.J.J.K.K.L.L.L.L.K.K.K.J.J.J.H.H.H.F.F.F.Z.Z.Z.V.V.V.V.V.V.z.V.V.V.V.Z.Z.Z.Z.F.Z.F.F.Z.Z.Z.Z.Z.V.V.V.z.z.z.z.k.k.k.k.z.z.z.z.z.z.z.z.V.z.V.V.V.V.V.V.V.Z.V.V.Z.Z.V.Z.Z.V.Z.Z.Z.Z.Z.Z.V.Z.Z.Z.Z.Z.Z.Z.F.Z.F.F.Z.F.F.Z.Z.Z.Z.Z.V.V.V.z.V.z.z.V.V.V.Z.V.V.k.p.| S b 2 % X   . . O O * ; 5 7 B V ]  .d.k.z.Z.V.Z.Z.V.V.V.V.z.V.V.V.V.V.V.z.z.z.z.z.z.z.k.k.z.z.z.z.z.z.z.z.z.k.k.k.k.s.s.p.p.p...| ` ` S S m 0 8 3 & $ $ o @ @ @ = ; 5 7 t F ]  .d.x.V.Z.Z.Z.Z.V.z.z.k.k.k.k.k.k.k.k.z.z.z.z.z.V.V.V.V.z.k.k.p.p.....| ..| ......p.p.s.p.s.s.p.s.s.s.s.p.p.p.p.......| | | | | ` ) S Z b 0 2 % # X         ",
"      X # % 8 b ) | p.z.V.V.Z.Z.Z.V.V.z.V.z.z.z.z.z.z.z.z.z.z.V.V.V.Z.V.Z.Z.Z.Z.F.Z.F.Z.F.Z.F.Z.F.Z.Z.Z.Z.Z.V.Z.V.Z.V.V.V.V.V.z.z.z.z.z.k.k.s.s.s.p.p.p.......| | ......p.s.s.k.z.V.V.V.Z.V.Z.V.V.V.V.V.V.z.z.z.k.z.z.k.k.s.k.s.s.s.s.s.p.p.p.p...p.p...........| | | | ` ` ` ) ) ) ) ) ) ) S ) ) ) S S S S S S S S Z Z Z m Z m m m m m m m m m b 0 8 < % # X X   . . . + = ; 7 7 B F _  .a.k.V.V.Z.Z.F.F.F.F.F.F.F.F.H.H.H.H.H.J.J.K.K.L.L.L.L.L.L.L.K.K.J.J.J.H.H.F.F.F.F.Z.Z.V.V.Z.V.V.V.V.V.V.V.Z.Z.F.F.F.F.F.F.F.Z.Z.Z.V.V.V.z.z.z.z.z.z.k.k.z.k.k.z.k.k.z.z.z.z.z.z.V.z.V.V.V.Z.V.Z.Z.Z.Z.Z.Z.Z.Z.Z.V.Z.Z.Z.V.Z.V.Z.Z.Z.Z.Z.Z.Z.Z.Z.Z.Z.Z.Z.Z.Z.Z.V.Z.V.V.V.V.z.z.z.z.V.V.V.V.V.V.k.s.| S b 8 % X   . . O O = ; 5 e t F ]  .d.k.V.V.Z.V.V.V.V.z.z.z.z.z.z.z.z.z.z.z.z.k.k.k.k.k.k.k.k.k.z.z.z.z.z.k.k.k.s.s.s.p.p.....| | | ` S Z m q 8 1 & $ X o O O @ = ; 5 7 t C ]  .d.x.V.Z.Z.Z.Z.V.V.z.z.z.k.k.k.k.k.z.k.z.z.z.z.V.V.V.V.z.k.s.s.......| | | ....p.p.s.p.p.s.s.s.s.p.p.s.p.p.p.p.p.p.........| | ` ) ) Z m 0 2 % # X         ",
"        # < 8 m S | s.z.V.V.Z.V.Z.V.V.V.V.V.V.z.z.z.z.z.z.z.z.V.V.V.V.V.Z.V.Z.Z.Z.Z.Z.F.Z.F.Z.F.Z.Z.F.Z.Z.Z.Z.Z.Z.V.V.V.V.V.V.z.z.z.z.k.k.k.s.s.p.p.p.....| | | ` | | ....p.s.k.z.V.V.V.Z.V.Z.V.V.V.V.V.V.V.z.z.z.k.k.k.k.k.k.s.s.s.s.p.s.s.p.p.p.p.p.p.p.p.........| | | ` ` ) ` ) ) ) ) ) ) ) ) S ) ) S ) ) S S Z Z Z Z m m m b b m m m b b b 0 0 8 < % # X X   . . O * * ; 5 e t V ]  .d.k.z.V.Z.F.Z.Z.F.Z.F.F.F.H.F.F.H.H.J.J.J.K.L.L.L.I.L.I.L.L.K.K.K.J.J.J.H.H.F.F.F.F.Z.Z.Z.V.V.V.V.V.V.Z.Z.Z.F.F.F.F.F.F.F.F.Z.Z.Z.Z.V.V.V.V.z.z.k.k.z.z.k.z.z.k.z.z.z.z.z.z.z.z.z.z.V.V.V.V.Z.Z.Z.Z.Z.Z.Z.Z.Z.Z.Z.Z.Z.Z.Z.V.Z.V.V.V.V.V.V.V.V.V.Z.Z.V.V.Z.V.Z.Z.Z.V.V.V.z.z.z.z.z.z.V.V.Z.V.V.k.p.| S m 2 % X     . . O @ ; 5 e t F _ | a.l.z.V.V.Z.V.V.z.z.z.z.z.z.z.z.z.z.z.z.k.k.k.k.s.k.s.s.k.k.k.k.k.k.k.k.k.s.s.p.p.p.......| | ` ) ) Z m 0 2 < % # o o o O + @ = 5 7 t V ]  .d.x.V.Z.Z.Z.Z.V.z.z.z.k.k.z.k.z.z.z.z.z.z.z.V.V.V.V.z.z.k.s.s.p...| | | ........p.p.s.s.p.s.p.p.s.s.p.s.p.s.p.p.p.p.......| | ` ) S Z b 0 2 % # X         ",
"        X < 8 b ) | s.k.V.Z.Z.Z.V.V.V.V.z.V.z.z.k.z.z.k.z.z.z.z.z.z.V.V.V.Z.Z.Z.Z.F.Z.Z.F.Z.F.Z.F.Z.Z.Z.Z.Z.Z.V.V.V.V.V.V.z.z.z.z.z.z.k.s.s.s.s.p.......| | | ` ` ` | | ..p.s.k.k.z.V.V.V.V.V.V.V.V.V.z.z.z.z.z.z.z.k.k.k.s.s.s.s.s.s.p.p.s.p.s.s.p.p.p.p...p.....| | | | ` ` ` ` ) ) ) ) ) ) ) ) ) ) S S S S S S Z Z Z m m m b b b b b b b b b 0 8 2 < % X X   X . . O + * ; 5 e B F ]  .a.l.V.V.Z.Z.F.Z.F.F.F.F.F.F.H.F.H.H.J.J.J.K.L.L.I.I.I.L.I.L.L.K.K.J.J.H.J.H.H.F.F.Z.Z.Z.V.V.V.V.V.V.V.Z.Z.F.F.F.F.H.F.F.F.Z.Z.Z.Z.V.V.V.z.V.z.z.z.z.z.k.z.z.k.z.k.z.k.k.z.k.z.z.z.z.V.z.V.V.Z.Z.Z.Z.Z.Z.Z.Z.Z.Z.Z.Z.Z.V.V.Z.V.V.V.V.V.V.V.V.V.V.V.V.V.V.V.V.V.V.V.V.z.V.z.z.z.z.z.V.z.V.V.V.z.k.p.` S b 8 % #   . . O + @ ; 5 e t F H  .a.l.z.z.V.V.V.V.z.z.z.z.z.z.z.z.z.k.z.k.k.k.k.k.s.s.s.k.s.s.k.k.k.k.k.k.s.s.s.p.........| | | ` ) ) Z m 0 2 < # X   o . O + = ; 5 7 t C ] o.d.k.V.Z.F.Z.Z.Z.V.z.z.z.z.z.k.z.k.k.z.z.z.z.V.z.V.V.z.z.k.s.s.p.....| | ......p.p.s.p.s.s.p.s.s.s.p.s.p.s.s.s.p.p.p.p.......| ` ) S Z b 8 2 % # X         ",
"      X X < 8 m S | s.z.V.V.Z.V.Z.V.V.V.V.z.z.z.z.k.z.k.k.k.k.z.z.V.V.V.V.V.V.Z.Z.Z.Z.Z.Z.F.Z.F.Z.F.Z.Z.Z.Z.Z.V.V.V.V.z.z.V.z.z.z.z.k.k.k.s.s.p.p.p.....| | ` ` ` | ` | | p.s.s.k.z.z.z.z.V.z.z.z.z.z.z.z.z.z.z.k.k.k.k.k.k.s.s.s.s.p.s.s.p.s.p.s.p.p.p.p.p...........| | ` ` ` ) ` ) ) ) ` ) ` ` ) ) ) ) ) S S S Z Z m m m m b b b b b b b b 0 0 8 2 < % X X X     o O @ * ; 7 7 t V _  .a.k.z.V.Z.Z.Z.F.Z.Z.F.F.F.H.F.H.H.H.J.J.K.K.K.L.L.L.I.I.L.L.L.K.K.K.J.J.H.H.F.F.F.Z.Z.Z.Z.Z.Z.Z.V.Z.Z.Z.Z.F.F.F.F.F.F.F.Z.Z.Z.V.V.V.V.V.V.z.z.z.z.z.z.z.z.z.k.z.z.k.z.z.k.z.k.k.z.z.z.V.V.Z.Z.Z.Z.Z.F.Z.Z.Z.Z.Z.Z.V.Z.V.Z.V.V.V.V.V.V.V.V.V.z.V.z.V.V.V.V.V.V.z.V.V.z.z.z.z.z.z.z.z.V.V.V.z.z.k.p.` S b 2 % X     . O + = ; 5 7 B V _  .a.k.z.V.V.V.V.z.z.z.z.k.z.k.k.k.k.z.k.k.k.k.s.s.s.s.s.s.s.s.k.k.k.k.k.k.s.s.s.p.p.....| | | ` ` ` S Z m 0 2 % # X     . . O @ = y 7 t V ]  .d.x.V.Z.Z.Z.Z.Z.V.V.z.z.z.z.z.z.z.z.z.z.z.z.z.V.V.V.V.z.k.k.s.p.............p.p.s.s.s.s.s.s.s.s.p.s.p.s.s.s.p.s.p.p.p.....| | ` ) S Z b 8 2 % # X         ",
"        # < 8 m S | s.k.z.Z.Z.V.Z.V.V.V.V.z.z.z.k.k.k.k.k.k.k.z.z.V.z.V.V.V.Z.Z.Z.Z.Z.Z.F.Z.F.Z.Z.Z.Z.Z.Z.Z.V.V.V.V.z.z.z.z.z.z.z.k.k.k.k.s.s.p.........| | | | | | | | ....p.s.k.k.z.z.k.z.z.k.z.k.k.z.z.k.k.k.k.k.k.k.s.s.s.s.s.s.p.p.p.s.s.s.s.p.p.p.p...........| | | | ` ` ` ` ` ` ` ) ` ` ` ) ) ) ) ) S S S Z Z Z m m m b b b b b b b b 0 8 8 2 < % X X     . . O * * ; 5 e t F _  .a.k.z.Z.Z.Z.Z.F.Z.F.Z.F.F.F.H.H.H.J.J.J.K.K.L.L.L.L.I.L.L.L.L.K.K.K.K.J.H.H.H.F.Z.Z.Z.Z.V.Z.V.V.V.Z.Z.Z.F.F.F.F.F.F.F.F.Z.Z.Z.V.V.V.V.V.V.V.V.V.V.z.V.z.z.z.z.z.k.z.k.k.z.z.k.z.k.z.z.z.V.Z.V.Z.Z.Z.Z.Z.Z.V.V.V.V.V.V.V.V.V.V.V.V.V.V.V.z.z.z.z.z.z.z.z.z.V.V.V.V.z.V.z.V.z.z.z.z.z.V.V.z.z.k.s.p.` Z 0 2 % X   . . O O = ; 5 e t F ]  .a.l.z.V.V.V.V.V.z.z.k.z.k.k.z.z.k.z.k.k.k.k.k.s.k.s.s.s.s.s.k.s.k.s.s.s.s.p.p.p.....| ....| ` ` ) ) Z b 0 2 < # X X   . . + @ ; 5 7 t V ] o.d.z.V.Z.Z.F.Z.Z.Z.V.V.V.z.z.V.z.z.z.z.z.z.V.z.V.z.V.z.z.k.k.s.p.p.p...p.p.p.p.s.s.s.s.s.s.s.s.s.s.s.s.p.p.p.s.s.s.p.p.p...| ` ` ) Z m 0 8 < % # X         ",
"        X < 8 b ) | s.z.V.V.Z.Z.V.V.V.z.z.z.z.k.k.k.k.s.s.k.k.z.z.z.z.V.V.V.V.V.Z.Z.Z.Z.Z.Z.Z.Z.F.Z.Z.Z.Z.V.V.V.z.z.z.z.z.z.z.z.z.z.z.k.k.s.p.p.p.........| | | | | | ....p.p.s.s.s.s.k.k.k.k.k.k.k.k.k.k.k.k.k.k.k.k.s.k.s.s.s.p.s.s.s.s.s.p.p.p.s.s.p.p.p.p.....| ..| | | ` ` ` ` ` ` ` ` ` ` ` ` ` ) ) ) ) S S S Z Z Z m m m b m m b b b b 0 0 8 2 % # # X       . O @ = ; 5 7 B V ]  .a.l.V.V.Z.Z.Z.Z.Z.Z.F.F.F.F.H.H.H.H.J.J.K.K.K.K.L.L.L.L.L.K.L.L.K.K.J.J.H.H.F.F.Z.Z.Z.V.Z.V.Z.Z.Z.Z.Z.Z.Z.F.Z.F.F.F.F.F.Z.Z.Z.Z.V.V.V.V.V.V.V.V.V.V.V.V.z.z.z.z.k.k.z.k.k.k.k.k.z.z.z.V.V.V.Z.Z.Z.Z.Z.Z.V.V.V.V.z.z.V.V.V.V.V.V.V.V.V.z.z.z.z.k.k.z.k.z.z.z.z.z.z.V.z.V.z.z.z.z.V.z.V.V.z.z.k.p...) Z 0 2 % X X . . . + @ ; 5 e t V ]  .d.k.z.V.V.V.V.z.z.z.k.k.z.z.k.k.z.k.z.k.k.k.k.k.s.k.s.s.k.s.k.s.k.s.s.s.s.p.p.p.p.....| | | | ` ) S Z m 0 2 % # X X . . . + @ = ; 7 t F ]  .a.x.V.Z.F.F.F.Z.Z.Z.V.V.V.V.V.V.z.z.V.z.z.z.V.z.V.z.V.z.z.k.k.s.s.p.p.p.p.s.s.s.s.k.k.k.s.s.s.s.s.p.s.s.s.s.s.s.p.p.p.....| ` ) S Z m 0 8 < % X X         ",
"        # % 8 m S | s.k.V.V.V.Z.V.V.V.z.z.z.k.k.s.s.s.s.s.k.s.k.k.z.z.z.V.V.V.V.Z.V.Z.Z.Z.Z.Z.Z.Z.Z.Z.Z.Z.V.V.z.z.z.k.z.z.z.k.z.z.k.k.k.k.s.s.p.p.....| ....| ..........p.p.p.p.p.s.p.s.s.s.s.s.s.s.s.s.s.s.s.k.s.k.k.k.k.s.s.s.s.s.p.s.s.s.s.s.s.s.p.p.p.......| | | | | ` | | | | ` | | | | ` ` ` ` ` ) ) ) S S S Z Z Z Z m m m m m b b b b 0 8 8 2 < % # X       . O + = ; 5 e B V ]  .a.k.z.V.Z.Z.F.Z.F.Z.F.F.F.F.H.H.H.J.J.J.K.K.K.K.L.L.K.K.L.L.K.K.K.K.J.J.H.F.F.Z.Z.V.V.V.V.Z.V.Z.Z.Z.Z.Z.F.Z.F.F.F.F.Z.Z.Z.Z.V.V.V.V.V.V.V.Z.Z.Z.Z.V.V.V.V.V.z.z.z.z.k.z.k.k.z.k.z.z.z.z.V.V.Z.V.Z.Z.V.V.V.z.z.k.z.z.z.z.V.V.V.V.V.z.z.z.k.k.k.k.k.k.k.k.z.z.z.z.V.z.V.z.V.z.z.z.z.V.z.z.z.k.s.p.| ) Z 0 2 # X     . O @ @ ; 5 7 B V ]  .a.k.z.V.V.V.V.z.z.z.z.k.z.k.z.z.k.z.k.z.k.k.k.k.k.s.s.s.k.s.s.s.s.s.s.p.p.p.p...........| | ` ` ` ) Z m 0 2 < # X     . . O * ; 5 7 t C H  .d.x.V.Z.F.F.F.F.F.Z.Z.Z.Z.V.V.V.V.V.V.z.V.z.V.V.z.z.z.z.k.k.k.s.s.s.s.s.s.k.s.k.k.k.k.k.k.k.s.s.s.s.p.p.s.s.s.s.s.p.p.....| ` ) Z Z b 0 2 < % X X         ",
"        # % 8 m S ..s.k.V.V.Z.V.V.V.V.z.z.k.k.k.s.s.s.s.s.s.s.k.k.k.z.z.z.V.V.V.V.V.V.Z.V.Z.Z.Z.Z.V.Z.Z.V.V.z.z.z.k.k.k.k.k.k.k.k.z.k.k.k.s.p.p.p.............p...p.p.p.p.p.p.p.p.p.p.p.p.p.p.p.p.p.p.p.s.s.s.s.s.s.s.s.s.s.s.s.p.s.s.s.s.p.s.s.p.p.s.p.p.........| | | | | | | | | | | | | | | | | | ` ` ) ) ) S S S S Z Z Z m m m m b b b b b 0 8 < < % X X X   . . O + * ; 7 e t F _  .a.k.V.V.Z.Z.Z.Z.F.Z.F.F.H.H.H.J.J.J.J.J.J.K.K.J.K.K.K.K.K.K.K.K.K.K.J.J.H.F.F.Z.V.V.V.V.V.V.V.Z.Z.Z.Z.Z.Z.Z.Z.Z.Z.Z.Z.Z.V.V.Z.V.Z.V.V.V.Z.Z.Z.Z.Z.Z.Z.Z.V.V.z.z.z.k.z.k.k.k.z.k.z.z.z.V.V.V.V.V.V.V.V.z.z.k.k.k.k.k.k.z.z.z.V.V.V.V.z.z.k.k.s.s.s.s.k.k.k.k.z.z.z.V.z.V.z.V.V.V.z.z.z.z.k.k.s.p.| S m 0 < % X   . . O O = ; 5 e t F ]  .a.k.z.V.V.V.V.V.z.z.k.z.k.z.k.k.z.k.z.k.z.k.k.k.k.k.k.k.s.s.s.s.p.s.p.p.p.p.p.p.......| | | | ` ) S Z b 0 2 % # X   . . o O @ = 5 7 t G ]  .d.x.V.Z.F.F.F.F.F.F.Z.F.Z.Z.Z.V.V.V.V.V.V.z.z.V.z.z.z.z.z.k.k.k.k.k.k.k.k.k.k.z.k.z.k.k.k.k.s.s.s.s.p.s.s.s.s.s.s.s.p...| ` ) S Z m 0 8 2 % # X X         ",
"        X < 8 m ) | s.z.z.V.Z.V.V.V.z.z.k.k.k.k.s.p.p.p.p.s.s.s.k.k.z.z.z.z.V.V.V.V.V.Z.Z.V.Z.Z.Z.V.V.V.V.z.z.z.k.k.k.k.k.k.k.k.k.z.k.k.k.s.s.p.p.........p.p.p.s.s.s.p.p.p.p.p...p.................p.p.p.p.p.s.s.s.s.s.s.s.s.s.s.s.p.s.s.s.s.p.s.p.p.p.p.....| | | | | | | | | ..| ..| ..| | ....| | ` ` ) ) ) ) S S S S Z Z Z Z m m m m m b b 0 8 2 % % X X   X . o O @ = ; 5 e B V _  .a.k.z.Z.Z.Z.Z.F.Z.F.F.F.F.H.H.H.J.J.J.K.J.K.J.K.J.J.K.J.K.K.K.K.K.K.J.H.H.F.Z.Z.V.V.z.V.V.V.Z.Z.Z.Z.Z.Z.F.Z.Z.Z.Z.V.Z.V.V.Z.V.V.V.Z.V.Z.Z.Z.Z.F.F.F.Z.Z.V.V.V.z.z.z.k.k.z.k.z.k.k.z.z.z.V.V.V.V.V.V.z.z.k.k.s.s.s.s.k.k.z.z.V.V.V.z.z.k.k.s.s.s.s.s.s.s.k.k.z.z.z.z.V.V.V.V.z.V.z.z.z.k.k.s.p...` S m 8 < # X     . . + * ; 5 7 B V _  .a.k.z.V.V.V.V.z.z.z.k.k.z.k.z.z.k.k.z.k.z.k.z.k.k.k.k.k.k.s.s.s.p.p.p.p.p...p...........| | ` ` ` S Z m 0 2 % # X   . . . O @ ; 5 7 t N ]  .d.x.V.F.F.H.F.H.H.F.F.F.F.Z.Z.Z.V.V.V.z.V.z.z.z.z.z.z.k.z.z.k.z.k.z.z.k.z.z.z.z.z.z.z.z.k.k.k.s.s.s.s.p.s.s.s.s.s.p.p...| ` ) S m b 0 8 < < # X X         ",
"      X # % 8 b S ..s.k.V.V.V.Z.V.z.z.z.k.k.s.s.s.p.p.p.p.p.s.s.k.k.k.z.z.z.V.z.z.V.V.V.V.Z.V.V.Z.V.V.V.V.z.z.k.k.s.s.s.s.s.k.k.k.k.k.k.k.s.s.p.p.....p.p.p.p.s.s.s.k.s.s.p.p.......| | | | | ....| | ......p.p.p.s.s.s.p.s.s.p.s.p.s.s.p.s.p.s.p.p.p.p.......| | | | | | ..| ..| | ............| | | | ` ` ` ) ) ) S S S S Z Z Z Z Z m m b b 0 8 8 2 < % X X X     . O + * ; 5 7 t F ]  .d.l.z.V.Z.Z.Z.Z.Z.Z.F.F.H.H.H.J.J.J.J.J.J.J.J.J.J.J.J.J.J.J.J.J.K.J.J.H.H.Z.Z.V.V.z.V.z.V.V.V.Z.Z.Z.Z.Z.Z.Z.Z.Z.Z.Z.V.Z.V.V.V.V.V.V.Z.Z.Z.F.F.F.F.F.F.Z.Z.V.z.z.z.z.k.z.k.k.z.z.z.z.z.z.V.V.V.V.V.V.z.k.k.s.s.s.p.s.s.k.k.z.V.z.z.z.z.k.s.s.p.p.p.p.s.s.s.k.k.z.z.z.z.z.z.V.V.z.z.z.z.k.k.s.p.| ` Z b 8 < % X   . . O + * ; 5 e t V ]  .d.l.z.V.V.V.V.V.z.z.z.z.k.z.k.k.z.z.k.z.k.z.k.z.z.k.k.s.s.s.s.p.p.p...................| | | | ` ) ) Z b 0 2 % # X X   . . O * = 5 7 t V ]  .a.k.V.F.F.F.H.H.F.H.F.F.F.F.Z.Z.V.V.V.V.z.z.V.z.z.z.z.z.z.z.z.z.z.z.z.z.V.V.z.V.V.z.V.z.z.k.k.s.s.s.s.s.s.s.p.s.p.p...| | ) S Z m b 0 8 < % # X X         ",
"        X < 8 m S | s.z.V.V.V.V.V.z.z.k.k.k.s.s.p.p.p.p.p.p.p.s.s.k.k.k.z.z.z.V.V.V.V.V.V.V.V.V.V.V.V.V.z.z.k.k.s.s.s.s.s.s.k.k.k.k.k.k.k.s.s.p.p.p.p.p.p.s.s.k.k.k.k.s.s.s.p...| | | | | | | ` | | | | ......p.p.p.p.p.p.s.s.p.p.p.p.p.p.s.s.p.p.p.p.p.....| | | | | | | | ..| ....................| | | ` ` ` ) ) ) S S S S S Z Z Z m m b b b 0 8 2 < # # X     . . o + * ; 7 e t V ]  .a.l.V.V.Z.Z.F.Z.F.Z.F.F.H.H.H.J.J.J.J.J.J.J.J.J.H.J.H.H.J.J.J.J.J.J.J.H.F.Z.Z.V.V.z.z.z.V.V.V.V.Z.Z.Z.Z.Z.Z.Z.V.V.V.V.V.V.V.V.V.V.V.Z.Z.F.F.F.F.F.F.F.Z.Z.V.V.z.z.k.z.k.z.k.k.z.z.z.z.z.V.z.V.V.V.z.z.k.s.s.p.p.p.p.s.s.k.k.z.z.z.z.k.k.s.s.p.p.p.p.p.s.s.k.k.k.z.z.z.z.V.z.V.V.z.z.k.k.s.p...| ) Z b 8 < # X   . . O + = ; 5 7 B F ]  .a.l.z.z.V.Z.V.z.z.z.k.z.k.k.z.z.k.k.z.k.z.k.z.k.k.k.k.k.s.s.p.p.p...p...............| ..| | ` ` ) S Z m 0 2 < # X X . . O + @ ; 5 7 t V ] o.d.x.V.Z.F.H.H.H.H.F.F.F.F.Z.Z.Z.V.V.V.V.z.z.z.z.z.z.z.z.z.z.z.V.z.z.V.V.V.V.V.V.V.V.z.z.z.k.k.k.s.s.s.p.p.s.s.p.p.p...| ` ) S Z m 0 0 2 < # # X           ",
"        # % 8 m ) | p.k.V.V.V.V.V.z.z.k.k.s.s.s.p.p.p...p.p.p.s.s.k.k.k.z.z.z.V.z.V.V.V.V.V.V.V.V.z.z.z.z.k.k.s.s.s.s.s.s.s.s.s.k.k.k.s.s.s.s.p.p.p.p.p.s.s.s.k.k.k.k.k.s.s.p.....| ` | ` ` ` ` ` ` ` | | ......p.p.p.p.p.p.p.p.p.p.p.p.p.p.p.p.p.p.p.....| | | | ` | | | | | ......................| | | | ` ` ` ) ) ) ) S S Z Z Z Z m m m b b 0 8 2 < # # X       . o * = 5 5 e B F _ X.a.k.z.V.Z.Z.Z.Z.F.Z.F.F.F.H.H.H.J.J.J.J.J.H.J.H.H.H.H.H.H.H.J.H.J.H.H.H.F.Z.Z.V.z.z.z.z.z.V.V.Z.Z.Z.Z.Z.Z.Z.V.Z.V.Z.Z.V.V.V.V.V.V.V.Z.Z.Z.Z.F.F.H.F.F.F.Z.V.V.z.z.z.z.z.k.z.z.z.z.z.z.z.V.V.V.V.z.z.k.k.s.s.p.p.p.p.p.s.s.k.k.z.k.k.k.s.p.p.......p.p.p.s.s.k.k.k.z.z.z.z.z.z.z.z.k.k.s.s.p...` ) Z b 8 < # X     . O + = ; 5 e t V ]  .a.k.z.V.V.V.V.V.V.z.z.z.z.z.k.z.z.z.k.z.k.z.k.z.k.k.k.s.s.s.p.p.........| ....| ..| | | | ` ` ` ) S Z b 0 2 % # X     . . O = = 5 7 t F ]  .d.x.A.F.F.F.H.F.F.F.F.F.Z.Z.Z.V.V.V.z.z.z.z.z.z.k.z.k.z.z.z.z.V.V.V.V.V.V.V.V.V.V.V.V.z.z.z.k.s.k.s.p.s.s.p.p.p.p.....| ` ) S m b 0 8 2 < % # X X         ",
"      X # < 8 m ) | s.z.V.V.V.V.z.z.k.k.k.s.s.p.p.p...p.p.p.p.s.s.s.k.k.k.z.z.z.V.V.V.V.V.z.V.z.z.z.z.k.k.k.s.s.s.s.p.p.s.s.s.s.s.s.k.s.k.s.s.s.s.s.p.s.s.s.k.k.z.z.k.k.k.p.p...| | | ` ` ` ) ` ` ` ` ` ` | | ........p...p.....p.....p.p.p.p.p.p...p.....| | | ` | ` | | | ..........p...p.......| ..| | | ` ` ` ) ) ) ) S S S S Z Z m m m b 0 0 8 2 < # # X       . O + * ; 5 7 B F _  .a.k.V.Z.Z.Z.F.Z.Z.Z.F.F.F.F.H.H.J.J.J.J.H.J.H.H.H.F.H.H.H.H.H.H.H.H.F.F.Z.Z.V.z.z.z.z.z.z.V.V.V.Z.Z.Z.Z.V.Z.Z.V.V.V.V.V.V.V.V.V.V.Z.Z.V.Z.F.F.F.F.F.F.Z.Z.V.V.V.z.z.z.z.z.z.z.z.z.z.z.z.V.z.V.z.V.z.k.k.s.s.p.p.p...p.s.s.s.k.s.s.s.s.p.p.p.p.....p.p.p.p.s.s.k.k.k.k.z.z.k.z.k.k.k.k.s.p...| ` S m 0 2 % # X   . . . + = ; 5 e t F ]  .a.k.z.V.V.V.V.V.z.z.z.z.z.z.z.k.k.z.k.k.z.k.k.k.k.k.s.s.s.p.p.p...........| | | | | | ` ` ` ` ) ) S m b 0 2 % # X     . . O @ = 5 7 t C ]  .d.z.V.F.F.F.F.F.F.Z.Z.Z.V.V.V.z.z.z.z.z.z.z.z.k.k.k.z.z.z.V.z.V.V.V.Z.V.Z.Z.V.Z.V.V.V.z.z.z.z.k.s.s.s.s.s.p.p.......| ` ) S Z m b 0 8 2 < % # X           ",
"        # % 8 b S ..s.k.z.V.V.V.z.z.k.k.k.s.s.s.p.p.p.p...p.p.p.s.s.s.k.k.k.z.z.V.z.V.V.V.V.z.z.z.k.k.k.s.s.s.s.p.p.p.p.p.p.p.p.s.s.s.s.s.s.s.s.s.s.s.k.k.k.z.z.z.z.z.z.k.s.p...| | ` ` ) ` ) ) ) ) ) ` ` ` | | ..| ..................................| | | ` ` ` ` ` | | | | ............p...............| | ` ` ` ) ` ) S ) S S Z Z Z m m b b 0 2 2 % % # X X   . . O * * ; 5 e t V ]  .d.k.z.V.Z.Z.Z.Z.F.F.Z.F.F.H.H.H.H.H.H.H.H.H.H.H.F.H.H.H.F.H.F.F.F.F.F.Z.Z.V.V.V.z.k.z.z.z.z.V.V.V.V.V.V.Z.V.Z.Z.Z.V.Z.V.Z.V.V.V.V.V.V.Z.Z.Z.F.F.F.Z.Z.Z.Z.V.V.V.z.z.z.z.z.z.z.z.z.z.z.V.z.V.z.V.z.z.z.k.s.s.p.p...p.p.p.p.p.p.s.s.s.p.p.p.............p.p.p.s.s.s.s.k.k.k.k.k.k.k.s.s.p.p...| ` S m b 2 < # X     . O + @ ; 5 7 B V _  .a.l.V.V.Z.V.V.V.z.V.z.z.z.z.z.z.z.k.z.z.k.k.k.k.s.s.s.s.s.p.p.........| | | | ` | ` ` ` ` ` ) ) ) S Z b 0 2 < # X   .   O + @ = 5 7 t G { X.d.x.Z.F.F.F.F.F.Z.Z.V.V.V.V.z.z.z.k.k.k.k.k.k.k.k.k.z.z.z.z.V.V.V.V.V.Z.V.V.Z.V.V.V.V.V.z.z.z.k.k.k.s.p.p.p.p.....| ` ` ) S Z m b b 8 2 < # # X           ",
"        # < 8 m S | s.k.V.V.V.z.z.k.k.k.s.s.s.p.p.p.p.p.p.p.p.s.s.s.s.k.k.k.z.z.z.V.V.V.z.z.z.z.k.k.k.s.s.s.s.p.p.p.p.p.p.p.p.p.p.s.s.s.s.s.s.s.k.s.k.k.z.z.z.V.z.z.z.k.k.s.p.....| ` ` ` ) ) ) ) ) ) ) ` ` ` | | | | | | | | | | | | | ..............| | | ` ` ` ` ` | | | | ......p.........p.....| ..| | | | | ` ` ` ) ) S S S Z Z m m m b b 8 8 2 < % X X X X . . O + * ; 5 e B F ]  .a.l.V.V.Z.Z.F.Z.F.Z.F.F.F.F.H.H.H.H.H.H.H.H.H.F.H.F.F.F.F.F.F.F.Z.Z.Z.Z.V.V.z.z.z.z.z.k.z.z.V.V.V.V.V.V.Z.Z.V.V.V.Z.V.Z.V.V.V.V.Z.V.V.Z.Z.Z.Z.Z.Z.Z.Z.Z.Z.V.V.V.z.V.z.z.z.z.z.V.z.V.V.z.V.V.z.z.z.z.k.k.s.s.p.p.p.p.p.p.....p.p.....p...............p.p.p.p.p.s.s.s.s.s.s.s.k.s.s.s.p.p...| | ) S m 0 2 % # X   . . O O = ; 5 e t V ] X.a.k.z.V.V.Z.V.V.V.z.z.z.z.z.z.z.k.z.k.k.k.k.k.s.s.s.s.p.p.p.p.p.....| | | | ` ` ` ) ) ) ` ) ) ) S S Z b 0 2 % # X     . O O = ; 5 e t F ] X.d.z.Z.F.F.F.F.Z.V.z.z.z.k.k.k.k.s.s.s.s.k.s.k.k.k.z.k.z.z.z.V.V.V.V.Z.V.Z.Z.V.Z.V.V.V.V.V.z.z.k.k.s.s.s.p.......| ` ` ) S S Z m b 0 8 2 < % # X X         ",
"      X X % 8 m ) | s.z.z.V.V.V.z.z.k.s.s.s.s.p.p.p.p.p.p.p.s.p.s.s.s.s.k.k.k.z.z.V.V.z.V.z.z.k.k.s.s.p.p.p.p.p.p...p...p...p.p.p.p.p.p.s.s.s.k.k.k.k.k.z.z.z.z.V.z.z.z.k.s.p...| | ` ` ) ) ) ) ) S ) ) ) ) ) ` ` ` | ` ` | | | | | | | | | ..| ..| | | | ` ` ` ` ` ` ` | | ........p...p...................| | | ` ` ` ) ) ) S Z Z Z m m m b 0 0 8 2 < # X X       o O * * ; 5 7 t V ]  .a.l.z.V.Z.Z.Z.F.Z.Z.F.F.F.F.F.F.H.F.H.H.H.F.F.F.F.F.F.F.Z.Z.Z.Z.Z.Z.V.V.V.z.z.z.z.z.k.z.z.z.z.z.z.V.V.V.V.V.Z.Z.Z.Z.Z.Z.Z.Z.V.V.V.V.V.V.V.Z.Z.Z.Z.Z.Z.V.V.V.V.V.z.z.V.V.V.V.z.V.z.V.z.V.V.z.V.z.z.z.k.k.k.s.s.p.p.p...............| ................p.p.p.p.p.p.p.s.s.s.s.s.s.s.p.p.......| ` ) Z m 0 2 < #       . . @ * ; 5 7 t F ]  .a.l.z.V.V.V.V.V.V.V.V.V.z.V.z.z.z.z.z.k.k.s.s.s.s.s.p.p.p...........| | | | ` ) ` ) ) ) ) ) ) S S Z m b 8 < % X X X   . . O @ = 5 7 t G ] X.d.C.Z.Z.F.F.Z.V.z.z.k.k.s.s.s.s.s.s.s.s.s.s.s.k.k.k.z.z.z.z.z.V.V.V.V.Z.V.V.Z.V.V.V.V.V.z.z.z.z.k.k.k.p.p.p...| ` ) ) S S Z m m b 0 8 2 < % # X X         ",
"        # % 8 m S | s.k.z.V.V.z.z.k.s.s.s.p.s.s.s.p.p.p.p.s.p.p.p.s.s.s.s.k.z.z.z.V.V.V.z.z.k.k.s.s.p.p.p.p.....p.p.......p...p...p.p.p.s.s.s.k.k.k.z.z.z.V.V.V.V.z.z.k.k.s.p.....| | ` ) ) ) ) S S ) ) ) ) ) ` ` ` ` ` ` ` ` ` ` ` ` | | | | | | | | | | ` ` ` ) ` ` ` | | | ............p...................| | | | ` ` ) S S S Z m m m m b b 8 8 2 % % # X     . . o @ = ; 5 e t F ]  .a.k.V.V.Z.Z.F.F.Z.F.Z.F.F.F.F.F.F.F.F.F.F.F.F.F.F.F.Z.F.Z.Z.Z.Z.V.V.V.z.z.z.z.z.k.z.z.k.z.z.z.z.z.z.V.V.V.V.V.Z.Z.Z.Z.Z.V.V.Z.V.V.V.Z.Z.V.V.Z.V.Z.V.Z.V.Z.V.V.V.V.V.V.z.V.V.V.z.V.z.z.V.V.z.z.z.z.z.k.k.k.s.s.p.p.p.p.....| | | | | | | ..| | ........p.....p.p.p.p.p.p.p.p.p.p.p.p.....| | ` ) Z m 8 2 % # X     . O + * ; 5 e B V _  .a.l.V.V.V.Z.V.Z.V.V.z.V.z.z.z.z.z.z.k.k.s.s.s.s.p.p.p.p.....p.........| | ` ` ) ) ) S ) S ) ) S S Z m b 8 2 % # X     . O O @ ; 5 7 t G { +.l.x.Z.F.F.Z.Z.z.z.k.s.s.s.p.p.p.p.p.p.p.s.s.k.s.k.k.z.z.z.V.z.V.V.V.V.V.V.V.V.V.Z.V.V.V.z.V.z.z.k.k.s.s.p...| ` ` ) S S Z Z m m b 0 8 2 < % # X           ",
"        # % 8 m ) | s.z.z.V.V.z.z.k.s.s.s.s.p.p.p.s.s.p.s.p.p.s.s.p.s.s.s.k.k.z.z.z.V.z.z.z.k.k.s.s.p.p.......p.....p...p.......p...p.p.s.s.k.k.z.z.z.V.V.V.V.V.V.V.V.z.k.s.s.p.| | ` ` ) ) ) S ) S S S S S ) ) ) ) ` ` ` ) ` ) ) ` ` ` ` ` ` | | ` | ` ` ` ) ` ` ) ) ` ` | | ....................................| ` ` ` ) ) S Z Z Z Z m m b 0 0 8 2 < % X X       o O + * ; 5 e t F _  .a.l.z.V.Z.Z.Z.Z.F.Z.F.F.Z.F.F.F.F.F.F.F.F.F.F.F.F.F.F.Z.Z.V.V.V.z.V.z.z.z.z.z.z.z.k.z.z.k.k.z.z.z.z.z.z.V.Z.Z.Z.Z.Z.Z.Z.Z.Z.V.V.V.V.V.V.V.Z.V.Z.V.Z.V.V.V.V.V.V.V.V.V.V.V.V.V.V.V.V.V.z.z.z.z.k.z.k.k.k.s.s.s.s.p.......| | | ` ` ` | | | ..........p.....p.p...p...p.p.p.p.........| | | ` ) S Z b 0 2 % X X   . . O @ = ; 5 e t F H  .a.l.z.V.Z.V.Z.V.V.V.V.z.V.V.z.z.z.z.k.k.k.s.s.p.p.p...p.....p.........| | ` ` ) ) ) S S S S S S S Z m b 8 2 % # X     . . O @ = 5 7 t F { a.l.V.Z.F.F.Z.Z.z.k.s.p.p.p.p...p...p.p.p.s.s.s.k.k.k.z.z.z.z.z.V.V.V.V.V.V.V.V.V.V.V.V.V.V.z.z.z.z.k.s.s.p...| ` ) S S Z Z m m b b 0 0 2 < % # X           ",
"        # < 8 m ) | p.k.z.V.z.z.k.k.s.s.p.s.s.p.p.s.p.s.p.s.s.s.s.s.s.s.k.k.k.k.z.z.V.z.z.z.k.s.s.p...p...........................p.p.p.s.s.k.k.z.z.V.V.V.Z.V.Z.V.V.z.z.k.s.s.....| ` ` ) ) ) S S S S ) S ) ) ) ) ) ) ) ) ) ) ) ) ) ) ) ` ` ` ` | ` ` ` ` ) ` ) ) ) ` ` ` | | | ........................p.......| | | ` ) ) ) S S Z Z m m b b b 0 8 2 < % # X X   . . O @ = ; 7 e t F H  .a.k.z.Z.Z.Z.F.F.Z.F.Z.F.F.F.F.F.F.F.Z.F.F.F.F.F.F.Z.Z.Z.Z.Z.V.V.z.z.z.z.z.z.z.z.k.k.z.k.z.z.k.z.z.z.z.V.V.V.Z.Z.Z.Z.F.Z.Z.Z.Z.V.V.V.Z.V.V.V.Z.V.V.Z.V.Z.V.V.V.V.V.V.V.V.V.V.V.V.V.V.z.z.z.z.z.k.k.k.k.s.s.s.p.p.p.....| | ` ` ` ` ` | | | | ....................................| ..| | ` ` ) S Z b 8 2 % # X     . O + * ; 5 7 t F ] | a.k.z.V.Z.Z.Z.Z.V.V.V.V.V.z.z.z.z.z.z.k.k.s.s.p.p.p.....p.............| | ` ` ) ) S S S S S S S Z Z b 0 8 < % # X X . . O + = = 5 7 t F ] a.l.A.Z.F.Z.Z.V.z.k.s.p.......p.....p.p.p.s.s.s.k.k.k.k.z.z.z.V.V.z.z.V.V.V.V.V.V.V.V.V.z.V.V.z.z.z.k.s.s.....| ` ) S Z Z m m m b b 0 8 2 < % # X X         ",
"        # % 8 b S | s.k.z.V.z.z.k.k.s.s.p.p.p.p.s.p.s.p.s.s.p.s.s.s.s.s.k.k.k.z.z.z.z.z.z.k.k.s.s.p.............| ..................p.p.s.s.k.z.z.V.V.V.V.V.Z.V.V.V.V.z.k.k.p.....| ` ` ` ) ) ) ) S S S ) S S ) ) ) ) ) ) ) ) ) ) ) ) ) ) ` ` ` ` ` ` ` ` ` ) ) ) ` ` ` ` | | | | | ................................| ` ` ) S S Z Z Z m m m b b 0 8 < < # # X     . . . + * ; 5 e t F ]  .p.k.V.V.Z.Z.Z.F.F.Z.F.Z.F.F.Z.Z.F.Z.F.Z.F.Z.F.F.Z.F.Z.Z.Z.V.V.V.z.z.z.z.z.z.k.k.z.z.k.z.k.z.k.k.k.z.z.z.V.V.Z.Z.Z.Z.F.F.Z.Z.Z.Z.Z.Z.V.Z.V.Z.V.Z.V.V.Z.Z.V.V.V.V.V.V.V.V.V.V.V.V.V.V.V.z.z.k.k.k.s.s.s.s.s.p.p.p.p.......| | ` ` ` ` ` | | | | ............................| ..| | | | ` ` ) ) S m b 8 < % X X   . . . + * ; 5 e t F _  .a.k.z.V.V.Z.V.Z.V.V.V.V.V.V.z.z.z.k.k.k.s.s.s.p.p...........p.p.p.p.....| | ` ) ) ) S S S ) S S S Z m b 8 2 % X X     . . O @ ; 5 7 B G { +.l.C.Z.F.F.Z.V.k.k.p.p.........p.p.p.p.s.s.s.k.k.k.z.z.z.z.z.z.z.z.z.V.z.z.V.z.V.V.V.z.V.V.V.z.z.z.z.k.s.p.| ` ` S S Z Z Z m m b b 0 8 2 < % # X           ",
"        X < 8 m S | p.k.z.z.z.z.k.s.s.p.p.p.p.p.p.p.p.s.s.s.s.s.s.s.k.k.k.k.k.z.z.z.z.k.z.k.s.s.p.p...................| ........p.p.p.s.s.k.k.z.V.V.V.V.Z.Z.Z.V.V.V.V.z.k.k.p.p...| ` ` ) ` ) ) ) S S S S ) S ) ) ) ) ) ) ) S ) ) ) ) ) ) ) ) ` ` ` ` ` ) ` ) ` ` ) ) ` ` ` | | | | ....................p...........| | ` ) ) S Z Z Z m m m b b 0 8 2 < # # X   X . o O + * ; 5 e t F _  .a.k.x.V.Z.Z.F.F.F.F.F.F.F.F.F.F.Z.F.Z.Z.F.F.Z.Z.F.F.Z.Z.Z.V.V.V.z.V.z.z.z.z.z.z.k.k.z.k.k.k.k.z.k.z.z.z.V.V.Z.Z.Z.F.Z.F.Z.Z.Z.Z.Z.Z.Z.Z.Z.Z.Z.Z.Z.Z.Z.V.V.V.Z.V.V.V.V.V.V.V.Z.V.V.V.z.z.z.k.s.s.s.p.p.p.p.p...........| | | | | ` | | | | | ......................| ..| ..| | | | | ` ` ` ) ) S m b 8 < % X X     . O + * ; 5 e t V _  .a.l.C.V.V.Z.Z.V.V.V.V.V.V.V.z.z.z.z.k.k.s.s.p.p.........p.p.p.p.p.p.p.p...| | ` ` ) ) S ) S S S Z Z m 0 8 2 % X X     . O O @ = 5 7 t G { +.l.V.A.F.F.Z.V.k.s.p.........p.p.s.s.s.s.k.k.z.k.z.z.z.z.z.z.z.z.z.z.z.z.z.z.V.z.V.V.V.V.V.z.V.z.z.k.s.s.....` ` S Z Z Z m m m b 0 0 8 2 < % # X X         ",
"        # % 8 b S | p.k.z.z.z.k.s.s.s.p.p.p.p.p.s.p.s.p.p.s.s.s.k.k.k.k.k.z.k.z.z.z.z.k.k.s.s.s.p.p.p.......| ..| | ..| ......p.p.p.s.s.k.k.z.z.z.V.V.Z.V.Z.Z.V.Z.V.V.z.k.k.s...| | | ` ` ) ) ) ) ) ) ) ) ) ) ) ) ) S ) S ) ) S S S S ) ) ) ) ` ` ) ` ) ) ) ) ) ) ) ` ) ` ` ` ` | | | | ............p.p...p...p...| | ` ` ) S S S Z Z m m m b 0 8 8 2 % % X X       . O * * ; 5 7 B F _  .d.l.V.Z.Z.Z.F.F.F.F.F.F.F.F.F.F.F.Z.F.F.Z.Z.F.F.F.Z.Z.Z.Z.Z.V.V.V.V.z.z.z.z.z.z.z.z.k.k.z.z.k.k.z.k.z.z.V.V.V.Z.Z.Z.F.Z.F.F.Z.F.Z.Z.Z.F.Z.Z.Z.Z.Z.Z.Z.Z.Z.Z.V.V.V.V.Z.V.V.V.V.V.V.z.z.k.k.s.s.p.p.p.................| | | | | | | | | ..| ............p.............| ..| | | | ` ` ` ` ` ) S Z m b 8 < % X X   . . O @ = ; 5 7 B V ]  .a.k.z.V.Z.V.Z.Z.Z.Z.V.V.V.V.V.z.z.z.z.k.s.s.p.p.....p.....p.p.s.s.s.s.p.p.....| ` ` ) ) ) ) S S S Z m b 8 < % # X   .   . + @ = 5 7 B F { X.x.V.Z.F.Z.Z.z.k.s.p.......p.p.s.s.k.k.k.z.z.z.z.z.z.z.z.z.z.z.z.k.k.k.k.z.z.z.z.V.z.z.V.z.V.z.z.z.z.k.s.p.| | ` S S Z m m m m b b 0 0 2 < % # X X         ",
"        X < 8 b S | p.k.z.z.k.k.s.s.p.p.p.p.p.p.p.p.s.s.s.s.k.k.k.k.k.k.z.k.z.k.z.k.k.k.k.k.s.s.p.p.p.........| ..| ..........p.p.s.s.s.k.k.z.z.V.V.V.V.Z.Z.Z.Z.Z.V.V.z.z.s.p.p...| ` ` ` ) ) ` ) ) ) ) ) ) ) ) ) ) ) ) ) S ) S S ) S ) ) ) ) ) ) ) ` ` ` ` ) ` ) ` ) ` ` ` ` ` ` | | | | ......p...p...p...p.......| | ` ) ) S Z Z Z m m m b b 0 8 2 % % X X     . . o * * 5 5 e t F ]  .a.k.z.Z.Z.F.F.F.F.F.H.H.F.F.F.F.Z.F.Z.Z.F.F.Z.Z.F.Z.F.Z.Z.Z.Z.Z.V.V.V.V.z.V.z.z.z.k.z.k.k.k.k.k.k.z.z.z.V.V.Z.Z.F.F.Z.F.F.F.F.F.F.F.F.F.F.F.F.Z.F.F.Z.Z.Z.V.Z.Z.V.V.Z.V.V.V.V.V.z.z.z.k.s.s.p.p.......| | | | | | | | | | | | | | | ....| ..| ......................| | | | ` ` ` ` ` ) ) ) S Z m 0 8 2 % # X     . O O * ; 5 e t V ]  .a.k.z.V.V.Z.Z.Z.V.V.V.V.V.V.z.z.z.k.k.k.s.s.p...p.p...p.p.p.s.s.s.k.s.s.p.p...| | ` ` ) ) ) ) S Z Z b 0 8 < % # X     . O O = ; 5 7 t F { a.l.C.F.F.F.V.V.k.s.p.p...p.p.s.s.z.z.V.V.V.V.V.V.V.V.V.z.z.k.k.k.k.k.k.k.k.k.k.z.z.z.V.z.V.z.V.z.z.k.k.s.p...` ) S Z Z Z m b m m b 0 8 8 < % # X           ",
"        # % 8 b S | p.s.k.z.z.k.s.s.p.p...p...p.p.p.p.s.s.s.s.k.k.z.z.z.z.z.k.z.k.k.s.k.s.s.s.p.s.p.p.p.p...| ..| | | | | ..p.p.s.s.k.k.k.z.z.V.V.V.V.Z.V.Z.V.Z.Z.V.V.z.k.s.s.....| | ` ` ` ` ` ` ` ` ) ` ) ) ) ) ) ) ) ) S S S S S S S S ) ) ) ) ` ) ) ) ) ) ) ) ) ` ) ) ` ` ` ` ` | | | | ..........p...p.p.......| | ` ) S S Z Z Z m m b b b 0 8 2 < % # X X     . o @ * ; 5 e t F _  .a.l.V.V.Z.Z.F.F.H.F.F.H.F.F.F.F.F.F.F.F.Z.F.F.Z.F.F.Z.F.Z.Z.Z.Z.V.Z.V.V.z.z.z.z.k.z.k.z.k.z.k.k.z.z.z.z.z.V.Z.Z.Z.Z.F.F.F.F.F.F.F.F.F.F.F.F.F.F.F.F.F.Z.Z.Z.V.V.V.V.V.Z.V.V.Z.V.V.z.z.k.s.p.....| | ` | | ` | ` | | | | ..........................................| ..| | | ` ` ) ` ) ) ) ) S Z m 0 8 < % X X   . . o @ * ; 5 e t V ]  .a.k.z.V.Z.V.Z.V.Z.V.V.V.V.V.z.V.z.z.z.k.s.s.s.p.p.......p.s.s.k.k.k.k.k.s.p.p...| | ` ` ` ) ) ) S Z m 0 8 2 % X X X   . . O @ = 5 e B G { +.l.V.Z.F.Z.Z.V.k.s.p.....p.p.k.k.z.V.V.V.Z.V.Z.V.V.V.z.z.z.k.k.k.s.s.s.s.s.k.k.k.z.z.z.z.z.V.z.z.z.k.k.s.....| ) ) S Z m m m b b b 0 8 2 < % # X           ",
"      X # % 8 b S ` p.s.k.k.k.k.s.p.p.p...p.....p.p.s.s.s.k.k.k.k.z.z.V.z.z.z.k.k.k.s.s.s.s.s.s.s.p.p.p.......| ..| | ......p.s.s.s.k.k.z.z.z.z.z.V.V.V.V.Z.Z.V.V.V.z.z.k.s.p.....| ` ` ` ` ` ` ` ` ` ` ` ) ` ) ) ) ) ) ) S S S S S S S S ) ) ) ) ) ) ` ` ) ) ) ) ) ) ` ) ) ` ` ` ` ` | | | ............p...........| ` ` ) S S S Z m Z m b b b 0 8 2 % % # X X   . o O * * ; 5 e t F _  .p.k.z.Z.Z.F.F.H.F.H.H.F.H.F.F.F.F.F.Z.F.Z.Z.F.F.F.F.Z.Z.Z.F.Z.Z.Z.Z.Z.V.V.V.V.z.z.z.z.k.k.z.k.k.z.z.z.V.V.V.Z.Z.Z.F.F.F.F.F.H.F.F.H.H.H.F.H.H.F.F.F.F.F.F.Z.Z.V.V.V.V.Z.V.Z.V.V.z.z.k.s.s.....| ` ` ` ` ` ` ` ` ` | | | ......p...p...p...........................| | | | ` ` ` ) ) ) ) ) S S Z m 0 8 < % X X   . . . @ = ; 5 e t F ]  .p.k.z.V.V.Z.Z.V.Z.V.V.V.V.z.V.z.z.k.k.k.s.s.p.p.p.....p.p.s.k.k.k.z.k.k.k.s.p.p...| | ` ` ` ) S S Z m b 8 < % # X     . O O @ ; 5 7 t F { X.l.V.G.F.F.Z.z.k.s.p.p.p.p.s.k.z.V.Z.Z.Z.Z.Z.Z.Z.Z.V.z.z.z.k.k.s.s.s.p.p.s.s.s.k.k.z.z.z.z.z.z.z.z.k.k.s.p.| ` ` S S Z Z m m m b b 0 8 8 < % # X X         ",
"        # % 8 b S ` p.s.k.k.k.k.s.s.p...p...p.p.p.p.p.p.s.s.k.k.z.z.z.z.z.z.k.k.k.s.s.s.s.p.s.p.s.s.p.p.p.p.....| | | | ......p.s.k.k.k.z.z.z.V.V.V.V.V.V.V.V.V.V.V.z.z.k.s.p.p...| | | | ` ` ` ` ` ` ` ` ` ) ` ) ) ) ) ) S S S S S S S S S ) ) ` ) ) ) ) ) ) ) ) ) ) ) ) ) ) ) ) ) ` ` ` | | | ..................| | ` ` ) ) S S Z Z m m m b b 0 8 2 < # # X       . O @ = ; 5 e B V ]  .a.k.V.Z.Z.F.F.F.H.F.H.H.H.H.F.F.F.F.Z.Z.F.F.Z.Z.Z.Z.F.F.Z.Z.F.F.Z.Z.Z.Z.V.V.z.z.z.k.z.z.z.k.k.z.k.z.z.z.V.V.V.Z.Z.F.F.F.F.F.F.H.H.H.H.H.H.H.H.H.H.H.F.F.Z.Z.V.Z.V.V.V.V.V.V.V.V.V.z.k.s.p...| | ` ` ) ) ) ) ) ) ` ` ` | ......p.p.p.p.p.p.p.........p.............| | ` ` ` ) ) ) ) ) ) S S S m m 0 2 < % # X     . O O = ; 5 7 B V _  .a.k.z.V.Z.Z.V.V.V.V.V.z.V.z.z.z.z.z.k.k.k.s.p.p.p.p.p.p.p.s.k.k.z.z.z.k.k.k.p.p...| | | ` ` ) ) S Z m 0 8 < % # X     . . O @ = 5 7 B G { f.l.V.Z.F.F.Z.V.x.k.s.p.p.s.s.z.z.V.Z.F.F.F.F.Z.Z.V.V.V.z.k.k.s.p.p.p.p.p.p.s.s.k.k.k.z.k.z.z.z.z.z.k.s.p.p...| ` ) S Z Z m m m b b 0 8 2 < % # X X         ",
"        X % 2 b S ` p.s.k.z.k.s.s.p.p.....p.p.p.p.p.s.s.s.k.k.k.z.z.z.z.z.z.k.k.k.s.s.s.s.s.s.s.s.p.s.p.p.p.......| | | ....p.p.s.s.k.k.k.z.z.z.z.V.V.V.V.z.z.V.V.z.z.k.k.s.p.....| | ` ` ` | ` ` | ` ` ` ) ` ) ) ) S ) S S S S S S S S ) S ) ) ) ) ) ) ) ) ) ) ) ) ) S ) ) ) ) ) ` ) ` ` | | | | | ..| ..| ..| | | | ` ` ) ) S S Z Z m m m b b 8 8 2 < % # X     . o O + = ; 5 e t F _  .a.l.C.V.Z.F.F.F.H.H.H.H.F.F.H.F.F.Z.F.F.Z.F.F.F.Z.F.Z.F.F.Z.F.F.Z.Z.Z.Z.V.V.V.V.z.z.z.z.z.k.z.z.z.z.V.V.V.V.Z.Z.Z.F.Z.F.H.F.H.H.H.H.H.H.J.H.H.H.H.F.F.F.F.Z.Z.Z.V.V.V.V.V.V.V.V.V.z.k.s.p...| ` ) ) ) ) ) ) ) ) ` ` | | | ..p.p.p.p.p.p.p.p...p.....p.........| ..| | | ` ` ) ) ) S ) ) S S Z Z b 0 2 < # X X     . O + = ; 5 7 t V ]  .a.l.z.V.V.V.Z.V.V.V.V.V.z.z.z.z.z.z.k.k.k.s.p.p.p.p...p.s.s.k.z.z.z.z.z.k.k.s.p.....| ` ` ` ) ) S Z m 0 8 2 % # X X . . . + @ = 5 7 t F { X.l.C.F.F.Z.Z.V.z.k.s.p.s.s.k.z.V.Z.Z.F.F.F.Z.Z.Z.V.V.z.z.k.s.s.p.p.....p.p.p.s.s.k.k.k.k.z.k.k.z.k.k.s.s.p.| | ` ) S Z Z Z m m b b 0 8 2 < % # X           ",
"      X X < 8 b S ` ..s.k.k.k.k.s.p.p.p.p...p.p.p.s.s.s.s.k.k.k.z.z.z.z.z.k.k.k.s.s.p.s.p.s.p.s.s.s.s.s.s.p.p.........| ......p.s.s.s.k.k.k.k.z.z.z.z.z.z.z.z.z.z.k.k.s.s.p.p...| | | | | | ` | ` ` ` ` ) ` ) ) ) ) ) S ) S S S S S S S ) ) ) ) ) ` ` ) ) ) S ) S S ) S S S ) ) ) ) ) ` ` ` ` ` | | ` | | | | ` ` ` ` ` ) ) S S Z Z Z Z m m b 0 0 8 2 % # X X       . O + * ; 7 e t V ]  .a.k.z.Z.Z.F.F.H.F.H.H.H.H.H.F.F.F.F.Z.Z.Z.Z.Z.Z.Z.F.Z.Z.Z.F.F.Z.F.F.Z.Z.Z.Z.V.z.V.z.z.z.z.z.z.z.z.z.z.V.V.V.Z.Z.Z.F.F.F.F.H.H.H.H.H.H.H.H.H.H.H.H.H.F.F.F.Z.Z.Z.V.Z.V.V.Z.Z.V.V.z.z.k.s.p.| | ` ) ) ) S ) ) ) ) ) ` ` | | ......p.p.p.p.p.p.p.p.p.p...........| | | | ` ` ` ) ) ) ) ) S S Z Z m b 0 2 < # X X   . . O + * ; 5 e t F ]  .a.l.V.V.Z.V.V.V.V.z.z.z.z.z.z.z.k.k.k.s.s.s.s.p.p.p.p.p.s.k.k.k.z.z.k.k.k.s.p.p...| | | ` ) ) S Z Z m b 8 < % X X     . O O * ; 5 7 B G { X.l.V.Z.F.F.F.V.V.k.k.s.s.k.k.z.V.V.Z.Z.Z.Z.Z.Z.V.V.V.z.k.k.s.s.p.............p.p.s.s.s.s.k.k.k.k.k.k.s.p.p...| ` ) ) S Z Z Z m b b 0 0 2 < % # X X         ",
"        # % 8 b S ` p.s.k.k.k.k.s.s.p.p.p.p.p.p.p.s.s.s.s.s.k.k.k.k.k.k.k.k.k.s.s.p.p.p.s.p.s.s.s.s.k.s.s.p.p.p.......| ......p.p.p.s.s.s.k.k.k.k.k.z.k.k.k.k.k.s.s.s.s.p.p.......| | | | | ` | ` ` ` ` ` ) ) ) ) S ) S S S S S S S ) ) ) ) ) ` ` ` ) ) ) ) S S S S S S S S S S S ) ) ) ) ) ) ` ` ` ` ` ` ` ` ) ` ) ) ) ) ) ) S S Z Z Z m m m b 0 2 2 < % # X X     . O * * ; 5 e t F _  .a.k.V.Z.Z.F.H.H.H.H.H.H.F.H.F.F.F.Z.Z.Z.Z.Z.Z.Z.Z.Z.Z.Z.Z.F.Z.Z.F.F.Z.Z.Z.Z.V.V.V.z.z.z.z.z.z.z.V.V.V.V.V.Z.Z.Z.Z.F.F.F.F.H.F.H.H.H.H.H.J.H.H.H.H.H.F.F.Z.Z.Z.Z.Z.V.Z.Z.Z.V.V.V.V.z.k.s.p.| ` ) ) ) S S ) S ) ) ) ` ` | | ....p.p.p.p.p.s.p.s.p.p.p.p.........| | ` ` ` ` ` ) ) ) S S S Z Z Z b 0 8 2 < # X X X . . O @ * ; 5 e t V _  .a.l.z.V.V.V.V.V.z.z.z.k.k.k.k.k.k.k.k.s.k.s.s.s.s.p.s.s.s.s.k.k.k.k.k.k.s.p.p.....| ` ` ` ) ) ) S Z m 0 8 < % X X     . . O = ; 5 7 t F { a.l.C.Z.F.F.F.Z.V.V.z.k.k.z.z.z.V.V.V.Z.V.Z.V.V.V.z.z.k.k.s.s.p.....| | ........p.p.p.s.s.s.s.s.s.s.s.s.p.p...| | ` ) S S Z Z m m b 0 8 2 < % # X           ",
"        # % 2 b Z ` ..s.k.k.k.k.s.s.p.p.p.p.p.p.s.s.s.k.k.k.k.k.k.k.k.k.k.s.s.s.s.p.p.p.p.s.s.s.k.k.k.k.k.s.s.p.p.................p.p.p.p.s.s.s.s.k.s.k.k.s.s.p.p.p.p...........| ..| | | ` ` ` ` ` ` ` ) ) ) ) S ) S ) S ) ) S ) S S ) ) ` ` ` ` ` ` ` ) ) S Z Z Z Z Z S Z S S S ) S ) ) ) ) ) ) S S ) S ) ) ) ) ) ) ) ) S S S S S Z Z m m b 0 0 8 2 < # # X   X . . O @ * ; 5 e t F H  .a.k.z.V.Z.F.F.F.H.H.H.H.H.F.F.F.Z.Z.Z.Z.Z.V.Z.Z.Z.Z.Z.Z.Z.Z.F.F.F.Z.F.Z.Z.Z.Z.Z.V.V.V.V.V.V.V.V.V.V.V.V.Z.Z.Z.Z.F.F.F.H.F.H.H.H.H.H.J.H.H.H.H.F.H.F.F.F.F.F.Z.Z.Z.Z.V.Z.V.V.Z.V.z.z.s.s...| | ` ) S ) S S S ) ) ) ) ` ` | | ......p.s.s.s.s.s.s.s.s.p.p.....| | | ` ` ` ) ` ) ) S S S S Z Z m b b 8 2 % # X X     . o @ * 5 5 7 B V ] X.a.k.z.V.V.V.z.z.k.k.k.k.k.k.k.k.k.k.s.k.s.s.s.s.s.s.s.s.s.s.k.k.k.k.k.s.p.p...| | ` ` ` ) ) ) S Z Z m 0 8 < % X X X . . . O @ = 5 7 t F { +.l.V.Z.F.H.F.F.Z.V.z.z.z.z.z.z.z.V.V.V.V.z.z.z.z.z.k.k.s.p.p.....| | | | | | | ......p.p.p.s.s.s.s.s.p.p.p...| | ` ` ) S S Z m m b b 8 8 < % # X           ",
"        # % 2 b S ` ..s.k.k.k.k.s.s.p.p.p.p.p.s.s.s.k.s.k.s.k.s.s.k.k.s.s.s.p.p.p.p.p.p.p.p.s.k.k.k.k.z.k.k.s.s.p.p.......................p.p.s.s.s.s.s.p.p.p.p...| ..| | | | ....| | | | ` | ` ` ) ` ) ) ) ) S S ) S S S ) S S S ) ) ) ` ` ` ` ` ` ` ) ) S Z Z Z m Z Z Z Z S S S S S S S S S Z S S S Z S S S S S S S S S S ) S S S S Z Z m b b 0 8 2 % % # X     . . O + * ; 7 e t F ]  .p.k.z.Z.Z.F.F.H.H.H.H.H.F.F.F.Z.Z.Z.Z.Z.V.Z.Z.V.Z.Z.Z.Z.Z.Z.F.Z.F.F.Z.F.Z.Z.Z.V.V.Z.V.V.V.V.V.V.Z.V.Z.Z.Z.Z.Z.Z.Z.F.F.F.H.H.H.H.J.H.H.H.H.H.H.H.F.F.F.F.F.Z.Z.Z.Z.Z.Z.Z.V.Z.V.V.V.z.k.s.p.| | ) ) S ) ) S ) S ) ) ) ` ` ` | | ......p.p.s.s.k.k.k.s.s.p.p.| | | ` ` ` ` ` ) ) ) ) S S Z Z m m b 0 8 < % # X X   . . O + * ; 5 e t F ]  .a.k.z.V.V.z.z.k.k.s.s.s.s.s.s.s.s.s.k.s.s.s.k.s.s.s.s.s.s.k.k.k.s.s.s.s.p...| | ` ` ) ) ) ) ) S S Z m 0 8 < % # X     . O O = ; 5 7 B G { X.l.A.Z.F.H.H.H.F.Z.Z.V.V.V.z.V.z.z.z.z.k.z.k.k.k.k.s.s.s.p.p...| | | ` ` ` | | | | ........p.p.p.p.p.p.p.....| | ` ` ) ) S Z Z m b 0 8 2 < % # X X         ",
"        X % 8 b S ` p.s.k.z.k.k.k.s.s.p.p.s.s.s.s.k.s.k.k.k.k.s.s.s.s.p.p.p.p.p.p...p.p.s.s.s.k.k.k.z.z.k.k.k.s.s.p.p.p.....| ..| | | | ......p.p.p.p.p.p.....| | | ` | | | | | | ....| | | | ` ` ` ) ) ) ) ) S S S S S S S S ) ) ) ) ` ` ` | | | | ` ` ) S Z Z m m m m m Z Z S S S Z S S Z Z Z Z m Z Z Z m m Z Z Z Z Z S S S ) S S S Z Z m b b 0 8 2 < # X X       . o * * ; 5 7 B F _  .a.l.V.Z.Z.F.H.F.F.H.H.H.H.F.F.F.Z.Z.V.Z.V.V.V.Z.V.Z.V.Z.Z.Z.Z.Z.F.F.Z.Z.Z.Z.Z.Z.Z.Z.V.Z.Z.Z.Z.V.Z.Z.Z.Z.Z.Z.Z.F.F.F.F.F.F.H.H.H.H.H.H.H.H.F.H.F.F.F.F.F.Z.F.Z.Z.Z.Z.Z.Z.Z.Z.Z.V.z.z.k.p.....` ` ) ) S ) S S ) ) ) ) ) ` ` | | | ..p.p.s.k.k.k.k.k.s.s.p...| | ` ` ` ` ) ) ) ) ) S S S Z Z m b b 8 8 < % X X X     . o + * ; 5 7 B F _  .a.k.z.z.V.z.z.k.k.s.s.s.p.s.s.s.s.s.s.s.k.s.s.s.k.k.s.k.s.s.s.s.s.p.p.......| ` ) ) ) ) S S S S S Z b b 8 2 % X X X   . . O @ = 5 7 t F ] +.l.z.F.H.H.H.H.F.F.Z.Z.V.V.V.z.z.k.k.k.s.s.s.s.s.s.s.p.p.p...| | ` ` ` ` ` ` ` | | | | ........p.p.p.p.p.p.......| | ` ) S S Z m b 0 8 2 < % # X X         ",
"        X % 8 b S ` ..s.k.k.k.k.k.s.s.p.s.s.s.s.k.k.k.k.k.s.s.s.s.p.p.p.p.....p...p...p.p.s.s.k.z.z.z.z.z.z.k.k.s.s.p.p.....| | | | ` | | | ......p.p.......| ` ` ` ) ` ` ` ` | | ....| | | ` ` ` ) ) ) ) ) S S S S S S S S S ) ) ) ) ` ` ` | | | | | ) ) S Z Z m m m m m Z Z Z S Z S Z Z Z Z m m m m m m b m m m m Z Z S S S ) ) S S Z Z m b 0 8 8 2 % % # X X   . . o @ * ; 5 e t F H X.a.l.V.Z.Z.F.H.H.H.H.H.H.H.F.F.Z.Z.Z.Z.V.V.V.Z.V.V.Z.Z.V.Z.Z.Z.Z.F.Z.F.F.Z.Z.F.Z.Z.Z.Z.Z.Z.Z.Z.Z.Z.Z.F.Z.Z.F.Z.Z.F.F.F.F.H.F.H.H.H.H.H.H.F.H.F.F.F.F.F.F.Z.Z.F.Z.Z.Z.Z.Z.Z.V.Z.V.z.z.k.s.p.| | ` ) ) ) ) S ) ) ) ) ) ) ` ` ` | | ....p.s.s.k.z.k.k.k.s.p...| | ` ) ) ) ) ) ) ) ) ) S S Z Z m m 0 8 2 < % # X       . O @ * ; 5 7 B V _  .a.l.z.z.V.z.z.k.s.p.p.p.p.p.p.s.s.s.s.s.s.k.k.k.k.k.s.k.k.s.s.s.p.p.p...| | ` ` ) S ) S S S ) S S Z m b 8 2 % # X     . O O @ ; 5 7 t F { a.l.C.F.H.H.J.H.H.H.F.F.Z.V.V.z.k.k.s.s.p.p.p.p.p.p.p.p.......| ` ` ` ` ) ) ` ` ` ` ` ` | | | ........p...p.......| | ` ` ) S Z m m 0 8 2 < % # X           ",
"        X < 2 b S ` p.s.k.z.z.k.s.s.s.s.s.s.s.s.s.k.k.k.k.k.k.s.p.p.p.p.................p.s.s.k.k.z.z.z.z.z.k.k.s.s.p.p.....| | ` ` ` ` ` | | | ......| | | ` ` ) ) ) ) ` ` ` | | ..| ..| | | ` ` ) ) ) ) S ) S S S S S S S S S S ) ) ` ` | | ..| | | ` ) S Z m b m b m m m Z Z S Z Z Z m m m b b b b b b b b b m m m Z Z S S S ) S S Z Z m m b 0 8 2 < # # X       o O @ = ; 5 e t F ]  .a.l.z.V.Z.F.F.F.H.F.H.F.F.F.Z.Z.Z.V.V.V.V.V.V.V.V.V.V.Z.V.Z.Z.Z.Z.F.Z.Z.F.Z.F.Z.F.F.Z.F.Z.Z.Z.F.Z.Z.Z.F.Z.Z.Z.Z.Z.F.F.F.F.H.H.H.H.H.H.H.H.F.F.F.F.Z.F.Z.F.F.Z.F.F.Z.F.Z.Z.Z.Z.V.V.z.k.s.p...| ` ) ) ) ) ) ) ) ` ) ` ` ` ` ` ` | ....p.s.s.k.z.z.z.k.s.p...| ` ` ` ) ) ) ) ) ) ) S S Z Z m m b 0 0 2 < % # X X   . . O + * ; 5 e t F ]  .a.l.z.z.z.z.k.k.p.p.p.p.p.p.p.p.p.p.s.s.s.s.k.k.k.k.k.s.s.s.s.p.p.....| | ` ` ) S S S S S S S S Z Z m b 8 < % # X     . . O @ ; ; 7 t G ] X.l.V.Z.H.J.H.J.H.H.F.F.Z.Z.V.z.k.s.s.p.p.....p.p.........| | | | ` ` ) ) ` ) ) ) ` ` ` ` | | | ..........p...p.....| | ` ) ) Z m b b 8 2 < % # X           ",
"        X < 8 b Z ` ..k.k.k.z.k.k.s.s.p.p.s.s.k.k.k.k.k.k.k.s.s.s.p.p...................p.p.s.s.k.z.z.z.z.z.k.k.s.s.p.p.p...| | ` ` ` ` ` | | | ..| | | | ` ` ) ) S S ) ) ` ` | | | ..| | | ` ` ` ) ` ) ) ) S S S Z S S S S S S ) ) ) ` ` | | | ..| | ` ) S Z m m m m b m m Z Z Z Z Z m m m b b b b 0 b 0 b b b b b m m Z S S ) S S S S Z m m b 0 8 < % # # X     . o O + = ; 5 e t F _  .a.k.V.V.F.F.F.F.H.H.H.F.F.F.F.Z.V.V.V.V.V.V.V.V.V.V.V.V.Z.V.Z.Z.Z.Z.Z.F.F.Z.Z.Z.F.F.Z.F.Z.Z.F.Z.F.Z.Z.Z.Z.Z.Z.Z.F.F.Z.F.F.F.F.F.H.F.H.H.F.F.F.F.Z.F.F.F.F.Z.F.Z.F.Z.Z.Z.Z.Z.V.V.V.z.k.s.p...| | ` ) ` ` ) ` ) ` ` ` ` ` ` | ` | | ..p.s.k.k.z.z.k.k.s.p...| ` ) ) ) ) ) ) ) ) S S S S Z Z m b 0 8 2 < % X X     . . O + * ; 5 7 B F ]  .p.k.z.V.z.z.k.s.p.p...p...p.p.p.p.p.s.s.k.s.s.k.k.k.k.k.s.s.s.p.......| | ` ) ) ) S S S S ) S S Z Z m 0 8 < % # X   . . O + = ; 5 7 t F ] X.l.C.Z.H.H.J.J.H.H.H.F.Z.V.V.k.k.s.p.....................| | | ` ` ` ) ` ) ) ` ) ) ) ` ` ` | | | ..........p.........| ` ` S Z Z m 0 8 2 < % # X X         ",
"        # % 2 b S ` p.s.k.k.k.k.k.s.s.p.s.s.s.k.k.k.k.z.k.k.s.s.p.p.........| | | | ......p.s.k.k.z.z.z.z.z.z.k.k.s.s.p.......| | ` ` ` ` ` ` | | | | | ` ` ` ) ) ) ) ) ) ` ` | | | | | | | ` | ` ` ) ) ) S S S S S S S S S S S S S ) ) ` ` | | | | | ` ) ) S Z m m m m m Z Z Z Z m m m m m b b 0 b 0 0 0 0 0 0 b b m m Z S S S ) ) S S Z m b b 0 8 2 < % X X       . o + * ; 7 e t F _  .a.k.z.Z.Z.F.F.H.F.F.H.H.F.F.Z.Z.Z.V.V.V.V.V.V.V.V.V.V.V.V.V.Z.Z.Z.Z.Z.Z.Z.F.F.F.F.F.F.Z.F.F.Z.Z.Z.Z.Z.Z.Z.Z.Z.Z.Z.Z.Z.Z.F.F.F.F.H.F.F.F.F.F.F.F.F.F.Z.F.Z.F.F.Z.F.F.Z.Z.Z.Z.Z.V.V.z.k.s.s.p...| | ` ` ` ` | ` ` | ` ` ` ` | | | | ..p.p.s.k.k.z.k.s.s.....` ` ) S ) S S ) ) ) ) S S S Z Z m b b 0 8 2 % # X X     . . * = ; 5 e t V ]  .d.l.z.V.z.z.k.s.s.p.p.....p...p.p.s.p.s.s.k.k.s.k.k.k.k.s.s.p.p.....| | ` ` ) ) ) S S S S S S S S Z m b 8 2 % # X     . . O @ = 5 e t F { +.l.V.Z.H.H.H.H.H.F.F.Z.Z.V.z.k.s.p.......| | ..| | | | | | | ` ` ` ` ` ) ) ) ) ) ) ) ) ) ` ` | | ........p...p.......| ` ) ) Z m b b 8 2 < % X X           ",
"        X % 8 b Z ` p.s.k.k.k.k.s.s.s.p.s.s.s.s.k.k.k.k.k.k.s.s.p.p.........| | | | | | ..p.p.s.k.k.z.z.z.z.k.k.k.s.s.s.p.....| | ` ` ` ` ` ` | | | ` | ` ` ` ` ) ) ) ) ) ` ` | | | | | | | | ` ` ` ` ) ) ) ) S S S S S S S Z S Z S S ) ) ` | | | | | ` ` ) S S Z Z m m m m Z m m m m m b b b 0 b 0 0 0 0 0 0 b b b m m Z Z S ) S ) S S Z m m 0 0 8 2 % % # X X   . o O * = ; 7 e t F _  .a.k.z.V.Z.F.F.F.F.F.F.F.F.F.Z.Z.V.V.V.z.V.V.V.V.V.V.V.V.V.V.V.Z.V.Z.Z.Z.Z.Z.F.F.F.F.F.F.F.Z.Z.Z.Z.Z.Z.Z.V.Z.V.V.Z.Z.Z.Z.Z.Z.F.F.F.F.F.F.F.F.F.F.Z.F.Z.F.Z.F.F.Z.F.Z.Z.Z.Z.Z.Z.V.V.z.z.k.s.p.......| | | | | | | ..| | | | | | | | ..p.p.s.k.k.k.k.s.p...| ` ) ) ) S ) S ) S ) S S S S S Z Z m b 0 8 2 < # X X X . . O + = ; 5 e t F ]  .a.k.z.z.z.z.k.s.s.p.p.p...p.p.p.p.s.s.s.s.s.k.k.k.k.s.s.s.s.p.......| | ` ` ` ) ) ) S ) S S ) S S Z Z b 0 2 % X X X . . O O @ ; 5 7 B F { X.l.A.Z.H.H.H.H.H.F.Z.Z.V.z.k.k.p.p.....| | | | | | | | | ` ` ` | ` ` ` ` ` ` ) ) ) ) ` ) ` ` | | | ........p.p.......| ` ` S S m m 0 8 2 < # # X X         ",
"        # % 8 b S ` ..s.k.z.k.k.s.s.p.p.p.p.s.s.k.k.z.z.k.k.s.s.p.p.....| | | | | | | | | ..p.p.s.k.k.k.k.k.k.k.k.s.p.p.p.......| | | ` ` | | ` ` | | ` ` ` ` ` ` ) ` ` ` ` ` ` ` | ` | | ` ` | | ` ` ` ` ` ) ) ) S S S Z Z Z Z Z Z S S ) ` ` | | | | | ` ) ) S S Z Z Z Z m m m m m b b b b 0 b 0 0 0 0 0 0 0 0 0 b m m Z S S ) ) S S Z Z m m b 0 8 2 < # # X       . O + * = 5 7 B V _  .s.l.V.Z.Z.Z.F.F.F.F.F.F.F.Z.Z.Z.V.V.V.V.V.z.V.V.z.V.V.V.V.V.V.V.V.V.V.Z.Z.F.F.F.F.F.H.F.F.F.Z.Z.V.V.V.V.V.V.V.V.V.V.V.Z.Z.Z.Z.F.F.F.F.F.F.F.Z.F.F.F.F.F.F.F.F.F.F.F.F.Z.Z.Z.Z.V.V.V.z.k.s.s.p...........................| | | | ......p.s.s.s.s.s.p.p...| ` ) S S S S S S S S S ) S S S Z Z Z m b 8 2 < # X X     . o + * ; 5 7 B F _  .a.k.z.V.z.z.k.s.p.p.p...p...p.p.p.p.s.s.s.s.s.s.k.k.s.s.s.p.p.....| | ` ` ` ` ) ) ) ) ) ) ) ) ) S S m b 8 2 % # X       . O @ = 5 7 t F { +.l.z.F.F.H.H.F.F.Z.V.V.z.k.s.s.p.....| | | | ` ` | ` | ` | ` | | ` ` ` ` ` ` ) ` ) ) ) ` ` ` | | ......p.p...p.p.......| ) ) Z Z b 0 8 2 < % # X X         ",
"        # % 2 b S ` p.s.k.k.k.s.s.s.p.p.p.p.s.s.s.k.k.k.k.k.s.s.p.p.......| | ` ` | | ` | ....p.s.s.k.k.k.k.k.s.s.s.s.s.p.p.......| | | | ` ` ` | ` ` ` ` ` ` ` ` ` ` ` ` ` ` ` ` ` | ` ` | | | | | | ` ` ` ) ) ) S S Z S Z Z m Z Z Z S S ) ` ` | | | | ` ` ) ) S S S Z Z Z m m m m b b b b b 0 0 b 0 0 0 0 0 0 0 b b m Z S S S S ) S S Z Z m 0 0 2 < < # # X     . o O * * ; 5 e B F ]  .a.l.V.V.Z.F.F.F.F.F.F.F.Z.Z.Z.Z.Z.V.V.z.V.z.V.V.z.V.V.V.V.z.V.V.V.V.V.V.Z.F.F.F.F.H.F.F.F.Z.Z.Z.V.V.V.V.V.V.V.V.V.V.V.V.V.Z.Z.Z.Z.Z.Z.F.F.F.F.F.Z.F.F.F.F.F.F.F.F.F.Z.F.Z.Z.V.Z.V.z.z.z.k.s.s.s.p.p.p.p.p.p.p.p.p.p.............| ..p.p.p.p.s.s.p.p...| ` ) ) ) S S S S S S S S S S S S S S Z Z b 0 2 < # X X   . . O * * ; 5 e t F ]  .d.k.x.V.z.z.k.k.s.p.p.p.p.p.p.p.p.s.p.s.s.s.s.k.s.s.s.s.p.p.p.....| | | ` ` ` ) ` ) ) ) ) ) ) ) S S m b 0 2 % # X     . O + @ = 5 7 t G { a.l.A.Z.F.H.F.F.Z.V.z.z.k.s.s.p.p...| | | ` ` ` ` ` ` ` | ` ` | | | | | | ` ` ` ) ) ) ) ) ` | | | ......p.....p.p.....| | ) ) Z Z b 0 8 2 < % # X X         ",
"      X # % 8 b S ` ..s.k.k.k.k.s.p.p.p.p.p.s.s.k.k.z.k.k.k.s.s.p.p.......| | | ` ` ` ` | | ..p.p.s.s.s.k.s.k.s.s.s.p.p.p.p.p.....| | | | | | ` ` ` ` ` ` ` ` ` | | ` | ` | ` ` ` ` ` ` ` ` | | | | | | ` ` ` ) ) ) S S Z Z m m m m Z Z S ) ) ` | ` | | | ` ` ` ) ) S S Z Z m m b b b b 0 b 0 b 0 b 0 0 0 0 0 0 b b m Z Z S S ) ) S S S Z m b b 0 8 2 < % X X       . o + * ; 5 7 t V ]  .a.l.z.V.Z.F.F.F.F.F.F.Z.F.Z.Z.V.V.V.V.V.V.V.V.V.V.V.V.V.V.V.z.V.z.V.V.V.Z.Z.F.F.H.F.H.F.F.Z.Z.V.V.V.z.z.z.z.z.z.V.z.V.V.V.V.Z.Z.Z.Z.Z.Z.Z.Z.Z.F.F.Z.F.F.F.F.Z.F.Z.F.F.Z.Z.Z.Z.V.V.V.z.z.k.k.k.s.s.s.s.s.s.s.p.s.p.p.p.p...............p.p.p.p.p.p...| | ` ) ) S S S Z S S S S S S S S S S S Z Z m 0 8 < % X X     . o + * ; 5 7 B V _  .a.l.z.z.V.z.k.k.s.p.p.p.p.p.p.p.s.p.s.p.s.s.s.s.s.s.s.p.p.p.....| | | ` ` ` ` ` ` ` ` ) ` ` ) ) ) S Z b 0 2 % # X     . . + * ; 5 7 B F ] +.d.V.G.F.F.F.Z.Z.z.k.s.s.p.p.....| | | | | ` ` ` ` ` ` ` ` ` ` | | | | | ` ` ` ` ) ` ) ` ` ` | | | ........p.p.......| ` ` ) Z m m 0 0 2 < % X X           ",
"        # % 8 b S ` p.s.k.k.k.k.s.p.p.p.p.p.s.s.s.k.k.k.k.k.s.s.p.p.......| | | ` ` ` ` ` | ....p.p.s.s.s.s.s.s.s.s.p.p.p.p...........| | ` ` ` ` ` ` ) ` ` | | | | | | | | ` ` ` ` ` ` ` | | | | | | | | ` ` ` ) ) ) S Z m m m m m m Z Z S ) ` ` | ` | ` | ` ` ` ) ) S S Z m m b b b b 0 b b 0 b 0 b 0 0 b 0 0 b b m m Z S S S S ) S S Z m b b 0 8 2 % # # X       . o @ * ; 5 e t F ]  .a.l.V.V.Z.F.Z.F.F.Z.F.F.Z.Z.Z.Z.V.V.V.V.V.V.V.V.V.V.V.V.z.V.z.z.z.z.z.V.Z.Z.Z.F.F.H.F.F.F.Z.V.V.V.z.z.z.z.z.z.z.z.z.z.V.V.V.V.V.V.Z.Z.Z.Z.Z.Z.Z.F.F.F.F.F.F.Z.F.Z.F.Z.Z.Z.Z.V.V.V.V.z.z.z.k.k.k.k.s.k.k.k.s.k.s.s.s.s.p.p.p.............p.p.p.p.....| ` ) ) S S S S S Z S S S S S S S ) S ) S S m b 8 < % # X   . . O @ * ; 5 e B F ]  .a.k.z.z.V.V.z.k.s.s.s.p.p.p.s.p.p.p.s.s.s.s.p.s.s.s.s.p.p.........| | ` ` | ` ` ` ` ` ` ` ` ` ) ) S Z b 0 2 < # X X   . . O @ ; 5 7 t F { +.l.V.Z.F.F.F.Z.z.x.s.s.p.p.......| | | ` ` ` ` ` ` ` ` ` ` ` | | | ..| | | | ` ` ) ` ) ` ` ` | | ............p.......| ` ` ) Z m b b 8 2 < % # X X         ",
"        X < 2 b S ` ..s.k.k.k.s.s.p.p.p...p.p.s.k.k.k.k.k.k.s.s.p.p.......| ` ` ` ` ) ` ` | | ....p.p.s.s.s.p.s.s.p.s.p.p.p.p.........| | | ` ` ) ` ` ` ` ` ` | | ..| | | | | ` ` ) ) ` ` ` | | | ....| | ` ` ` ) ) S S Z Z m m m b m m Z S ) ) ` ` | ` | ` ` ` ` ` ) S Z Z m m m b b b b 0 0 b 0 b 0 b 0 0 b b b b m Z Z S S ) ) S S Z Z m b b 0 8 2 < % # X X   . . O + = ; 5 e t F _  .a.k.z.V.Z.Z.F.Z.Z.F.F.Z.F.Z.Z.Z.Z.Z.V.V.V.Z.V.V.Z.V.V.V.V.z.V.z.z.z.z.z.V.Z.Z.F.F.H.F.F.Z.Z.V.V.z.z.z.z.k.z.k.k.z.z.z.z.z.z.V.V.V.V.V.Z.Z.Z.Z.Z.Z.Z.Z.Z.Z.F.Z.Z.Z.Z.Z.Z.Z.Z.V.V.V.V.z.z.z.z.k.k.k.k.k.k.k.k.k.k.k.k.s.s.p.p.p...p.................| ` ` ` ) ) S S Z Z Z S Z S S S S S S ) S S S m b 8 < % X X     . o + * ; 5 e t V ] X.a.k.z.z.V.z.z.k.s.s.s.s.p.s.p.s.s.s.p.p.s.s.s.s.s.p.p.p.p.....| | | ` | | ` | ` | | ` ` ` ` ` ` ) S Z m 0 2 % # X   . . . + @ = 5 7 B G { a.l.C.F.F.F.Z.V.z.k.s.p.......| | | | | ` | ` ` ` ) ) ` ) ` ` | | | ..| | ` ` ` ` ` ) ` ) ` ` | | | ................| | ` ) S S Z b 0 8 2 < % # X X         ",
"        X % 2 b S ` ..s.k.k.k.k.s.s.p.p.p.p.s.s.s.k.s.k.k.s.s.s.p.p.p...| | | ` ` ` ` ` ` ` | | ..p.p.p.p.p.p.p.p.p.p.p.p.p.........| | | ` ` ` ` ) ) ) ` ` ` | | | | | | ` | ` ` ` ` ` ` | | | | ..| | | | ` ` ` ) ) S Z Z Z m m m m m Z S S ) ) ` ` ` ` ` ` ` ) ` ) ) S Z Z m b b b b b 0 b 0 b 0 b 0 b b b b m m m Z Z S S ) ) S S Z Z m m b 0 8 2 % # # X X     . O @ = ; 7 7 B F ]  .a.k.V.Z.Z.F.Z.F.Z.F.Z.F.Z.Z.Z.Z.Z.Z.Z.Z.Z.Z.Z.Z.Z.Z.V.V.V.z.z.z.z.z.z.z.V.Z.Z.Z.F.F.F.Z.Z.V.V.z.z.z.z.z.k.k.z.k.z.k.z.z.z.z.z.V.V.V.V.V.V.Z.V.Z.Z.V.Z.Z.Z.Z.Z.V.Z.Z.Z.V.V.V.V.V.z.z.z.z.k.z.k.k.k.k.z.k.z.z.k.z.k.k.s.s.p.p.p.p.................| | | ` ` ) S S Z Z S S S S S S S S ) S ) ) S Z m b 8 < % X X   . . O @ * ; 5 7 B F _  .a.l.z.V.V.z.z.k.k.s.s.s.s.s.s.p.p.s.s.s.p.p.s.s.p.s.p.p.p.....| | | | | ` | ` | ` | ` ` | ` ` ` ) ) Z b 0 2 < # X X   . . O @ = 5 7 t F { a.l.C.Z.F.F.Z.V.z.k.p.p.....| | | | | | | ` ` ` ` ) ) ` ` ` ` | | | | | | | ` ` ) ) ) ) ` ) ` ` | | | ..............| | ` ) S Z m b b 8 2 < # # X X         ",
"        # % 8 b S ` p.s.k.k.k.k.s.s.p.p.p.p.p.s.s.s.k.s.s.s.s.s.p.p.......| | | ` ` ` ` ` | | ........p.p.p.p.p.p...p...........| | | | ` ` ` ) ) ) ) ) ) ` ` | | | ..| | | ` ` ` ` ` ` ` | | | | | | ..| | | ` ` ) ) S S Z Z m m m m m Z Z S S ) ) ) ) ` ) ` ) ) ) S S S Z Z m m m m b b b b b b b b b b b m b m m m Z S S S S S S S S Z m b b 0 8 2 < # X X     . . O + * ; 5 e t F D  .a.k.z.V.Z.Z.Z.F.Z.Z.Z.F.F.F.Z.F.F.F.F.F.F.Z.F.Z.Z.Z.Z.V.V.z.z.z.z.z.k.z.z.V.V.Z.Z.Z.Z.Z.Z.V.V.z.z.z.k.k.z.k.k.z.k.z.z.z.z.z.z.z.z.z.z.z.z.V.V.V.V.V.V.V.V.V.V.V.V.V.V.z.V.z.z.z.z.z.z.z.z.k.k.z.k.z.k.z.k.k.z.z.k.k.k.s.s.p.p.p...p.....p.........| | ` ) ) S S S S S S Z S Z S S S S ) S S S Z m b 8 2 % X X     . O O = ; 5 e t V ] +.a.k.z.z.V.V.z.z.k.k.k.s.s.s.s.s.s.s.p.p.s.p.s.p.s.p.s.p.........| | ` ` | ` | ` | | ` | ` ` ` ` ) S Z m 0 2 % # X   . . O O @ ; 5 7 B F ] f.x.V.F.F.F.F.V.z.s.p.p.......| ..| | | | | ` ` ` ` ` ) ` ` ` ` | | | | | | ` ` ) ` ) ) ) ` ` ` | | | | | | ..| | | | ` ` ) S S m m 0 8 2 < % # X           ",
"        X % 8 b S ` p.s.k.k.z.k.s.s.s.s.p.s.s.s.s.s.s.s.s.p.p.p.p.........| | | ` ` | ` | | | | ..........................| | | | ` ` ` ` ` ) ) ) ) ) ) ) ` ` ` | | | | | | | ` ` ` ` ` | | ` | | | | | | ` | ` ` ) ) ) S S Z Z m Z m Z Z Z S S S ) ) S ) ) S ) ) S S S S Z Z Z Z m m m m b b b 0 b b b b m m m m Z Z Z S S S S S S S Z Z m b 0 8 8 2 % % # X   X . . O + * ; 5 e t F ]  .a.l.z.V.Z.Z.Z.Z.F.Z.F.F.F.F.F.H.F.H.H.H.F.H.F.F.F.F.Z.Z.V.V.z.z.k.k.k.k.z.z.V.V.V.Z.V.V.V.V.V.z.z.z.k.z.k.k.z.k.z.z.k.z.k.k.k.k.z.z.z.z.z.z.z.z.z.z.z.z.z.z.z.V.z.z.z.z.z.z.k.k.k.z.k.k.k.k.k.k.k.k.z.k.z.z.z.k.z.k.k.k.s.s.p.p.p.p...........| | | ` ` ) ) S S S S S S S S S S S S S S S S Z Z b 0 2 < % X X   . . O + * ; 5 7 t F _  .a.k.z.V.V.V.V.z.z.k.k.k.s.s.s.s.s.p.s.s.p.s.p.s.p.p.p.p.....| | | | ` | | | ` | | | ` ` | ` ` ` ) ) Z m 0 2 % # X X . . . O @ = 5 7 B G { X.l.A.F.H.F.Z.V.z.k.s.........| | ..| | | | | ` ` ` ` ` ` ` | ` | | | | | ` ` ` ) ) ) ) ) ` ` ` ` ` | | | | | | | ` ` ` ` ) S Z m b b 8 2 < % # X X         ",
"        # % 2 b Z ` p.s.k.z.z.k.k.k.s.s.s.p.s.p.s.s.s.s.s.p.p.p.p.p.p.......| | | | | | | | | | | ..............| ..| | | | | ` ` ` ` ` ) ) ) ) S S S ) ) ) ` ` ` | | | | | | | | | | | | ` | | | | | | | | ` ` ` ` ` ) ) S S S Z Z Z Z Z Z Z Z S Z Z S Z S S S S S S S S S S S Z Z Z Z m m b b b b b m b m m Z Z Z S S S S S S S S Z Z m m m b 0 8 2 < % X X       . O * * 5 5 e t F _  .d.k.z.V.Z.Z.Z.F.Z.Z.F.F.F.H.H.H.J.J.H.H.J.J.H.H.H.F.F.Z.Z.V.z.z.k.k.k.k.k.z.z.z.V.V.V.z.V.z.z.z.z.k.z.z.k.k.z.k.k.k.z.k.z.k.k.k.k.k.k.k.k.k.z.z.k.z.k.k.z.k.z.k.k.k.k.k.k.k.k.k.s.s.k.k.k.k.k.k.k.k.k.z.k.z.k.z.z.k.k.k.s.s.p.p.p.p...p...p.......| | ` ` ) ) S S ) S S S ) S S ) S S S S Z Z m b 0 2 < # X X     . . @ * ; 5 e t V ]  .a.k.z.z.V.V.V.z.z.z.z.k.k.k.s.s.s.s.p.p.s.p.s.p.s.p.p.p.p.....| | | ` | ` | ` | ` | | | ` | ` ` ) S Z b 0 8 < # X     . . + @ = 5 7 B G { f.l.V.F.H.F.F.Z.z.k.p.p...........| ......| | | | | ` ` ` ` ` | ` ` ` ` ` ` ` ) ) ) ) ) ) ) ) ` ` ` ` ` ` ` | ` | ` ` ` ) S S Z m m 0 0 2 2 % # X X         ",
"        # < 2 b S ` ..s.k.z.z.z.k.k.k.s.s.s.s.s.p.s.p.p.p.p.p.p...p.........| | | | | | | | | ..| ....| ..| | | | | | ` ` ` ` ` ` ) ) ) ) ) S S S S ) S S ) ) ` ` ` ` | ` | | | | | | | | | ` | | ` | ` ` ` | | ` ` ` ) ) ) S S S S Z Z Z Z Z Z Z Z Z m Z Z Z m Z Z Z S S S S S S S S Z m m m b b b b b m m Z Z Z S S S S S S S S S Z Z Z m b b 0 8 < % % # X X   . o o * = ; 5 7 B F ]  .a.k.V.V.Z.Z.F.Z.Z.F.F.F.F.H.H.J.J.K.K.J.K.J.J.J.H.H.F.F.Z.V.z.z.k.s.k.k.k.k.k.k.z.z.z.z.z.z.z.z.k.z.k.k.k.z.k.z.k.k.k.k.k.k.k.k.k.k.s.k.s.s.k.s.k.s.k.k.s.k.s.k.k.s.s.s.s.s.s.s.s.s.s.s.s.s.k.k.s.k.k.k.z.k.z.z.k.k.k.k.s.s.s.p.p.p.....p.......| | ` ` ` ) ) S ) S S ) S ) S S ) S S S Z Z m m 0 8 2 % # # X     . O + * ; 5 7 B F ]  .a.l.z.V.V.V.V.V.V.z.z.z.k.k.k.s.s.s.s.p.s.p.s.s.p.p.p.p.........| | | ` | | | ` | | ` ` | ` ` ` ) ) Z m 0 8 % # X X . . . O @ ; 5 7 B F { f.x.A.F.H.F.F.Z.z.k.s.p.....................| | | | | | ` ` ` ` ` ` ` ) ) ) ) ) ) ) ) S ) ) ) ) ) ` ` ) ` ` ` ` ` ) ) ) ) S Z Z m b 0 0 2 < % # X X         ",
"        X % 8 b S ` p.s.k.k.z.z.z.k.k.k.k.s.s.s.s.p.p.p.p...p.......................| ..| ..| | ..| | | | | | | | ` ` ` ` ` ) ) ) ) ) S S S S S S S S S S ) ) ) ` ` ` ` ` | | | | | ..| | | | ` ` ` ` ` ` ` ` ` ` | ` ` ` ) ) ) S S S Z Z Z m Z m m m m m m m m m m Z Z Z S ) ) ) ) S S Z m m b b b b m m Z Z S S S S S ) S ) S Z S Z Z m m b b 0 8 2 < # # X       . o + * ; 5 e B F ]  .a.l.z.V.Z.Z.Z.F.Z.Z.F.F.H.J.J.K.K.K.K.L.L.K.K.J.J.J.H.F.Z.V.V.k.k.k.s.s.s.s.s.k.k.k.k.k.k.k.z.k.z.k.z.z.z.k.z.k.z.z.k.k.k.k.k.s.k.s.s.s.s.s.p.s.s.s.p.p.s.p.s.s.p.s.p.p.p.p.s.p.p.p.s.p.s.s.s.s.s.s.k.k.k.k.k.z.k.k.k.k.s.s.s.p.p.p.p.p...p.......| | ` ` ` ) ) ) ) ) ) ) S ) ) S S S S Z m m b 0 8 2 % # X X   . . O * * ; 5 e t V ]  .a.k.z.V.Z.Z.V.V.V.z.z.z.k.k.k.s.s.s.p.s.p.s.p.p.s.p.p.p.p.....| | | | | ` ` | ` | | ` | ` | ` ` ) S Z b 0 2 % # X     . . O @ = 5 7 B H { a.x.A.F.H.F.Z.V.z.k.s.p...................| ..| | | | ` ` ` ` ` ) ) ) ) ) ) ) S ) S S ) S S S ) S ) ) ) ) ) ) ) ) ) ) S S Z Z m m b 0 8 2 < % # X           ",
"        # % 2 b Z ` p.s.k.z.z.z.z.z.k.k.k.s.s.s.p.p.p.p.p...p.....................| ..| ....| | | | | | | ` ` ` ` ` ` ) ) ) ) ) ) S S S S S S S S S S S S S ) ) ) ) ` ` ` | | | | | | | | | ` ` ` ` ) ` ` ` ` ` ` ` ` ` ` ) ) ) ) S S Z Z Z m m m m b b b b b b m m m Z Z S ) ) ) ) ) S Z Z m b b b b m m Z Z S S S S S ) S S S S Z Z Z m m b b 0 8 2 < # # X     . . o @ * ; 5 e t F _  .a.k.V.V.Z.Z.Z.Z.F.Z.F.F.H.J.K.K.L.L.L.L.L.L.K.K.J.J.J.H.Z.Z.V.k.k.s.s.s.s.s.s.s.s.k.k.s.k.k.k.k.z.z.z.z.z.z.k.z.k.k.z.k.k.k.s.s.s.s.s.p.s.p.p.p.p.p.p.p.p.p.p.p.p.p.p.p.p.p.p.p...p.p.p.p.s.p.s.s.s.s.k.k.k.k.k.z.k.k.k.s.s.s.p.p.p.p.p...........| | | ` ) ) ) ) ) ) ) ) ) S ) S S S Z Z m b 0 0 2 < % # X X X . . O + * ; 5 e t F ]  .a.k.z.V.Z.V.Z.V.V.V.z.z.z.k.k.k.s.s.s.p.s.p.p.s.p.p.p.p.......| | | | ` | | | | ` | ` | ` ` ` ` ) S Z m 0 2 < % X     . . O = = 5 7 t G { a.l.z.Z.F.Z.Z.V.k.s.p.p.......| ........| ..| | | | ` ` ` ) ) ) ) ) S S S S S S S Z S S Z S S S S S S S S S S S S S S S S Z m m b b 0 8 2 < % # X X         ",
"        X % 8 b S ` p.s.k.z.z.z.z.k.k.k.k.k.s.s.p.p.p.........................| ......| | | ..| | | | ` ` ` ` ` ` ` ) ) ) ) S ) S ) S S S S Z S S S S S S S S S ) ) ) ) ` ` | | | ..| | | ` ` ` ) ) ) ) ) ) ` ` ` ` ` ` ) ` ) ) ) S S S Z m m m b b b b b 0 b b b b m Z Z S ) ) ) ) ) S Z m m b b b b m m Z S S S ) ) S S S S Z Z Z Z m m m b b 8 8 2 % % X X     . . O * * ; 5 e B V ]  .d.k.z.V.Z.Z.Z.F.Z.F.F.H.H.J.K.K.L.I.L.L.I.L.L.L.K.K.H.F.F.Z.z.z.k.s.s.p.p.p.s.s.s.s.s.s.k.k.k.k.k.k.k.k.k.z.z.k.z.z.k.k.k.k.s.s.s.s.s.s.p.p.p...p.p.....p...p.....p...p.......p...p...p.p.p.p.p.s.s.s.s.k.k.k.k.k.k.k.k.s.s.s.s.p.p.p.p.p.p.......| | ` ` ` ) ) ) ) ) ) ) ) ) ) S S Z Z m m b 0 8 2 < # X X       . o @ = ; 7 7 B V _  .a.k.z.V.V.Z.V.V.V.V.V.z.z.k.k.k.s.s.s.s.s.s.s.s.s.s.s.p.p.......| ` ` ` ` ` ` | ` ` ` ` ` ` ` ) ) S Z m 0 2 % # X   . . O O * = 5 7 t F ]  .d.x.V.Z.V.V.z.s.s.....| | | | | | | | | ` | ` ` ` ` ` ) ) ) S S Z S Z Z Z Z Z Z Z Z Z Z Z Z Z Z Z S Z Z Z Z S Z Z Z Z m m m m b 0 0 8 2 < % # X X         ",
"        # % 8 b Z ` p.s.z.z.z.V.z.z.k.k.k.s.s.s.s.p.p.p.p...............| ........| ......| | | | | | ` | ` ` ` ) ) ` ) ) ) ) S ) S S S S S S S S S S S S S S ) S ) ) ) ) ` ` ` | | | ` ` ` ) ) ) ) ) ) ) ) ) ` ` ` ) ` ) ) ) ) ) S S S Z m m b b b 0 0 0 0 0 b b b m m Z S ) ) ) ) ) S S Z m b b b m m Z Z S S S S ) S S S S Z Z m Z m m m b 0 0 8 2 < % X X       . O + * ; 7 e t F _  .a.l.z.V.Z.Z.F.F.Z.F.F.H.H.J.K.L.L.I.I.I.I.L.L.L.K.J.J.H.F.Z.z.k.k.s.s.p.p.p.p.s.p.p.s.s.s.s.k.k.k.k.k.z.k.k.z.z.z.z.k.z.k.k.k.s.s.s.s.p.p.p.p...p...............p.p...p.........p...p...p.p.p.p.s.p.s.s.s.k.k.k.k.k.k.k.s.s.s.p.p.p.p.....p.....| | | | ` ` ` ` ) ) ) ) ) ) ) ) S S Z Z m b b 0 8 2 < % # X     . o O + * ; 5 7 B V ]  .a.l.V.V.Z.V.Z.V.V.z.z.z.z.k.k.k.s.s.s.s.s.s.s.s.s.s.p.p.p...| | | ` ` ` ` ` ` ` ` ` ` ` ` ` ` ` ) S Z b 0 2 < # X     . . + * ; 5 7 t N ] ' X.d.k.z.z.k.s.p...| ` ` ` ` ) ` ` ` ) ) ` ) ` ) ) ) S S S Z Z Z Z m m m m m m m m m m m m m m m m m m m m m m m m m b b b b b 0 0 8 2 < % # X X           ",
"      X # % 8 b S ` p.s.k.z.z.z.z.z.k.k.s.k.k.s.s.s.p.p.p.p.p.....| ..| ..| | ..| ..| ..| | ..| | | | ` ` ` ` ` ) ` ) ) ) ) ) ) ) ) ) ) S ) ) S S S S S S S S S S S S S ) ) ) ` ` ` ` ` ` ) ) ) S S S S S ) ) ) ) ) ) ) ) ) ) ) S S Z Z Z m m b b 0 b 0 b 0 b 0 0 b m m Z S S S ) ) S S Z m m m b m b m m Z Z S S S S S Z S Z Z Z Z m Z m b b b 0 8 2 < % # X X   . . o @ * ; 5 e B V ]  .a.k.V.Z.Z.Z.Z.Z.F.F.F.H.J.J.K.K.L.I.I.I.I.I.L.L.K.K.J.H.F.Z.V.z.k.s.p.s.s.p.p.p.p.s.s.s.s.s.s.k.k.k.k.k.z.z.k.z.z.z.z.z.k.k.k.k.s.s.s.s.p...................................p...p.....p.p.p.p.p.p.s.s.s.k.k.k.k.k.k.s.s.s.p.p.p.p...p.p.............| ` ` ` ) ) ) ) ) ) ) ) S S S S Z Z m b b 0 8 < < % X X X     . o + * ; 5 e t V ]  .a.l.z.V.V.V.V.V.z.z.z.k.k.k.k.k.s.s.s.s.s.k.s.s.k.s.s.s.p.....| ` ` ` ` ` ) ` ` ` ) ` ` ) ` ` ) S S Z b 0 2 % # X     . . + * ; ; 7 e N F _ ' ..a.p.p.....| ` ) S S S S S S S S S S S S S S Z Z Z Z m m m b b b b b 0 0 b 0 b b 0 b b b 0 b b 0 b b b b b b 0 b 0 0 0 0 8 8 8 2 2 < % # X X           ",
"        X < 8 b S ` p.s.z.z.z.V.z.k.k.k.k.k.k.s.s.s.s.s.s.p.p.......| | | | ..| ..| | ....| | | | | ` | | ` ` ` ` ` ) ) ) ` ) ) ) ` ` ) ) ) ) ) ) S ) S S S S Z Z S S S S S ) ) ) ) ) ) ) ) S S S S S S S S S S S S S ) S S S S S S Z Z m m m b b 0 b 0 0 0 0 0 b b b m Z Z S S S S S S Z m b b b m b m m Z Z Z Z S Z S Z Z Z m m m m m m b b b 0 8 2 < % X X     . . O @ * ; 5 7 B F _  .a.k.z.Z.Z.Z.F.F.F.F.F.H.H.J.K.L.L.L.L.I.I.L.L.L.L.K.J.H.F.Z.V.k.k.s.p.p.p.p.p.s.p.p.s.s.s.s.s.k.s.k.k.k.k.z.z.z.z.z.z.z.z.z.k.k.k.s.s.s.p.p.p...................p.......p...p...p...p...p...p.p.p.p.s.s.s.s.k.s.k.s.s.s.s.p.p.p.p...............| | | ` ` ` ) ) ) ) ) ) ) ) S S S Z Z m m b b 0 8 < < % # X X   . . O + * ; 5 7 B V _  .a.k.z.z.V.V.V.z.z.z.k.k.k.k.k.s.k.s.k.s.k.k.k.k.k.k.s.s.p.....| ` ` ) ) ) ) ) ) ) ` ) ) ` ) ) ) S S Z b 0 2 < # X     . o O * ; 5 5 e r V A D _ ` ` ` ` ) S S Z m m m m m m m m m m m m m b b b b b 0 0 0 0 8 0 8 8 8 8 8 8 8 8 8 8 8 8 8 8 8 8 8 8 8 8 8 8 8 8 8 8 2 8 2 2 < < < % # # X X           ",
"        # % 2 b S | p.k.z.z.z.z.z.k.k.s.s.s.s.k.s.k.s.s.s.p.p.........| | | | | | | | | | | | | | | | | | ` ` ` ` ) ) ` ) ` ` ` ` ` ` ` ` ` ` ) ) ) ) S S S Z S Z Z Z Z S Z S S S ) S ) S S S Z Z Z Z Z Z Z S Z S S S Z S S S Z Z Z Z m m m m b b b b 0 b 0 b b b b b m m Z Z Z S S Z Z m m m m b b b m m m Z Z Z Z Z Z Z Z Z m m m m m m m b 0 0 8 2 < % # X X     . O * * ; 5 e t V ]  .a.l.V.V.Z.Z.Z.F.F.F.H.H.J.K.K.K.L.L.L.L.L.L.L.K.K.K.J.H.F.Z.V.z.k.s.s.p.p.p.p.s.p.p.s.s.s.s.s.s.k.s.k.k.z.k.z.z.z.z.z.z.z.z.z.z.k.k.k.s.s.p.......................p.p...p...p...p.p...p...p.p...p.p.p.s.s.s.s.s.k.s.s.s.p.p.........................| | ` ` ` ) ) ) ) S ) ) S S S Z Z m m b b 0 8 2 < # # X       . o * * ; 5 e t F ]  .a.k.z.V.V.V.z.z.k.k.s.k.s.s.s.s.s.s.k.k.k.k.k.z.k.k.k.s.p.....` ` ) ) ) S ) ) ) ) ) ) ) ) ) ) ) S S m b 8 2 % # X X . o o + * ; ; 5 6 w r n M Z Z Z Z Z m b b b 0 0 0 0 8 0 0 0 0 0 0 0 8 0 8 0 8 8 8 8 2 2 2 2 < 2 2 2 2 < 2 < 2 2 2 2 < 2 2 2 < 2 2 2 < 2 2 < 2 < < < < % < % % # X X X X           ",
"        X < 8 b S | p.k.k.z.z.z.k.k.s.s.s.s.k.s.k.s.k.s.s.s.p.p.....| | ` ` ` | ` | | ` | | | | | | | | ` ` ` ` ` ` ` ` ` ` ` ` | ` | | ` ` ` ` ) ) ) S S S Z Z Z Z Z m Z Z Z S Z Z Z S Z Z Z Z Z m m m m Z m Z Z Z Z Z Z m Z Z m m m m m b b b b b b 0 0 b 0 b b b b m m m m Z Z m Z m m m b b b b b m m m m m Z m m m Z m m m m m m m b m b b 0 8 2 < % X X     . . o + * ; 5 7 B F ]  .a.k.z.V.Z.F.F.F.F.F.H.H.J.J.K.K.K.L.L.L.L.L.L.L.K.K.J.H.F.Z.z.z.s.s.p.p.p.p.p.p.p.s.p.p.s.s.s.s.s.s.k.k.k.z.z.z.z.z.z.z.z.z.z.z.z.k.k.s.s.p.p...............p.p.p.p.p.p.p.p.p.p.p.p.p.p.p.......p.p.p.p.s.s.s.s.s.s.s.p.p.p.....................| | | | ` ` ` ) ) ) S ) S S ) S S Z Z Z m b 0 8 8 2 < # # X     . o O + * ; 5 e t V ]  .a.l.z.z.V.z.z.k.k.s.s.s.s.s.s.k.s.k.k.k.k.k.z.z.z.z.k.k.p.p.| ` ` ) S S S ) S ) S ) S S ) ) ) S S S m b 8 < % X X X     O * * = 5 5 5 7 w w 9 q 0 0 0 0 8 8 8 2 2 < 2 2 < 2 2 2 2 2 < < 2 < 2 < < < < < < < % % % % % % % % % % < % % % % % % % % % % % % % % % % % % % # # % # # X X X               ",
"        # % 8 b S ` p.s.z.z.z.k.k.s.s.p.s.s.s.s.s.k.k.k.s.s.p.....| ` ` ` ` ` ) ` ` ` ` ` ` ` | | | ` | | ` ` ` ) ` ) ) ` ` ` | | | | | | | ` ` ` ) ) S S S Z Z m m m m b m m m m Z m m m m m m m m m m m m m m m m m m m m m m m m m b m b b b 0 b 0 b b 0 b b 0 b b b b m m m m m m b m b b b b b b b b b m b m m m m b b m b m b b b b b b b 0 8 2 < % X X X   . o o @ * ; 7 e t V _  .a.k.V.Z.Z.F.F.F.F.H.H.H.J.J.J.K.K.K.L.K.K.L.K.K.K.J.J.H.F.Z.V.z.k.s.s.s.p.p.p.p.s.p.s.s.p.p.s.s.s.s.k.k.k.k.z.z.V.V.V.V.V.V.V.z.z.z.k.k.s.s.p.p.............p.p.p.p.p.p.p.p.s.p.p.p.p.p...p...p.....p.p.p.p.s.s.s.s.p.p.......| | ..| ..............| | ` ) ` ) ) ) ) S ) S S S Z Z Z m m b b 0 8 2 % % X X       . o + = ; 5 e t F ]  .a.k.z.V.z.z.z.k.s.p.s.p.p.s.s.s.k.k.k.k.z.z.z.z.z.z.k.s.s.p.| | ) ) S S S S S S S S ) S ) S S S S Z m b 8 2 % # X   . o o + * ; ; 5 5 4 4 3 3 < 2 2 < < < < % % % % % % % % # % % % % % % % % % % % # # # # # # # # # # # # # # # # # # # # # # # # # # # # # # # # # # X # X X X X X                 ",
"        X % 8 b S ` ..s.k.k.k.s.s.p.p...p.p.p.s.s.k.s.s.s.s.p...| ` ` ) ) ) ) ) ) ) ) ` ) ` ` ` ` ` ` ` ` ` ` ) ) ) ) ) ` ` ` | | | | | | | ` ` ) ) ) S S Z Z m m b b b b b b m b b m b m b b b b b b b b b b b b b b b b b b b b b b b b b 0 b 0 b 0 0 b 0 0 0 0 b 0 b b b b b b b b b b 0 b b 0 0 b b b b b b b b b b b b b b b b b b b b b 0 0 8 2 < % X X   X . . O * = 5 5 e t F H  .a.l.z.Z.Z.F.F.F.H.H.H.H.H.J.J.K.K.K.K.K.K.K.K.K.K.J.J.H.F.V.V.z.k.s.p.s.p.p.p.s.p.s.s.s.p.s.s.p.s.s.s.k.k.k.z.z.V.V.V.V.V.V.V.V.z.z.z.k.k.s.p.p...........p.p.p.s.p.p.p.s.p.s.s.p.p.p.p.p...p.p.....p.p.p.p.s.s.p.p.p.......| | | | ..| ....| ....| | | ` ` ) ) ) ) S S S S S Z Z Z Z m m b 0 0 8 2 < % # X X   . . o @ * ; 5 e t F _  .a.k.z.z.V.z.z.s.s.p.p.p.p.s.s.s.k.k.z.z.z.z.V.V.z.z.z.k.s.p...` ) ) S S Z S S S S S S S S S S S S Z m b 8 2 % # X   . o o $ * = 5 ; 5 ; 4 & & & # # % # # X # X # X X X # # X X # X # X X X X X X X X X X X X X X X X X X X X X X X X X X X X X X X X X X X X X X X X X X X   X                       ",
"        X % 2 0 Z ) | p.p.s.s.p.p.....| | ....p.p.p.s.s.p.....| | ) ) ) S S S S S S ) S S ) ) ) ) ) ` ) ) ) ) ) ) S ) S ) ) ) ` ` ` ` | ` ` ) ) ) S S Z Z m m b b b 0 0 0 0 0 0 0 0 0 0 0 0 0 0 0 0 0 0 0 0 0 0 0 0 b 0 b 0 0 0 0 0 0 0 0 0 0 0 0 0 0 0 0 0 0 0 0 0 0 0 0 0 0 0 0 0 0 0 0 0 0 0 0 0 0 0 0 0 0 0 0 0 0 0 0 0 0 0 0 0 0 0 0 0 0 0 8 2 2 % % X X X     o O + * ; 5 e t F _  .a.k.V.V.Z.F.F.F.H.H.H.H.J.H.J.J.J.J.J.K.K.K.J.K.J.J.J.H.F.V.V.z.s.s.s.p.p.s.s.p.s.p.p.p.s.p.p.s.s.s.s.s.k.z.z.z.V.V.V.V.V.V.V.V.V.V.z.k.k.s.s.p.p.p.p.p.p.p.p.p.p.s.s.s.p.s.p.p.s.p.p.p.p.p.......p.p.p.p.p.p.p.p.p.p.....| | | | | | | ........| ..| | ` ` ` ) ) S ) S S S S S Z Z m m m b b 0 8 2 < % X X       . O @ = 5 5 e t F ]  .d.l.z.z.z.z.k.k.s.p.p.p.p.s.s.k.k.k.k.z.z.z.z.z.V.V.z.k.s.p...| ` ) S S S S Z S Z Z S S S S S S S Z m b 8 2 % # X     o o * - ; ; 5 ; - = $ $ X X X   X     X X X X       X       X         X X X     X   X     X       X       X       X         X   X       X                                       ",
"        X % 2 0 m S ` | ......| | ` ` ` ` ` ` | ..........| ` ` ) S Z Z Z Z Z Z Z Z Z Z Z Z S S S S S S S S Z S Z Z Z Z Z S S S ) ) ) ) ) ) S S S Z Z m m b b 0 0 8 8 8 8 8 8 8 8 8 8 8 8 8 8 8 8 8 8 8 8 8 8 8 8 8 8 8 8 8 8 8 8 8 8 8 8 0 8 8 0 8 0 8 8 8 8 0 8 8 8 8 8 8 8 8 8 8 8 8 8 8 8 8 8 8 8 8 8 8 8 8 8 8 8 8 8 8 8 8 8 8 8 8 0 8 8 8 2 2 < % # X X     . o o + = ; 5 e t F ]  .a.l.V.V.F.F.F.F.H.H.H.H.J.H.J.H.J.J.J.J.J.J.J.J.J.J.H.F.F.Z.V.z.k.s.s.s.s.p.p.s.p.p.s.s.p.p.s.p.s.s.s.k.k.k.z.z.V.V.V.V.V.Z.Z.V.V.z.z.z.k.k.s.s.p.p.p.p.p.p.p.p.s.p.s.p.s.p.s.s.p.s.p.p.p.p.p.p.p.p...p.p.p.p.p.........| | | | ` | | | ........| ..| | ` ` ) ) ) ) S ) S S Z Z Z m Z m m b b 0 8 2 % % X X     . . o + * ; 5 7 B F ]  .a.l.z.V.z.z.k.k.s.p.p.p.s.s.s.s.k.z.z.z.V.V.V.V.V.z.z.k.s.p...| ` ` ) ) S S S S S S S S S S S S Z Z m b 0 < % # X       o * = = ; ; ; - = + o . .                     .     .                               .     .                                                   .             X                 ",
"        X # < 2 0 m S ) ) ` ) ) ) S S S S S S ) ) ) ` ) ) ) S S Z m m b b b b b b b b m m b m m m m m Z m m m b m b m b m m Z Z Z Z S Z Z Z m Z m m b b 0 0 8 8 2 2 2 2 2 < 2 2 2 2 2 2 2 2 2 2 2 2 2 2 2 2 2 2 2 2 2 2 2 2 2 2 2 2 2 2 2 2 2 2 2 2 2 2 2 2 2 2 2 2 2 2 2 2 2 2 2 2 2 2 2 2 2 2 2 2 2 2 2 2 2 2 2 2 2 2 2 2 2 2 2 2 2 2 2 2 2 2 2 < < # X X X       . o * = 5 5 e t F ]  .d.k.z.Z.Z.F.F.H.F.H.H.J.H.H.J.H.J.H.H.H.H.J.J.J.H.H.H.F.Z.Z.z.z.k.k.s.s.p.s.s.p.s.s.p.s.p.p.s.p.p.s.s.s.k.k.z.z.V.V.V.Z.V.V.V.V.V.V.V.z.k.k.s.s.s.p.p.p.s.p.s.s.p.s.s.p.s.s.s.p.s.p.s.p.p.p.p.p.p.p.p...p.............| | ` ` ` ` | ` | | | | ....| | | ` ` ) ) ) ) ) S S S S S Z Z Z m m b b 8 8 2 < % X X X     . O + * ; 5 e t V ] o.d.k.z.z.V.z.z.k.s.s.s.s.s.s.k.k.z.z.z.z.z.z.V.V.V.V.z.k.k.s.p...| | ` ) ) ) S S S Z Z Z S S S S S Z m b 8 2 % # X     o o * * - 5 ; ; ; * * o . . . . . . . . . . . . .   . . . . . . o . . . . . . . .   . . o   o   . . . . . . . . . . . . . . . . . . . . . . . . .   . . . . . . .   . . .   . . ",
"        X X % < 8 0 m m Z Z Z m m m b m b b m m m Z Z Z Z m m b b 0 0 8 8 8 8 8 8 0 8 8 8 0 0 0 0 0 0 0 0 0 0 0 0 8 8 0 0 0 0 0 b b b b b b b 0 0 8 8 8 8 2 2 < < < % < % < % < < < % < < % % < % < < < < < < % < < % < % < < < % < < < < < < < < < 2 < < < < < < < % < < < % % < < % < < % < % % < < % < % < % < < < < % < < < % < < < < < < < % % # # X X       . . o * * ; 5 e B F ]  .a.k.z.V.F.F.F.H.H.H.H.H.H.H.H.H.H.H.H.H.H.H.H.H.H.F.F.F.Z.Z.z.z.k.k.s.s.s.s.s.p.s.p.s.p.p.p.s.p.s.p.s.k.k.z.z.z.V.V.Z.V.V.Z.V.V.V.V.V.z.z.z.k.s.s.s.s.s.s.s.s.s.s.s.p.s.s.p.s.p.s.s.p.s.p.p.s.p.s.p.p.p.........| | | ` ` ` ` ` ` ` | | | ..........| | ` ` ) ) ) ) S ) S S S Z Z Z m m m b b 0 8 < < % X X       . o * = ; 5 e B F _  .a.k.z.V.z.V.z.k.k.s.s.s.k.k.k.k.z.z.z.z.V.V.V.z.V.z.z.z.k.s.s.p.....| ` ` ) ) S S S S S S S S S S Z m b 8 2 % # X   o X o $ = ; ; > ; ; = @ O O O . O O . . . O . . . . . . O . . O . O . . . O . . o O o o o o o o o o o . o . . . . . O O . . . O . . . . . . o o . . . . O o . O o . o o o o o o o ",
"        X X # % < 2 8 0 0 0 0 0 0 8 8 8 8 0 0 0 0 0 0 b 0 0 8 8 2 2 2 < < < < 2 < < 2 < 2 < 2 2 2 2 8 2 2 2 2 < 2 < 2 2 2 2 8 8 8 8 8 8 8 2 2 2 2 2 < < < < % % % # % # # # # # # # # # # % # # % # # # # # % # # # # # # # # # # % # # % % % % % < % % % % # % # % # # # # # % # # # # # % # % % # % # # % % # # # # # # # # # % # # % # % # # # # X X X X       . o O * = ; 5 e t V ]  .d.k.V.Z.Z.F.H.F.H.H.H.H.H.H.H.H.F.F.F.F.F.F.F.F.F.F.F.Z.Z.V.z.z.z.k.k.s.s.s.s.s.s.s.p.s.p.p.p.s.p.s.s.s.k.k.z.z.V.V.V.V.Z.V.V.V.V.V.V.z.z.z.k.k.k.k.k.s.s.s.s.p.s.s.p.p.s.s.p.s.p.p.s.s.s.s.s.s.s.p.p.p.......| | | ` ` ` ` ` ` ` ` ` | | ........| | | ` ` ` ) ) ) S S S S S S Z Z Z m m b b 0 8 2 < % # X     . o O + * = 5 7 t V ]  .a.k.z.z.V.V.z.z.k.k.k.k.k.k.z.z.z.z.V.z.V.z.V.V.z.z.z.z.k.k.s.s.p.p.....` ` ) ) S S Z S S S S S S S Z b 8 2 < # X     o o * = ; 5 ; ; ; = = * @ O O O O O O o O + O O O O + O O O O + + O O O + O + O + * + + $ + @ + + + + O @ + O O O O O O O o O + + + + O + O O O O O + O O O + + + @ O + O + @ O ",
"          X X # % % < < < 2 2 < < < < < < < < < 2 2 2 2 2 < < < < % % % % % % % % % % % % % % % % % < % % % % % % % % % % % < < % < < < < < < % % % % % # # # # # X X X X X # X X X X X X # X X X X X X # X X X X # X X # X X X # X X # # # # # # # # # # # X X # X # X X # X X X X # X X X X X X X # X X X # X X # X X # X # X X # X # # X X # X X X X         X . . + @ * ; 5 e B F ]  .a.l.V.V.Z.F.F.H.H.H.H.H.H.H.F.F.F.F.F.Z.F.F.Z.F.F.Z.Z.Z.V.V.V.z.z.k.k.k.s.s.s.s.p.p.s.p.p.p.s.p.s.s.s.s.k.k.z.z.z.V.V.Z.V.Z.V.V.V.V.V.V.z.z.z.z.z.k.k.k.k.s.s.s.s.p.s.p.s.p.s.p.s.s.s.s.s.s.s.s.s.s.p.p.....| | ` ` ` ` ` ` ` ` ` ` ` | | | ........| | ` ` ) ) ) ) ) ) S S S Z Z Z Z m b b b 0 8 2 < # # X X   . . O + * ; 5 e t F ]  .d.k.z.V.V.V.V.z.z.k.z.z.z.z.z.z.V.V.z.z.V.z.V.z.z.z.z.z.k.z.k.k.s.s.p.p.| | ` ) S S Z Z S S ) ) S S m b 8 2 % # X X   o o o * ; ; ; > > ; = = = @ @ @ + @ @ @ @ @ * @ @ @ @ @ * * @ @ @ @ @ @ @ @ * * * * * * = - * * * * * @ @ @ @ @ @ = @ @ @ @ @ @ @ @ * @ @ @ * @ @ @ = @ * * @ * * * * * * * * * ",
"          X X X # # # % % % % % % # # # % # % % # % % % % % % # # # # # X # # X X # # X # # # # # # # # # # # # # # # # # # # # # # # % # # # # # # # # X # X X X X X X X X X X X X X X X X X X X X X X X X X X X X X X X X X X X X X X X X X X X X X X X X X X X X X X X X X X X X X X X X X X X X X X X X X X X X X X X X X X X X X X X X X X X X X               o o * ; ; 5 7 t F ]  .a.l.z.Z.Z.F.F.F.H.H.H.H.H.F.F.F.Z.Z.Z.Z.Z.Z.Z.Z.Z.Z.Z.V.V.V.z.z.k.k.k.k.k.s.s.s.s.s.p.s.s.p.p.p.p.s.s.k.k.k.z.V.V.V.V.V.V.V.V.V.V.V.V.V.V.V.z.z.z.z.k.k.k.s.s.s.s.s.p.s.p.s.p.s.p.s.s.s.k.s.k.s.k.s.p.p...| | ` ` ` ) ) ) ) ) ) ) ` | | | | ....| ..| | ` ` ` ) ) ) S S S S Z S Z m Z m m b b 0 8 2 % % # X       . . * * ; 5 e t V ]  .a.l.z.V.V.V.V.V.V.z.z.z.z.z.z.V.z.V.V.V.z.V.V.z.z.z.z.k.z.z.z.z.k.k.s.p.p.| ` ) ) S S S S S S ) S S Z m 0 2 < # X     . o * - ; ; y ; > ; > ; = = = = = = = ; = = = ; * ; = = = ; * = ; = ; = ; = = ; ; ; - ; = ; ; ; = ; ; * ; = ; = = = = = = ; = ; = = = = = = = ; * ; = = = ; = = ; = = = = ; = = ",
"        X X X X X X # # # # # # # # # X # # # # # # # X # # # # # X X # X # X X X X X # X # X X # X X # X # X X X X X # X # X X # # X # X # X X X X # X X X X X X X X X X X X X X X X X X X X X X X X X X X X X X X X X X X X X X X X X X X     X   X   X   X X X X X X X X X X X X X X X X X X X X X X X X X X X X X X X X X X X X X X X X X X X X X X X     X   . o o * * ; 5 e t V _  .a.k.V.Z.Z.F.F.H.H.H.H.H.F.F.F.Z.Z.Z.V.V.Z.V.Z.V.Z.V.Z.V.V.V.z.z.z.k.k.k.s.s.s.s.s.s.s.s.p.s.p.s.s.s.s.k.k.z.z.V.z.V.V.Z.V.Z.V.V.V.V.V.V.V.V.V.V.z.z.z.k.k.k.s.s.s.s.p.p.p.p.s.p.s.s.s.s.k.k.k.k.s.s.s.p...| ` ` ` ) ` ) ) ) ) ` ` ` ` | | | ..| ..| | | ` ` ) ) ) ) ) S S S Z S Z Z m m m b 0 0 8 2 < % X X X X . . O + * ; 5 e B V _  .a.k.z.V.V.Z.V.V.V.V.V.V.z.V.V.V.z.V.z.V.V.z.z.z.z.z.z.z.z.z.z.z.z.z.k.s.p...| ` ) S S S S S ) ) S S Z m 0 2 % # X X   . o * = ; ; y y y 5 y 5 5 5 ; 5 ; 5 ; ; 5 5 5 ; ; 5 ; 5 5 ; 5 ; ; 5 5 5 ; ; 5 ; ; ; ; ; ; ; ; 5 ; ; 5 5 ; 5 ; 5 5 ; 5 ; 5 5 ; 5 ; 5 ; 5 5 5 ; 5 5 5 ; 5 ; 5 5 ; 5 ; 5 5 5 ; 5 5 ",
"X X X X X # X X # # # # # # # # # # # # # # # # # # # # # # # # # # # # # # # # # # # # # # # # # # # # # # # # # # # # # # # # # # # # # # # # # # # # # # # # # X X # X # X # X # # X # # X # X # # X X # X # X # X X X # X # X # X X X X X           X X X X # X # # X # # X # # X # # X # # X # X # X # X # X X X # X # # X # # X # X X X # X X X X X X X X # X o $ * - ; 4 7 t V _ | a.k.z.V.F.F.F.F.F.H.F.H.F.F.Z.Z.Z.Z.V.V.V.V.V.V.V.V.V.V.V.z.z.z.k.z.k.k.k.k.s.s.s.p.s.p.s.p.s.p.s.s.s.k.k.k.z.z.V.V.V.V.V.V.V.V.V.V.V.V.V.V.V.V.V.V.z.z.k.k.s.s.s.p.s.p.s.s.p.s.s.s.s.k.k.k.k.k.k.s.s.p.....| ` ) ` ) ) ) ) ) ` ) ` ` ` | | ..| | | | ` ` ` ) ) ) S S S S S Z Z Z Z m m m b b 0 8 2 < % X X       . o * = ; 7 7 t V ]  .a.l.z.V.V.V.Z.V.V.V.V.V.V.V.V.V.V.V.V.V.z.V.z.z.z.z.z.z.z.z.z.V.z.z.z.s.s.p.| ` ) S S S S ) ) ) ) S Z b 0 2 < # X X . o o o * ; ; ; 5 5 i 5 5 5 7 7 5 7 7 7 7 5 7 7 7 7 7 7 5 7 7 7 7 7 5 5 7 7 7 5 7 5 5 5 5 ; 5 ; 5 5 5 5 7 7 7 7 7 7 7 7 7 7 7 7 7 7 7 7 7 7 7 7 7 7 7 7 7 7 7 7 7 e 5 7 7 7 7 7 7 ",
"% % % % % % % % % % < < % < < % % < < % % % % % % % % % % % % % < % % % % % % % % % % % % % % % % % % % % % % % % % % % % % % % % % % % % % % % % % % % % % % % % % < % % < % % < % % % % % % % % % % % % % % % % % % < % < % % % % # # X X X       X X X # # % % % < % < % < % % % % % % < % % < % % % % < % % % % % % % % % % % % % % % % % % % % % % % # % % & & $ $ - * - 5 6 r V D  .a.k.V.Z.Z.F.F.F.H.H.H.F.F.F.Z.Z.V.V.V.V.V.V.V.V.V.V.V.z.z.z.z.z.k.k.k.k.k.s.s.k.s.s.s.s.s.s.s.s.s.k.k.k.k.z.z.V.V.V.V.V.Z.V.V.V.V.V.V.Z.V.Z.V.V.V.V.z.z.k.k.s.s.p.p.p.p.s.p.s.s.s.s.k.k.k.k.k.k.k.k.s.p...| | ` ` ) ) ` ) ) ` ` ` ` ` ` | | | | | | ` ` ` ` ) ) S S S S S Z Z Z Z m m m b b 0 0 8 2 < # # X     . . o + = ; 5 e t V ] ' p.d.z.V.V.Z.V.Z.V.V.V.V.V.V.V.V.V.V.V.V.z.z.z.z.z.z.z.z.z.V.V.V.V.z.z.k.s.....` ` ) S S ) ) ) ) ) S Z m 0 2 < # X       o * * ; 5 y y i 5 7 e e e t e t e t e e t e t t e e e t t e t t t t t t e e e 7 7 5 ; ; 5 5 5 7 7 e e t t t t t t t t t t t t t t t t t t t t t t t t t t t t t t t t t t t t ",
"8 2 8 8 2 8 8 8 8 8 8 8 8 8 8 8 8 2 8 8 8 2 8 8 2 8 2 2 2 2 8 8 2 2 8 8 8 2 8 8 8 2 2 2 2 2 2 2 2 2 2 2 2 2 2 2 8 2 2 2 2 2 2 2 8 2 2 2 8 2 2 2 2 8 2 2 2 8 8 8 8 8 8 8 2 8 8 8 2 2 8 2 2 2 8 8 8 2 8 2 8 2 8 2 8 2 8 2 2 8 8 8 2 2 2 < % # X X     X X # % < 2 2 8 8 8 8 8 8 8 8 8 8 8 8 8 8 8 8 8 8 8 8 2 2 8 8 2 8 2 2 8 2 2 2 2 2 2 2 2 2 2 2 2 2 2 2 2 2 2 2 < 1 & & $ - 4 6 w M D ' p.d.z.V.Z.F.F.H.F.F.H.F.F.F.Z.Z.V.V.z.z.V.z.V.V.V.V.z.z.V.z.z.z.k.k.k.s.k.s.k.s.s.s.s.s.k.s.s.k.s.k.k.k.z.z.z.V.z.V.V.V.V.V.V.V.V.V.Z.V.V.V.V.V.V.V.z.z.k.k.s.s.p.s.p.s.p.s.s.s.s.s.k.k.k.z.z.z.k.k.s.p.p...| ` ` ` ` ` ` ` ` ` ` | ` | ` | | | | ` ` ` ) ) ) ) S S S S Z Z Z m Z m m m m b b 0 8 2 % % # X X     o O + * ; 5 7 t F H  .a.l.z.V.V.V.Z.Z.V.V.V.V.V.V.V.V.V.V.z.V.V.z.V.V.z.z.z.z.V.V.V.V.V.V.z.k.s.p...| ) ) ) ) S ) ) ) ) ) Z m 0 2 < # X     o o o * ; 5 5 5 7 f t B B C C C C V N C N C N N C V N C C C N N C N C C N N t r w 6 4 5 4 - 5 4 w w t B C V F F F G C G V V G V G V G F V G F C C F C G F V G V V G C G G V V V ",
"b b m b b m b m m m m m m m m m m m b m b b b b b b b b b b b b m b b m b m b b b b b b b 0 b b b b b 0 b b b b b b b b b b b b b b b 0 b b b b b b b b b m m b m m m m b m b m m b m b b b b b b b b b b b b b b b b m b m m b b b 0 8 < % # X X X X # % 2 8 0 b m m m m m m m b m m m m b m m m b m b b m b b b b b b b b b b b b b b b b 0 b 0 b 0 b b 0 b 0 0 8 8 1 & & & - 1 9 n D ` a.l.z.Z.Z.F.F.F.F.F.F.F.F.Z.Z.V.V.z.z.z.V.z.V.z.V.V.z.V.z.z.z.k.k.k.k.s.k.k.s.k.s.s.k.k.s.k.k.k.k.k.z.z.z.z.z.V.V.V.V.V.V.V.V.V.V.V.V.V.Z.V.V.V.V.V.z.z.k.k.s.s.p.p.p.p.s.s.s.k.s.k.k.k.z.z.k.z.k.k.s.p.p...| | ` ` ` ` ` | ` ` ` | ` | ` ` ` ` ` ` ) ) ) ) ) S S S Z Z Z Z m m m m m m b b 0 0 8 2 < % # X X   . . O * = = 5 e t V _ ' a.s.z.z.V.V.V.V.Z.V.V.V.V.V.V.V.V.V.z.z.z.V.z.z.V.z.z.V.z.V.V.V.z.z.z.k.s.p...| ` ) ) ) ) ) ` ) ) S Z m 0 8 % # X     o o + * = ; 5 7 e t B N V F H H H H H H H H H H H H H H H H H H ] H H H H H F N r w 6 - - - 4 4 w N V H H ] ] { ] { { ] ] ] { ] ] ] ] ] ] ] ] ] ] { { ] ] ] { ] ] ] { ] ] ] ] ] ",
"S S S S S S ) ) ) ) ` ) ) ) ) ) ) ) ) ) S ) S S S S S S S S S S S ) ) S ) S ) S S S S S S S Z S S S S S S S S S S S S S S S S S S S S S S S S S S S S S S S S ) ) S ) S ) S ) S S S S S S S S S S S S S S S S S S S S S S S S ) S Z m 0 8 2 % # X X X % < 8 b m Z ) ) ) ) ) ) ) ) ) ) ) ) ) ) ) ) ) ) ) ) S S S S S S S S S S S S S Z S Z S Z Z Z S S Z S S Z Z m n 0 3 1 & & & 1 3 n Z ` ..k.V.V.Z.F.F.F.F.F.F.F.Z.Z.V.V.V.V.z.z.z.V.z.V.V.V.V.z.z.z.k.k.k.s.s.s.s.s.s.s.k.k.k.k.k.k.k.k.k.z.z.z.z.z.V.V.V.V.V.V.V.V.V.V.V.V.Z.V.V.V.Z.V.V.V.z.k.k.s.s.p.p.p.p.p.s.s.s.k.k.k.k.k.z.z.z.z.z.k.s.s.p...| | | | ` | ` | | | | | | ` | ` ` ` ` ) ) ) ) ) S S S S Z Z m m m m b m b b b b b 0 8 2 < # # X       . o + * ; 5 7 t V D | X.d.z.z.V.Z.Z.V.V.V.V.V.V.V.V.z.V.z.V.z.V.z.V.z.V.V.V.V.V.V.V.V.V.z.z.k.s.p...| ` ` ) ) ` ) ` ) ) ) Z m 0 2 % # X     . o + * ; 5 5 i t C F F H ' ' ' ' ' ' ' ' { ' ' ' ' '  .{ ' { ' {  .'  .{ _ D F n 9 3 & - & 1 6 9 M A ' o. .X.+.X.+.X.+. .+.X. .+.+.+.X.X.+.X.+. .+. .+. .+.+. . .+.X. .+. .+. .",
"| | | | | | ............p.p...p.............| | | | | | ` | | | ....| ......| | | | | | ` | | | ` | | | ` | | | ` | | | ` | ` | ` | | | ` | ` | | | | | | | | | ............| | | | | | | | | | | | | | | | | | | | | | ..| | | | ` ) Z b 8 < # X X # < 8 b Z ) | | ....p...........................| ..| | | | ` | | | | | | ` | ` | ` ` ` ` ` ` ` ` ` ` ` ` ) S Z n 8 2 & # & & 3 q A _ p.s.z.Z.Z.F.F.F.F.F.F.Z.Z.Z.V.V.z.z.z.z.V.z.V.V.z.V.z.V.z.z.k.k.s.s.s.s.k.s.k.s.k.k.k.k.k.z.z.z.z.z.z.z.z.V.V.V.V.V.V.V.Z.V.Z.V.V.V.V.V.Z.Z.V.V.V.V.z.k.k.s.s.p.p.p.p.p.s.s.k.k.k.z.k.k.z.z.z.k.k.k.s.s.p.p.....| | | | | | | ..| | ` ` ` ) ) ) ) ) ) ) S S S S Z Z Z Z m m m m b b b b b b 0 8 8 2 < # # X     . . o * * ; 5 7 t V H  .X.d.k.z.V.V.V.V.V.V.Z.V.V.V.V.V.z.V.z.z.z.z.V.z.V.V.V.z.V.V.z.z.V.z.z.k.s.p...| ` ` ` ` ` ) ) ` ) ) Z m 0 2 < # X     . . + * ; ; 5 e t C F ]  . .X.a.a.a.X.a.a.X.a.X.X.X.a.X.X.a.X.a.a.a.a.a.X. ._ D M q 3 1 & & 1 3 n A _  .a.d.l.l.l.l.l.d.l.d.d.d.l.l.d.d.l.l.d.d.l.d.l.l.l.d.d.d.l.d.d.d.l.l.d.d.",
"p.s.p.p.s.s.s.s.k.k.k.z.k.z.k.k.k.k.s.s.s.s.s.s.s.p.p.p.p.s.s.s.s.s.s.k.s.s.s.s.s.p.p.p.p.p.p.p.p.p.p.p.p.p.p.p.p.p.p.p.p.s.p.s.p.p.p.s.p.s.p.p.p.p.p.p.s.s.s.k.s.s.s.k.s.s.s.s.s.s.p.p.s.p.p.p.p.p.p.s.p.p.p.s.p.s.p.s.s.s.s.s.p...` ) m 8 < % X X % 2 0 m ) | p.s.k.k.k.k.k.k.k.s.s.k.k.s.k.s.k.s.s.s.s.s.p.s.p.p.p.p.p.p.s.p.p.p.p.p...p.p.........p...p.....` _ Z b 2 1 $ # % 3 0 Z ) ..k.z.V.Z.Z.F.F.F.Z.F.F.Z.Z.V.V.V.z.z.z.z.z.z.V.V.V.V.z.z.k.k.k.s.k.s.s.s.s.k.k.k.k.k.k.z.z.z.z.z.z.V.V.V.V.V.V.V.V.V.V.V.V.V.V.V.V.V.V.V.V.V.V.V.V.z.k.k.s.p.p...p.p.p.s.s.s.k.k.k.z.z.z.k.z.z.k.k.k.s.p.p.....| ..| ........| | | ` ` ` ) ) ) S S S S S S S S S Z Z m m m b b b b b b b b 0 0 8 2 < % X X X     . o * * ; 5 e t V H ' X.s.k.z.V.V.V.V.V.V.V.V.V.z.V.z.z.z.z.z.z.V.z.V.z.V.z.V.V.V.V.z.z.z.k.k.s.p.....| ` ` ` ) ` ` ) ) S Z b 0 2 < # X   o . o + * = 5 7 t B G ] ' X.a.s.d.d.k.l.s.d.d.s.d.d.s.d.s.d.s.d.k.l.l.k.d.d.p...) M 0 3 % # # 1 8 b D | a.k.x.A.V.A.V.A.z.V.C.V.C.V.x.V.C.V.x.V.C.V.C.V.x.V.C.V.C.V.C.V.C.V.x.V.C.",
"k.k.z.k.z.z.z.V.V.V.Z.Z.Z.Z.Z.Z.V.V.V.V.V.z.z.z.z.k.k.z.z.k.z.z.z.z.V.z.V.z.z.z.z.z.z.k.k.k.k.k.k.k.k.k.z.k.k.k.z.k.k.z.k.z.k.k.k.k.k.k.k.k.k.k.k.k.k.k.z.z.z.z.z.V.V.z.z.z.z.k.z.k.k.k.k.k.k.k.k.k.k.k.k.k.z.k.k.k.z.k.z.z.z.z.k.s...` Z 0 2 % # # % 2 b S ` p.k.z.V.V.Z.V.V.V.V.z.V.V.z.V.z.V.z.z.z.z.z.z.z.k.z.k.k.k.z.k.k.z.k.k.k.k.s.s.s.s.s.s.s.k.k.s.s.p...` S b 8 < & # # < 0 Z ) ..s.z.V.Z.Z.F.F.F.Z.F.Z.Z.Z.V.V.V.z.z.z.z.z.V.V.V.V.z.z.z.z.k.k.s.s.s.s.k.k.k.k.k.z.z.z.z.z.z.V.V.z.V.V.V.V.V.V.V.Z.V.V.V.V.V.V.V.V.V.V.V.V.V.V.V.z.z.z.k.s.p.p...p.p.p.s.s.k.k.k.k.k.k.z.z.k.k.k.k.s.s.p.p.p.......| ......| ..| | ` ` ) ) S S S S S S S Z S S Z Z m m m m b b b b b b b b b 0 8 2 < % # X X   . . o * = ; 5 e t N ] ' X.s.k.k.z.z.V.V.V.V.V.V.z.V.z.z.z.z.z.z.z.z.z.V.z.V.V.V.z.z.z.z.z.z.k.s.s.p.p...| | ` ` ` ` ) ` ) S Z b 0 2 < # X     . O O * = 5 5 t C F '  .a.l.k.x.z.z.z.z.k.z.x.k.z.z.x.k.k.z.k.x.z.z.x.z.k.s.X.` Z 0 3 % # # 1 8 m _ ..k.C.Z.F.F.G.F.F.Z.G.Z.Z.Z.A.F.Z.Z.G.Z.Z.Z.A.F.Z.Z.G.Z.F.Z.A.Z.Z.F.G.Z.F.Z.",
"V.V.V.V.V.V.Z.Z.Z.F.F.F.F.F.F.F.F.Z.Z.Z.Z.V.V.V.V.V.V.V.V.V.V.V.Z.V.Z.Z.Z.Z.Z.V.V.V.V.V.V.V.V.V.V.V.V.V.V.V.V.V.V.z.V.z.V.z.V.z.V.z.V.z.V.z.V.V.V.V.V.V.V.V.Z.Z.Z.V.Z.Z.Z.V.V.V.z.z.V.z.z.V.z.V.V.V.V.V.V.V.z.V.V.V.z.V.V.V.V.z.z.k.p.` S b 2 % # # % 8 b S | s.z.Z.Z.F.F.F.Z.Z.Z.Z.Z.Z.Z.Z.Z.Z.Z.Z.Z.Z.V.Z.V.V.V.V.V.V.V.V.V.V.V.V.z.z.z.z.k.k.k.k.k.z.z.z.z.k.s.| S m 8 < # # % < 8 M ) ..k.z.Z.Z.Z.F.Z.F.Z.Z.Z.Z.V.V.z.z.z.z.z.z.V.z.z.V.V.V.V.z.z.k.k.k.k.s.k.s.k.k.k.k.k.z.z.z.V.z.V.z.V.V.V.V.V.V.V.V.V.V.V.V.V.V.Z.V.V.V.Z.V.V.Z.V.V.V.z.k.k.s.p.p.p.p...p.p.s.s.s.k.k.k.k.k.k.k.k.k.k.s.s.p.p.............| ..| | | ` ` ) ) ) S Z S Z Z Z S Z S Z S Z Z Z m m b b b b b b b 0 0 0 8 2 < # # X       . O @ * ; 5 e r N H ' ..s.k.z.V.V.V.V.V.z.V.V.V.z.z.z.z.k.k.k.z.z.z.z.z.z.z.z.z.z.z.z.k.k.k.s.p.p.....| ` | ` ` ` ` ` ) S Z m 0 2 < # X   . . o O * ; 5 7 t N H ' X.d.k.V.V.V.Z.V.V.V.V.V.V.z.z.V.z.z.V.z.V.V.V.V.V.z.k.p.` S b 2 % # # < 8 m ) ..z.Z.F.H.J.J.H.H.H.H.H.H.H.H.F.H.F.F.F.H.F.H.F.H.H.H.H.F.H.H.H.H.H.H.F.H.H.",
"Z.Z.Z.Z.Z.Z.F.F.F.H.H.H.H.H.H.F.F.F.F.F.Z.Z.Z.Z.V.V.V.V.V.V.Z.Z.Z.Z.Z.F.Z.F.F.Z.Z.Z.Z.Z.Z.Z.Z.Z.Z.Z.Z.Z.V.Z.Z.V.V.V.V.Z.V.V.V.V.V.V.V.V.V.V.V.V.V.V.V.Z.Z.Z.Z.Z.Z.Z.Z.Z.Z.V.Z.V.V.V.V.z.V.V.V.V.V.V.V.V.V.V.V.V.V.V.V.V.V.V.V.V.z.k.p.| S b 2 % # # < 2 b ) ..k.V.Z.F.H.H.H.F.F.F.F.F.F.Z.Z.Z.F.Z.F.Z.Z.Z.Z.Z.Z.Z.Z.Z.Z.Z.Z.Z.Z.Z.V.V.V.z.z.z.k.k.k.z.V.V.V.z.z.s...` Z 0 < % # # < 8 m ) ..s.z.V.Z.Z.F.F.Z.Z.Z.Z.Z.V.V.V.z.z.z.z.V.V.z.V.V.V.V.V.z.z.z.k.k.k.k.k.k.k.k.z.z.z.z.z.z.V.z.V.V.V.V.V.V.V.V.V.V.V.V.V.V.V.V.V.V.V.V.V.V.V.V.V.V.V.z.k.k.s.s.p.p.p.p.p.p.p.s.s.s.s.k.s.k.s.k.k.s.s.s.s.p.p.p.........| | | | | ` ` ) ) S S S Z Z Z Z Z S S S Z Z Z Z m m m b m b b b b b b 0 0 8 2 < % # X     . . o + = ; 5 7 t V H ' X.a.k.k.z.V.V.V.V.V.z.z.z.z.z.k.k.k.k.k.k.k.k.k.z.z.z.z.z.k.z.k.k.k.s.s.s.p.....| | ` ` ` ` ` ) ) S Z b 0 2 % # X     . . + * = 5 5 t C ] ' a.k.z.V.Z.Z.Z.Z.Z.Z.V.V.Z.V.V.V.V.V.V.V.V.V.V.V.z.z.k.p.` Z b 2 % # % < 8 m ` p.z.Z.H.J.J.K.J.J.J.H.H.H.H.H.H.H.H.H.H.H.H.H.H.H.H.H.H.H.H.H.H.H.H.H.J.J.H.",
"F.Z.F.F.F.F.F.H.H.H.H.H.H.H.H.H.H.F.F.F.Z.F.Z.Z.Z.Z.V.Z.V.Z.Z.Z.Z.F.Z.F.F.F.F.F.F.F.F.F.Z.F.F.F.Z.Z.Z.Z.Z.Z.Z.Z.Z.Z.V.Z.Z.V.V.V.V.V.z.V.V.V.V.V.V.Z.Z.Z.Z.Z.F.Z.F.F.F.Z.Z.Z.V.V.V.z.z.V.z.V.V.V.Z.Z.Z.Z.Z.Z.V.Z.V.V.V.Z.V.V.V.V.z.s.p.` Z 0 2 % # # % 8 b ) ..k.Z.F.H.H.H.H.H.H.F.F.F.F.F.F.F.Z.Z.Z.Z.Z.Z.Z.F.F.F.F.F.F.F.F.F.Z.F.Z.Z.V.V.z.k.z.z.z.z.V.V.Z.V.V.z.p.` Z 0 < % # % < 8 m ) ..k.z.V.Z.Z.Z.Z.Z.Z.V.V.V.V.V.V.V.z.z.z.z.z.V.V.V.V.z.V.V.z.z.z.z.z.z.z.k.z.z.z.z.z.z.V.z.z.V.z.V.z.V.V.V.V.V.V.V.V.V.V.Z.V.V.V.V.V.Z.V.Z.V.Z.V.V.z.z.k.k.s.s.p.p.....p.p.p.p.p.s.p.s.s.s.s.s.s.s.s.p.p.p.p.........| | | | ` ` ) ) ) S Z Z Z Z Z Z Z Z Z Z S S S Z Z Z m m m b b b b b b b 0 8 8 2 < # X X X     o O + * ; 5 e t V D _ X.s.k.z.z.V.z.z.V.z.V.z.z.z.z.k.k.k.k.k.s.k.k.k.k.k.k.k.k.k.k.k.k.s.s.s.p.p.....| | ` | ` ` ` ) ) S Z b 8 2 % # X X   . . O @ = 5 7 t V H ' a.l.z.Z.Z.Z.F.F.Z.Z.Z.Z.Z.V.Z.V.V.V.z.z.z.V.V.V.V.z.s.p.` Z 0 2 % # # < 8 m ` p.z.F.H.J.J.K.K.J.J.J.J.J.J.H.H.H.H.H.H.H.H.H.H.H.H.H.H.J.H.J.J.J.H.J.J.H.J.",
"F.F.F.F.F.F.H.F.H.H.H.H.H.H.H.H.F.F.F.F.F.Z.Z.Z.V.Z.V.Z.V.Z.Z.Z.Z.F.F.Z.F.F.F.F.F.F.F.F.F.F.F.F.F.F.Z.F.F.Z.Z.Z.Z.Z.Z.Z.Z.V.V.V.z.z.V.z.V.V.V.V.Z.Z.Z.Z.Z.Z.Z.F.F.F.Z.Z.Z.V.V.z.z.z.z.z.z.V.V.Z.V.Z.Z.Z.Z.Z.V.V.V.V.V.V.V.V.V.z.k.s...` Z 0 2 % # # < 8 m ) ..k.V.F.H.H.H.H.H.H.F.H.F.F.F.Z.Z.Z.Z.Z.Z.Z.F.F.F.F.F.H.F.H.H.F.F.H.F.Z.Z.V.V.z.z.k.k.z.z.V.V.Z.Z.Z.z.s.| S b 2 % # % < 8 m ) ..k.z.V.Z.Z.Z.Z.Z.Z.Z.V.Z.V.V.z.z.z.V.z.z.V.z.V.V.V.V.V.V.V.V.V.z.V.z.V.z.z.V.z.V.z.z.z.z.V.z.V.V.V.V.z.V.V.V.V.V.V.Z.V.V.V.V.V.V.V.V.Z.V.V.V.V.V.V.z.z.k.s.s.s.p.p.p...p.p...p...p...p.p.p.p.p.p.p.p.p.p.p.........| | ` ` ) ) ) S Z Z Z Z m m Z m Z Z S S S S S Z S Z Z m m m m m m b b b b 0 8 2 < % # X       . o * * - 5 7 t N H ' X.s.k.z.z.V.z.V.z.z.z.z.z.k.k.k.k.s.s.s.s.s.s.s.s.s.s.k.s.s.s.s.s.s.s.p.p.p...| | | ` ` ` ` ) ) S S Z b 0 2 < # X     . . O * ; 5 5 t C H  .a.k.V.V.Z.Z.F.F.Z.Z.Z.Z.Z.Z.V.V.V.z.z.z.z.z.V.z.z.k.s...` Z 0 2 % # % < 8 m ` p.V.F.H.J.K.K.K.J.J.J.J.H.J.H.H.H.H.H.F.H.F.H.H.H.H.J.H.H.J.J.J.H.J.J.J.J.J.",
"F.H.F.H.H.F.H.H.H.H.H.H.H.H.F.F.F.F.Z.F.Z.Z.Z.V.V.V.V.V.V.V.V.V.Z.Z.Z.F.F.F.F.F.F.H.F.H.H.F.F.F.F.F.F.Z.Z.F.F.Z.Z.Z.Z.V.V.V.V.z.z.z.z.z.z.z.z.V.V.V.Z.Z.Z.Z.Z.F.Z.Z.Z.Z.V.V.z.z.k.k.k.k.z.z.z.V.V.Z.Z.V.V.Z.Z.V.V.V.z.V.V.z.z.k.k.p...) m 0 < % # # % 8 b ) ..k.V.F.H.H.H.H.H.F.F.F.F.Z.Z.Z.Z.V.V.Z.Z.Z.Z.Z.F.F.F.F.H.H.H.H.H.F.F.F.Z.V.z.k.k.k.k.k.z.V.Z.Z.Z.Z.z.s.| S 0 2 % # # < 8 m ) ..s.z.V.Z.Z.Z.Z.Z.V.Z.Z.V.V.V.V.V.z.V.V.z.V.V.V.V.V.V.V.V.V.V.Z.V.V.V.V.V.V.V.V.z.z.V.V.z.z.V.z.z.z.z.z.V.z.V.V.V.V.V.V.Z.V.Z.Z.V.V.Z.V.V.Z.V.V.V.V.z.z.k.k.s.s.p.p.............................p...p.p.....p.....| | ` ` ) S S Z Z Z m m m m m m m Z Z Z S S S S S S Z Z Z Z m m m m m b b b 0 8 2 < # # X     . o O + = ; 5 7 t V D ` X.a.k.z.z.z.V.V.z.z.z.z.k.k.k.s.s.s.s.s.p.s.p.p.s.s.p.p.p.s.s.p.s.p.p.p.........| | | ` ` ` ` ) ) S m b 8 < % # X X . . o @ @ = 5 7 t V H  .a.l.z.Z.Z.F.Z.Z.F.F.Z.Z.Z.V.V.z.z.z.k.k.k.k.k.k.k.s.p...) m 0 < % # # < 8 Z ` s.z.F.H.J.K.K.J.J.J.J.H.H.H.H.H.F.F.F.F.F.F.F.F.H.H.H.H.H.H.H.J.J.J.H.J.J.H.",
"H.H.H.H.H.H.F.H.H.F.F.F.F.F.F.F.Z.Z.Z.Z.Z.V.V.V.V.V.z.V.V.V.V.V.V.Z.Z.Z.Z.Z.F.F.F.H.H.H.H.F.H.F.F.F.F.Z.Z.Z.Z.Z.Z.Z.V.V.V.z.z.z.k.k.k.k.z.z.z.V.V.V.V.Z.Z.Z.Z.Z.Z.Z.V.V.z.z.z.k.k.s.s.k.k.k.z.V.V.Z.V.V.V.V.V.V.V.z.z.z.z.k.k.s.s.p.| S m 0 < % # # % 8 m ) ..k.V.F.F.H.H.H.F.F.F.Z.Z.Z.Z.V.V.V.V.V.V.Z.Z.Z.F.H.H.H.H.H.H.H.H.H.F.F.Z.V.z.k.s.s.s.k.z.V.V.Z.Z.Z.V.s.| S b 2 % # % < 8 m ) ..s.z.V.Z.Z.Z.V.Z.V.V.V.V.V.V.V.z.V.V.V.V.V.V.V.V.V.V.V.V.Z.Z.Z.Z.Z.Z.Z.Z.V.V.V.V.V.V.V.z.V.z.z.z.z.z.V.V.V.V.V.V.V.Z.Z.V.V.V.V.Z.V.V.Z.V.Z.V.V.V.V.z.z.k.k.k.s.s.p.p.......| | | | | | ........................| | | ` ) S S Z m m m m m b m m m m m Z S S S S S ) S S S Z Z Z m m m m b b 0 0 8 2 % % X X X   . . O @ * ; 5 7 t V H ' X.a.k.k.z.V.z.z.z.z.z.z.k.k.k.s.s.p.p.p.p.p.......p...p.p.p.p.p.p.p.p...p.....| | ` ` ` ` ` ` ) S Z m b 8 2 % X X     . . O @ ; 5 7 t C ]  .X.l.z.V.Z.F.F.F.Z.Z.Z.Z.V.V.V.z.z.k.k.k.k.s.k.k.s.s...| S m 8 < % # # < 8 m ` p.z.F.H.J.J.J.K.J.J.J.H.H.H.F.F.F.Z.F.Z.F.Z.F.F.F.F.F.H.H.H.H.H.H.H.H.J.J.H.",
"H.H.F.H.F.H.H.H.F.H.F.F.F.Z.F.Z.Z.Z.Z.Z.V.V.V.V.z.z.z.z.z.z.z.V.V.V.V.Z.Z.Z.F.F.F.F.H.F.F.H.F.F.F.F.F.Z.Z.Z.Z.Z.V.Z.V.V.V.z.k.k.k.k.k.k.k.k.z.z.z.V.V.V.Z.V.Z.V.Z.V.V.V.z.k.k.s.p.s.p.s.s.k.k.z.z.V.V.V.V.V.V.z.z.z.k.z.k.k.k.s.p...` S m 8 < # # # % 8 b ) ..s.V.Z.F.H.F.H.F.F.F.Z.Z.Z.Z.V.V.V.V.V.V.V.Z.F.F.F.F.H.H.H.H.H.H.H.F.F.V.z.z.k.s.s.p.s.k.z.Z.Z.F.Z.V.k.| S b 2 % # # < 8 m ) ..k.z.V.Z.Z.Z.Z.V.V.Z.V.V.V.V.V.V.V.V.V.V.z.V.V.V.V.V.Z.Z.Z.Z.Z.F.F.F.F.Z.Z.Z.V.V.V.V.V.z.z.z.z.z.z.z.z.z.z.V.V.V.V.V.V.V.V.V.V.V.V.V.V.V.V.V.V.V.V.z.z.k.k.s.p.p.p.......| | ` | ` ` ` ` | | | | | ..............| ` ) S S Z m m m b b b b b b b m Z Z Z S S ) S S ) S S S Z Z Z m m m m b 0 0 8 2 < % # X X     . . * * ; 5 7 t V H _ X.s.k.z.z.z.z.z.z.z.z.k.k.s.s.s.p.p.p.................| ......p...p...........| | | ` ` ` ) ) ) S S m b 8 2 % X X X . . . + @ = 5 5 t N D ' a.l.x.V.Z.Z.Z.F.F.F.Z.Z.Z.V.z.z.k.k.s.s.s.s.s.s.s.p...` S b 8 < # # # < 0 m ` p.z.Z.H.J.J.J.J.J.H.H.H.H.F.F.F.Z.Z.Z.Z.Z.Z.Z.Z.F.F.F.F.F.H.H.H.H.H.H.H.J.H.",
"H.H.H.H.H.H.F.F.F.F.F.F.Z.Z.Z.Z.Z.V.V.V.V.V.z.z.z.z.z.z.k.z.z.z.z.V.V.V.Z.Z.Z.F.F.F.H.F.H.F.H.F.F.Z.F.Z.Z.Z.Z.V.V.V.V.V.z.z.k.k.s.s.s.s.s.k.k.z.z.V.V.V.V.V.V.Z.V.V.V.z.z.k.s.s.p.p.p.p.s.s.k.k.z.V.V.V.z.V.z.z.z.z.k.k.k.k.s.s.p.| ` Z b 8 < % X # % 2 b ) | k.V.Z.F.H.H.F.F.F.F.Z.Z.Z.V.V.V.z.z.z.V.V.Z.Z.F.H.H.H.H.H.J.H.H.H.F.F.V.V.k.s.p.p.p.s.s.z.V.Z.Z.Z.V.s...S b 2 % # % < 8 m ) ..s.z.V.V.Z.V.Z.V.V.Z.V.Z.V.V.V.V.V.V.V.V.V.V.V.V.V.Z.Z.Z.Z.Z.F.F.H.F.F.F.F.Z.V.V.V.V.V.V.z.z.z.z.z.z.z.z.z.z.V.V.V.V.V.V.V.V.V.V.V.V.V.V.V.V.V.z.V.z.z.k.k.s.s.p.p.....| | | ` ` ` ` ` ` ` | | | | ..| ........| | ` ) S Z m m b b b b 0 b b b b b m Z Z S S ) S ) S S S S Z Z Z m m m m b b 8 8 2 < % # X       . O + * ; 5 e t N H ' ..a.k.k.z.z.V.z.z.z.z.k.k.s.s.p.p.........| | | | | | | | | ..............| | | | ` ` ` ` ) ) S S Z m 0 8 < % # X     . . + = ; 5 7 t N H ' a.l.z.V.Z.Z.Z.F.Z.Z.Z.Z.V.V.z.z.k.s.s.s.s.s.p.p.p...| ` S b 8 < # # # < 8 m ` p.z.Z.H.J.J.J.J.H.H.H.H.F.F.F.Z.Z.Z.V.Z.V.Z.Z.Z.Z.Z.F.F.F.F.H.H.H.H.H.H.H.H.",
"H.H.H.H.H.H.H.H.H.F.F.F.F.Z.Z.V.Z.V.V.V.V.V.z.z.z.z.z.z.z.z.z.z.z.z.V.V.V.V.Z.F.F.F.F.H.F.H.F.F.F.F.Z.Z.Z.Z.V.Z.V.V.V.z.z.k.k.k.s.s.s.s.s.k.k.z.z.V.V.V.V.V.V.V.V.V.z.z.k.k.s.p.p.p.p.p.p.s.k.z.z.z.z.V.V.z.z.z.z.k.k.k.k.s.s.p.p...` S b 8 < # # # < 8 b ) ..k.z.Z.F.F.H.F.F.F.Z.F.Z.Z.V.V.V.z.V.V.V.V.Z.Z.F.F.H.H.H.H.H.H.H.F.F.Z.V.z.k.s.p.p.p.p.k.z.V.Z.Z.Z.z.s.| S b 2 # # # < 8 m ) ..s.z.V.Z.Z.Z.Z.Z.V.V.V.V.V.V.V.V.V.V.V.z.V.V.V.V.V.V.Z.Z.F.F.H.F.H.H.F.F.F.Z.Z.Z.V.V.z.z.z.z.k.z.k.z.z.z.z.z.z.z.z.V.z.V.V.V.z.V.V.z.V.V.V.V.V.V.z.z.k.k.k.s.s.p.....| | | ` ` ` ) ` ` ` ` ` | | | | ......| ..| ` ` ) S m m b b 0 0 0 0 0 b b b m Z Z S S S ) ) ) ) S S S S Z Z Z m m m b 0 0 8 2 < # X X       o O + = ; 5 e r N ] ' X.d.k.z.z.z.z.z.z.k.k.k.k.s.p.p.p.....| | | | ` | | ` | | | | | | ..| | | | | | ` ` ` ` ` ) ) S Z Z m 0 8 < % X X   . . . O * ; ; 5 t C ] ' X.d.z.V.Z.Z.F.Z.F.F.Z.Z.Z.V.V.z.k.k.s.s.s.p.s.p.p...| ) Z b 2 < # # # < 8 m ` p.z.Z.H.H.J.J.J.H.H.H.F.F.F.F.Z.Z.V.Z.V.Z.V.Z.Z.Z.F.Z.F.F.F.H.F.H.H.H.H.H.H.",
"H.H.H.H.H.H.H.F.F.F.F.F.Z.Z.Z.Z.V.V.V.V.V.z.V.z.z.k.z.z.k.z.k.z.z.z.z.z.V.V.V.Z.F.F.H.F.H.F.F.F.Z.F.Z.Z.Z.Z.Z.V.V.V.z.z.k.k.s.s.s.s.p.s.s.s.k.z.z.z.V.V.V.V.V.V.V.V.z.z.k.k.s.p.p.....p.p.s.s.k.k.z.z.z.z.z.z.z.z.k.k.k.k.k.s.s.p...` S m 8 < % # # % 8 m S ..s.V.Z.F.H.F.H.H.F.F.Z.Z.Z.Z.V.V.V.V.V.V.Z.Z.F.F.H.F.H.H.H.H.H.F.F.Z.Z.V.z.k.s.p.p.p.p.s.k.z.V.V.V.z.p.| S b 2 % # # < 8 m ) ..s.z.V.Z.Z.Z.Z.V.V.V.V.V.V.V.V.V.V.V.V.V.V.z.z.V.V.Z.V.Z.F.F.F.H.H.H.H.F.F.Z.Z.V.V.V.V.z.z.z.z.k.k.k.k.k.k.z.z.z.z.z.z.z.z.z.z.z.z.V.V.z.z.V.z.z.z.z.k.k.s.p.p.......| | ` ` ` ` ` ` ` ` | ` | | | | | ......| | | ) S S m m b b 0 0 0 0 0 0 b b m m Z Z S ) S ) ) S S S Z Z Z m m m m b b b 0 8 2 < % # X     . o o * = ; 5 e t V H ' ..a.k.k.z.z.V.z.z.k.k.k.s.s.p.....| | ` | ` ` ` ` ` ` ` ` ` ` | | | | | | | | ` | ` ` ) ) ) S S Z m b 0 2 < % # X     . . @ * ; 5 7 r N H  .X.s.z.V.Z.Z.Z.F.Z.Z.F.Z.Z.V.V.z.z.k.k.s.s.s.s.s.p...| ) S b 8 < # # # < 8 m ) p.z.Z.H.H.J.J.J.H.H.F.F.F.F.Z.Z.Z.Z.V.Z.V.Z.Z.Z.Z.F.F.F.F.F.F.H.H.H.H.H.H.H.",
"H.J.H.J.H.H.H.H.F.F.F.Z.Z.Z.Z.Z.Z.V.V.z.z.z.z.z.z.z.k.k.z.k.z.k.z.k.z.z.z.V.V.Z.Z.Z.F.F.F.F.F.F.F.Z.Z.Z.Z.V.V.V.z.z.z.z.k.k.s.s.s.p.p.s.s.s.k.k.z.z.z.V.V.V.V.V.z.z.z.z.k.s.s.p.p.....p.p.p.s.s.k.k.k.k.z.z.k.z.z.k.z.k.k.k.k.s.p...` S m 8 < # # # % 2 b ) ..s.V.Z.F.F.H.H.F.F.F.F.F.Z.Z.Z.V.V.V.V.Z.Z.Z.F.F.F.H.F.H.F.H.F.F.F.Z.Z.z.k.k.s.p.p.p.p.s.k.z.V.V.z.k.p.` Z 0 < % # # < 0 m ) ..k.z.V.Z.Z.Z.Z.Z.Z.V.Z.V.V.V.V.V.z.V.V.z.V.V.V.V.V.V.Z.Z.F.F.H.H.H.H.H.F.F.F.Z.Z.V.V.z.z.z.k.k.k.k.k.k.k.k.k.k.k.k.k.z.z.z.k.z.z.z.z.z.z.z.z.z.z.k.k.k.s.s.p.p.......| | | ` ` ` ` ` ` ` | | | | | | ..| ..| ..| ` ) ) Z m m b 0 0 0 0 0 0 0 0 b b m Z S S S ) ) ) S S S Z Z Z m m m m m b 0 0 8 2 < % # X X X . . o + * ; 5 7 t V D ' X.s.s.z.z.z.z.z.z.z.k.k.s.p.p.....| ` ` ` ` ` ) ` ) ) ) ` ` ` ` ` ` ` ` ` | ` ` ` ` ` ) ) ) S S Z m b 0 2 < % X X     . . O = = 5 7 e V H  .X.d.x.V.Z.Z.F.F.F.F.Z.Z.Z.Z.V.V.z.z.z.k.k.s.s.p.p...| ) Z b 2 < # X # < 0 Z ` p.z.Z.F.J.H.H.H.H.F.F.F.F.Z.Z.Z.Z.V.Z.V.Z.Z.Z.Z.Z.Z.Z.F.F.F.F.F.F.F.H.H.F.H.",
"H.J.J.H.H.H.H.F.F.F.F.F.Z.Z.Z.V.V.V.V.z.z.z.z.z.z.k.z.z.k.k.k.k.k.k.k.z.z.z.V.V.Z.Z.Z.F.Z.F.F.Z.Z.Z.Z.Z.V.V.V.z.z.z.k.k.k.s.s.p.p.p.p.p.s.s.k.k.k.z.z.z.z.V.V.V.z.z.z.z.k.s.s.p.p.......p.p.p.s.s.s.k.k.k.k.k.k.k.z.k.k.z.k.k.s.s.p.| S m 0 < % # # % 8 b ) | k.V.Z.F.H.H.H.H.F.F.F.F.F.F.Z.Z.Z.Z.Z.Z.F.F.F.F.F.H.F.F.F.F.F.Z.Z.Z.V.z.k.s.s.p.....p.s.s.k.z.z.k.s...) Z 0 < # # % < 0 m ) ..k.z.V.Z.Z.Z.Z.Z.Z.V.Z.V.V.V.V.V.V.z.z.V.z.V.V.V.V.Z.Z.Z.F.F.H.H.H.H.H.F.F.F.Z.Z.V.V.V.z.k.k.k.k.k.s.s.k.s.k.k.k.k.k.k.k.k.k.k.k.k.z.z.z.k.z.z.k.k.s.s.p.p.......| | | | | ` | ` | ` | | | | | | | ..| | ..| | | ` ) S S m b b 0 0 0 0 0 0 0 b b m m Z Z S ) S ) S S S Z Z m m m m m b b b 0 0 8 2 % # # X X   o . O + = ; 5 7 t V H ' X.s.k.z.z.z.V.z.z.z.k.k.s.p.p...| ` ` ` ) ) ) ) ) ) ) ) ) ) ` ` ) ` ` ` ` ` ` ` ` ) ` ) ) S S Z m m 0 8 2 < # X X X . . o + * ; ; 7 e N H  .X.s.z.V.Z.Z.Z.F.F.F.F.F.Z.Z.Z.V.V.V.z.k.k.k.k.s.p...| ` Z b 2 < # X # < 8 m ` p.z.Z.F.H.J.H.H.F.F.F.Z.Z.Z.Z.Z.Z.Z.Z.Z.Z.Z.Z.Z.F.Z.F.F.F.F.F.H.F.F.H.F.H.F.",
"J.H.H.H.H.H.H.H.H.F.F.F.Z.Z.Z.Z.V.V.z.z.z.z.z.z.z.k.k.k.k.k.k.k.k.k.k.k.k.z.z.V.V.Z.Z.Z.Z.F.Z.Z.Z.Z.Z.V.V.V.V.z.z.k.k.k.s.s.p.p.p.p.p.p.p.s.s.k.z.z.z.V.z.V.z.z.z.z.z.k.k.s.p.p...p...p...p.p.p.s.s.s.s.k.k.k.k.k.z.z.z.z.z.k.k.s.p.| ) m 0 2 # # # % 8 b S ..s.V.Z.F.F.H.H.F.H.F.H.F.F.F.F.F.F.F.Z.Z.F.F.F.F.F.F.F.F.F.Z.Z.Z.Z.V.z.z.k.s.p.p.p.p...p.s.s.k.k.s.p.| ) m 8 < # # # < 8 m ) ..s.z.V.Z.Z.Z.Z.Z.Z.Z.Z.Z.V.V.z.z.z.z.V.z.z.V.z.V.V.V.Z.Z.F.F.F.H.H.H.H.H.F.Z.Z.Z.V.V.z.z.z.k.k.k.s.s.s.s.s.s.s.s.s.s.s.s.k.k.k.k.k.k.k.k.k.k.k.k.k.s.s.p.p...| | | ` | ` ` | | | | | | | | | | ..| ......| ..| | ` ) S Z m m 0 0 0 0 0 0 0 0 0 b b m Z Z S S ) ) ) S Z Z m m m m b m m b b 0 0 8 2 < % # X       . o @ = - 5 7 t V D ` X.d.k.z.z.z.z.z.z.z.k.s.s.p...| ` ` ) ) ) ) S S ) ) S S ) S ) ) ) ) ) ` ) ) ` ` ` ) ) ) ) S Z Z m b 0 8 2 < # X X     . O O * ; 5 7 t V H ' a.d.z.V.Z.Z.F.Z.F.Z.Z.F.Z.Z.Z.Z.V.V.z.z.z.k.k.s.p.p.| ) Z 0 8 < # # # < 8 m ` p.z.Z.H.H.H.H.H.F.F.Z.Z.Z.Z.Z.Z.Z.Z.Z.Z.Z.Z.Z.Z.Z.F.Z.F.Z.F.F.F.F.F.F.F.F.F.",
"H.H.H.H.H.H.H.F.F.F.F.F.Z.Z.V.V.V.V.z.z.z.z.k.z.k.z.z.k.z.k.k.k.s.s.k.s.k.k.z.z.V.V.V.Z.Z.Z.Z.Z.Z.V.Z.V.V.V.z.z.k.k.s.s.s.s.p.p.p...p.p.p.s.s.k.k.z.z.z.z.V.z.z.z.z.z.k.k.s.s.p...........p.p.p.p.p.s.s.s.k.k.k.z.k.k.z.z.z.z.k.k.p...) Z 0 < % # # % 2 m S | k.V.Z.F.H.H.H.H.F.H.F.H.F.F.F.F.F.F.F.F.F.F.F.F.F.F.F.F.Z.Z.Z.V.V.z.z.k.k.s.p.p.......p.p.s.s.s.p...` S b 8 < # # # < 8 m ) ..s.z.V.Z.F.Z.F.Z.Z.Z.V.Z.V.V.z.V.V.z.z.z.V.z.V.V.V.Z.Z.Z.F.F.H.H.H.H.H.H.F.F.Z.V.V.V.z.z.z.k.s.s.s.s.s.s.p.p.p.p.p.s.s.s.s.s.s.s.s.k.k.k.k.k.s.s.s.s.p.....| | | ` ` ` ` | | | | | | ..| | ....| ......| ..| | ` ` ) S Z Z b b 0 0 0 0 0 0 0 b b m m Z Z S ) ) S S S Z Z m m b b b b b b b b 0 8 2 < % # X     . . O + * ; 5 7 t N ] ' X.a.k.k.z.z.V.z.z.z.k.k.s.p...| ` ) ) ) S S S S S S ) S ) S ) S ) ) ) ) ) ) ` ` ) ) ) S S S Z Z b b 0 8 2 % # X X     . . + * = 5 7 t N H ' X.d.z.V.Z.F.Z.F.Z.F.Z.F.Z.Z.Z.Z.Z.Z.V.V.z.z.k.s.s...| ) Z b 2 % # # # < 8 Z ` p.z.Z.H.H.H.H.F.F.Z.Z.Z.V.Z.Z.Z.Z.Z.Z.Z.Z.Z.Z.Z.F.Z.F.Z.Z.F.F.F.F.F.F.F.F.F.",
"J.H.H.H.H.H.H.H.F.F.F.F.Z.Z.Z.V.V.z.z.z.z.z.k.z.z.z.k.z.k.k.k.s.k.s.s.s.k.k.z.z.z.V.V.Z.V.Z.V.Z.Z.V.V.V.z.z.z.k.k.k.s.s.s.p.p.p.p...p.p.p.p.s.k.k.k.k.z.z.z.z.z.z.z.k.k.k.s.p.p.p.p.............p.p.p.p.s.s.k.k.k.k.z.k.z.z.z.k.k.s...) Z 0 2 % # # < 8 b ) ..k.z.Z.H.H.H.H.H.H.H.H.H.H.H.H.H.F.F.H.F.F.F.F.F.F.F.Z.Z.Z.V.V.V.z.z.z.k.s.s.p.p...p...p.p.p.p.p.p...) Z b 2 % # # % < 0 m ) ..k.z.V.Z.Z.F.Z.F.Z.Z.Z.V.V.V.V.z.z.z.z.z.z.z.V.z.V.V.Z.Z.F.F.F.H.F.H.F.F.F.Z.Z.V.V.V.z.z.k.k.k.s.s.s.p.p.p.p.p.p.p.p.p.p.p.s.s.s.s.s.s.s.s.s.s.s.s.p.....| | ` ` ` ` ` | | | | ....................| ....| | | ` ) ) S Z m b b b b 0 0 0 b 0 b b m m Z S S S ) S S S Z Z m b b b b b b b 0 0 0 8 2 < % X X       . o * * ; 5 7 t V H _ X.s.k.z.z.z.V.z.z.k.k.s.p.p.| | ` ) S S S S S S S S S S S S S S S S S S ) ) ) ) ) ) ) S S Z Z m m b 0 2 < % % X X     . o + * = 5 7 t V H ' a.d.z.V.Z.Z.F.Z.F.Z.F.F.Z.F.F.Z.Z.Z.V.V.V.z.k.s.s.p.| ) Z b 8 < # # # < 8 m ` p.z.Z.F.H.H.H.F.F.Z.Z.V.Z.Z.V.Z.Z.Z.Z.Z.F.Z.F.F.Z.F.Z.F.F.F.Z.F.Z.F.F.F.F.F.",
"H.H.H.H.H.H.F.H.F.F.F.Z.Z.Z.V.V.V.z.z.z.k.z.z.k.z.z.k.z.z.k.k.k.k.s.s.k.s.k.k.z.z.V.V.V.V.V.Z.V.V.V.V.V.z.z.z.k.s.s.s.s.p.p.p.p.....p...p.p.s.s.k.k.z.k.z.z.z.z.k.z.k.k.k.s.s.p.p.p...............p.p.p.s.s.s.k.k.k.z.z.z.z.z.z.k.s...` Z 0 2 % X # % 8 m S ..s.V.Z.F.H.H.H.H.H.H.H.H.H.H.H.H.H.H.H.F.F.F.F.F.F.F.Z.Z.V.V.V.z.z.z.k.k.s.s.p.p.p.....p.p.p.p.....| ) m 0 2 % # # # < 8 Z ) ..k.z.V.Z.Z.F.F.Z.F.Z.Z.Z.V.V.V.z.z.z.z.z.z.V.V.V.V.V.Z.Z.Z.F.F.F.H.H.F.F.F.Z.Z.V.V.V.z.z.k.k.k.s.s.p.p.p.p.p.p...p.p.p.p.p.p.p.s.s.s.s.s.s.s.s.p.p.....| | | ` ` ) ` ` ` | | ..| ..| ..............| | | | | ` ` ) ) S Z m b b b 0 b 0 0 b b b b m m Z S S S ) S S S Z Z m b b b b b b b b 0 8 8 2 < % # X X   . o o @ * ; 5 e t V D ' ..d.k.k.z.z.z.z.z.k.k.s.p.....` ) ) S S S Z S Z S Z S Z S Z S S S S S S ) S ) ) ) ) S S S Z m m b 0 0 2 < % # X X     . o O * ; 5 7 r N ] ' X.l.z.V.V.Z.Z.Z.Z.Z.Z.Z.Z.F.Z.Z.Z.Z.Z.V.z.z.k.s.s...| ) Z 0 2 < # # # < 8 Z ` p.z.Z.H.H.H.H.F.Z.Z.Z.Z.V.Z.Z.Z.Z.Z.F.F.Z.F.Z.F.F.Z.F.F.F.F.Z.F.F.Z.Z.F.F.F.",
"H.H.H.H.H.H.H.F.F.F.F.F.Z.Z.V.V.V.z.z.z.k.z.k.z.z.z.z.z.k.z.k.k.s.k.k.s.k.k.k.z.z.z.z.V.V.V.V.V.V.V.V.V.z.z.k.k.s.s.s.p.p.p.......p...p.p.p.p.s.s.k.k.k.k.z.z.k.z.z.k.k.s.s.p.p.............| ........p.p.p.s.s.k.k.k.k.k.z.z.k.k.s...) Z 0 2 % # # % 8 b S ..s.V.Z.F.H.J.H.H.H.H.H.H.H.H.H.H.H.H.H.H.H.F.H.F.F.F.Z.Z.Z.V.V.z.z.z.k.s.s.s.s.p.p...p...........| ` S m 0 < % # X # < 0 m ) ..s.z.Z.Z.Z.F.F.Z.F.Z.Z.Z.V.V.V.z.z.z.z.z.z.z.z.V.V.V.V.Z.F.F.F.H.F.F.F.F.Z.Z.Z.V.z.z.z.z.k.k.k.s.s.s.s.p.p.....p.........p.p.p.p.p.p.p.p.p.p.p.p.p.....| ` ` ` ` ` ` ` | | | | ..........| ..| | | | | | | ` ` ` ) S S Z Z m b b b b b b b b b m m Z Z S S ) ) ) S Z Z m m m b b b b b b b 0 0 8 2 < # # X       . O + = ; 5 7 t V H ' ..a.k.z.z.z.z.z.z.k.s.s.p...| ` ) S S Z Z S Z S S S S S S S S S Z Z S S S S ) S ) ) ) S S Z m m b 0 8 8 < % # # X     . . + * = 5 5 t V H ' a.d.z.V.Z.Z.Z.Z.Z.Z.Z.Z.Z.Z.Z.Z.Z.Z.V.V.V.z.k.s.p...| ) m 0 2 % # # # < 8 m ` p.z.Z.F.H.H.H.F.F.Z.V.Z.Z.Z.Z.Z.Z.F.F.Z.F.F.F.F.Z.F.F.Z.Z.F.F.Z.F.F.F.F.Z.F.",
"H.H.H.H.H.F.F.F.F.F.Z.Z.Z.Z.V.V.V.z.z.z.z.z.z.z.z.z.z.z.z.z.k.z.k.k.k.k.k.k.k.z.z.z.V.V.z.V.V.V.V.z.V.z.z.k.k.k.s.s.p.p.p...p.....p.....p.p.p.s.s.s.k.k.k.z.k.k.k.k.k.k.k.s.s.p.p.....................p.p.p.p.s.s.k.k.k.k.z.k.k.s.s...) Z 0 2 % # # % 8 b ) ..s.V.Z.F.H.H.H.H.H.H.H.H.J.H.H.H.H.H.H.H.F.F.F.F.F.Z.Z.Z.V.V.V.V.z.k.k.k.s.s.s.p.p.p...p...p...| | ` Z m 8 2 % # # % < 8 m ` ..s.z.V.Z.F.F.F.F.Z.Z.Z.Z.V.V.V.V.z.z.z.z.z.z.V.V.V.Z.Z.Z.Z.F.F.F.F.F.F.Z.Z.Z.V.z.z.z.z.k.k.k.k.s.s.s.s.p.p.p.............p.p.p.p.p.p.p.p.p.p.p.......| | | ` ` ) ` ` ` | | | ..| ....| ..| | | | | | | ` ` ` ` ) ) ) Z Z Z m m b b b b b b m m m Z Z S S ) S S S S S Z Z m m b b b b b b b 0 0 8 2 < # # X     . . o + = ; 5 7 t N ] ' X.a.k.k.z.z.z.z.k.k.s.s.p...| ` ) S S Z S Z S Z S Z S S S S Z S Z S Z S S S S ) ) S S S Z Z m m b b 8 2 < % # X     . . o O * ; 5 7 t V H  .X.d.z.V.Z.Z.Z.Z.Z.V.Z.V.Z.Z.V.V.V.V.V.z.z.k.s.s...| ` S m 0 2 % # # # < 8 m ` p.z.Z.H.H.H.H.F.F.Z.Z.Z.Z.Z.Z.F.F.F.F.F.F.F.F.Z.F.Z.Z.F.F.Z.Z.F.Z.F.F.Z.F.Z.",
"F.H.H.F.F.H.F.F.F.F.Z.Z.V.Z.V.V.z.z.z.k.z.k.z.z.z.z.V.z.z.V.z.z.z.z.k.k.z.k.z.z.z.z.z.z.V.V.z.V.V.V.z.z.z.k.k.s.s.p.p.p.p.................p.p.p.s.s.s.s.k.k.k.k.z.k.z.k.s.s.s.p.p.........| ............p.p.s.s.s.s.s.k.k.k.k.k.s.p...) m 0 < % # # % 2 b ) | k.V.Z.H.H.H.H.J.H.J.H.H.H.H.H.H.H.F.H.H.F.F.F.F.F.F.Z.Z.V.V.V.z.k.k.k.k.s.s.s.s.p.p.p.p.p.....| ` ) Z m 8 < # X # # < 0 m ) ..k.z.V.Z.F.Z.Z.F.Z.F.Z.Z.Z.Z.V.z.z.z.V.z.V.V.z.V.V.V.Z.Z.Z.Z.F.Z.F.F.Z.Z.V.V.V.z.z.z.z.k.k.k.k.k.k.s.s.p.p.p.p.........p...p...p.p.p.p...........| | | | ` ` ` ) ` ` ` | | | | ..| ..| | | | ` | ` ` ` ` ` ` ) ) ) S S Z Z m m m m m m m m m m Z Z Z S S S ) ) ) ) S Z Z m m m m b b b b b 0 0 8 2 < % X X X     . O * * ; 5 7 t V D ' X.s.s.k.z.z.z.k.k.s.s.p...| ` ) ) S S Z Z Z S S S S S S S S Z Z S Z S S S S S S S S S S Z Z Z b b 0 8 2 < % # X X     . . @ = = 5 5 t N H ' a.k.z.z.V.V.V.Z.V.V.V.V.V.V.V.V.V.V.z.k.k.s.s.p...| ` S m 0 2 % # X # < 0 Z ) p.z.Z.H.H.H.H.F.F.F.Z.Z.Z.Z.Z.F.F.F.F.F.F.F.F.F.F.F.F.Z.Z.F.F.Z.F.Z.Z.F.Z.F.",
"H.F.H.F.F.F.F.F.F.Z.Z.Z.Z.Z.V.V.z.z.z.z.z.z.z.z.V.V.V.V.V.V.V.z.z.z.z.z.z.z.z.z.z.z.z.z.z.z.z.V.V.z.z.z.k.k.k.s.s.p.p...................p...p.p.p.s.s.s.s.k.k.k.z.k.k.k.k.s.p.p.............| ........p.p.p.p.p.p.s.s.s.s.k.s.s.s...| ) m 0 < % # # % 8 b ) ..s.V.Z.F.H.J.H.H.H.H.H.H.H.H.H.F.H.H.F.H.F.H.F.F.F.F.Z.Z.V.V.V.z.z.z.k.k.k.s.s.s.s.s.p.p.p.....| ` ) Z b 8 < % # # # < 0 m ) ..s.z.V.Z.F.Z.F.F.Z.F.Z.Z.Z.V.V.V.z.V.z.V.z.V.V.V.V.V.Z.Z.Z.Z.Z.Z.F.Z.Z.Z.V.z.z.z.k.k.k.k.k.z.z.k.k.k.s.s.p.p.p.............p.p...p.............| | | ` ` ` ` ` ` ` ` ` ` | | | | | | | | | ` ` ` ` ` ) ` ) ) ) ) S S Z Z Z m m m m m m Z m Z Z Z S S S S ) ) ) ) S S S Z Z m m m b m b b b b 0 8 2 < % # X       o o + * ; 5 7 t V D ' X.s.k.k.z.z.k.k.k.s.p.p...| ` ` ) S S S Z S Z S S S S S S S S S S Z S Z S S S S S S S Z Z Z m m b 0 8 2 < % # X X     . . + * ; 5 e t N H ' X.s.x.V.V.Z.V.V.V.z.z.z.z.z.z.z.z.k.k.k.s.p.p.....` ) Z b 8 2 % # # # < 0 m ` p.z.Z.H.H.H.H.H.F.F.F.F.F.F.F.F.F.H.F.F.H.F.F.F.F.Z.F.F.Z.F.Z.F.Z.F.F.Z.F.Z.",
"F.F.F.F.F.F.F.F.Z.Z.Z.Z.V.V.V.z.z.z.z.z.k.z.V.z.V.V.V.V.Z.V.V.V.V.V.V.z.V.z.z.z.z.z.z.z.z.z.z.z.z.z.z.z.z.k.k.s.p.p.p.p.p.....................p.p.p.p.p.s.s.k.k.k.k.k.k.s.s.s.p.p.................p...p.p...p.p.p.p.s.p.s.s.s.s.p...| S m 0 < % # # % 2 m S ..s.V.Z.F.H.H.H.H.H.H.H.H.H.H.H.H.F.H.F.F.F.F.F.F.F.F.Z.Z.V.V.z.z.k.k.z.k.k.k.k.k.s.s.s.p.....| | ` ) Z b 2 < # X X % < 0 m ` ..k.z.Z.Z.Z.F.F.Z.F.Z.F.Z.Z.V.V.V.V.z.V.z.V.z.V.V.V.V.V.Z.V.Z.Z.Z.Z.Z.V.V.V.z.k.k.k.k.k.k.k.k.k.z.z.k.k.s.s.p.p...p.............p.p.........| | | ` ` | ` ` ` ` ` ` | | | | | | | | | ` ` ` ` ) ) ) ) ) ) ) ) ) S S S S Z Z Z Z Z Z Z Z Z Z Z Z S S S ) S ) ) ) ) ) ) S Z Z Z Z m m m m b b 0 8 8 2 < % X X X   . . O * * ; 7 7 t V H ' X.a.k.k.k.k.k.k.s.s.p.p.| | ` ) S S S Z S S S S S ) S ) S S S S Z S S Z S S S S S S S Z Z Z m b b 0 8 8 < % # X     . . . O * ; ; 5 r C H  .X.l.z.z.V.V.V.V.z.z.z.z.k.z.k.k.k.k.k.s.p.p...| | ) ) Z b 8 < # # X # % 8 Z ` p.z.Z.F.H.J.H.H.H.F.F.F.F.F.F.F.F.H.H.H.F.F.F.F.F.F.Z.Z.F.Z.F.Z.Z.F.F.Z.Z.F.",
"F.F.F.F.F.F.F.Z.Z.Z.V.Z.V.V.V.z.z.z.z.z.z.z.z.V.V.V.V.Z.Z.Z.Z.Z.Z.V.Z.V.V.V.V.V.z.z.z.z.z.z.z.z.z.z.z.z.k.k.s.s.p.p.p.............................p.p.p.s.s.s.k.k.k.k.k.k.s.s.p.p.......| ................p...p.p.p.p.p.p.s.p.p.p...` S b 8 < # # # % 8 b ) | k.V.F.F.H.H.H.H.H.H.H.H.H.H.H.F.F.F.F.F.F.F.F.F.Z.Z.Z.Z.V.V.V.z.z.k.k.k.k.k.k.k.k.s.s.p.p...| | ) S Z b 2 < # X # # < 8 m ) ..k.z.V.Z.Z.F.Z.F.Z.Z.Z.Z.Z.V.V.V.V.V.V.V.V.V.V.V.V.V.Z.V.V.Z.Z.Z.V.V.V.z.z.z.k.k.k.s.k.k.z.z.z.z.z.z.k.s.s.s.p.........p...p...........| | | ` ` ` ` ` ` ` ` ` ` ` ` | ` | | | | | ` ` ` ) ) ) ) ) S S ) S S S S S S S Z Z Z Z Z Z Z Z S S S S S S ) ) ) ) ) ) ) ) S S S S Z Z m m m m m b b 0 8 2 < % # X     . . O + * ; 5 e t V H ' ..d.s.k.z.k.k.s.s.p.....| | ` ) S S Z S Z S S ) S ) S S S ) S S Z S Z S S S S S S S Z Z Z Z m b b 0 8 2 < % # X X     . o + @ ; 5 7 e V H  .a.d.z.V.V.V.V.z.z.k.k.s.k.k.s.s.s.p.p.p.p...| | ` ) S m b 8 < # # X # < 8 m ` p.z.Z.H.H.H.J.H.H.H.F.F.H.F.H.H.H.F.H.H.F.H.F.F.F.F.F.Z.Z.F.F.Z.F.Z.Z.F.Z.F.",
"F.F.F.F.F.Z.Z.Z.Z.Z.Z.V.V.V.V.z.z.z.z.z.z.z.V.V.V.Z.Z.Z.Z.Z.Z.Z.Z.Z.Z.Z.Z.V.V.z.z.V.z.z.k.z.z.z.z.z.k.k.k.s.s.p.p.p.......................p...p.p...p.p.p.s.s.k.k.k.k.k.k.s.s.p.p.............................p.p...p.p.p.p.p.p...| ` S m 8 < % # # % 8 m S ..s.V.Z.F.H.J.H.H.H.H.H.H.H.F.H.F.F.F.F.F.Z.F.F.Z.F.F.Z.Z.V.V.V.z.z.z.z.k.z.k.z.k.k.k.s.s.p.....` ` S m b 2 < # # X % < 0 m ) ..s.z.V.Z.F.Z.F.F.Z.F.Z.Z.Z.Z.Z.V.V.V.V.z.V.V.V.V.V.Z.V.V.V.Z.V.V.V.V.V.z.z.k.k.k.s.k.s.k.k.z.z.z.z.z.z.k.s.s.p.......................| | | ` ` ` ` ` ` ` ` ` ` | | ` ` | | ` ` | ` ` ` ) ) ) S S S S S S S S S S S Z Z S Z S Z Z Z S S S S S ) ) S ) ) ) ) ) ) S S ) S S S Z Z Z Z m m b b b 0 8 2 < % X X X     . . * * = 5 7 t V H ' X.s.k.k.k.k.k.s.s.p...| | ` ` ) ) S S S S S S S S ) ) ) ) S S S S Z S S Z Z S Z S S Z Z Z m m m b 0 0 2 < % # X X     . . + = = 5 7 t V H ' a.d.z.z.V.z.z.z.k.k.s.s.s.p.s.p.p.p.p.....| | ` ) ) Z m b 2 < % X # # < 8 Z ` p.k.Z.H.J.J.J.J.J.H.H.H.H.H.H.H.H.H.H.F.H.F.F.F.F.F.F.F.F.F.Z.F.Z.F.F.Z.F.F.",
"Z.F.F.Z.Z.Z.Z.Z.V.Z.V.V.V.V.z.z.z.z.z.z.z.z.z.V.V.Z.Z.Z.F.Z.F.F.F.Z.Z.Z.Z.Z.V.V.V.z.z.z.z.k.z.z.z.z.k.k.s.s.s.p.p.p.p...................p.........p...p.p.s.s.s.k.k.k.k.s.s.s.p.p.....................................p...p.p.....| ) S b 8 < # # # % 8 b ) ..s.z.Z.F.H.H.J.H.H.H.H.H.H.F.F.F.F.Z.F.Z.Z.F.Z.Z.Z.Z.Z.V.V.V.z.z.z.z.z.k.k.z.k.z.k.k.s.s.p...| ` ) S m 0 2 < # X # % < 8 m ` ..s.z.Z.Z.Z.F.Z.F.Z.Z.Z.Z.Z.Z.V.V.V.V.V.V.V.V.V.V.V.V.V.V.V.V.V.V.V.V.z.z.k.k.k.s.s.k.k.k.k.z.z.z.z.z.z.k.s.p.p.p.................| | | | ` ` ) ` ` ) ` ) ` ` ` ` ` | | ` | ` | | ` ` ` ) ) ) S S S S S S Z S S S S Z S Z S Z S S Z S S S ) ) S ) ) ) ) ) ) S ) ) S S S S S Z Z Z Z m m m b 0 0 8 2 < % # X       . O + = ; 5 7 t V D ' X.s.k.k.k.k.k.s.p.....| | ` ) ) ) S S S S S S S ) ) S ) S S S S S S Z S Z S S S Z Z Z Z Z m m b b 0 8 2 < % # X       . O + * = 5 5 t C H  .X.k.z.z.V.z.z.k.k.s.s.p.p.p.p.p.......| | | ` ` ) S Z m 0 2 < # # X # < 8 m ` p.z.Z.H.J.J.J.J.H.H.H.H.H.H.H.H.H.H.H.H.H.F.F.F.F.F.Z.F.F.Z.F.Z.F.F.Z.F.F.Z.",
"F.F.Z.Z.Z.Z.Z.Z.V.V.V.z.z.z.z.z.z.k.k.z.z.z.V.V.Z.Z.Z.F.F.F.F.F.F.F.F.F.Z.Z.Z.V.V.V.z.z.z.z.z.k.k.k.k.k.k.s.s.p.p.................p.p.p.....p.p.p...p.p.s.s.s.s.k.k.s.k.k.s.s.p.p.p.p...........| ..| | ..| ..........p.p.....p...| ` Z b 8 < % X # % 8 b S ..k.V.Z.F.H.H.H.H.H.H.H.F.H.F.F.Z.F.Z.Z.Z.Z.Z.V.Z.Z.V.V.V.V.V.z.z.z.k.z.z.z.z.z.k.z.k.k.s.p...| | ) S m 0 2 < # # X # < 0 m ) ..k.z.V.Z.Z.F.F.Z.Z.F.Z.Z.Z.Z.Z.V.Z.V.V.V.V.V.V.V.V.V.V.V.V.V.V.V.z.V.z.z.k.k.k.s.s.s.k.k.z.z.z.V.V.z.k.k.k.s.p.p.............| ....| | ` ` ` ) ) ) ) ) ` ) ` ` ` | ` ` | ` | ` ` ` ) ) ) S S S S Z S Z S S S S S S S S S S S S S S S S S S ) ) ) ) ) S ) S ) S S S S S Z Z Z Z Z Z m m b b b 0 8 2 < % X X       o O @ * ; 5 7 t V H | X.a.k.k.k.k.s.s.p.p...| | | ` ) ) ) S S S S S S ) ) ) ) ) S ) S S S S Z S Z Z Z Z Z Z Z m m m b b 0 0 8 < % # X X   . . . + * ; 5 7 t V H ' a.d.z.V.z.z.z.k.s.p.p.p...............| | ` ` ) ) S Z b 0 2 < # X X # < 8 Z ` p.z.Z.F.H.J.J.J.J.H.J.H.H.H.H.H.H.H.F.H.H.F.F.F.F.F.F.Z.Z.F.Z.F.F.Z.F.Z.Z.F.",
"Z.Z.Z.Z.Z.Z.V.V.V.V.V.z.z.z.z.z.z.z.k.z.z.z.V.V.V.Z.F.Z.F.F.F.F.F.F.F.F.F.Z.Z.Z.V.V.V.z.z.k.k.k.k.k.k.s.s.s.p.p...p.....p.....p.p.p.p.p.p.p.p.p.p.p.p.p.s.s.s.s.k.s.k.s.s.s.s.s.p.p.p.p.......| | | | | | | ..............p.p.....| ) S b 8 % # # # < 2 m ) ..s.V.Z.F.H.H.J.H.H.H.H.H.H.F.F.Z.Z.Z.Z.V.V.V.V.V.V.V.V.z.z.z.z.z.z.z.k.z.z.z.z.z.k.k.s.s.p.p.| ` ) Z m 0 2 < # X X % < 0 m ` ..k.z.Z.Z.F.F.Z.F.Z.Z.Z.Z.Z.Z.Z.Z.V.V.V.V.V.V.V.V.V.V.V.V.V.V.V.V.V.V.z.z.k.k.k.k.k.k.k.k.z.z.V.z.V.z.z.k.k.s.p.p.......| ......| | | ` ` ` ) ) ) ) ) ) ` ` ` ` | ` | | ` | ` | ` ` ` ) ) ) S S Z S Z Z S S S S S S S S S S S S S S S ) S ) ) ) ) ) ) S ) S S S S S S S Z Z Z Z Z m m m m b b 0 8 2 < # # X     . . o + = ; 7 7 t F D ' X.d.k.k.k.k.k.s.p.p.....| ` ` ) ) ) S ) S ) ) ) ) ) S S S S S S S S Z S Z Z Z Z Z Z m Z m m m m b 0 0 2 < % % X X     . o O * = 5 7 t C ]  .a.l.z.V.V.z.z.k.s.p...........| ..| | | ` ` ` ) ) S Z b 0 2 < # # # # < 0 m ` p.z.Z.H.H.J.J.H.J.H.H.H.H.H.H.H.H.H.H.H.F.H.F.F.F.Z.F.F.Z.F.Z.F.Z.F.Z.F.Z.F.",
"Z.Z.Z.Z.Z.V.V.V.z.z.z.z.z.k.z.k.k.k.z.z.z.V.V.V.Z.Z.Z.Z.F.F.F.F.F.H.F.F.F.F.Z.Z.V.V.V.z.z.z.z.k.k.s.s.s.p.p.p.p.........p...p.p.p.p.p.s.p.s.p.s.p.s.p.s.p.s.s.s.s.s.s.s.s.s.s.s.s.s.p.p.....| | | ` | ` | | | | | ......p...p.....| ) Z b 8 < # # # % 8 b S | k.V.Z.H.H.H.H.H.J.H.H.F.F.F.F.Z.V.V.V.V.V.V.z.V.z.z.z.z.z.z.k.z.z.z.k.z.z.z.z.k.z.k.k.s.p...| | ) S m 0 2 < # X # # < 0 Z ` ..k.V.Z.Z.F.F.F.F.F.F.F.F.Z.Z.Z.Z.Z.Z.Z.Z.V.Z.V.V.V.V.V.V.V.V.V.V.V.z.V.z.z.z.k.k.k.k.k.z.z.V.V.V.V.z.z.z.k.s.p.p.p.........| | | | | ` ` ` ` ) ) ) ) ) ) ` ` ` ` ` | ` | ` | ` ` ` ) ) ) S ) S S S S S S S S S S ) S ) ) S ) ) ) ) ) ) ) ) ) ) S ) S S S S S S Z Z Z Z Z Z Z m m Z m m m b b 0 8 2 < % # X X X . . O + * ; 5 e t V ]  .X.s.k.z.z.k.k.s.s.p.....| | ` ` ) ) S ) S ) S S ) ) ) ) ) ) S S S S S S Z Z Z Z Z m Z m m m b b b 0 8 8 < % # X X X   . o @ * ; 5 7 t C ]  .a.l.z.V.z.z.k.s.p.....| | | | | | | | | ` ` ` ) S S Z m 0 2 < # # X # < 8 Z ) p.z.Z.H.J.J.J.J.H.J.J.H.H.H.H.H.H.H.H.F.H.F.F.F.F.F.Z.F.F.Z.F.F.Z.F.F.F.F.Z.",
"Z.Z.Z.Z.V.V.V.V.z.z.k.k.k.k.k.k.k.k.z.z.z.z.V.V.Z.Z.F.F.F.F.F.H.H.H.F.F.F.F.F.Z.Z.V.V.V.z.z.k.k.k.s.s.s.p.p.p.........p.p...p.p.s.s.s.s.s.s.s.s.s.s.s.s.s.s.s.s.s.s.s.s.s.s.s.s.s.s.s.p.p...| | ` ` ` ` ` | | | ..........p.......| ) Z b 8 < # X # % 8 b ) ..s.V.Z.F.H.J.J.H.H.H.H.F.F.F.Z.Z.V.V.V.z.z.z.z.k.k.k.k.k.k.k.z.k.z.z.k.z.z.z.z.z.z.k.k.s.p...| ` ) S m 0 2 % # X # # < 0 m ` ..k.V.Z.Z.F.F.F.F.F.Z.Z.F.Z.Z.Z.Z.Z.Z.Z.V.V.V.Z.V.V.V.V.V.V.V.V.V.V.V.z.z.z.z.k.k.k.z.z.z.z.z.V.V.V.z.z.k.k.s.p.p.p.p.......| | | ` ` ` ) ) ) ) ) ) ) ) ) ` ` ` ` ` ` ` | ` ` ` ` ` ) ) ) ) S S S S S S S S S ) ) ) ) ) ) ) ) ) ) ) ) ) ) ) S ) ) ) S S S Z Z Z Z Z Z m Z m Z m m m m m b b b 0 8 2 < % X X X   . . o + = ; 5 7 t F _  ...s.z.z.k.k.k.s.s.p.....| | ` ` ` ) ) S ) S ) ) ) S ) S ) ) S S S S S S Z Z Z m Z m m m m m m b b b 0 2 2 % # X X     . O + = ; 5 7 t V ]  .d.l.V.V.V.z.k.s.p...| | | ` | ` | | | ` ` ` ) ) ) S Z m 0 2 < # X X # < 8 m ` p.z.Z.H.H.J.J.J.J.H.H.H.H.H.H.H.F.F.F.H.F.F.F.F.F.F.F.F.F.Z.Z.Z.F.F.F.F.Z.F.",
"Z.V.V.V.V.V.V.z.z.z.k.k.k.s.k.k.k.k.k.z.z.V.V.V.V.Z.Z.Z.F.F.H.F.F.H.H.H.F.F.F.F.Z.Z.V.V.V.z.z.k.s.s.p.p.p.p...p...........p.p.s.s.s.k.s.k.k.k.s.k.k.s.s.s.s.s.s.p.p.p.s.s.s.s.k.s.s.s.s.....| ` ` ` ) ) ` ` | | | ......p.....p.| | ) S b 8 < % # # % 8 m S | k.V.Z.H.H.H.H.J.H.H.H.H.F.F.Z.V.V.z.z.z.z.k.k.k.s.s.k.k.k.k.k.k.z.z.z.z.z.z.z.z.z.k.k.s.p.p.| ` ) S m 0 2 < # # X % < 0 Z ` ..k.V.Z.Z.F.F.F.Z.Z.Z.Z.Z.Z.Z.Z.Z.Z.Z.Z.V.V.V.V.V.V.V.V.V.z.V.z.V.V.z.V.z.z.z.z.z.k.z.z.z.z.V.z.V.z.z.z.k.k.s.s.p.......| | | | | | ` ` ) ) ) S ) S ) ) ) ) ` ` ` ` ` ` ` ` ` ` ` ` ) ) ) S S S S S S S ) ) ) ) ) ) ) ) ) ) ) ) ) ) ) ) ) ) ) S S S S Z Z Z Z Z m m m m m m m m m m m m b b b 0 8 2 < % # X X     o o @ * ; 5 7 t V H ' a.d.k.z.z.z.k.k.p.p.....| | | ` ` ) ) ) ) S ) S ) ) S ) S S S S S S S Z Z Z Z m m m m m b b b b b 0 8 8 < < # X X     . . + * = y i t C ] o.a.k.z.z.z.z.s.p...| ` ` ) ` ` ` ` ` ` ` ` ` ` ) ) S Z b 0 2 < % X X # < 0 Z ` p.z.Z.H.J.J.J.J.J.J.H.H.H.H.H.H.F.H.F.F.F.F.F.Z.F.Z.Z.Z.F.F.F.F.F.Z.Z.F.F.F.",
"Z.V.Z.V.V.V.z.z.k.k.k.s.k.s.s.k.k.k.k.z.z.z.V.V.V.Z.Z.F.F.F.H.F.H.F.H.F.F.H.F.F.F.Z.Z.Z.V.z.k.k.s.s.p.p...............p...p.p.s.s.k.k.k.k.k.k.k.k.k.k.s.s.s.p.p.p.p.p.p.s.s.s.s.k.k.s.s.p...| ` ) ) ) ) ) ` ` | ......p...p.p.....| ) Z b 8 < # # # % 8 b ) | k.V.Z.F.H.H.H.H.H.H.H.F.F.Z.Z.V.V.z.z.k.k.s.s.s.s.s.s.s.s.s.k.k.k.z.k.z.z.z.z.z.k.k.s.s.p...| ` ) Z m 0 2 < # X X % < 0 Z ) ..k.z.V.Z.Z.Z.Z.Z.Z.Z.Z.V.Z.Z.Z.Z.V.V.V.V.V.V.z.z.z.z.z.z.z.z.z.z.z.z.z.z.z.z.k.z.z.k.z.z.z.z.z.z.z.z.k.k.s.s.p.......| | | | ` ` ` ) ) ) ) S S S S S S ) ) ) ) ` ) ` ` ` ` ) ` ) ) ) ) S S S S S S S S S ) ) ) ) ) ) ) ) ) ) ) ) ) ) S ) S S S S Z Z Z Z m m m b m b m b b b b b b b b b b b 0 8 2 < % # X     . o O + * ; 5 7 t V H  .X.d.k.k.k.k.k.s.p.p.....| | ` ` ) ) ) ) ) ) S S S S S S S S S S S Z Z Z Z m m m m b b b b b b b 0 0 8 2 < % # X     . . o + * ; 5 7 t F ]  .a.l.x.z.z.k.s.p.| ` ` ) ) ) ) ) ` ` ) ) ` ) ) ) S Z Z m 0 2 < # # X # < 8 m ` p.z.Z.H.J.J.J.J.H.H.H.H.H.H.H.F.F.F.F.F.F.F.F.F.Z.F.F.Z.Z.F.Z.F.F.Z.Z.F.F.Z.",
"V.Z.V.V.V.V.z.z.k.k.k.s.s.s.k.s.k.k.z.k.z.V.z.V.Z.Z.Z.F.F.F.F.F.H.H.H.H.H.H.H.F.F.F.Z.Z.V.z.z.k.s.p.p.p.................p.p.s.s.s.s.k.k.k.k.k.k.k.k.k.k.s.s.s.p.p.p.p.p.p.s.s.k.s.s.s.s.p...| ` ) ) ) ) ) ` | | | ......p...p.p...| ` Z b 8 < # # # % 2 m S ..s.V.Z.H.H.H.J.H.H.H.F.F.F.Z.Z.V.z.z.z.k.s.s.s.p.p.p.p.p.s.s.k.k.k.k.z.k.z.z.k.z.k.k.s.s.p.....` ) S m 0 2 < # X # # < 8 m ) ..s.z.V.V.Z.V.V.V.V.z.V.V.V.z.V.z.V.z.z.V.z.z.z.z.z.k.k.z.k.z.z.k.z.k.k.k.k.k.k.k.k.k.k.k.k.k.z.k.k.k.s.s.p.p.p.....| | | ` ` ` ) ) ) ) S S S S S S S S S S ) ) ) ) ) ) ) ) ) ) ) ) ) ) S S Z S Z S Z S S S S S ) S ) ) S ) ) S ) S S S S S S S Z Z m m m b b b b b 0 b b b b b b b b b b 0 0 0 8 2 < % X X       . o * * ; 5 e t V D _ X.p.s.k.k.s.s.s.p.....| | | ` ` ) ) ) S S S S S S S Z S Z S Z Z S Z Z Z Z m m m b b b b b b b b b 0 8 8 < % # X X     . o O * = ; 7 t N H ' a.d.k.z.k.s.p...` ) ) ) S S S S ) ) ) ) ) ) S ) S Z Z b 0 2 < # X # # < 8 Z ) p.z.Z.H.H.J.J.H.J.H.H.H.H.H.F.F.F.F.F.F.F.Z.F.Z.F.F.Z.F.F.Z.F.F.Z.F.F.Z.F.F.",
"V.Z.V.V.V.V.z.z.k.k.s.s.k.s.s.k.k.k.k.z.z.z.z.V.V.Z.Z.Z.Z.F.F.F.F.H.H.H.F.H.H.H.F.F.F.Z.Z.V.z.k.s.p.p...............p.p.p.p.s.s.k.k.k.k.k.k.k.z.k.k.k.s.s.s.p.p...p.....p.p.s.s.k.s.s.p.p.| | ` ) ) S S ) ` ` | | ........p.p.....| ) S b 8 < # # # % 8 b ) | k.V.Z.F.H.H.H.H.H.F.F.F.F.Z.V.V.V.z.k.k.s.s.s.p.p...p.p.p.s.s.k.k.k.k.k.z.z.z.k.k.k.s.s.p...| ` ) S m 0 2 < # X # # < 8 m ) | p.s.k.z.z.z.z.z.z.k.k.z.k.z.z.k.z.k.k.k.k.s.s.k.s.s.s.s.s.s.s.s.s.s.s.s.s.s.s.s.s.s.s.s.s.s.s.s.s.p.p.p.....| | | ` ` ` ) ) ) S S S Z Z Z Z Z Z Z Z Z Z S Z S S S S S S S S S S S S S Z Z Z Z Z Z Z Z Z Z S S S S S S S S S S S S S S Z Z Z Z Z m b b b b 0 0 0 0 0 0 0 0 0 0 0 0 0 0 0 0 0 8 2 2 % % # X X     . o @ = ; 5 7 w N H _  .X.p.s.p.p.p.p...| | ` ` ) ) ) ) S S S Z S Z Z Z Z Z Z m Z Z Z Z Z m m m b b 0 0 0 0 0 0 0 0 0 0 8 8 2 < % # X X     . . + @ ; ; 6 e N H _ ..a.s.s.s.p...| ) S S Z Z Z Z S S S S S S S Z S Z Z m b 8 3 < # # X # < 0 m ` p.z.Z.F.J.J.J.J.H.H.H.H.F.H.F.F.F.F.Z.F.Z.F.Z.F.Z.F.Z.Z.F.Z.F.Z.Z.F.Z.F.Z.Z.",
"V.V.V.V.V.z.z.z.z.k.k.s.s.s.s.k.s.k.k.k.z.z.z.V.V.V.Z.Z.Z.F.F.F.F.H.H.H.H.H.H.H.H.H.F.F.Z.V.z.k.s.p.p...............p.p.p.p.s.s.k.s.k.k.k.k.k.k.k.k.k.s.s.s.p.p...........p.p.s.s.s.s.p.....` ` ) ) ) ) ) ` | | ......p.p.p.p.....| ` Z b 8 < # X # % 8 m S ..k.z.Z.F.H.H.H.H.F.F.F.F.Z.Z.Z.V.V.z.z.k.k.s.p.p.p.p...p.p.p.s.s.k.k.k.k.k.k.k.k.k.s.s.p.p...| ` ) S m 0 2 < # # X # % 2 0 Z ) | p.s.s.k.s.s.s.p.s.s.p.s.p.p.s.p.p.p.p.p.p.p...p...............p...p...p.......p...p.....p.p.........| | ` ` ` ) ) ) S S S Z Z Z Z Z m m m m m m m m m m Z Z Z Z Z Z Z Z Z Z Z m Z m m m m m m m m m m Z Z Z Z Z Z Z Z Z Z Z Z m Z m m m m b b b b 0 0 0 0 8 8 8 8 8 8 8 8 8 8 8 0 0 8 8 8 8 2 < % # X X     . o o + * ; 5 7 t N F D ) | ........| | ` ` ) ) ) ) S Z Z Z Z m Z m m m m m b m m m b m b b b b b 0 0 0 8 8 8 8 8 8 8 8 8 8 2 < % % X X X       . O O * - 4 6 B M D _ | X.....| ` ) Z Z m m m b m m m m m Z Z m Z m m m b 0 8 < % # o # & 3 0 A ` p.z.F.H.H.J.J.J.J.H.H.H.H.H.F.F.F.F.F.Z.Z.Z.Z.Z.Z.F.Z.F.Z.Z.Z.Z.Z.Z.Z.Z.Z.Z.",
"V.V.V.V.V.z.z.z.k.k.k.k.k.k.s.s.k.s.k.k.k.z.z.z.V.V.V.Z.Z.Z.F.F.F.H.H.F.H.H.H.H.J.H.H.F.F.V.z.k.s.s.............p.p.p.p.s.s.s.s.s.k.s.k.k.k.k.k.k.k.s.s.p.p.p.........| ..p.p.p.p.p.p.p...| ` ` ) ) ) ) ` ` ` | ........p...p.p...| ) Z b 8 < # # # % 8 b ) ..s.V.Z.F.H.H.F.F.F.F.F.F.Z.Z.Z.V.V.V.z.z.k.s.p.p...p.....p.p.s.s.s.k.k.k.k.k.k.k.s.s.s.p.....| ` ) S m 0 2 < % X X # % 2 8 m Z ) ` | | | | | | | | | | | | | | | | | | | ` ` ` ` ` ` ` ` ` ` ` ` ` ` ` ` ` ` ` ` ` ` ` ` ` ` ` ` ` ` ) ) S S S Z Z Z m m m m b b b b 0 b b 0 0 b 0 b b b b b b b b b b m b b b b b b b 0 b 0 0 0 b b b b b b b b m m b b b b b b b b b 0 0 0 0 0 8 8 8 2 2 2 2 2 2 2 2 2 2 2 2 2 2 2 8 2 2 2 < < # X X X     . . + * = ; 5 7 e r V A D S ) ` ) ) ) S S S S Z Z m Z m m m b b b b b 0 0 0 0 0 0 0 0 0 0 0 0 8 8 8 8 2 2 2 2 2 2 2 2 2 2 < < % % X X           . o O + * - 6 9 q M D _ ` ` ` ) S Z b b 0 0 0 0 0 0 b b b b b b b b 0 0 0 8 2 < & # $ # & 3 q Z ' s.V.Z.H.J.J.J.J.J.J.H.H.H.H.F.F.Z.Z.Z.Z.Z.Z.Z.Z.Z.Z.Z.Z.Z.Z.Z.V.Z.Z.Z.Z.Z.Z.",
"V.V.V.V.V.V.z.z.z.z.k.k.k.k.k.k.k.k.k.k.k.k.z.z.z.V.V.Z.Z.Z.Z.F.F.F.F.H.H.H.J.J.J.J.H.H.F.Z.V.z.s.p.p.........p.p.s.p.s.s.s.s.s.s.s.s.k.s.s.s.s.s.s.s.s.p.p...| | | | | | | ....p.p.....| | ` ` ) ) ) ) ` ` | | ......p.p.p.......| ` S b 8 < % # # % 2 m S ..s.V.Z.F.F.F.F.F.Z.Z.Z.Z.Z.Z.Z.Z.Z.V.V.z.k.k.s.p.p.......p.p.p.s.s.s.s.s.s.s.s.s.s.s.p.p.....| ` ) S m b 2 < # X X X # % 2 0 b Z S S ) ) ) ) S S S S S ) S S ) ) S S S S S Z S Z S Z S S Z Z S Z Z Z Z S Z S Z S Z Z S Z S Z Z Z Z Z m Z m m b m b 0 b 0 0 0 0 0 8 8 8 8 8 8 8 8 8 8 8 8 8 0 8 0 0 0 8 0 8 0 0 8 0 8 8 8 8 8 8 8 8 8 8 8 0 8 0 8 0 0 0 0 0 8 0 8 8 8 8 8 8 8 8 2 2 2 2 2 < < < < % % < < < < < < < < < < < < % % # X X         . o * * ; 5 5 6 w r n M A Z Z Z Z Z m m m b b b b 0 0 0 0 0 0 8 8 8 8 8 8 8 2 8 8 2 2 2 2 2 2 2 < < < < % < < % < % % < % % % # X X           . . . o $ * - 1 9 q m m m Z Z m b 0 0 8 2 2 2 2 2 2 8 8 8 8 8 8 8 8 8 8 2 3 < & & $ $ $ & 3 n D | a.z.Z.H.H.J.J.J.H.H.H.H.H.F.F.F.F.Z.Z.Z.Z.Z.Z.Z.Z.Z.Z.Z.Z.Z.Z.Z.V.V.V.V.V.V.",
"V.V.V.V.V.z.V.z.z.z.z.z.z.k.k.k.s.k.k.k.k.k.k.z.z.z.V.V.V.Z.Z.Z.F.F.F.H.H.H.J.J.J.J.J.J.H.Z.V.z.k.p.p.......p.p.p.s.s.s.s.s.s.s.s.s.s.s.s.s.s.s.s.s.p.p.......| | | | ` | | | ........| | | ` ` ) ) ` ` ` ` | | | ....p.p.p.p.p...| ) S b 8 < # # # % 8 m S ..s.z.Z.F.F.F.F.Z.Z.Z.Z.Z.Z.Z.Z.Z.Z.Z.V.V.z.k.s.p.p.........p.p.p.p.p.s.s.s.s.s.p.s.p.p.p...| | ` ) S m 0 8 < % X X X X # < 2 8 0 b b m b m b m b b m b m b b b m b b b b b b b 0 b b b b 0 b b b b b b b b b b b b b b b b b b b 0 0 0 0 0 8 8 8 8 8 2 2 2 2 2 2 < 2 < < < < < 2 < < 2 < 2 2 2 2 2 2 2 2 2 2 2 2 < < 2 < < < < 2 < 2 2 2 2 2 2 2 2 2 2 2 2 2 2 2 2 2 2 < < < < < < % % % % % # % % % % % # % % % % % % % % # % # X X X         o + * - ; 5 5 7 6 w 9 q q 0 b b 0 0 0 8 0 8 8 8 2 8 2 2 2 2 2 2 < 2 2 < < < < < < < < < < < % % % % % # # # # % # # # # # # X X X             . . . . o o $ & < 3 8 8 0 0 0 0 8 2 2 < < % < < < < < < < < < < < < < < < < & % $ $ $ $ 4 9 n D | d.x.Z.H.J.J.J.J.J.H.H.H.H.H.F.F.Z.Z.Z.V.Z.Z.Z.Z.Z.Z.Z.V.Z.V.V.V.V.V.V.V.V.V.",
"V.V.V.V.V.V.V.V.z.z.z.z.z.k.z.k.k.k.s.k.k.s.k.k.z.z.z.V.V.V.Z.Z.Z.F.F.F.H.H.J.J.J.K.J.J.H.F.V.z.k.p.p...p...p.p.s.s.s.k.k.s.s.p.s.p.p.p.p.p.p.p.p.p.p.......| | ` ` ` ` ` ` | | | | | | | ` ` ` ` ` ` ` | | | ........p.p...p.....| ` Z b 8 < % # # % 8 b ) ..k.V.Z.Z.F.Z.Z.Z.V.V.V.V.Z.Z.Z.F.Z.Z.Z.V.z.z.s.s...p.........p.p.p.p.p.p.p.p.p.p.p.p.......| | ` ) S m b 8 < # X X X X X # % < 2 2 8 8 8 8 8 8 8 8 8 2 8 8 8 8 8 2 8 8 8 2 8 2 2 2 2 2 2 2 2 2 2 2 2 2 2 2 2 2 2 2 2 2 2 2 2 2 2 2 2 2 2 < 2 < < < < < < % % % % % % % % % % % % % % % % % % % % % % % % % % % % % % % % % % % % % % % % % % % % < % % < % % % % % % % % % % % # % # # # # # X # # # # # X # # # # # # X # # X X X           X o o * * ; 5 ; 4 4 1 1 3 2 3 2 2 2 2 2 2 < < < < % < < % < % % % % % % % % % % % % # # # # # # # X # X X X # X X X X X # X X X X X                     . o X $ # & < < 2 < 2 < < % % # % # # # # % # # % % % % % % % % % & # $ $ $ * - 4 w M D X.d.V.Z.H.H.J.J.J.J.H.H.H.F.F.F.Z.Z.Z.Z.Z.V.V.V.V.V.Z.V.Z.V.V.V.V.V.z.z.V.z.z.",
"V.V.V.V.V.V.V.z.V.V.V.z.z.z.k.k.s.k.s.s.s.s.k.k.k.z.z.z.V.V.V.Z.Z.Z.F.F.H.H.J.J.K.K.K.J.H.F.Z.z.k.p.p.p...p.p.s.s.k.k.k.s.s.s.s.p.p.p.p...p.p.p.p...p.....| | | ` ` ` ` ` ` ` ` ` ` ` ` ` ` ` ` ` ` ` ` | | | ..........p.p.p.p...| ) S b 8 < # # # % 2 m ) ..s.z.Z.Z.F.Z.Z.V.V.z.V.V.V.Z.F.F.F.F.Z.Z.z.k.k.s.p.............p.p.p.p.p.p.p.p...p.......| | ` ` ) S m b 8 < % X X     X X # # # % % < % % < % % % < % % % % % % % % % % % % % % % % % % % % % % % % % % % % % % % % % % % % % % % % % % % # % # % # # # # # # # # X X # X # X # X X # X # # X # # # # # # # X # # X # # X # X X X # X # X X # # # X # # # # # X # # X # # X X X X X X X X X X X X X X X X X X X X X X X X X X X             . o $ * = - ; 5 5 4 4 1 & & % % % % % # % % # % # # # # # # X # # # # # X X X X X # X # X # X # X X X X X X X X X X X X X X X X                       .     o   # # & % % # % # # # # # X # X X # X # # # # # # X X # X # $ $ o * * * - 7 r V ]  .d.V.F.H.H.J.J.J.H.H.H.H.H.F.F.F.Z.Z.Z.V.Z.V.V.Z.V.V.V.V.V.V.V.V.z.V.z.z.z.z.",
"V.V.V.V.V.V.V.V.V.z.V.V.z.z.z.k.k.s.s.s.s.s.s.k.k.k.k.z.z.z.V.V.V.Z.F.F.F.H.J.J.K.K.K.J.J.F.Z.V.k.s.p...p.p.p.s.s.s.k.s.k.k.s.s.p.p...p...p.....p.........| | ` ` ` ) ) ) ` ) ) ` ) ) ` ` ` ` ` ` ` | | | | | ....................| ` Z b 8 < # X # < 8 m S ..s.V.Z.Z.Z.Z.Z.V.V.V.z.V.V.Z.Z.Z.F.F.F.V.V.z.k.s.p.p.....................p...p.p.........| | ` ` S S m b 8 < # X X         X X X # # X # # X # # # X # X # # # X X # # # X # X # X X # X # X X X X X X # X # X # X # X # X # X X X X X X X X X X X X X X X X X X X X X X X X X X   X X X X X X X X X X X X X X X X X X X X X X X X X X X X X X X X X X X X X X X X X X X X   X X X X X X X X   X   X     X X   X   X X       X             X o o * - = ; 5 ; ; = & $ # # # X X X X X X X X X X X X X X X X X X X   X X X X X X X X X X X X X X X X X X X X X X X X X X X X X   X             X     X   X X X X X # # # # # # # # # X # X X # X X X X X X X X X X X X   X X o $ * = - 7 r F ]  .d.z.A.H.J.J.H.J.J.H.H.H.F.F.Z.Z.Z.V.V.V.V.V.V.V.V.V.V.V.V.V.z.z.z.z.z.z.z.z.",
"Z.V.V.V.V.V.V.V.V.V.V.z.z.z.k.k.s.s.s.s.s.s.s.s.s.k.k.k.z.z.z.V.V.Z.Z.F.F.H.J.J.K.K.K.J.H.H.Z.z.k.s.p.p.p.p.p.s.s.k.s.k.k.s.s.p.p.p.........p...........| | | ` ` ` ) ) ) ) ` ) ) ) ) ` ` ` ` ` ` | ` | | | | | ....| ..........| | ) Z b 8 < # # # % 8 m S ..k.V.Z.Z.F.Z.V.V.z.z.z.V.V.V.Z.F.F.F.F.Z.V.z.s.p.p.........| ..........p.......p.......| | | ` ) ) S m b 8 < % X X                     X                         X       X           X     X     X       X   X       X       X                         X           X                     X               X         X       X       X             X X                                           X     X       X         X                     o o $ * ; ; ; ; ; * * $ o   X         X         X           X           X   X X   X X # X # # # # # # # # # # # # # # # # # # X # # X X # # X # X # # # # # # # # # # # # # # # # # # # # # # # # # # # # X # X X   X     o o O @ * ; 5 e t F ] +.l.C.Z.H.J.H.J.H.H.H.H.F.F.F.F.Z.Z.V.V.V.V.V.V.V.V.V.V.V.V.z.z.z.z.z.z.z.k.z.",
"V.Z.V.Z.Z.V.V.V.V.V.V.z.z.z.k.k.s.s.s.s.p.p.s.s.s.k.k.k.z.z.z.V.V.V.Z.Z.F.F.H.J.J.J.K.J.H.F.Z.V.k.k.s.p.p.p.s.s.s.k.k.s.s.s.p.p...........p...p.p.p.......| | ` ` ) ) ) ) ) ) ) ) ` ) ` ` ` ` ` | | | | | | | | | | | | ..| ....| ` ) Z 0 8 % # # # % 8 m S ..s.z.Z.Z.Z.Z.V.V.z.z.z.z.V.Z.Z.Z.F.Z.Z.V.z.z.s.s.....| | | ................p.........| | | | ` ) ) S m 0 8 < # X                     . .   .   .       .     .   .   . .   .   .   .     . .   .   .     . .   .   .     . .   .       .   .   .   .   .     . .   .     . .       .   .   .   .     .   . .     .   . .   .   .     . .     . .   .   .   .   .   .   .         .     .     . .   . .     . .     .   .     .           . o o + $ * ; ; ; ; ; = = + o . . .       .     .   .   .     o   .       .   . X o X # # % % % < < < < < < % % < % < < < % < < < < < < < < < < < < < < < % < < % < < < % < % < < < % < < < < % < < < < < % < % % # # # o X o o o + @ * ; 5 5 t F { X.l.V.F.H.H.J.J.J.H.H.H.F.F.F.Z.Z.Z.V.V.V.V.V.V.V.V.V.V.V.z.z.z.z.k.z.z.k.z.k.",
"Z.V.Z.V.V.V.V.V.V.V.z.z.z.k.k.k.s.s.p.p.p.s.s.s.s.s.k.k.k.k.z.z.V.V.V.Z.Z.F.H.H.J.J.J.J.H.F.Z.z.k.k.s.p.p.s.s.s.s.s.s.s.s.p.p.p.p.............p.p.p.p.p.....| ` ) ) ) ) ) ) ) ) ) ) ` ) ` ` | | | | | | | | | | | ` | | | | | | ` ` S m 0 2 % # X # % 8 m ) ..s.V.Z.Z.Z.Z.V.z.z.z.z.z.V.V.Z.Z.Z.Z.Z.V.z.k.s.p...| | | | | | | ....................| | | | ` ) S Z m 0 8 < % X X         . .   . . . . . . . . . . . . . . . . . . . . . . . . . . . . . . . . . . . . . . . . . . . . . . . . . . . . . . . . . . . . . . . . . . . . . . . . . . . . . . . . . . . . . . . . . . . . . . . . . . . . . . . . . . . . . . . . . . . . . . . . . . . . . . . . . . . . . . . . . . . . . . . . . . . . o o o * * ; ; ; > ; ; = = @ o O . . . . . . . . . . . . . . o . o . o . . . .   o $ & & < 2 2 8 8 8 8 8 8 8 0 8 8 8 0 8 8 8 8 8 8 8 8 8 0 8 0 8 8 8 0 8 8 8 0 8 0 8 8 8 8 8 8 8 2 8 8 8 8 8 0 8 8 0 8 8 8 8 8 2 3 & % # $ o o o + + @ = = y 7 t G {  .l.x.Z.H.H.J.H.H.H.F.F.F.F.Z.Z.Z.Z.V.V.V.V.z.V.V.V.V.z.z.z.z.z.z.k.z.z.k.k.k.",
"Z.Z.Z.Z.Z.V.V.V.z.z.z.z.k.k.s.s.s.s.p.p.p.p.p.p.s.s.s.k.k.k.z.z.z.V.V.V.Z.F.F.F.H.H.H.H.F.F.Z.z.z.k.s.s.s.p.s.p.s.s.s.s.s.p.p.........p...p.p.p.p.p.p.p.....| ` ` ` ) ) ) ) ) ) ) ` ` ` ` ` | | | ..| | | | ` | ` ` ` ` | ` ` ` ` ) S m 0 2 % # # # % 8 b ) ..k.V.V.Z.Z.Z.V.V.z.k.z.z.z.V.V.Z.Z.Z.V.V.k.s.p.....| | | | | ..........p.............| ..| ` ` ) S Z m 0 2 < % X X       .   . o o o o . O O . O . O O . O O . O . . O . O O . O . O . O . . O . O . O . O . O . O . O O . . O . O O O O . O . . O . O . O . . O . O . o O . O . O . . O O . . O . . O O . . O . O . O . . . O . O O . O . O . O . . O . O . O . O . O . O O . O O O o . o O O o o . . O O . . O o . O . O . O O . o o o o O * * * = = > = > ; = = * O O O . . O . . O . . . . O . o o o o o o o o o o o $ & & 3 8 0 n b m m Z m Z m m m m m m m m m m m m Z m m Z m m m Z m m Z m m Z m m m m m m m m m m m m m m m m m m m m Z m m b b 0 8 3 1 & $ $ * * @ @ : > 5 7 t F ] +.l.V.G.F.H.J.H.H.H.F.F.Z.Z.Z.Z.V.Z.V.V.V.V.V.V.z.z.z.V.z.z.z.z.z.z.z.k.z.k.z.",
"Z.Z.Z.Z.Z.V.V.V.z.z.z.k.k.s.s.p.p.p.p.p.p.p.p.p.p.s.s.s.k.k.k.z.z.z.V.V.V.Z.Z.F.F.H.F.F.F.Z.V.V.z.k.s.s.s.s.s.s.s.s.p.p.p.p.p.............p.p.s.s.s.s.p.p...| | ` ` ) ) ) ) ) ) ) ` ` ` ` | | | ..| | | | ` ` ` ` ) ) ` ` ) ` ` ) S Z b 0 2 % # X # % 8 m ) ..s.z.Z.Z.Z.Z.V.V.z.k.z.z.z.z.V.V.V.V.V.z.k.s.p...| | | ` | | | ..........p.............| | ` ) ) S Z b 0 8 < % X         . o o o + + @ @ O O + O O O + + O O + + O + O + O O O O + O + + + + O O O O O O + O + O + O O O + O @ O + O O + + O + + O + O + O + + O + O @ O O @ O @ O + + + + O + + + O + + + + + + + + + O + + + O + @ O @ O O + O + O + O O + + + O @ O @ O O O @ O O @ O @ O @ @ O @ O @ O O @ + + + + + O @ + + + O @ + * @ = = = = = > > : = : = = @ + + O + + O + O + O @ O @ + + * * $ + * + @ + * * & 1 3 9 n m A S ) ) ` ) ) ) ) ) ) ) ` ) ) ) ) ) ` ) ) ` ) ) ` ) ) ` ` ) ) ` ) ) ) ) ) ) ) ) ) ) ) ) ) ) ) ) ) ) ` ) ` ) ` ) S S M b q 3 1 - * = = @ : = > y 7 t G ] X.l.C.F.F.H.H.H.F.F.F.Z.Z.Z.Z.Z.Z.V.V.V.V.V.V.V.z.z.z.z.z.z.z.z.k.z.k.z.k.z.k.",
"Z.Z.Z.Z.Z.V.V.V.z.z.k.k.s.s.s.s.p.p.p.....p.p.p.p.s.s.s.s.k.k.k.z.z.z.V.V.V.Z.Z.Z.Z.Z.F.Z.Z.V.V.z.k.k.k.k.s.s.p.p.p.p.p.p...p.........p.p.p.p.s.s.s.s.s.p...| | ` ) ) ) ) ) ) ` ` ` ` ` | | | | | ....| | | ` ) ) ) ) ) ) ) ) ) ) S Z b 8 < % # X # % 8 b ) ..k.V.Z.Z.Z.Z.V.z.z.z.k.z.z.z.V.z.V.z.z.k.s.p...| | ` ` ` ` | | | ..........p.......| | | | ` ` ) S Z b 0 2 < # X X     . . o + * * * * * = @ = = @ @ @ @ @ @ @ @ = = @ @ @ @ @ @ @ @ = @ @ @ = = @ @ @ @ = @ @ @ = @ @ = @ @ @ @ @ @ @ @ @ * @ = @ @ = = @ @ = = @ * * * = * * * * @ = @ @ = * = @ = @ * @ = @ * * = @ @ = * = = * * * * @ @ = = @ * @ = = = * * @ * * * * = = * = * * * * * * * = * = = * * * * * * = * * * * * * * * * * = = ; ; > > ; > > ; ; = = = = = = * @ = = = * * * = * * = = * * * * * = * * = 4 6 9 n A _ ` | ..p...p.p...p.............p.............................p.....p.....................................p.p.p.....` _ A n q 6 4 - ; = : @ : ; y 7 t V { X.l.z.Z.H.H.H.H.H.F.Z.Z.Z.V.Z.V.V.Z.V.V.V.V.z.z.V.z.z.z.z.k.z.z.k.k.z.k.z.k.z.",
"F.F.Z.Z.Z.V.V.z.z.k.k.s.s.p.p.p.p.p...p...p.p.p.p.s.p.s.s.k.k.k.k.z.z.z.V.V.V.Z.Z.Z.Z.Z.Z.V.V.V.z.k.k.k.s.s.s.s.p.p.p.p.............p...p.p.s.s.s.s.s.s.p.....| ` ` ) ) ) ` ` ` ` ` ` | | | ......| ..| | ` ` ) ) S S S ) ) ) S S S m b 8 < # # X # < 8 m ) ..s.V.Z.Z.F.Z.V.V.z.z.z.z.z.z.z.z.z.z.k.k.s.p...| ` ` ` ` | ` | ..| ......p...........| | ` ` ` S S Z b 0 2 % # X X     . . $ * * ; ; ; ; ; ; ; = ; ; ; ; = ; ; ; = = ; ; ; ; ; ; = ; = ; ; ; = ; ; ; = ; ; ; ; = ; ; = ; ; = ; ; ; ; ; ; = ; ; ; = ; ; ; ; ; ; = ; ; ; = ; ; ; ; ; ; = ; ; ; ; = ; = ; ; ; = ; ; ; = ; ; ; ; = ; ; ; ; ; ; ; ; = ; ; ; ; ; ; = ; ; ; ; ; = ; ; ; ; ; ; ; ; ; ; ; ; ; ; ; ; ; ; ; ; ; ; ; ; ; ; ; ; ; ; ; ; ; ; ; ; 5 ; > > ; y > ; ; ; = ; ; = = ; = ; ; ; ; ; ; ; ; ; ; ; ; ; = = = ; 4 5 w r A _ | p.s.k.k.k.k.k.k.k.k.k.k.k.k.k.k.k.k.k.k.k.k.k.k.k.k.k.k.k.k.k.k.k.k.k.k.k.k.k.k.k.k.s.k.k.k.k.k.k.k.k.k.k.z.k.k.s.p.| _ A N w 6 ; ; = : @ : > 5 7 t F ] X.l.C.F.F.H.H.H.F.F.Z.Z.V.Z.V.Z.V.V.V.V.V.V.V.V.z.z.z.z.z.z.z.z.z.z.z.z.k.z.k.",
"F.Z.F.Z.Z.Z.V.V.z.k.k.s.s.s.p.p...p.....p...p.p.p.p.s.s.s.s.s.k.k.k.k.z.z.z.z.V.V.V.V.V.V.V.z.z.z.z.k.k.k.s.s.p.p.p.p...p.............p.p.p.s.k.k.k.k.s.s.p...| ` ` ) ` ) ) ` ` ` ` | | | | ..| | ..| | ` ` ) ) ) ) S S S S S S S Z m 0 8 < % X X # % 8 m ) | k.z.Z.Z.Z.Z.V.V.z.z.z.z.z.z.z.z.z.z.k.s.p.....| ` ` ` ` ` | | | ....................| | ` ` ) S S Z b 8 2 < % #       o o * * ; ; ; 5 y ; y 5 5 5 5 5 5 5 5 5 5 5 5 5 5 5 5 5 5 y 5 5 5 5 5 5 5 5 y 5 5 5 5 5 5 5 5 5 5 5 5 5 5 5 5 5 5 5 5 5 5 5 5 5 5 5 5 5 5 5 5 5 5 5 5 5 5 5 5 5 5 5 5 5 5 5 5 5 5 5 5 5 5 5 5 5 5 5 5 5 5 5 5 5 5 5 5 5 5 5 5 5 5 5 5 5 5 5 5 5 5 5 5 5 5 5 5 5 5 5 5 5 5 5 5 5 5 5 5 5 5 5 5 5 5 5 5 5 5 5 5 5 5 5 5 5 5 y 5 i 5 5 i 5 5 5 5 5 5 y 5 5 5 5 5 5 5 ; 5 5 5 5 ; 5 ; 5 ; ; > ; ; ; 5 7 t N D _ X.d.k.V.V.Z.Z.V.V.V.V.V.V.V.V.V.V.V.V.V.V.V.V.V.V.V.V.V.V.V.V.V.z.V.V.V.V.V.V.V.z.V.V.V.z.V.V.V.V.V.V.V.V.Z.V.V.z.x.d.a.' D V w 7 5 ; = : : : > y e t G ] X.l.V.Z.H.H.H.F.F.Z.Z.Z.V.V.V.V.V.V.V.V.V.z.V.z.z.z.z.z.k.z.k.k.z.k.k.k.z.k.z.",
"F.F.Z.F.Z.V.V.z.z.k.k.s.s.s.p.p.p.p...p...p.p.p.p.p.p.s.s.s.k.k.k.k.k.k.k.z.z.z.V.V.V.z.V.z.z.z.z.k.k.k.k.s.s.p.p.p.p.p...........p.p.p.p.s.s.k.s.k.k.s.p.p...| ` ` ) ) ) ` ` ` | | | | | ..| ....| | | | ` ) ) ) S S S S S S S Z Z m 0 8 < # # X # % 2 b ) ..s.V.Z.F.Z.Z.Z.V.z.z.z.z.z.z.z.z.z.k.k.s.s.p...| ` ` ` ` | ` | | ....| ........| ..| | ` ` ` ) ) Z Z b 0 2 % % X X   o o o * = ; y 5 5 i 5 5 7 e 7 e e e 7 e 7 e 7 7 e 7 7 e 7 7 e 7 7 e 7 7 7 e 7 7 e e 7 7 e e 7 7 e 7 7 7 e e 7 7 e 7 7 e 7 e e 7 e e 7 7 e 7 e e 7 e 7 7 e e 7 7 e 7 e 7 e 7 e e 7 7 e e 7 e 7 7 e e 7 e 7 7 e 7 7 e 7 e 7 e 7 e 7 e 7 e 7 e 7 7 e 7 e 7 e 7 e 7 e 7 e 7 e 7 7 7 e 7 e 7 7 e 7 7 e 7 7 e 7 e 7 e 7 e 7 e e 7 e 7 e 7 e 7 7 e 7 7 7 7 7 7 7 7 7 7 7 7 7 7 7 5 5 i 5 5 y > ; > > > > 5 7 t V ]  .a.l.V.Z.F.F.F.F.F.F.F.Z.F.Z.Z.F.Z.Z.Z.Z.Z.Z.F.Z.F.Z.F.Z.F.F.Z.Z.Z.Z.Z.Z.Z.Z.Z.Z.Z.Z.Z.Z.Z.Z.Z.Z.Z.Z.Z.Z.Z.F.F.Z.Z.V.k.d. ._ V r 7 5 > : : : : ; y e t V ] X.d.V.G.F.H.H.F.F.Z.Z.V.V.V.V.V.V.V.V.V.z.V.z.V.z.z.k.z.z.k.z.k.z.k.z.k.z.z.k.",
"F.F.F.Z.Z.Z.Z.V.z.k.k.k.s.s.p.p.p...p.....p.p.p.p.s.s.s.s.s.s.s.s.k.k.k.k.k.z.z.z.z.z.V.z.z.z.z.z.k.k.k.s.s.s.s.p.p.p.p.p.p.p.p.p...p.p.p.s.s.s.k.k.s.s.s.....| | ` ` ` ` ` ` ` ` | | | | | ..| ..| | | ` ` ` ) ) ) ) S S S ) S S Z b 0 2 < # X X # < 8 m ) ..k.z.Z.Z.F.F.Z.Z.V.V.z.z.z.V.z.z.k.k.k.s.p.....| | ` ` ` ` | | | | ..| | | | ..| | | | ` ` ` ) S S Z b 0 2 < # X X     o + * = ; 5 5 i f e f t t t B t t B t B B t B t t B t B B t t B t B B B t B B t t B B t t B B t B B B t t B B t t B t B t t B t t B B t t t t B t B B t t B B t B t B t B t t t B t t B t B B t t B t B t B t B B t t B t B B t t B t B B t B t B t B t t B B t B t B B t B t t B t t B t B B t B t t B t B t B t B t t B t B B B t t B t t t t t t t r t t t t t t t e e f i 5 y y > > > > > > i 7 t F {  .d.x.Z.F.F.H.H.H.H.H.F.H.F.H.F.F.F.F.F.F.F.F.F.H.F.H.F.H.F.F.F.F.F.Z.F.F.F.Z.F.Z.F.Z.F.F.F.Z.F.Z.F.F.F.F.F.F.F.F.Z.V.z.a.| D V r 6 ; = = @ = : > 5 7 t F ] +.l.V.Z.H.H.H.H.F.F.Z.Z.V.Z.V.V.V.V.V.V.V.z.z.z.z.z.z.z.k.z.k.z.k.z.k.z.z.k.z.",
"F.Z.F.Z.Z.Z.V.V.V.z.k.k.s.s.s.p.p.p.p...p.p.p.p.s.p.s.s.s.s.s.s.s.s.s.s.k.k.k.k.z.z.z.z.z.z.z.k.k.k.s.s.s.s.s.p.p.p.p.p.p.p.p.p.p.p.p.s.s.s.s.s.s.s.s.s.p.....| ` ` ` ` ` ` | ` | | | | ..| | | | | | | ` ` ` ` ) ) ) ) S ) S S Z Z m 0 2 < # # X # < 8 m ) ..s.V.Z.Z.F.F.Z.Z.V.V.V.z.V.z.z.z.z.k.k.s.p.p.....| | | ` ` ` | | | | | | | | | ` | ` ` ` ` ` ) ) S Z b 0 8 < # X X   . o + * - ; 5 5 i e t B C C F G F F F F F F F F G F F F F F F F F F F F F G F F F F F G F F F F F F F F F F F F F F F F F F F F F F F F F F F F F F G F F F F F F G F F F F G F F F F G F F F F F F F G F F F F F F F F F F F F F F F F G F F F F F F F G F F F F F F F F F F F F F F F F F F F F F F F F F F F F F F F F F F F F F F F V F V V V N V V N V V V F F V N B t e e 7 y y y > , > > y y 7 t V ] X.l.z.Z.H.H.H.H.J.H.H.H.H.H.H.H.H.H.F.H.H.H.H.H.H.H.H.H.H.H.H.H.F.F.F.F.F.F.F.F.F.F.F.F.F.F.F.F.F.F.F.F.F.F.F.F.F.Z.V.k.d. .D M w 6 = = = : @ : > 5 7 t F {  .d.C.Z.H.H.H.H.F.F.Z.Z.V.V.V.V.V.V.z.V.z.z.z.z.z.k.k.k.z.k.z.z.z.z.k.k.z.z.k.",
"F.F.F.F.Z.Z.Z.V.V.z.z.k.k.s.s.s.p.p.p.p.p.p.p.p.s.s.s.k.k.k.s.s.s.s.s.s.s.s.k.k.k.z.z.z.z.z.k.k.s.s.s.s.s.s.s.p.s.s.p.s.p.s.s.p.s.s.p.s.s.s.s.s.s.s.s.p.p.....| ` ` ` ` ` ` ` | | | | ..| | | | ` | | ` | ` ` ` ` ` ) ) ) ) ) S Z Z b 0 2 < # # X # % 8 b ) ..k.V.Z.F.F.F.F.F.Z.Z.Z.V.V.V.V.z.z.k.k.k.s.p.p...| | | | | | ` ` | ` | ` ` ` ` ` ` ` ` ) ` ) ) S S Z m 0 2 < # X       o o * = 5 5 e f t C C H H ] ] ] { { { ] ] ] ] { ] ] ] ] ] { ] { ] ] ] ] ] { ] ] ] ] ] ] ] { ] ] ] ] ] ] ] { ] ] ] ] ] ] ] ] ] ] ] ] ] { ] ] ] ] ] { ] ] ] ] ] ] ] ] { ] ] { ] ] { ] ] ] ] { ] ] ] { ] ] ] { ] ] ] ] ] ] ] _ ] ] ] ] ] { ] ] { ] ] ' ] { ] { ] { ] ] ] ] ] _ _ ] ] { ] ] ] ] ] { ] ] ] ] ] ] ] ] ] ] ] ] ] ] _ ] { ] ] ] ] D H H H H H D H ] H ] ] D H F C t t i i y > , : > > > i f B F ]  .d.V.Z.F.H.J.J.J.J.J.J.J.H.J.H.H.H.H.H.F.H.H.H.J.J.J.J.H.H.H.H.F.F.F.Z.F.Z.Z.Z.F.F.Z.F.Z.F.F.Z.F.F.Z.F.F.F.F.F.F.Z.V.k.a.` D n 9 4 & @ @ @ @ = > y 7 t F { +.l.z.F.F.H.H.H.F.Z.Z.Z.V.V.V.V.V.z.V.V.z.z.z.z.z.z.z.z.k.z.k.k.z.k.z.z.k.z.k.",
"F.F.F.Z.Z.Z.Z.V.V.z.z.z.k.k.k.s.s.s.p.p.p.s.s.s.s.s.s.s.s.k.s.s.s.p.s.p.s.s.s.s.k.k.k.z.z.k.k.s.s.s.p.s.s.s.p.s.s.s.s.s.s.s.k.s.s.s.s.s.s.s.s.s.s.s.p.p.p...| | | ` ` ` ` | | | | | ..| | | | | | ` ` | ` | ` ` ` ` ` ` ) ) ) S S m m 0 2 < # X X # % 8 m ) ..s.V.Z.F.F.F.F.F.Z.Z.Z.Z.V.V.V.z.z.k.k.k.s.s.p.p.......| | | | ` ` ` ` ` ) ) ` ) ) ) ) ) ) ) ) ) S Z m 0 8 < % X X   . o + * = 5 5 i t C C H { o. . .X.X.X.X.X.X. . . .X.X. .X.X. . .X. .X.X. . .X. .X.X. . .X. . . . .X. .+. . . . .X. . .X. . .+. .X. . . .X. .X. .X.X. . .X. .X. .X.X.+. .X. .X.X.X. .X. .X. . . .X.X. .X.X. . . .X.X.X. .X.X. . .X. .+. . .X.X.X.X.X.X.X.X.X.X.X. . .X.X. .X.X.X. . . . .X. .X.+. . .X. .X. . .X.X. .X. . .X.X. .X.X.X.X. . . . .` ' ' ' '  . . . . .' { H F C t e i y y , > > > > y e t F ]  .d.z.Z.F.H.J.J.J.J.J.J.H.J.H.H.H.F.F.H.H.H.H.J.H.H.J.J.J.H.H.H.F.Z.F.Z.Z.Z.Z.Z.Z.Z.Z.Z.Z.Z.Z.Z.F.Z.Z.Z.Z.F.Z.F.Z.V.z.l...` A n 3 1 * $ + @ @ @ = 5 7 t G ] X.l.C.A.H.H.H.H.F.F.Z.Z.Z.V.V.V.z.V.z.z.z.z.z.z.k.k.z.k.z.z.k.z.z.z.k.k.k.z.k.",
"F.Z.Z.F.Z.Z.Z.Z.V.V.z.z.z.k.k.s.s.s.p.p.p.s.s.s.k.k.k.k.k.s.s.s.p.p.p.p.p.s.s.k.k.z.z.k.k.k.k.s.s.s.p.p.p.p.s.s.s.s.s.k.s.k.k.k.k.s.s.k.k.s.s.s.p.p.p.p.....| | | | | ` ` | | | ....| | | | | ` ` ` ` ` ` ` | | | | | ` ` ` ) ) S Z b 0 2 < # # X # % 8 m S | k.V.F.F.F.H.H.F.F.F.F.Z.Z.V.V.V.z.z.k.k.s.s.p.p.p.......| | ` | ` ` ` ) ) ) ) ) ) ) ) ) ) ) ) ) S Z m 0 8 < % X X   . . O @ = 5 5 e t C F {  .X.d.l.d.l.l.d.d.d.d.d.d.d.d.d.d.d.d.d.d.d.d.d.d.d.d.d.d.d.d.d.d.l.d.d.d.d.d.d.d.l.d.d.d.d.d.d.l.d.d.l.d.d.d.d.d.d.d.d.d.d.d.d.d.d.d.d.d.d.d.d.d.d.d.d.d.d.d.d.d.d.l.d.d.d.l.d.d.d.l.d.d.d.d.d.d.d.d.l.d.d.d.d.d.d.d.d.d.d.d.d.d.d.d.d.l.d.d.l.d.d.d.d.d.l.d.d.d.d.d.d.d.d.d.d.d.d.d.d.d.d.d.l.d.d.d.l.d.d.d.d.a.a.a.a.X.X.X.X.X.X.p.a.a.X.X. .' H V B e 7 i > > > : > > 5 e t F ]  .d.x.A.F.H.J.H.J.J.J.J.J.H.J.H.H.F.H.F.F.F.H.H.H.J.J.J.H.H.H.F.F.Z.Z.Z.V.V.Z.Z.Z.Z.Z.Z.Z.Z.Z.Z.Z.Z.Z.Z.Z.Z.Z.Z.V.V.z.s...) m q 2 & X o O O @ @ : 5 7 t V { +.l.V.F.F.H.J.H.H.F.Z.Z.Z.Z.Z.V.V.V.z.z.z.z.k.z.z.z.k.z.k.k.z.z.k.k.z.z.z.k.z.",
"F.F.F.Z.Z.F.Z.Z.Z.V.V.V.z.z.z.k.s.s.s.s.s.p.s.s.s.k.k.k.k.k.s.s.s.p.p.p.p.s.s.s.k.k.z.z.k.k.s.s.p.p.p.p.p.p.s.s.s.k.k.k.k.k.k.k.k.k.k.k.s.s.s.s.p.p.......| ..| ` ` | ` | | | ....| | ..| | ` ` ` ` ` ` ` | | | | | | | ` ` ) S S Z m 0 2 < # X X # < 8 m ) | k.z.Z.F.H.H.H.H.H.F.F.F.Z.Z.V.z.z.k.k.s.k.s.s.p.p.p.....| | ` ` ` ) ) ) ) ) ) S ) S ) ) ) ) ) ) S S m 0 8 < % X X   . . O @ * ; 5 e B G ] o.a.d.k.z.V.C.z.z.x.z.z.k.x.z.x.z.x.z.x.z.x.z.x.z.x.z.x.z.x.z.z.z.x.x.x.x.z.z.z.x.z.x.x.z.x.x.x.z.x.z.x.z.z.x.x.z.x.z.z.z.x.x.x.z.z.x.x.z.x.z.x.z.z.x.x.x.x.z.z.x.z.z.x.x.x.z.z.x.x.z.x.z.x.x.x.z.x.x.x.z.z.x.z.x.x.z.z.x.x.x.x.z.z.x.x.z.x.x.x.z.x.x.x.z.x.x.x.z.x.z.x.x.z.z.x.z.z.x.x.z.x.x.x.z.x.z.z.x.z.x.x.z.k.k.l.d.s.d.p.d.d.s.s.l.k.s.d.X. ._ F C e 7 5 > > : : > > 5 7 t F _  .d.x.Z.F.F.H.J.J.J.J.J.J.J.H.H.H.F.F.F.F.F.H.H.J.J.J.J.J.H.H.F.F.Z.Z.V.Z.V.Z.Z.V.V.Z.V.Z.Z.V.Z.V.V.V.V.Z.V.V.V.V.z.k.p.| _ m 0 < # $ o . O + = = 5 7 t F ] X.d.C.Z.H.H.H.H.H.F.F.Z.Z.V.V.V.z.z.z.z.z.z.z.k.z.z.z.z.k.z.k.k.z.k.k.k.z.z.z.",
"Z.Z.F.F.Z.Z.Z.Z.Z.V.V.V.z.z.z.k.k.s.s.s.s.s.s.k.k.k.k.k.k.s.s.s.p.p.p.p.p.p.s.k.s.k.k.k.k.k.s.s.p.p.p.p.p.p.s.s.k.k.k.k.z.k.z.z.z.k.k.k.k.s.p.p.p.p.......| | | | | | | | | ..| ......| | | ` ` ) ` ) ` ` ` | | | | | | ` ` ` ) S Z b 0 2 < % # X # % 2 b ) ..k.V.Z.F.H.H.H.H.H.H.F.F.Z.Z.V.V.z.z.k.k.k.s.s.s.s.p.p.....| | ` ` ` ) ) ) S S S S S S S ) ) ) ) S S m b 8 < # X X     . O * * ; 5 e B F {  .d.x.V.V.Z.Z.Z.Z.Z.V.Z.A.Z.Z.V.Z.Z.V.Z.Z.V.Z.A.Z.V.V.Z.V.A.Z.Z.V.Z.V.Z.Z.V.A.Z.V.Z.V.Z.Z.Z.V.Z.Z.V.Z.Z.V.Z.Z.V.Z.V.A.Z.V.Z.V.Z.V.Z.Z.V.Z.V.Z.V.Z.V.Z.V.V.A.V.Z.V.Z.V.Z.V.A.V.Z.V.V.Z.V.Z.Z.V.Z.V.Z.V.Z.V.Z.V.Z.V.Z.V.Z.Z.V.V.Z.V.V.V.V.V.Z.V.Z.V.Z.Z.V.Z.Z.Z.V.Z.V.Z.Z.V.Z.V.A.Z.Z.Z.V.Z.V.Z.V.V.A.Z.Z.V.V.V.V.V.V.z.z.z.k.k.k.k.k.k.z.k.z.z.l.a.| _ F N e 5 5 > : : : > y y 7 t V H  .a.x.V.F.H.H.J.J.J.J.J.J.J.H.H.F.H.F.F.F.F.H.H.J.J.J.J.J.H.H.F.F.Z.Z.Z.V.V.V.V.V.V.V.V.V.V.V.V.V.V.V.V.V.V.V.V.V.z.s.p.| S b 8 < #     . . O @ ; ; 7 t G {  .l.V.F.F.H.H.H.H.H.F.Z.Z.Z.Z.V.V.V.z.z.z.k.k.z.k.k.z.k.z.k.z.z.k.z.z.z.k.z.k.",
"F.F.Z.F.Z.Z.Z.Z.Z.Z.V.V.V.V.z.k.k.k.s.s.s.s.s.k.k.k.k.k.k.s.s.s.p.s.p.p.p.s.s.s.k.k.k.k.k.k.s.s.p.p.p.p.p.p.s.s.k.k.k.k.z.z.z.k.z.k.k.k.k.s.s.p.p.........| | | | | | | | | | ..| ....| | | ` ` ) ) ) ` ` ` ` | | | | | ` ` ) ) S Z m 0 2 < # X X # % 2 m S | s.V.Z.F.H.J.H.H.H.H.F.F.Z.Z.V.z.z.k.k.k.s.s.s.s.s.p.p.p...| | | ` ` ) ) ) S S S S S ) S ) ) ) ) ) Z m b 8 < % X X   . . O + = ; 7 e B H { X.l.x.Z.F.F.F.F.F.F.F.Z.F.F.Z.F.F.Z.F.Z.F.Z.Z.Z.Z.Z.Z.Z.Z.Z.F.F.Z.F.F.Z.F.F.F.F.F.Z.F.F.Z.F.Z.F.Z.F.Z.F.F.Z.F.F.Z.F.Z.Z.F.Z.F.F.F.Z.F.F.F.Z.Z.Z.Z.Z.Z.Z.F.Z.Z.Z.Z.F.Z.Z.Z.Z.Z.Z.Z.Z.Z.F.Z.F.Z.F.Z.F.F.F.F.Z.F.F.Z.Z.Z.Z.Z.Z.Z.Z.Z.V.Z.Z.Z.Z.Z.Z.Z.Z.Z.F.Z.F.Z.F.F.F.Z.F.F.F.F.F.F.Z.F.F.Z.F.F.Z.F.Z.Z.Z.Z.Z.Z.V.Z.V.V.z.z.z.z.z.z.z.z.V.z.z.k.k.p. ._ H N w 7 ; ; = : : : > y 7 t V ]  .d.z.Z.F.F.H.J.J.J.J.J.J.J.J.H.H.F.F.F.F.F.H.H.H.J.J.J.J.J.H.F.F.F.Z.Z.V.V.V.V.V.V.V.V.V.V.V.V.V.V.V.V.z.V.V.z.z.k.s.p.| S b 8 % #     . . O @ = 5 7 t G ]  .l.C.Z.H.H.J.H.H.H.F.F.Z.Z.V.V.V.z.z.z.z.k.k.z.k.z.k.z.k.z.k.k.z.k.z.k.z.z.k.",
"F.Z.F.Z.F.Z.Z.F.Z.Z.Z.V.V.V.z.z.k.k.k.s.k.s.s.k.s.k.k.k.k.k.k.s.s.s.s.s.s.s.s.k.k.k.k.k.k.k.s.s.s.p.p.p.p.s.s.k.k.k.z.z.z.z.z.z.z.z.z.k.k.s.s.p.p.........| | | | | | | | | ..| ..| | | ` ` ` ) ) ) ) ) ) ` ` | | | ` | ` ` ) ) S Z b 0 2 < # # X # < 8 b ) ..s.z.Z.F.H.H.H.H.J.H.H.F.F.Z.V.z.z.k.k.k.s.s.s.s.s.p.p.p.....| | ` ` ) ` ) ) S S S S S ) S S ) S S S m 0 8 < % X X   . . O @ * ; 7 e C H o.a.x.V.Z.F.H.H.H.H.H.H.F.F.F.F.F.F.F.F.F.F.F.F.F.F.F.F.Z.F.F.F.F.F.F.H.F.F.F.F.F.F.F.F.F.F.H.F.F.F.H.F.F.F.F.F.F.F.F.F.F.F.F.F.F.F.F.F.F.F.F.F.F.F.F.F.F.F.F.F.F.F.F.F.F.F.F.F.F.F.F.Z.F.F.F.F.F.F.F.F.F.H.F.F.F.F.F.F.F.Z.Z.Z.V.V.Z.Z.Z.Z.Z.Z.Z.F.F.F.F.F.F.F.F.F.H.H.F.F.F.F.F.H.F.F.H.H.F.H.F.F.F.F.F.Z.Z.V.Z.V.V.V.V.V.V.z.z.z.z.z.z.z.z.k.s.a.' ) A n w 4 ; ; = : = : ; 5 7 t V ]  .d.k.V.F.H.H.J.J.K.J.K.J.J.H.H.H.F.F.F.F.F.H.J.J.J.J.K.J.J.H.H.F.F.Z.Z.Z.Z.Z.V.Z.V.V.V.V.V.V.V.V.V.V.V.V.V.z.V.z.k.s...` S b 8 % #     . O O @ = 5 7 t F { X.d.V.Z.H.H.H.J.H.H.F.F.F.Z.Z.V.V.z.z.k.z.k.z.k.z.k.z.k.z.k.z.z.k.z.k.k.z.k.z.",
"F.Z.F.F.Z.F.F.Z.Z.Z.Z.Z.V.V.V.z.k.k.k.k.s.k.k.s.k.k.k.k.k.s.k.k.k.k.s.k.k.k.k.k.k.z.z.k.k.s.s.s.s.p.s.p.s.s.s.k.k.z.k.z.z.z.z.z.z.k.z.k.k.k.s.p.p.......| ..| | | | | | ..| | ..| | | | ` ` ) ) ) ) ) ) ) ) ` ` ` ` ` ` ` ) ) S Z Z b 0 2 < % X X # % 8 b S ..s.z.Z.F.H.H.J.J.H.H.H.F.F.Z.z.z.k.k.s.s.s.s.s.s.s.s.p.p.p.....| | | ` ` ) ) ) S S S S S ) ) ) S S Z m 0 8 < % X X     . O @ * 5 7 e C H { a.x.V.F.F.H.H.H.H.H.H.F.F.H.H.F.H.F.F.F.F.F.F.F.F.F.F.F.F.F.F.F.F.H.H.H.H.H.H.H.H.H.H.F.H.H.F.H.H.H.F.H.H.H.F.F.F.F.H.F.F.H.H.F.H.H.F.H.F.F.F.F.Z.F.F.Z.F.F.F.F.F.F.F.F.F.F.F.F.F.Z.F.F.F.F.F.H.H.H.H.H.H.F.H.F.F.F.Z.Z.Z.V.Z.V.V.V.V.V.Z.Z.Z.Z.Z.F.F.F.F.H.H.H.H.H.H.H.H.H.H.H.H.H.H.H.H.H.H.H.H.F.F.F.Z.V.V.V.V.V.z.V.z.V.V.V.z.V.z.z.z.k.s.s...` D M 9 3 4 - * = @ = = > 5 e t V ]  .a.x.V.Z.H.H.J.J.K.J.J.J.J.J.H.H.H.F.F.F.F.H.H.J.J.K.J.J.J.J.H.H.F.F.Z.F.Z.Z.Z.V.V.V.V.V.V.V.V.z.z.z.V.z.z.z.z.k.k.s...` Z b 8 < # X . . O O @ = ; 7 t F ] X.l.C.F.H.H.J.H.H.H.H.F.F.Z.Z.V.V.V.z.z.k.z.k.k.k.z.k.z.k.z.k.k.z.z.z.z.k.z.k.",
"Z.F.F.Z.F.Z.F.Z.Z.Z.Z.Z.Z.V.V.z.z.z.k.k.s.k.s.k.s.k.s.k.k.k.k.k.k.k.k.k.k.k.k.z.z.k.k.k.k.k.k.s.s.s.s.s.s.s.k.k.k.k.z.z.z.z.z.z.z.z.k.k.k.s.s.p...........| | ..| ....| | ....| ..| | | ` ` ) ) ) S S ) ) ) ) ` ` ` ) ` ` ) ) ) S Z m 0 2 < % X X # % 2 m S | s.z.Z.F.F.H.H.H.J.H.H.F.Z.Z.z.z.k.s.s.s.s.s.s.p.s.s.p.p.p.p.......| | ` ` ` ) ) ) S ) S S S ) S S Z m 0 8 < # X     . . O @ = ; 5 e C H o.a.l.V.Z.H.H.H.H.H.H.H.H.H.H.H.H.F.H.H.F.F.F.F.Z.F.Z.F.Z.F.F.F.F.H.F.H.H.H.H.H.H.H.H.H.H.H.H.H.H.H.H.H.H.H.F.H.F.H.H.F.F.F.H.F.H.H.H.H.F.F.F.F.F.Z.Z.F.Z.Z.F.F.F.F.H.F.F.F.F.Z.F.Z.F.F.F.F.H.H.H.H.H.H.H.H.H.H.F.F.F.F.Z.V.V.V.z.z.z.z.z.V.V.Z.Z.Z.F.F.F.F.F.H.H.H.H.H.H.H.H.H.H.H.J.H.H.H.H.H.H.H.F.Z.Z.Z.V.V.z.z.z.z.z.V.V.V.z.V.z.z.k.k.s.p...| ) M n 9 3 & * + @ @ = = ; y 7 t C ]  .d.x.Z.F.H.J.J.J.J.J.K.K.J.J.H.F.F.F.F.F.F.H.H.J.J.J.K.J.J.J.J.H.H.H.F.F.Z.Z.Z.V.Z.V.V.V.V.z.V.z.V.z.z.z.z.z.z.z.k.p...` Z b 2 % #     . . O @ = 5 7 t V { +.d.V.G.F.J.H.J.J.H.H.F.F.F.Z.V.V.z.z.z.k.k.k.k.z.k.z.k.z.z.k.z.k.k.z.k.z.k.z.",
"Z.F.F.Z.Z.Z.F.Z.F.Z.Z.Z.Z.Z.V.z.z.z.z.k.k.s.k.s.s.k.s.k.k.k.k.k.z.z.z.z.z.z.z.z.z.k.z.k.k.k.k.s.s.s.s.s.s.k.k.k.z.z.k.z.z.z.z.z.z.z.z.k.s.s.s.p.........| ....| ....| | ..| | | | | | | ` ) ) ) S S S S S ) ) ) ) ) ) ) ) ) S S Z Z b 0 2 < # X X # % 2 b S | s.z.V.Z.H.H.H.H.H.H.H.F.Z.V.z.k.s.s.p.p.p.s.p.s.s.p.s.p.p.p.p.......| | | ` ) ) ) ) S S ) S ) S S Z b 0 2 < # X X   . . O @ = 5 5 e C H { a.k.V.F.F.H.H.J.H.H.H.H.H.H.F.H.F.F.F.F.F.F.F.Z.Z.Z.Z.Z.Z.F.F.F.F.H.H.H.H.H.H.H.H.H.H.H.H.H.H.H.H.H.H.H.F.H.F.H.F.F.F.F.F.H.H.H.H.F.H.F.F.F.F.Z.Z.Z.Z.Z.F.Z.F.F.F.F.F.F.F.Z.Z.Z.Z.Z.F.Z.F.F.F.H.H.H.H.H.H.H.H.H.F.F.Z.Z.V.z.z.k.k.k.k.k.z.z.V.Z.Z.Z.F.F.H.F.F.H.H.H.J.H.J.H.H.J.H.H.J.H.J.H.H.H.H.F.Z.V.V.z.k.k.k.z.z.z.z.V.V.V.z.z.k.k.s.p...` ) D m 0 9 1 & o + + @ @ = > 5 7 t F ]  .d.x.A.F.H.J.J.J.K.J.K.J.J.J.H.H.F.F.F.F.F.H.H.J.J.J.J.K.J.J.J.J.H.H.H.F.F.F.Z.Z.V.V.V.V.V.z.V.V.z.z.z.z.z.z.z.k.s.p...) Z b 8 % #     . O O @ = 5 7 t G { X.d.C.F.H.H.J.J.H.H.H.H.F.F.Z.Z.V.z.z.z.k.k.k.z.k.k.z.z.k.z.z.z.k.z.k.k.z.k.z.",
"F.Z.F.F.F.F.Z.F.Z.F.F.Z.Z.Z.V.V.z.z.z.k.k.k.s.k.k.s.s.s.s.k.k.z.z.z.V.V.V.V.V.z.z.z.z.k.k.k.k.k.k.k.k.k.k.k.k.k.k.z.z.z.z.k.z.z.z.z.k.k.k.s.s.p.p.p.........| ....| ....| ....| | | ` ` ` ` ) ) ) S S S S S S S S ) ) ) ) ) S S Z Z m 0 8 < # # X # % 8 b S | s.z.V.F.F.H.H.H.H.H.F.Z.Z.V.z.k.s.s.p.p.p.p.p.p.s.s.p.p.s.p.p.p.p.....| | ` ` ) ) ) ) ) S ) S S S Z b 0 8 < % X X   . . O + = ; 7 e C H { a.l.C.Z.F.H.H.H.H.H.H.H.H.H.H.F.H.F.F.F.Z.Z.Z.Z.Z.Z.Z.Z.Z.Z.F.F.H.F.H.H.H.H.H.H.H.H.H.H.H.H.H.H.H.H.H.F.H.H.F.F.F.F.F.F.F.H.F.H.H.H.H.H.F.F.F.Z.Z.Z.Z.V.Z.Z.Z.F.F.F.F.Z.Z.Z.Z.Z.Z.Z.Z.Z.F.F.F.H.H.H.H.H.H.H.F.F.F.Z.V.V.z.k.k.s.s.s.k.k.k.z.V.V.V.Z.Z.F.F.H.H.H.H.H.H.H.H.H.H.H.H.H.H.H.H.H.H.H.F.F.Z.V.z.k.k.s.s.s.k.k.z.z.z.V.z.k.k.s.p...| ` S m n 8 1 % # $ o o O @ = ; 5 7 t C ]  .a.k.V.F.F.H.J.J.J.J.J.J.J.H.H.H.F.F.F.F.F.H.H.J.J.J.K.J.K.J.J.J.J.J.H.H.F.F.Z.Z.Z.V.V.V.V.z.z.z.z.z.z.z.z.k.k.k.s.p.| ` Z b 2 % X       . O @ = 5 7 t F ]  .l.V.Z.H.H.J.J.J.H.H.H.F.F.Z.Z.V.z.z.z.k.k.z.k.k.z.k.k.z.z.k.k.z.k.z.z.k.z.k.",
"F.Z.F.Z.Z.F.F.Z.F.Z.F.Z.Z.V.V.V.V.z.z.k.k.k.k.s.s.s.s.s.s.k.k.z.V.V.V.V.V.V.V.V.z.z.z.k.k.z.z.k.k.k.k.k.k.k.k.k.z.k.z.k.z.k.z.z.k.z.k.k.k.s.s.p.p.....................| | | | | | | ` ` ` ) ) S S S Z S S S S S S S S S S S S S S Z m 0 2 < % X X # % 2 b S | p.z.V.Z.F.H.H.H.H.H.F.Z.Z.V.k.s.s.p.p.p.p.p.p.p.p.p.p.s.p.s.p.p.p.p.....| | ` ` ) ) S ) ) S S S S m b 0 2 < # X X     . O @ = ; 5 e B H { X.l.x.Z.F.H.H.H.H.H.H.H.H.F.H.F.F.F.Z.F.Z.Z.Z.Z.Z.Z.V.Z.Z.Z.F.F.F.H.H.H.H.H.H.H.H.H.H.H.H.H.H.H.H.H.H.F.H.F.F.F.F.F.F.F.F.F.H.F.H.H.H.F.F.F.Z.Z.Z.V.V.Z.Z.Z.Z.Z.Z.F.Z.Z.Z.Z.Z.Z.V.Z.Z.Z.Z.F.F.H.H.F.H.H.F.F.F.F.F.Z.V.V.z.k.s.s.s.p.s.s.k.z.z.V.V.Z.Z.F.F.F.F.H.H.H.H.H.H.H.H.H.H.H.H.J.J.H.H.H.F.F.Z.V.z.k.s.s.s.s.s.k.k.z.z.z.z.k.s.p...| ` S Z b 0 2 % # # o o o O + = = y 7 t V ]  .d.x.V.F.H.H.J.J.K.J.K.J.J.H.H.H.H.F.F.F.F.H.H.H.J.J.J.K.K.J.K.J.J.J.J.H.H.F.F.Z.Z.V.V.V.V.z.z.z.z.z.z.k.z.k.k.k.s.p.| ) Z 0 8 % #   . . O O @ = ; 7 t F { +.l.C.F.H.H.J.J.H.H.H.F.F.F.Z.Z.Z.V.z.k.z.z.k.k.z.k.z.z.k.k.z.z.k.k.z.z.k.k.z.",
"Z.F.Z.F.F.Z.F.F.Z.F.Z.Z.Z.Z.Z.V.z.z.z.k.k.k.s.s.s.s.s.s.k.k.k.z.z.V.Z.Z.Z.V.V.V.V.z.z.z.z.k.z.k.z.z.z.k.z.z.k.z.k.k.k.z.k.k.k.z.k.k.k.k.k.s.s.p.p...p.........................| | | | ` ` ) ) ) S S S S S S S Z S S S S S S S S Z Z m 0 8 < % X X # % 2 b S | p.k.V.Z.F.F.F.H.F.F.F.Z.V.z.k.s.p.........p.p.p.p.p.s.p.s.p.s.p.p.p.....| | ` ` ) ) ) S ) ) S S Z Z b 0 2 < # X X   . . O + = ; 5 e C H { f.l.V.Z.F.H.H.H.H.H.H.H.H.H.F.F.F.F.F.F.Z.Z.Z.V.V.V.Z.Z.Z.Z.F.F.F.H.H.H.H.J.H.J.H.H.J.H.H.J.H.H.J.H.H.H.H.H.F.F.F.F.F.F.F.H.F.H.H.H.H.H.F.F.F.Z.Z.Z.Z.V.Z.Z.Z.Z.F.Z.F.Z.Z.Z.V.V.Z.V.Z.Z.F.F.F.F.H.F.H.H.F.H.F.F.Z.Z.V.z.z.k.s.s.p.s.s.s.k.k.z.V.V.Z.Z.Z.F.F.H.F.H.H.H.H.H.H.H.H.H.H.H.H.H.H.H.H.F.Z.V.z.k.s.s.p.p.s.s.k.z.z.z.z.z.k.s.p.| ` ) Z m b 8 < % #       . O @ @ ; 5 7 t F ]  .d.x.V.F.H.H.J.J.J.J.J.J.J.J.H.H.F.F.F.F.H.H.H.J.J.K.K.J.K.K.K.K.J.K.J.H.H.H.F.Z.Z.V.V.V.V.z.z.z.z.k.k.k.k.k.k.s.s.p.| ) Z 0 2 % #     . . + @ = 5 7 t G {  .d.C.Z.H.H.J.J.J.J.H.H.H.F.Z.Z.V.V.z.z.z.z.z.k.z.z.k.z.z.z.k.k.z.z.k.z.z.z.z.",
"F.F.Z.F.Z.F.Z.F.F.Z.F.Z.Z.V.V.V.z.z.z.k.k.k.s.s.s.s.s.s.s.s.k.z.z.V.V.Z.V.Z.V.V.V.z.z.z.z.z.z.z.z.z.z.z.z.k.k.k.k.k.k.s.k.k.s.k.k.k.k.k.s.s.s.p.p.p.p.............p...........| | | | ` ` ) ) ) ) S S S S Z S S Z S S S S S S S Z Z m 0 8 < % X X X % 2 b S ` p.k.V.Z.F.F.F.F.F.Z.Z.V.z.z.s.s...............p.p.p.p.p.p.p.s.p.p.p.......| ` ` ) ) ) S ) S S S Z Z b 0 8 < # X     . . + @ = 5 5 e B F { a.l.V.Z.F.H.H.H.H.H.H.H.H.H.F.F.F.F.Z.Z.Z.Z.Z.V.Z.V.Z.Z.Z.Z.F.F.H.H.H.H.H.J.J.J.H.J.J.J.J.J.J.J.J.J.H.H.H.H.H.F.F.F.F.H.F.H.H.H.H.H.H.H.H.H.F.F.F.Z.Z.Z.Z.Z.Z.Z.F.Z.Z.Z.Z.V.Z.V.Z.Z.Z.Z.F.F.F.F.F.H.H.H.F.F.F.F.Z.Z.V.z.z.k.k.s.s.s.s.k.k.z.z.V.V.Z.Z.F.F.F.H.F.F.H.H.H.H.H.H.H.H.H.H.H.H.H.H.H.F.Z.V.z.z.s.s.p.p.s.s.s.k.z.z.z.k.s.s...| ` S Z m 0 8 < % X X     . . + = ; 5 7 B C ]  .a.x.V.F.F.H.J.J.J.K.K.J.J.J.H.H.H.F.F.F.H.H.H.J.J.J.K.K.J.K.K.K.K.J.K.J.H.H.F.Z.Z.V.V.V.z.z.z.k.z.k.k.k.k.k.s.s.s...| ) Z 0 2 % #     . . O @ = 5 7 t G ] +.l.C.F.F.H.J.J.J.H.H.H.F.F.Z.Z.Z.V.V.z.z.z.z.z.z.z.z.z.z.z.z.k.z.z.z.z.z.z.z.",
"F.Z.Z.F.F.F.F.Z.F.Z.Z.Z.Z.Z.V.V.z.z.z.k.k.s.s.s.s.p.p.p.s.s.k.k.z.V.V.V.V.V.V.V.V.z.z.V.V.z.z.z.V.z.z.z.z.z.k.k.s.s.s.s.s.s.s.s.s.s.k.s.s.s.s.p.s.p.p.p.p.p.p.p.p...p.............| | | ` ` ) ) ) S S S S S S Z S Z Z S S S S S S Z m b 8 < # # # # % 8 b S | p.k.V.V.Z.F.Z.Z.Z.Z.V.V.z.k.p.p.....| ..| ......p.p.p.p.p.p.p.p.p.......| ` ` ` ) ) S ) ) ) ) S S Z b 0 2 < # X X     . O + = ; 7 t C H { X.l.z.Z.F.F.H.H.H.H.H.H.H.F.F.F.F.F.F.Z.Z.Z.Z.Z.V.V.V.Z.Z.Z.F.F.H.H.H.J.J.J.J.J.J.J.J.J.J.K.J.J.K.J.J.J.H.J.H.H.F.F.F.F.H.H.H.J.J.J.H.J.J.H.H.F.F.F.F.F.F.F.Z.F.Z.Z.Z.Z.Z.Z.Z.Z.Z.Z.Z.Z.Z.F.F.F.F.F.F.F.F.F.F.F.Z.Z.V.V.z.k.k.s.s.k.k.k.z.z.V.Z.Z.Z.F.Z.F.F.F.F.F.H.F.F.H.F.F.F.F.F.H.H.F.H.F.F.F.Z.Z.z.k.k.s.s.s.s.s.k.k.k.k.k.k.s.p...| ` S Z m 0 2 < % X X     . O + @ = 5 7 t F ]  .d.z.V.F.H.J.J.J.J.J.J.J.J.J.J.H.H.H.H.H.H.H.H.J.J.K.K.J.K.K.K.K.K.K.J.J.H.H.F.F.Z.V.V.V.z.z.z.z.k.k.k.k.k.k.s.s.s...` ) m 0 2 % #   . . . O @ ; 5 7 t V { X.d.V.F.H.H.J.J.H.J.H.H.H.F.F.Z.Z.V.V.V.V.V.z.z.z.z.z.z.z.z.z.z.z.z.z.z.z.z.z.",
"F.F.F.Z.F.Z.F.Z.Z.Z.Z.Z.Z.Z.V.V.z.z.k.k.k.s.s.p.s.p.p.p.s.s.k.k.k.z.z.V.V.V.V.V.V.V.V.V.V.V.V.V.V.V.V.V.z.k.k.s.s.p.p.p.p.p.s.p.s.s.s.s.s.s.s.s.s.p.p.s.p.p.p.p.p.p.....p...........| | | ` ` ` ) ) ) S S S S S Z Z S S S S S S S Z m b 8 < # X X X % 2 b S | p.k.V.Z.Z.Z.Z.Z.V.V.z.k.k.s.p.....| | | | ..........p.p.p.p.p.p.......| | | ` ) ) S ) ) S ) S S S m m 0 2 < # X X   . . O + = ; 5 e C H { a.l.z.Z.F.H.H.H.H.H.J.H.H.H.F.F.F.Z.Z.Z.Z.Z.V.Z.Z.Z.Z.Z.Z.F.F.F.H.H.J.J.J.K.K.K.K.K.K.K.K.K.K.K.K.K.K.J.J.J.H.H.H.F.H.H.H.H.H.J.J.J.J.J.J.J.J.H.H.H.H.H.F.F.Z.Z.Z.Z.Z.Z.Z.Z.Z.Z.Z.Z.Z.Z.Z.F.F.F.F.F.F.F.F.F.Z.Z.Z.Z.V.V.V.z.z.z.z.z.z.z.V.V.V.Z.Z.F.F.F.F.F.F.F.F.F.F.F.F.F.F.F.F.F.F.F.F.H.F.F.Z.Z.Z.V.z.k.k.s.s.s.s.k.k.k.k.k.s.s.p.| ` ) S Z b 0 8 < % X X   . . . + @ ; 5 7 t V ] o.d.x.V.F.F.H.J.J.J.K.J.K.J.J.J.J.H.H.H.H.J.H.J.J.K.J.J.K.K.K.K.K.K.J.K.J.H.H.F.F.Z.V.V.z.z.z.z.k.k.k.s.k.s.s.s.s.p...` ) Z 0 2 % X     . O O @ = 5 7 t F ] X.l.x.Z.H.H.J.J.J.H.H.F.F.F.F.Z.Z.Z.Z.V.V.V.V.V.z.z.z.z.z.z.z.z.z.z.z.z.z.z.z.",
"Z.Z.F.F.Z.F.Z.F.F.Z.Z.Z.V.V.V.z.z.z.k.k.s.s.s.s.p.p.p.p.p.p.s.s.k.k.z.z.z.V.z.V.V.V.V.V.V.V.V.Z.V.V.V.V.z.k.k.s.p.p.p.......p.p.p.p.s.s.s.s.s.s.s.s.s.s.s.s.s.p.p.p.p.p.p...p.........| | | ` ` ` ) ) ) S S S S S S Z S S S ) S S S m b 8 < % # X # % 8 b S | p.k.V.V.V.V.V.V.z.z.k.k.s.p.....| | | | | | | | ........p.............| | ` ) ) ) ) S S ) S ) S S Z m 0 8 < % X X X . . O * * 5 5 e C H { X.l.V.Z.F.H.H.H.H.H.H.H.H.H.F.F.Z.Z.Z.Z.Z.V.Z.V.V.Z.Z.Z.F.F.F.H.H.H.J.J.J.J.K.K.K.L.K.L.K.L.L.L.K.L.K.K.K.J.J.H.H.H.F.H.H.H.J.J.J.J.K.K.J.K.K.J.J.J.J.H.H.F.F.Z.Z.Z.Z.Z.Z.Z.Z.Z.Z.F.F.F.F.F.F.F.F.F.Z.F.Z.Z.Z.Z.Z.V.Z.V.V.V.z.z.z.V.V.V.V.Z.Z.F.Z.F.F.F.F.Z.F.Z.F.F.F.Z.Z.F.F.F.F.F.F.F.F.F.F.F.Z.Z.V.V.z.z.k.k.s.k.s.k.s.k.k.s.p.p...| ` ) S Z b 0 8 < # # X     . O + * = 5 7 t F ]  .a.x.V.F.H.H.J.J.K.J.K.J.K.J.J.J.J.J.H.J.J.J.J.J.J.J.K.K.K.K.K.K.K.K.J.J.J.H.F.F.Z.Z.V.V.z.z.k.k.k.s.s.s.s.s.s.s.p...` ) m 0 2 % X       . O @ = ; 7 t F ] +.l.V.F.F.H.J.H.H.H.F.H.F.F.F.F.Z.F.Z.Z.Z.V.V.V.V.V.V.z.V.z.V.z.V.z.z.z.z.V.z.",
"F.F.Z.F.Z.F.F.Z.Z.Z.Z.V.V.V.z.z.z.k.k.s.s.s.p.p.p.p.p.p.p.p.p.s.s.k.k.k.k.z.z.V.V.V.V.V.Z.Z.Z.Z.Z.Z.Z.V.z.k.s.s.p.....| | ........p.p.p.s.s.s.s.s.s.s.k.s.s.s.p.s.p.p.p.p.p.p.....p.......| | ` ` ) ) ) ) S S S S S S S S ) S ) S S Z b 8 < % X # # % 2 b S | p.k.V.V.V.V.z.z.k.k.s.s.p.....| | ` ` ` | | | | ..| ....| ........| | | ` ` ) ) S S S ) S S ) S S Z m 0 8 < % X X   . . . + * ; 7 e N F { a.l.C.Z.F.H.H.H.J.H.H.H.F.H.F.Z.Z.Z.Z.Z.V.Z.Z.V.Z.Z.Z.Z.F.F.H.H.J.H.J.J.K.K.K.K.L.L.L.L.L.I.I.L.L.L.L.L.K.J.J.H.H.H.H.H.H.J.J.J.K.K.K.K.K.L.K.K.K.K.J.J.H.H.F.Z.Z.Z.V.Z.Z.Z.F.F.F.F.F.F.F.F.Z.F.Z.Z.Z.Z.Z.Z.V.Z.V.Z.V.Z.V.V.Z.Z.V.Z.Z.Z.F.Z.F.F.F.H.F.F.F.Z.Z.F.Z.Z.Z.Z.Z.Z.Z.Z.Z.F.Z.Z.Z.Z.Z.Z.Z.V.V.V.z.z.z.k.k.k.k.s.k.s.s.s.p.....| ` ) S Z m 0 8 < % X X X   . . + * ; 5 7 t C ]  .d.x.V.F.H.H.J.J.J.J.J.K.J.J.J.J.J.J.J.J.J.J.J.J.J.K.J.K.K.K.K.K.K.K.J.J.H.H.F.F.Z.Z.V.z.z.z.k.s.s.s.s.s.s.p.s.p.....` S m 0 2 % #     . . O @ ; 5 7 t G ] X.l.C.A.H.H.J.H.H.H.H.F.F.F.F.F.F.F.F.F.Z.Z.Z.V.V.V.V.z.V.V.z.V.V.z.V.V.z.V.V.",
"F.Z.F.F.F.Z.Z.Z.Z.Z.Z.Z.V.V.z.z.k.k.k.s.s.s.p.p...p.p...p...p.p.s.s.k.k.k.z.z.V.V.V.Z.Z.Z.Z.Z.Z.Z.Z.Z.V.V.k.k.p...| | | | | | | ..p.p.p.p.s.s.s.s.k.s.k.k.s.s.s.s.p.s.p.p.p.p.p.p.p.p.......| | ` ` ` ) ) ) S S S Z S S S ) S ) S S m b 0 < % # X # % 2 b S | p.k.z.V.V.z.z.k.k.s.p.p.....| | ` ` ` ` ` ` ` | | | ....| ..| | | | | ` ` ) ) ) S S S S ) ) ) ) S Z m 0 8 < # X X   . . O @ = ; 5 e C H { a.l.z.Z.F.H.H.H.H.H.H.H.H.H.F.F.Z.Z.V.V.V.V.V.Z.Z.Z.Z.F.F.F.H.H.J.J.J.K.K.K.L.L.L.L.I.I.I.I.I.I.I.I.L.L.L.K.K.J.J.H.H.H.H.J.J.K.K.K.L.L.L.L.L.L.L.L.K.K.J.H.F.Z.Z.V.V.Z.Z.Z.F.F.F.H.F.F.F.Z.F.Z.Z.Z.V.Z.V.V.Z.Z.Z.V.V.Z.Z.Z.Z.Z.F.Z.F.F.F.F.F.F.H.F.F.F.Z.F.Z.Z.Z.Z.Z.Z.Z.Z.Z.Z.Z.Z.Z.Z.Z.Z.Z.Z.Z.Z.V.V.V.V.z.z.z.k.k.k.s.s.s.p.p...| | ` ) S Z m 0 2 < % # X     . O O * = 5 7 t F ]  .a.z.V.F.H.H.J.J.J.K.J.K.K.K.J.K.K.J.J.J.J.J.K.K.J.K.K.K.J.K.K.K.K.K.J.J.J.H.F.Z.Z.V.V.z.z.z.k.k.k.s.s.s.s.s.p.p.p...` S m 0 2 % X   . . . O @ = 5 7 t F ] X.l.z.F.H.H.H.H.H.H.F.F.F.F.F.F.F.F.F.F.F.Z.Z.Z.Z.V.V.V.V.z.V.V.z.z.V.V.V.V.z.",
"F.Z.F.Z.Z.F.Z.Z.Z.V.V.V.V.V.z.z.k.s.s.s.p.p.p.p.p...p.p...p.p.p.p.s.s.s.k.z.z.z.V.Z.Z.Z.Z.F.F.F.Z.Z.Z.V.z.z.s.p...| ` ` ` ` | | | ....p.p.s.s.s.k.k.k.k.k.s.s.s.s.p.p.p.p.s.p.s.p.p.p.p.....| | | ` ` ) ) ) S S S Z S S S ) ) ) ) S Z b 8 2 % # X # % 8 b S | s.k.z.z.V.z.k.k.s.p.p...| | ` ` ` ` ` ` ` ` ` | | | | | | | | | | | ` ` ` ) S S S S S S ) ) ) ) ) S m b 8 2 % X X   . . O @ * ; 7 e C F ' a.l.V.Z.F.H.H.H.H.H.H.H.F.F.F.Z.Z.Z.V.Z.Z.V.Z.Z.Z.Z.F.Z.F.H.H.H.J.J.K.K.K.L.L.L.L.I.I.Y.I.I.I.I.I.I.I.L.L.K.K.J.J.H.J.H.J.J.K.K.K.L.L.L.L.L.I.I.I.L.L.K.K.H.H.F.Z.Z.Z.Z.Z.Z.F.F.F.H.F.F.F.Z.Z.Z.Z.V.V.V.V.V.V.V.Z.V.Z.Z.Z.F.F.F.F.F.F.H.H.H.F.H.F.H.F.F.Z.Z.Z.Z.Z.V.V.Z.V.V.V.V.V.V.V.V.Z.V.V.Z.V.V.V.V.V.V.V.z.z.z.k.k.s.s.p.....| | ` ` ) S Z b 0 8 2 % X X   . . . + * ; 5 7 t C ]  .d.z.V.F.H.J.J.J.J.K.K.J.J.K.K.J.J.J.J.J.J.K.K.J.K.K.J.K.K.K.K.K.K.J.J.J.H.H.F.Z.Z.V.V.z.z.k.k.k.s.s.s.p.p.p.p.p...| ` S m 0 < % X X   . O O @ = 5 7 t V { X.l.C.Z.H.J.H.H.H.F.F.F.F.F.F.F.F.H.F.F.F.F.F.Z.Z.V.V.V.V.z.V.V.V.V.V.V.V.V.V.",
"Z.F.Z.F.Z.Z.Z.Z.Z.Z.V.V.V.z.z.k.k.k.s.s.p.p.p.p...p.....p...p.p.p.p.s.s.k.k.z.V.V.Z.Z.Z.Z.F.F.F.F.F.Z.V.V.k.s.p...| | ` | | | | ....p.p.p.s.s.k.k.k.k.s.s.k.k.s.s.s.s.p.s.p.s.p.s.p.p.p.......| | | ` ` ) ) ) S S S S S S S ) ) S S Z b 0 < % # X # % 2 b S | p.k.z.z.z.z.k.s.p.......| | ` ` ` ) ) ) ) ` ` ` ` ` ` | ` | ` | ` ` ` ` ) ) ) S S S S S ) S ) ) S Z m b 8 < # X X   . . O @ = 5 5 e C H { X.l.V.Z.F.F.H.H.H.H.H.H.H.F.F.Z.Z.Z.Z.V.V.Z.V.Z.Z.Z.F.F.H.F.H.H.J.J.K.K.K.L.L.I.I.I.I.I.Y.Y.Y.Y.Y.I.I.I.L.K.K.J.J.J.H.J.J.J.K.K.K.L.L.L.I.I.I.I.I.I.L.L.K.J.H.F.Z.Z.Z.Z.F.F.F.F.F.H.F.F.F.Z.Z.V.V.V.V.V.V.V.V.V.V.V.Z.V.Z.Z.Z.F.F.F.F.F.H.F.H.F.F.F.F.Z.Z.Z.Z.V.V.V.V.V.V.V.V.V.V.V.V.V.V.z.V.V.z.V.V.V.V.V.V.V.z.z.k.k.s.p.p...| | ` ` ) S S Z m 0 8 < % X X     . O O * = 5 7 B C ]  .d.x.V.F.F.H.H.J.J.J.J.J.K.J.K.J.K.J.J.K.J.J.J.K.J.K.K.J.K.J.K.J.J.J.J.H.H.H.F.Z.V.V.V.z.z.k.k.s.s.s.s.s.p.s.p.p...| ` S b 0 < % X     . O O = = ; 7 B G ] +.l.V.Z.H.H.H.H.H.H.F.F.F.F.F.F.H.F.H.H.F.H.F.F.Z.Z.V.V.V.V.V.V.V.V.V.V.V.V.V.",
"Z.F.Z.Z.Z.Z.Z.Z.V.V.V.V.z.z.k.k.k.s.s.s.p.p.p...p.....p.p...p.p.p.s.s.s.k.k.z.V.V.Z.Z.Z.Z.F.F.F.F.F.Z.Z.V.z.k.p.p.| | | | | | ....p.p.p.p.s.s.s.s.k.s.k.k.s.s.s.s.s.p.s.s.p.s.p.s.p.p.p.p.......| | ` ` ) ) ) ) S S S S S ) ) ) ) S Z m 8 2 % X X # % 8 b S | s.k.z.z.z.z.k.s.p.....| | ` ` ) ) ) ) ) ) ) ` ` ` ` ` ` ` | ` ` ` ` ) ) ) ) ) S S S S S ) ) ) ) S S m b 8 2 % X X   . . O + = 5 5 e B H { a.l.x.Z.F.H.H.H.H.H.H.H.F.F.F.Z.Z.Z.Z.V.V.V.Z.Z.Z.F.F.F.F.H.J.J.J.J.K.K.L.L.L.L.I.I.Y.Y.Y.Y.Y.Y.Y.Y.Y.I.L.L.K.K.J.H.J.J.J.K.K.K.L.L.I.I.I.I.I.Y.I.I.L.L.K.J.H.H.F.Z.Z.F.F.F.F.H.H.H.F.F.Z.Z.V.V.V.z.V.z.z.V.z.V.V.Z.V.Z.Z.Z.Z.Z.F.F.F.F.Z.F.F.F.F.Z.Z.Z.Z.Z.V.V.V.V.V.V.z.V.z.z.z.z.z.z.z.z.z.z.z.V.z.V.V.V.V.z.V.z.k.s.p.p.....| ` ` ` ) S S Z m 0 8 < % # X     . . O @ ; 5 7 t V ]  .a.x.Z.Z.H.H.J.J.J.J.J.J.J.J.J.J.J.J.J.J.J.J.K.J.J.K.K.J.J.K.K.J.J.J.J.H.F.F.Z.Z.V.V.z.z.z.k.k.k.k.s.s.s.p.s.p.....| ) S m 8 2 % X     . . O @ = 5 7 t F {  .l.z.F.F.H.J.J.H.F.F.F.F.F.H.F.H.H.H.H.H.F.F.Z.Z.Z.Z.V.V.V.V.V.V.V.V.V.V.V.V.",
"Z.Z.Z.Z.Z.Z.Z.Z.Z.V.V.V.z.z.k.k.s.s.p.p.p.p.p.......p...p.p.p.p.s.s.s.k.k.z.V.V.V.Z.Z.F.F.F.F.F.F.F.Z.Z.V.z.k.s.p.....| | | ......p.p.p.p.s.s.s.k.s.k.k.s.k.s.s.p.s.p.s.s.p.s.s.s.p.s.p.p.....| | | ` ` ` ) S S S S S S S ) ) ) ) S Z b 0 < % # X # % 2 b S | p.k.V.V.z.z.k.s.p.....| | ` ` ` ) ) ) ) ) ) ) ) ` ) ` ` ` ` ` ` ` ` ` ) ) S S S S S S ) ) ) ) ) ) S Z b 8 < % X X   . . O + = ; 7 e C H o.X.l.V.Z.F.F.H.H.H.F.F.F.F.F.Z.Z.Z.V.V.V.Z.V.Z.Z.Z.F.F.F.H.H.H.J.J.K.K.L.L.L.L.I.I.I.I.Y.Y.Y.Y.Y.Y.Y.I.I.L.L.K.J.J.J.H.J.J.K.K.L.L.I.I.I.I.Y.Y.I.Y.I.I.L.K.K.J.H.H.F.F.F.F.F.H.F.F.H.F.F.Z.V.V.z.z.k.z.z.z.z.V.V.V.V.Z.V.Z.Z.Z.Z.Z.Z.Z.Z.Z.Z.Z.Z.Z.Z.Z.Z.Z.V.Z.V.V.V.V.z.z.z.z.z.k.z.z.k.z.k.z.z.z.z.z.V.V.V.V.V.z.z.k.s.s...| | ` ` ) ) ) ) S Z m 0 8 < % X X   . . O O = = 5 7 t V ]  .d.k.A.F.F.H.H.H.J.H.H.J.J.J.J.H.J.H.H.J.J.J.J.J.K.J.K.K.K.J.J.J.J.H.H.H.F.Z.Z.V.V.z.z.z.z.k.k.k.k.s.s.s.s.p.p.....` ) Z b 8 < # X X . . . O @ ; ; 7 t F ] +.l.C.A.H.H.H.H.H.H.F.F.F.F.H.H.H.H.H.H.H.H.F.F.Z.Z.V.V.V.V.V.V.V.V.V.V.V.V.V.",
"Z.Z.Z.Z.V.Z.Z.V.V.V.z.z.z.z.k.k.s.p.p.p.....p.p.p.....p.p.p.p.s.s.s.k.k.k.z.V.V.Z.Z.F.Z.F.F.F.F.F.F.Z.Z.V.z.k.k.s.p.p.......p.p.p.p.s.s.s.s.s.s.s.s.s.s.s.s.s.s.s.s.s.s.s.s.s.s.s.s.s.p.p.....| | | ` ` ) ) S S S S S S S S ) ) ) S Z b 8 < % # X # % 2 b S | p.k.z.V.z.k.k.s.p.....| | | ` ) ) ) ) S ) ) ) ) ` ` ` ` ` ` ` ) ` ) ) ) ) S ) S S S S ) ) ) ) ) ) S Z b 8 < % X X   . . O + = ; 5 e C F { a.l.V.Z.F.F.H.F.H.H.H.F.F.F.Z.Z.V.V.V.V.V.Z.Z.Z.F.F.F.H.H.H.J.J.K.K.K.L.L.L.I.L.I.I.I.I.Y.Y.Y.Y.Y.Y.I.I.I.L.K.K.J.J.J.J.J.K.K.L.L.I.I.I.Y.Y.Y.Y.I.I.I.L.K.K.J.J.H.H.H.H.H.F.H.F.H.F.F.Z.Z.V.z.z.k.k.k.k.z.z.z.z.V.V.V.V.V.V.V.V.V.V.V.V.V.V.V.V.V.V.V.V.V.V.V.V.V.z.z.z.z.z.k.k.k.k.k.s.k.s.k.k.k.k.z.z.V.V.V.V.z.z.k.s.p...| ` ` ) ) ) S S S Z m 0 8 2 % # X     . . + * ; 5 7 t V ]  .d.x.V.F.F.H.H.H.H.H.H.H.H.H.H.H.H.H.H.H.H.J.J.J.J.K.K.J.J.J.J.H.H.H.F.F.Z.Z.V.V.z.z.z.k.z.k.k.k.k.k.k.s.s.p.p...| ` S Z b 8 < % X X     O O @ = 5 7 t G { +.l.V.F.F.H.J.H.H.H.F.F.F.F.H.H.H.H.H.H.H.H.F.F.Z.Z.V.Z.V.V.V.V.V.V.V.V.V.V.Z.",
"Z.Z.Z.V.Z.V.V.V.V.V.V.z.z.k.k.s.s.p.p.p...p.......p.p.p.p.p.s.s.s.k.k.z.z.V.V.V.Z.Z.Z.F.F.F.F.F.F.Z.Z.Z.Z.V.z.z.k.s.p.s.s.s.p.p.s.s.s.s.s.s.s.s.s.s.s.s.s.s.p.s.p.s.p.s.s.p.s.s.p.s.p.p.p.p.....| ` ` ` ` ) ) S S Z S S ) ) ) ) ) S Z m 0 2 % # X # % 2 b S | p.k.z.z.z.z.k.s.p.p...| | ` ` ` ) ) ) ) ) ) ) ) ) ) ) ) ) ) ) ) ) ) ) ) ) ) S S S S S ) ) ) ` ` ) S Z b 8 < % X X   . . O + = ; 5 e C H { a.l.x.Z.F.F.H.H.F.F.F.F.F.Z.Z.Z.Z.V.V.Z.V.Z.Z.Z.F.F.H.H.H.J.J.K.K.K.L.L.L.L.L.I.I.I.I.I.Y.Y.Y.Y.Y.Y.Y.I.L.L.K.J.J.J.J.J.J.K.L.L.I.I.I.Y.Y.I.I.Y.I.I.I.L.L.K.K.J.J.H.H.H.H.H.H.H.F.F.Z.Z.V.z.z.k.s.k.k.k.k.z.V.V.V.V.V.V.V.z.V.z.z.z.z.z.z.z.k.z.z.z.z.z.z.V.V.V.V.V.V.z.k.k.k.s.s.s.s.s.s.s.s.s.k.k.z.z.z.V.V.V.V.z.s.s.....` ` ) ) ) ) ) S Z Z m 0 8 < % # X     . O + * = 5 7 t F ]  .d.x.V.F.F.H.H.H.H.H.H.H.H.H.H.F.H.F.F.H.H.J.H.J.J.J.J.K.J.J.J.H.H.F.F.Z.Z.V.V.z.z.k.k.k.k.k.z.k.k.k.k.s.s.s.p...| ` S Z b 8 < # X   . . . O @ = 5 7 t G ] X.d.V.Z.H.H.J.J.H.H.H.H.F.H.H.H.H.J.H.H.F.F.F.F.Z.Z.V.V.V.V.V.V.V.V.V.V.V.V.V.",
"Z.Z.V.Z.V.V.V.V.V.V.z.z.k.k.k.s.p.p.p.p.p.......p.p.p.p.p.s.s.k.k.k.z.z.z.V.V.Z.Z.Z.Z.F.F.F.F.F.F.Z.F.Z.Z.V.V.z.k.k.k.s.s.k.s.k.k.s.k.s.s.s.s.s.p.s.p.p.p.p.s.s.s.s.s.s.s.p.s.s.s.s.p.p.p.p...| | | ` ` ) ) ) ) S S S S S S ) ) ) S Z b 0 < % # X X % 2 b Z | p.k.z.z.z.k.k.s.p.p...| | ` ` ) ) ) S ) S S ) ) S ) ) ) ) ) ) ) ) ) ) ) S S S S S S S ) ) ) ` ) ) S m b 8 2 % X X     . O @ = ; 5 e B H { a.l.z.Z.F.F.F.H.F.F.F.F.Z.Z.Z.Z.Z.V.V.V.V.V.Z.F.F.F.H.H.J.J.J.K.K.K.K.L.L.I.L.L.I.I.I.I.I.Y.Y.Y.Y.Y.Y.I.L.L.K.J.J.J.J.J.J.K.L.L.I.Y.I.Y.Y.Y.I.I.I.I.L.L.L.K.K.K.J.J.J.H.H.H.H.H.F.F.Z.V.z.z.k.s.s.s.s.s.k.z.z.z.V.V.V.z.z.z.k.k.k.k.k.k.s.s.k.k.k.k.k.z.z.V.V.V.V.V.z.z.k.k.s.s.s.p.p.p.p.p.s.p.s.k.k.k.z.V.V.V.z.k.s.p...| ` ) ) ) S S S S Z m m 0 8 < % # X     . . O = = 5 7 t F ]  .a.x.V.Z.F.H.F.H.H.H.F.F.F.F.F.F.F.Z.F.F.F.H.H.J.J.J.K.J.J.J.H.H.F.F.Z.V.V.V.z.k.k.k.k.k.k.k.k.z.z.z.k.k.s.s.p.| | ` S m 0 8 < # #   . . . O * = 5 7 t F { +.d.C.G.H.H.J.J.H.H.H.H.H.H.H.H.H.H.H.H.H.F.F.Z.Z.Z.Z.V.V.V.V.V.V.V.V.V.V.V.V.",
"V.V.V.V.V.V.V.V.z.z.z.z.z.k.s.s.s.p.p.......p.p...p.p.p.s.s.s.k.k.z.z.z.V.V.V.V.Z.Z.Z.F.Z.F.F.F.F.F.F.Z.Z.V.V.z.z.z.z.z.k.k.k.k.k.k.k.s.s.s.s.p.p.p.p.p.p.p.p.p.p.p.p.s.s.s.p.s.s.p.p.p.p.......| | ` ` ` ) S S S S S S ) ) ) ) ) S Z b 8 2 % # # # % 2 b Z ` ..s.k.z.z.k.k.s.p.....| | ` ` ) ) S S S S S S S S S S S S S S S S S S S S S S S S S S S ) ) ) ) ) S Z b 8 < % X X   . . O + = 5 7 e C H ' a.l.V.Z.F.F.H.F.H.F.F.F.F.Z.Z.Z.V.Z.V.V.Z.Z.Z.Z.F.F.H.H.J.J.J.K.K.L.L.L.L.L.L.L.L.L.L.I.I.I.I.I.I.Y.I.I.L.L.K.K.J.H.J.J.K.K.L.L.I.I.I.I.I.I.I.I.L.I.L.L.L.L.L.K.K.K.K.J.J.J.H.H.F.Z.Z.V.z.z.k.s.p.s.s.s.k.k.z.V.V.z.V.z.z.k.k.s.s.s.p.p.p.s.s.p.s.s.k.k.z.z.z.z.V.z.z.k.k.s.s.p.p.p.p.p.p.p.p.p.p.s.k.k.z.z.z.z.z.z.s.p...| ` ) S S S S S S S Z m b 8 < % X X   . . O + * ; 5 7 t G ]  .d.z.V.F.F.H.H.F.F.F.F.F.F.F.Z.Z.Z.Z.Z.F.F.H.H.J.J.K.J.J.J.H.H.F.F.Z.Z.V.V.z.z.k.k.k.s.k.k.k.z.z.z.z.k.k.s.s.....` ) S m 0 8 < # X     . . O @ ; ; 7 t G ] X.l.V.Z.H.H.J.J.H.H.H.H.H.H.H.H.H.H.J.H.H.H.F.F.Z.Z.V.V.V.V.V.V.V.V.V.V.V.V.V.",
"V.Z.V.V.V.V.V.V.V.z.z.z.k.k.k.s.s.p.p...p...p...p.p.s.p.s.k.k.k.z.z.z.V.V.V.Z.Z.Z.Z.F.F.F.F.Z.Z.Z.F.Z.Z.Z.Z.Z.V.V.V.z.z.z.z.z.k.k.k.k.k.s.s.s.p.p.p.p...p.p.p.p.p.p.s.s.p.s.p.s.p.s.p.p.......| | ` ` ` ) ) S S S S S S S ) ) ) ) S Z m 0 < % # X # % 2 0 Z ) ..p.k.k.s.s.s.p.....| | ` ) ) S S S Z Z Z Z S S S S Z Z S S Z Z S Z S S Z Z Z Z Z Z S S S ) ) S S Z m b 8 < % X X   . . O + = ; 5 e C F { X.l.x.Z.F.F.F.H.F.F.Z.F.F.Z.Z.Z.Z.V.V.Z.Z.Z.Z.F.F.H.H.H.H.J.J.K.K.K.L.L.L.L.L.L.L.L.I.I.I.I.I.Y.I.Y.I.I.L.L.K.J.J.J.H.J.J.K.K.L.I.I.I.I.I.I.I.I.I.L.I.L.L.L.L.L.L.K.K.K.J.H.H.H.F.Z.Z.V.z.k.s.s.s.p.s.s.s.k.z.z.V.z.z.z.k.s.s.p.p...p...p.p.p...p.p.s.k.k.z.z.V.z.z.z.k.k.s.p.p.p...........p.p.p.p.s.k.z.z.z.z.z.k.s.p.| ` ) S S S S S S S Z Z m 0 8 2 % X X     . . + * = 5 7 t V ] o.d.x.V.F.F.F.H.F.F.F.F.Z.Z.Z.Z.Z.Z.Z.Z.Z.F.F.H.H.H.J.J.J.J.H.F.F.Z.Z.V.V.z.z.k.k.s.s.s.s.k.k.z.z.z.z.z.k.s.s.p.| ` ) Z m 0 2 % # X     . O + @ = 5 7 t F ] +.d.C.F.H.H.J.J.J.H.H.H.H.H.H.H.H.H.H.H.H.F.F.F.Z.Z.V.V.V.V.V.V.V.V.V.V.V.V.V.",
"V.V.V.Z.V.V.V.z.V.z.z.z.k.k.s.s.s.p.p.p.p.p.p.p.p.p.s.s.s.s.k.k.z.z.V.V.V.V.Z.Z.Z.Z.Z.Z.Z.F.F.F.F.F.Z.F.Z.Z.Z.Z.V.V.V.V.z.z.z.z.k.k.k.k.s.s.p.p.p...p.......p.p.p.s.p.p.p.s.s.p.p.p.p.p.p.....| | | ` ` ) ) ) S S S S S S S ) ) S S Z b 8 2 % # X X % < 0 m ) | ..p.s.s.p.p...| | ` ) ) ) S Z Z Z Z Z m Z m Z m Z m Z Z m Z Z Z Z m m Z Z Z m Z Z Z Z Z S S S Z Z m 0 2 < # X X X . . o @ * ; 7 e C H { a.l.V.Z.F.F.H.F.F.F.F.Z.Z.Z.Z.Z.V.Z.Z.V.Z.Z.Z.F.F.H.H.H.J.J.K.K.K.L.K.L.L.L.L.L.L.L.L.L.L.I.I.I.I.I.I.I.L.K.K.J.H.H.H.J.J.K.K.L.L.L.I.I.I.I.I.L.L.L.L.L.L.L.L.L.L.L.K.K.K.J.H.H.F.Z.V.V.z.k.s.p.p.p.p.s.s.k.k.z.z.z.z.k.k.s.s.p.p...............p.p.p.s.s.k.z.z.z.z.z.k.k.s.p.p.p.p.p...........p.p.s.k.k.z.z.z.z.k.s...| ` ) S S Z S S S S Z Z m 0 8 < % # X     . O + = = 5 7 t F ]  .d.x.V.Z.F.H.F.H.F.F.F.F.F.Z.Z.Z.V.Z.V.Z.Z.F.H.H.H.J.J.J.H.H.F.F.Z.Z.V.z.z.k.k.k.s.k.k.k.k.z.z.z.z.z.z.k.s.s...| ` ) Z m 0 2 < # X     . . O @ ; ; 7 t F { X.d.V.Z.H.H.J.J.H.J.H.H.H.H.H.H.J.H.H.H.H.F.F.Z.Z.Z.Z.V.Z.V.V.Z.V.V.V.V.V.Z.V.",
"Z.V.Z.V.V.V.V.V.z.z.z.z.k.k.s.k.s.s.s.p.p.s.p.s.s.s.s.s.k.k.k.z.z.z.z.V.V.V.Z.Z.Z.Z.Z.Z.Z.F.F.Z.Z.F.F.Z.Z.Z.Z.Z.V.Z.V.V.V.z.z.z.k.k.s.s.s.p.p.p.......p...p.p.p.p.p.p.p.p.p.p.p.p.p.p.........| | | ` ` ) ) S S S S S S S ) S ) ) S Z b 8 2 % # X X # < 8 b Z ) | ....| ..| ` ` ) ) S S Z Z m m m b b b m b b b m b m b b b m b b m b m b m b m m m m Z m Z Z m m 0 8 2 % # X X     . O + * 5 5 e C H { a.l.z.Z.F.F.F.F.H.F.F.F.F.Z.Z.Z.Z.Z.Z.Z.Z.Z.F.F.F.F.H.H.J.J.J.J.K.K.K.L.K.L.L.L.L.L.L.L.I.I.L.I.I.I.I.L.L.K.J.J.H.H.H.H.J.J.J.K.L.L.L.L.L.L.L.L.L.L.L.L.L.I.L.L.L.L.L.K.J.J.H.F.F.Z.V.z.z.k.s.s.s.p.s.s.s.k.k.z.z.k.k.k.s.s.p.p.......| ..| ........p.p.s.k.k.k.k.z.k.k.s.s.s.p.p.p...p.....p...p.p.s.s.k.k.z.k.k.s.p...| ` ) S Z S Z S S Z Z Z m 0 8 2 % # X     . O + @ ; 5 7 t F ]  .d.x.Z.Z.F.F.H.H.F.F.F.F.F.Z.Z.V.V.V.Z.V.Z.F.F.F.H.H.J.H.H.F.F.Z.Z.V.V.z.z.z.k.k.s.k.k.k.k.k.z.z.V.z.k.k.s.p...| ` ) Z b 0 2 % # X     . . O @ = 5 7 t F {  .l.C.F.H.H.J.J.H.J.H.H.H.J.H.H.J.J.H.H.H.H.F.F.Z.Z.Z.V.V.V.V.Z.V.V.Z.V.V.V.V.",
"Z.Z.V.V.V.V.V.V.V.z.z.z.z.k.k.k.k.s.s.s.s.s.s.s.s.s.s.s.s.k.k.k.z.z.z.V.V.V.V.V.Z.Z.Z.Z.Z.Z.Z.F.F.Z.F.Z.Z.Z.F.Z.Z.V.V.V.z.z.k.k.k.s.s.p.p.p.p.....................p...p.p.p.p.p.p...p.........| | ` ` ` ` ) ) ) S Z S S S S ) ) S Z Z b 8 2 % X X X # % 2 0 m Z S ) ` ) ) ) S S Z Z Z m m b b b 0 0 0 0 0 0 0 0 0 0 0 0 0 0 0 0 0 0 0 0 0 0 0 0 0 0 0 b b b b b 0 8 2 < % # X     . . O @ = ; 7 e C H ' a.l.C.Z.F.F.H.F.F.F.F.F.F.F.F.F.Z.Z.Z.Z.Z.F.F.F.F.F.F.H.H.H.J.J.J.J.K.K.K.K.K.K.K.K.L.L.L.L.L.I.I.I.L.L.K.K.J.J.H.H.H.H.H.J.J.J.K.K.K.L.L.L.L.L.L.L.L.L.L.L.I.I.L.L.L.K.K.J.H.F.Z.Z.Z.V.z.k.k.s.s.p.s.s.s.k.k.k.k.k.k.s.s.p.p.......| ....| ........p.p.s.s.s.k.k.k.k.s.k.s.s.s.p.p.p.p...........p.p.s.s.k.k.k.k.s.p...| ) S S S Z S Z S S Z Z m 0 8 < % # X     . . + @ = 5 7 t V ]  .d.k.V.Z.F.H.H.F.H.F.F.F.F.F.Z.Z.V.Z.V.V.Z.Z.F.F.H.H.H.H.F.F.Z.Z.Z.V.V.z.z.z.k.k.k.s.k.k.k.k.z.z.z.z.k.k.s.p...| ` S Z m 0 2 < # #   . . . + * = 5 7 t V ] X.l.V.Z.H.H.J.J.J.J.H.J.H.H.H.H.H.H.H.H.H.H.F.F.Z.Z.Z.Z.V.Z.V.V.Z.V.Z.V.Z.Z.V.",
"Z.Z.V.Z.Z.V.V.V.z.z.z.k.k.k.k.k.k.k.k.k.k.k.k.s.k.s.s.k.k.k.k.z.z.z.z.V.V.V.V.V.Z.Z.Z.Z.Z.F.Z.F.Z.F.Z.F.Z.F.Z.Z.Z.V.V.V.z.z.k.k.s.p.p.p.p.........................p...p...................| ..| | ` ` ` ` ) S ) S S S S S S ) S ) S m b 8 2 % # X X X # < 2 0 b m m Z Z m m m b b b 0 0 0 0 8 8 8 8 2 2 2 8 2 8 8 2 2 8 2 8 8 2 8 2 2 8 2 8 8 2 8 8 8 8 8 8 8 8 8 2 < % # X X   X . . + @ * ; 5 e C F { X.l.z.Z.F.F.H.F.H.F.F.F.F.F.F.F.F.Z.Z.F.F.Z.F.F.F.F.H.H.H.H.J.J.J.J.J.J.K.K.K.K.K.K.K.L.L.L.L.I.L.L.L.L.K.J.J.H.F.F.F.F.F.H.H.J.J.K.J.K.K.K.L.L.L.L.L.I.I.I.I.L.L.L.K.K.J.J.H.F.Z.Z.V.z.z.k.k.k.s.s.s.s.s.k.k.k.k.k.s.s.p.p.......| ..| | ....| ......p.p.p.s.s.s.s.s.k.s.s.k.s.s.s.p.p.p.p.p...p...p.s.s.s.k.s.s.p.p.| ` ` S S Z S Z Z Z S Z Z m b 8 < % X X   . . . + * ; 5 7 t F ]  .d.x.V.F.F.H.H.H.H.H.H.F.F.F.Z.Z.Z.V.V.Z.V.Z.Z.F.F.F.F.F.F.F.Z.Z.V.V.z.V.z.z.z.k.k.k.k.k.z.z.z.k.z.k.k.s.s.p...` ` S Z b 0 2 % # X       . + * ; 5 7 t G ] +.l.z.F.H.H.J.J.J.J.H.H.H.J.H.J.H.H.H.H.H.F.F.F.Z.Z.Z.V.Z.Z.Z.Z.V.Z.V.Z.Z.Z.V.",
"Z.Z.Z.Z.Z.V.V.V.V.z.z.z.z.z.z.z.z.z.z.z.k.z.z.k.k.k.k.k.k.k.k.k.z.z.z.V.z.V.V.V.V.V.V.Z.Z.Z.Z.F.F.Z.F.Z.F.Z.Z.Z.Z.V.V.V.z.k.s.s.p.p.......................................................| | | | | | ` ) ) ) S S S S S S ) S ) S Z Z b 8 2 % # X X X X # < 2 8 0 0 0 0 0 0 0 0 8 8 2 2 2 2 < < < < < < < < < < < < < < < < < < < < < < < < < < < < < 2 2 2 2 < < < % # # X X     . . O * * 5 5 e N H { a.l.V.Z.F.H.F.H.H.F.H.F.F.F.F.F.F.F.F.F.F.F.F.F.F.H.F.H.F.H.H.H.H.H.J.J.J.J.K.K.K.K.L.K.K.L.L.L.L.L.K.K.K.J.H.H.F.F.F.F.F.F.F.F.H.H.J.J.K.K.K.K.L.L.L.L.I.L.I.L.I.L.L.K.J.J.H.F.Z.Z.V.V.z.z.z.k.k.k.k.k.k.s.s.s.s.s.s.p.p.p.p...............| ..........p...p.p.p.s.s.s.s.k.k.s.k.s.s.s.p.p.......p.p.p.s.s.s.s.p.p...| ` ) S S S Z S S S Z Z Z b 0 8 2 % X X     . O O * = 5 7 t G ]  .d.k.Z.Z.H.H.H.H.H.H.H.H.F.F.Z.Z.V.V.V.V.V.Z.Z.Z.Z.F.F.F.F.Z.Z.Z.Z.V.V.V.V.z.z.z.z.z.z.k.z.k.z.z.k.k.s.s.p.....| ) ) Z m 0 2 < #       . O O @ = ; 7 t F ] +.l.C.G.F.J.H.J.J.J.H.H.J.H.H.J.H.J.H.H.H.H.F.F.F.Z.Z.Z.Z.Z.Z.Z.Z.Z.Z.Z.Z.Z.Z.",
"F.Z.Z.Z.Z.Z.V.V.V.z.z.z.z.z.z.z.z.z.V.V.V.z.z.z.z.k.k.k.k.k.z.k.k.k.z.z.V.V.z.V.V.V.Z.V.V.Z.Z.Z.Z.F.F.Z.Z.F.F.Z.Z.V.V.z.z.k.s.p.....| | | | | ..................| ....| | ..| ..| ..| ..| | | | ` | ` ` ` ) ) S S S S S S S S S S Z m b 8 2 % # X     X # # % < < 2 2 2 < 2 < < < < < < % % % % % % # % % % % # # % # % # % % % # % % % # % % % % % % % % % % % # # # X X         . . o * = ; 7 e B H o.a.l.V.Z.F.F.H.H.H.H.H.H.H.H.H.H.F.F.F.F.F.F.F.F.F.F.F.F.F.H.F.H.H.H.H.H.H.J.J.J.K.K.K.K.K.L.L.L.K.L.K.K.J.J.H.F.F.Z.Z.Z.Z.Z.Z.F.F.F.H.H.J.J.K.K.L.L.L.I.L.I.I.L.L.L.L.K.J.H.H.F.Z.V.V.V.z.z.z.z.z.k.k.k.s.s.s.s.s.p.p.p.p.......................................p.p.p.s.s.k.k.k.k.k.k.s.p.p.p.p...p...p.p.s.p.p.p...| | ` ) S S S Z Z S S Z Z m m 0 8 2 % # X X   . O + @ ; 5 7 t V ]  .d.x.A.F.F.H.J.H.J.H.H.H.H.F.F.Z.Z.V.V.V.V.V.Z.Z.Z.Z.Z.Z.Z.Z.Z.Z.V.V.V.V.z.V.z.z.z.z.z.z.z.k.k.k.k.k.s.p.p.....| ` S Z m 0 2 % # X   . . o O * = 5 7 t F ] +.l.V.F.H.H.J.J.J.H.J.H.J.H.H.J.H.H.H.H.H.H.F.F.F.F.Z.Z.Z.Z.Z.Z.Z.Z.Z.Z.Z.Z.Z.",
"Z.Z.F.Z.Z.V.V.V.V.z.z.z.z.z.z.V.V.V.V.V.V.V.V.z.z.z.z.k.z.k.k.k.z.z.z.z.z.z.V.V.V.V.V.Z.Z.Z.Z.Z.Z.Z.Z.F.Z.Z.Z.Z.Z.Z.V.z.k.k.p.p...| | ` ` | | | | ........| | ..| | | | | | | | | | | | | | | | | | ` ` ) ) ) ) S S Z S S S S S S Z m b 8 2 % # X       X X X X # % % & % # % # # # # # X # # X X X X # X X X X # X X X # X X X X X X X X X X # X # X X # X # # X X X X             o + @ = ; 7 e C H { X.l.z.Z.F.F.H.H.H.H.F.F.H.F.H.H.H.H.H.H.F.H.H.F.F.F.F.F.F.F.F.F.F.F.F.H.H.J.J.J.J.K.K.K.K.K.K.K.K.K.K.J.J.H.F.F.F.Z.Z.Z.Z.Z.Z.Z.Z.F.F.F.H.J.J.K.K.L.L.L.I.L.I.L.L.L.K.K.J.H.H.Z.Z.Z.V.V.V.V.V.z.z.z.z.k.k.s.s.s.p.p.p.p...p.............................| ..........p.s.s.k.k.z.z.k.k.s.s.s.p.........p...p.p.p.....| ` ) ) S S S S S Z S S S Z m 0 8 < % X X   . . . + * = 5 7 t F ] o.d.l.V.Z.H.H.J.J.J.J.J.J.H.F.F.F.Z.Z.V.V.V.Z.V.V.V.Z.Z.Z.Z.V.V.V.V.V.V.V.V.V.V.V.V.z.z.z.z.z.k.k.s.s.s.p.p...| ` ) ) Z b 0 2 < # X     . . O @ ; 5 7 t F ] X.d.C.Z.H.H.J.J.J.H.H.H.H.H.J.H.H.H.J.H.H.H.F.F.F.F.F.F.Z.Z.Z.Z.Z.F.Z.Z.F.Z.Z.",
"F.F.F.Z.Z.Z.Z.V.V.z.z.z.z.z.z.V.V.V.V.Z.V.Z.V.V.z.z.z.z.k.z.k.z.k.z.z.z.z.z.z.V.V.V.V.V.V.Z.Z.Z.Z.Z.Z.Z.F.Z.Z.Z.V.V.V.z.z.s.p...| | ` ` ` | | | | ..........| | | | | | | | ` | ` | | | | | | ` ` | ` ` ` ) S S S Z Z S S S S S Z Z m 0 8 2 % # X         X X X X X X # X X X # X     X X X X X   X X X X X X   X X X X X X   X X X X   X X X   X X   X X X X X X X         X   . . o + * = 5 5 e C F { a.l.C.Z.F.H.H.H.H.H.H.H.H.H.H.H.H.H.H.F.F.F.F.F.F.F.F.F.F.F.F.F.F.F.F.H.H.H.H.J.J.J.K.K.K.K.K.K.K.K.J.J.H.H.F.F.Z.Z.V.V.V.V.V.V.Z.Z.Z.F.F.J.J.K.K.K.L.L.L.L.L.L.L.K.K.J.J.H.F.Z.Z.V.V.V.V.V.V.z.V.z.z.k.k.s.p.p.p.................................| ..| ..| | ......p.p.s.k.z.z.z.z.z.k.s.p.p.....................| | ` ` ) S S Z Z S S S S Z Z m 0 8 2 % # X     . O O * ; 5 7 t V ]  .d.k.Z.F.H.J.H.J.J.J.J.J.J.H.F.F.Z.Z.Z.V.V.V.V.Z.V.Z.Z.V.V.V.Z.V.V.V.V.V.V.V.V.V.V.V.V.z.z.k.k.k.s.s.p.p.....| | ` S Z m 0 8 % # X     . . + @ * 5 7 t V ] +.l.V.F.H.J.J.J.H.H.H.H.H.H.H.H.H.H.H.H.H.F.H.F.F.F.Z.F.Z.F.Z.F.Z.F.Z.F.Z.Z.F.",
"F.Z.Z.Z.Z.Z.V.V.z.z.z.z.k.z.z.V.V.Z.V.Z.Z.V.V.V.z.z.z.z.k.z.z.k.z.z.k.z.z.z.z.z.z.V.V.V.V.V.Z.Z.Z.F.Z.F.Z.Z.Z.Z.Z.Z.V.z.k.s.p...| ` ` ) ` ` ` | ..| ..| | | | | | | ` ` ` | ` | ` | ` ` ` | ` ` ` ` ` ) ) ) S S S S Z Z Z S Z S Z m m 0 8 < % X X               X                                             X                 X                                                 . o + * * ; 7 e C H { a.l.z.Z.F.F.H.H.H.F.H.H.H.H.H.H.H.H.H.H.H.H.H.F.F.F.F.Z.Z.F.Z.Z.Z.F.F.F.F.H.H.H.J.J.J.J.J.K.J.K.J.J.J.J.H.H.F.Z.Z.Z.V.V.V.V.V.V.V.V.Z.F.F.H.J.J.K.L.L.L.L.L.L.L.L.K.K.J.H.H.F.Z.Z.V.V.V.V.V.V.V.V.V.z.k.k.s.s.p.p...........p...............p.........| | | | | | ....p.s.k.k.z.k.z.k.s.s.p.........| ........| | | ` ` ) S S S S S S S S S S Z m b 8 < % X X     . . + * = 5 7 t V ]  .d.x.V.F.F.H.J.J.J.J.J.J.J.H.H.F.Z.Z.V.Z.Z.V.V.V.V.V.V.Z.V.V.V.V.V.V.V.V.V.V.V.V.z.V.z.z.k.k.k.k.s.s.p.......| ` ` ) Z m 0 2 < # X     . . + @ ; ; 7 B G {  .l.V.Z.H.H.H.J.J.H.H.H.H.H.H.H.H.H.H.F.H.H.H.F.F.F.F.Z.F.F.Z.F.F.Z.F.Z.F.F.F.",
"Z.Z.Z.Z.Z.V.V.V.z.z.z.k.k.z.z.z.V.V.V.Z.V.V.V.V.V.V.z.z.z.z.z.z.z.z.z.z.z.z.z.V.z.V.V.V.V.V.V.Z.Z.Z.Z.Z.Z.Z.Z.Z.V.V.V.z.k.s.p...| ` ) ` ) ` ` | | ....| | | | ` ` ` ` ` ` ` ` ` ` ` ` ` ` | ` ` ` ` ) ) ) S S S Z Z Z Z Z Z Z Z Z m b 0 8 < % # X                     . .   .   .     .   .   .   .     .     .   .   .   .   . .   .       .   .     .   .   .   .       .   o   o o @ = = 5 7 e C F { X.l.V.Z.F.H.H.H.H.H.H.H.H.H.H.H.H.J.H.H.H.H.F.F.F.F.Z.F.Z.F.Z.F.Z.Z.F.F.F.H.H.H.J.J.J.J.J.J.J.J.J.J.H.H.H.F.F.Z.Z.V.V.V.V.V.z.V.V.V.V.Z.F.H.J.J.K.K.K.L.L.L.K.K.K.K.J.J.H.F.F.Z.Z.V.V.V.V.V.V.V.V.z.z.z.k.s.s.p.............p.......p.p...p.............| | | | | ....p.s.k.k.z.k.k.k.s.p.p.....| | | | | | | | | ` ` ) ) S S S Z S S S S S S Z m b 8 2 % # X     . O + @ ; 5 7 t C ]  .d.z.V.F.F.H.J.J.K.K.J.J.J.H.H.F.F.F.Z.Z.Z.V.V.V.V.V.V.V.V.V.V.V.V.V.V.V.V.V.V.z.V.z.z.z.k.k.s.s.s.p.p.p...| | | ` ) Z m 0 2 < # X     . . O @ = 5 7 t V {  .l.z.G.H.J.H.J.H.H.H.H.H.F.H.F.H.H.F.H.F.H.F.F.F.F.F.F.F.F.F.F.F.Z.Z.F.F.F.Z.",
"Z.F.F.Z.Z.Z.V.V.z.z.k.k.k.k.k.z.z.z.V.V.V.V.V.V.z.z.z.z.z.z.z.z.z.z.z.z.z.z.z.z.z.V.z.V.V.V.V.Z.Z.Z.Z.Z.Z.Z.Z.Z.V.Z.V.z.k.s.p...| ` ) ) ) ` ` | | | | | | | ` ` ` ` ` ` ) ` ` ) ) ` ` ` ` ` ` ` ` ) ) ) ) S S Z Z m m Z Z Z Z m m m b 0 2 < % X X           . . . . . . . . . . . . . . . . . . . . . . . . . . . . . . . . . . . . . . . . . . . . . . . . . . . . . o   o   o $ * + * = ; ; 5 e N H ' a.l.V.Z.Z.F.F.H.H.H.F.H.H.H.H.H.H.H.H.H.H.H.F.H.F.F.F.Z.Z.Z.F.Z.Z.F.Z.F.F.H.F.H.H.H.H.J.J.J.H.J.H.H.H.H.F.F.Z.Z.V.V.V.V.z.V.V.z.V.V.V.Z.F.F.H.J.J.K.K.K.K.K.K.K.K.J.H.H.F.F.Z.Z.Z.V.V.V.V.V.V.Z.V.V.z.z.s.s.p.p.p.............p.p...p...p...p.p.p.........| ..| | ....p.s.s.k.k.k.k.s.s.p...| | | ` ` ` | ` ` ` ` ` ) ) ) S S S S S S S S S S Z m b 8 < % # X     . . + * = 5 7 t C ]  .a.x.V.F.H.J.J.J.J.J.K.J.J.J.J.H.F.F.F.Z.Z.Z.Z.V.Z.V.V.V.V.V.V.V.V.V.V.V.z.V.V.z.z.z.z.k.k.s.s.s.p.p.........| ` ` ) S m 0 8 < # X   o . . O @ ; 5 7 t G ] +.l.C.F.F.H.J.H.H.H.H.F.F.F.F.F.F.F.F.F.F.F.F.H.F.F.F.F.H.F.F.F.F.F.F.F.Z.Z.F.",
"Z.Z.Z.Z.Z.V.V.z.z.k.k.k.k.k.k.k.z.z.z.z.z.V.z.V.z.V.V.z.V.z.V.z.z.z.z.z.V.z.z.z.V.z.z.V.z.V.V.V.V.Z.V.Z.Z.Z.Z.Z.Z.V.V.z.k.s.p.| ` ` ) ) ) ` ` ` | | | | | | ` ` ) ) ) ) ` ) ) ` ` ` ` ` ) ` ) ` ) ) ) ) S Z Z Z m m m m m m m m m b b 8 2 < % # X         .   o o O o o . O . O O O O . O O . O . O O . O O O O O O O O O . O . . O o O O O . O O O O O O O . O o o o o + o $ $ * * = = = ; 5 5 e C H { a.l.x.Z.F.F.H.H.H.F.F.H.F.H.H.H.J.H.H.H.H.H.H.F.F.F.F.Z.F.Z.Z.Z.F.Z.F.F.F.F.F.H.H.H.H.H.H.H.H.H.H.F.F.F.F.Z.Z.Z.Z.V.V.V.z.V.V.z.V.V.V.Z.Z.F.H.H.J.K.J.K.J.J.J.J.J.H.H.H.F.F.Z.Z.V.V.V.Z.V.V.V.V.V.V.z.z.k.s.p.p...............p...p.p.p.p.p.p.............| | | | ....p.p.s.s.s.k.s.p.p.....| ` ` ` ` ` ` ) ` ` ) ) ) S S S S Z S S S ) S S S Z Z b 0 2 % # X   . . . + * = 5 7 t F ]  .d.x.Z.Z.H.H.J.J.K.J.J.K.J.J.J.H.H.F.F.F.F.Z.Z.Z.Z.V.V.V.V.V.V.V.V.V.V.V.V.z.z.z.z.k.k.k.k.s.s.p.p.............| ` ) S Z b 2 < # X     . O O = = 5 7 t F { +.l.V.Z.H.H.H.H.H.F.F.F.Z.F.Z.F.F.Z.F.F.F.F.F.F.F.F.F.F.F.F.F.F.F.F.F.F.F.F.Z.",
"Z.Z.Z.V.V.V.V.z.z.k.k.k.k.s.k.k.k.k.k.z.z.z.z.z.z.z.z.V.z.V.z.z.z.V.V.z.z.z.z.V.z.z.z.z.V.z.V.V.V.V.Z.Z.V.Z.V.Z.Z.V.V.z.k.s.p...| ` ` ` ` ) ` ` ` | | | | ` ` ` ) ) ) ) ) ) ) ) ) ` ) ) ` ) ) ) ) ) S S S Z Z m m m m m m m m m m b 0 8 2 < # X         . . o o + * + + + @ @ O @ O O @ O + + + + + @ @ + + + + + + + + + + + + O @ + O @ @ + @ + + + + + + + + + + @ * * * * * * * = = = > y 7 e B H { X.l.V.Z.F.F.H.F.F.H.F.F.H.H.H.H.H.H.H.H.H.H.H.F.F.F.Z.F.Z.F.Z.F.Z.Z.F.Z.F.F.F.F.H.H.H.H.H.H.F.H.F.F.F.F.Z.Z.Z.V.V.V.V.V.V.V.z.V.z.V.Z.Z.Z.F.H.H.J.J.J.J.J.J.J.H.H.H.F.F.Z.Z.Z.Z.V.V.V.V.Z.V.V.Z.V.V.z.k.k.s.p.p...........p...p.p.p.p.p.p.p.p.p.p.p.p.......| ..| ....p.p.p.s.s.s.p.p...| | ` ` ) ) ) ) ) ) ) ) ) ) ) S S S S S Z S S S ) S ) S m b 8 2 % # X     . O O = ; 5 7 t F ]  .d.x.V.F.H.H.J.J.J.J.K.J.J.J.J.J.J.H.H.F.F.Z.Z.Z.Z.V.V.V.V.V.V.V.Z.V.V.V.V.z.z.z.k.k.k.s.s.s.p.p.p.p.......| | | ` ) S m 0 8 < % X       . + @ = ; 7 t G {  .d.C.F.F.H.H.H.H.F.F.F.Z.Z.Z.Z.Z.Z.Z.Z.Z.F.F.F.F.H.F.H.H.F.F.F.F.Z.F.Z.Z.F.F.",
"Z.V.Z.V.V.V.z.z.k.k.k.s.s.s.s.s.k.k.k.k.k.z.z.z.z.V.z.V.V.V.V.V.V.V.z.V.V.z.z.z.z.z.z.z.z.V.V.z.V.V.Z.V.Z.V.Z.Z.Z.V.V.z.k.k.p...` ` ` ) ) ` ` ` | | ` | ` ` ` ) ) ) S ) S ) ) ) ) ) ) ` ) ) ) ) S S S Z Z Z m m m m b m b m m b b b 0 8 2 % # # X     . o o * * * = = = = = = = = * = = = = = = * * = * = * = * = @ * = * = = * = * = * * * = * = * * * = = = = = = * * * * ; ; = ; = = ; > ; 5 e N H ' X.l.V.Z.F.F.H.F.H.F.F.F.F.H.F.H.H.H.H.H.H.F.H.F.F.F.F.Z.F.Z.Z.F.F.Z.F.F.F.F.F.F.F.H.F.F.F.F.F.F.Z.F.Z.Z.Z.Z.Z.V.V.V.V.V.V.V.z.V.V.V.V.V.F.F.F.H.H.J.J.J.H.H.H.F.F.F.Z.Z.Z.Z.V.V.V.V.V.Z.V.V.Z.V.V.V.z.z.k.s.p.p.......p...p.p.p.p.p.s.p.p.p.p.p.p.p.p...................p.p.p.p.p.p...| | ` ` ) ) ) S S ) ) S ) S S ) S S Z S S S S S ) S ) S S Z b 0 2 % # X     . . + @ = 5 7 t V ]  .a.x.V.F.H.H.H.J.J.K.K.J.K.J.J.J.J.H.H.H.F.F.Z.Z.V.V.V.V.V.V.V.V.V.V.V.z.z.z.z.k.k.k.s.s.s.p.p.p.............| | ` ) S m b 8 < # X     . . O @ = 5 7 t F ] +.l.V.Z.H.H.H.H.F.F.F.Z.Z.V.Z.Z.Z.Z.Z.Z.Z.Z.F.F.F.H.H.H.F.H.F.F.F.F.Z.F.Z.F.Z.",
"V.Z.Z.V.V.V.z.z.k.k.k.s.s.s.s.s.s.s.s.s.s.k.k.z.z.z.z.V.V.V.V.V.V.V.V.z.z.V.z.V.z.z.z.z.z.z.z.V.V.V.V.V.V.Z.V.Z.V.V.V.z.k.s.p...| ` ) ) ) ) ` ` ` | ` ` ` ` ) ) S ) S S S ) ) ) ) ) ) ) ) ) S ) ) S S S Z m m m b b b b b b b m b 0 8 8 2 % # X         o o $ = = - ; 5 ; ; ; ; ; ; ; ; = ; ; = ; ; ; ; ; ; ; ; ; ; ; ; ; ; ; ; ; ; ; ; ; ; ; ; ; ; ; ; = ; ; ; ; ; ; ; ; ; ; ; 4 ; ; > : > y 5 e C F ' a.l.x.Z.F.F.F.F.F.F.F.F.F.F.H.H.H.H.H.H.H.H.H.F.F.F.F.Z.Z.Z.F.Z.Z.F.F.Z.F.F.F.F.F.F.F.F.F.Z.F.Z.Z.Z.Z.V.V.Z.V.V.V.V.V.V.V.V.V.V.V.V.Z.Z.Z.F.F.H.H.H.H.H.H.H.F.F.Z.Z.Z.Z.Z.V.V.Z.V.V.V.V.V.V.V.V.V.z.z.z.k.s.p.p...p.......p.p.p.p.p.p.p.s.p.p.s.p.p.p.p...................p.p.p.......| ` ` ) S S S S S S S S S S S S S S S S Z S S S ) ) ) ) S Z b 0 2 < # X X   . O + @ ; 5 7 t G ]  .d.z.V.F.H.H.J.J.J.J.J.K.K.K.K.J.J.J.J.H.H.F.F.F.Z.Z.V.V.V.V.V.V.V.V.V.V.z.z.k.k.k.s.s.s.p.p.p...p.........| | | | ` ) Z b 8 < # #   . . . O * ; 5 7 t F { X.l.V.A.F.H.H.F.F.Z.Z.Z.Z.V.Z.V.V.V.Z.Z.Z.Z.Z.F.F.F.F.H.H.F.H.F.F.F.F.F.F.Z.F.",
"V.V.V.V.V.V.z.z.z.k.s.s.s.p.s.s.p.s.s.s.s.k.k.k.z.V.z.V.V.V.V.V.V.V.V.V.V.V.V.z.z.z.z.z.z.z.z.V.V.V.V.V.V.V.V.V.V.V.z.z.k.s.p...| ` ` ) ` ) ` ` ` ` | ` ` ) ) ) S S S S S S S ) ) ) ) ) ) ) ) S S S Z Z Z m m m b b b b b b b b b 0 0 2 < % # # X     . o $ * = ; ; 5 5 5 5 5 5 5 5 5 5 5 5 5 5 5 5 5 5 5 5 5 5 5 5 5 5 5 5 5 5 5 5 5 5 5 5 5 5 5 5 5 5 5 5 5 5 y 5 5 5 5 5 ; ; ; ; > > > ; 5 i e C H ] a.k.V.Z.F.F.F.H.F.F.Z.F.F.F.F.F.H.H.H.H.H.F.H.F.F.F.F.F.F.F.Z.F.F.Z.Z.F.F.Z.F.Z.F.Z.Z.Z.Z.Z.Z.V.Z.V.V.V.V.V.V.V.V.V.V.V.V.V.V.V.V.V.Z.Z.Z.F.F.H.H.H.H.H.F.F.Z.Z.V.Z.V.V.V.V.V.V.V.V.V.V.Z.V.Z.V.V.z.z.k.s.s.s.p.p.p.....p.p.p.p.s.p.s.s.s.p.s.p.s.p.p.p.p.p.........................| ` ` ) ) S S S S S S S S S S S S S Z S S Z S S S ) ) ) S S Z b 0 2 % # X   . . o + * * 5 7 t V ]  .a.z.V.F.H.H.J.J.J.J.K.J.J.K.K.K.K.J.J.J.H.H.F.Z.Z.V.V.V.V.V.V.V.V.V.V.z.z.z.k.k.s.s.s.p.s.p.p.p.p...........| | ` ` S Z b 8 < % X     . O O @ = 5 e t G ] +.d.V.F.F.H.H.H.F.F.Z.Z.V.V.V.V.V.V.V.V.Z.Z.Z.F.F.F.H.H.H.H.F.H.F.F.F.Z.Z.F.Z.",
"Z.V.V.V.z.z.z.z.k.k.s.s.s.s.p.s.s.p.s.s.s.k.k.k.z.z.V.V.V.V.V.V.V.V.V.V.V.z.V.z.z.z.z.z.z.z.z.V.z.V.V.V.V.V.V.V.V.V.z.z.s.s.p.| | ` ` ` ) ` ` ` ` ` ` ` ) ) ) ) S S S S S S S ) ) ) ) ) ) S S S S S Z Z Z m m m m b b b b b b b b 0 8 8 < < # X       . o * * ; ; 5 y 5 i 7 7 7 7 e e e e e e e e e e 7 e e e e e e e e e e e e e e e e e 7 e e e e 7 e e 7 e 7 e 7 7 5 5 5 y y y > > > > > y 7 e N H ' X.l.z.Z.Z.F.F.F.F.F.Z.F.F.F.F.F.F.H.F.H.F.H.F.F.F.F.F.Z.Z.F.F.F.Z.F.F.Z.Z.F.Z.F.Z.Z.Z.Z.Z.Z.V.V.V.V.V.z.V.V.V.V.V.V.Z.V.V.V.Z.V.V.Z.Z.Z.Z.F.F.H.H.H.F.F.F.Z.Z.V.V.z.V.V.V.V.V.V.V.V.V.V.V.V.V.V.V.V.z.z.k.s.p.p.......p...p.p.p.p.s.s.p.p.s.s.p.p.s.p.p.p...p.p.p.....p.........| | | ` ) ) ) ) S S S S S S S S S S Z S S Z S S S S S S ) ) ) S Z b 0 2 % # X     . O O * ; 5 7 B C ]  .d.x.V.F.H.H.J.J.J.K.J.K.K.K.K.J.K.J.K.J.J.H.F.Z.Z.V.V.V.V.V.V.V.V.V.V.z.z.z.k.k.k.s.s.s.s.p.p.p.p.p.p.........| | ) S m b 8 < # X     . . + @ = 5 5 t F { +.l.C.Z.H.H.H.F.F.Z.V.V.V.V.V.V.V.V.V.V.Z.Z.Z.F.F.F.H.H.F.F.H.F.F.F.F.F.F.Z.F.",
"V.V.V.V.V.z.z.z.k.k.k.s.s.s.s.p.p.s.s.p.s.s.k.k.z.z.z.V.V.V.V.V.V.V.Z.V.V.z.V.z.z.z.z.z.z.z.z.V.z.V.V.z.V.V.z.V.z.z.z.k.s.s.p...| ` ` ` ) ` ` ` ` ` ` ` ) ) ) S S S Z S S S S ) ) ) ) ) ) S S ) S Z S Z Z m m m m b b b m b b b b 0 0 8 < < # X X     . o * * ; y 5 i 7 f e t t t B B B B B C B B B B B C B B C t B B B B C B t B B B B t B t B t t B t B B t t t t e e i i y y y > > > > > y 5 e N H ' a.l.C.Z.F.F.F.F.F.F.Z.Z.Z.F.F.F.F.F.F.F.F.H.F.F.F.F.F.F.F.F.F.F.F.F.Z.Z.Z.Z.Z.Z.Z.V.V.V.V.V.V.z.z.z.V.z.z.V.z.V.V.V.V.V.V.Z.V.Z.V.Z.Z.Z.F.F.F.F.F.H.F.F.Z.Z.V.V.z.z.z.z.z.z.V.V.V.V.Z.V.V.Z.Z.V.V.V.z.k.k.s.p.p...p.......p.p.s.s.p.p.s.p.s.s.s.p.s.p.p.p...p.....p.............| | | ` ) ) ) S S S S S S S S S S S S S Z S Z Z S S S ) ) ) S S Z b 0 2 % # X     . . O * ; 5 e t V ] o.a.x.V.F.H.H.H.J.J.J.J.K.K.K.K.K.K.J.J.J.H.H.F.Z.Z.V.V.V.z.V.z.V.z.V.z.z.z.z.k.k.k.s.k.s.s.s.s.p.p.p.p.........| ` ) S m 0 8 < # X     . . O @ = 5 7 t F { X.l.C.Z.F.F.H.F.F.Z.Z.V.V.V.V.V.V.V.V.V.Z.Z.Z.Z.F.F.H.F.H.H.H.F.F.F.F.Z.F.F.F.",
"Z.V.V.V.V.V.z.z.z.k.k.s.s.s.s.s.s.p.p.s.s.s.k.k.z.z.V.V.V.V.Z.V.V.V.V.V.V.V.z.V.z.z.z.V.z.z.z.V.V.z.V.z.z.z.z.z.z.z.k.k.s.p...| | ` ` ` ` ) ` ` ) ` ` ) ) ) ) S S S S S S S ) S ) ) ) S ) ) ) S S S S Z Z Z Z m m m m m m m m m m b 0 8 2 % % X X     o o * * ; 5 y 5 f t t C C F F F H F F F F F F F F F F F F F F F H F F F F F F F F F F F V F F F F F F F V N N t t e 7 7 y y > , > > > y 7 e B F ' X.l.z.V.Z.F.F.F.Z.Z.Z.Z.Z.Z.Z.Z.F.F.F.F.F.F.F.F.H.F.F.F.F.F.F.F.F.Z.Z.F.Z.Z.Z.V.V.V.V.V.z.z.z.z.z.z.z.z.z.z.V.z.V.V.V.V.V.V.Z.Z.Z.Z.F.Z.F.F.F.F.H.F.F.Z.Z.V.V.z.z.k.k.z.z.z.z.V.V.V.V.V.V.V.V.V.V.V.z.z.k.s.p.p.p.....p.p.p.p.p.p.s.s.s.s.s.p.p.s.p.s.p.p.p.p.p.p...p.......| | | | | ` ` ) ) ) S S ) ) ) S S ) ) S S S S S S S S S S ) ) S S S Z m 8 2 < # X   . . O + @ ; ; 7 t V ]  .d.x.Z.Z.H.H.J.J.J.J.K.K.K.K.K.K.K.K.K.J.H.H.F.Z.Z.V.z.V.V.z.V.V.V.z.V.z.z.z.z.k.k.k.k.s.k.s.s.s.s.s.p.p.p...| | ` ) S m 0 8 < # #   . . o O * = 5 7 t F ] +.l.V.F.F.H.H.F.F.Z.V.V.V.V.z.z.V.V.V.V.V.V.Z.F.F.F.F.H.H.F.F.F.F.F.F.F.F.Z.Z.",
"V.V.V.V.V.z.z.z.k.k.k.s.s.s.s.s.p.s.p.s.s.s.k.k.z.z.V.V.Z.V.V.Z.Z.V.V.V.V.z.V.V.z.V.V.z.V.z.z.z.V.z.z.z.z.z.z.k.k.k.k.s.p.p.....| ` ` ` ` ) ` ) ) ` ` ) ) ) ) S S Z S S S S S ) S ) ) ) ) ) S S S S S S Z Z Z m m m m m m m m m m b 0 8 2 < # # X     . o + * ; 5 5 f t B C G H ] { { { { { { { { { { { { { { { { { { { { { { { { { ] _ ] ] ] _ ] _ _ ] _ ] ] _ H H C C t e i y y > , : > > y 5 e N H ' a.l.V.Z.F.F.F.Z.Z.Z.Z.V.Z.Z.Z.Z.Z.Z.F.F.F.F.F.F.F.F.F.F.F.F.F.F.F.F.F.Z.Z.V.V.V.V.z.z.z.z.k.z.k.k.k.k.k.z.z.z.V.V.V.V.Z.Z.Z.Z.Z.Z.F.F.F.F.F.F.H.F.F.F.Z.V.V.z.k.k.k.k.k.k.z.z.V.z.V.V.V.V.Z.V.V.V.z.z.k.s.s.p.p.........p.p.p.s.s.s.s.p.s.s.s.s.p.s.p.s.p.p.p.p.p...............| | | ` ` ) ) ) ) ) ) ) ) ) ) ) ) S S S S S S S Z S S S ) S S S m b 8 2 % # X     . . + = = 5 7 t V ]  .d.x.Z.F.H.H.J.J.K.J.J.K.K.K.K.K.K.K.K.J.J.H.F.Z.V.V.V.z.z.z.z.z.z.z.V.z.z.z.z.k.k.k.k.k.k.k.k.k.k.s.s.s.p.....` ` ) Z m 0 2 % # X       . + @ ; ; 7 t G { X.d.C.Z.H.H.H.F.F.Z.Z.V.V.V.z.V.V.z.V.V.Z.Z.Z.Z.F.F.F.F.F.H.F.F.F.F.Z.F.F.F.F.",
"V.V.V.V.V.V.V.z.z.z.k.k.k.k.s.s.p.s.s.s.s.s.k.k.z.z.V.V.Z.V.Z.V.V.V.V.V.V.V.V.V.V.V.z.z.z.V.V.z.z.V.z.z.z.z.k.k.k.s.s.p.p.......| | ` ` ` ` ` ` ` ` ` ) ) ) S S S S S Z S S ) S ) ) ) ) ) ) ) ) ) ) S S S S Z Z Z Z m Z m Z Z m m m b 8 2 < % X X     o o + = ; 5 y e B C H ] {  .+. .a.a.X.X.X.X.X.X. .X.X.X.X.X.a. .X.X.X.X.X.X.X. .X. . .X. . . . . . . . . .' ] H C B t f 5 y > > : : > y 5 e C H ' X.l.x.Z.Z.F.F.F.Z.Z.Z.Z.V.Z.Z.Z.Z.Z.Z.Z.Z.F.F.F.F.H.H.F.F.H.F.F.F.F.Z.Z.Z.Z.V.z.z.z.k.k.k.k.k.k.k.k.k.k.k.z.z.z.V.V.V.V.Z.Z.Z.F.F.F.F.F.F.F.H.F.F.F.Z.Z.V.V.k.k.s.s.s.k.k.k.z.z.V.V.V.V.V.V.V.V.V.V.z.k.k.s.p.p.p.....p.p...p.p.p.s.s.s.s.p.p.s.s.p.s.p.s.p.p.p.p.p.p.......| | | | ` ` ` ` ` ` ` ) ) ) ) ) ) ) ) ) ) ) S S Z Z S S S S S ) S Z Z b 8 2 % # X X   . O + * = 5 7 t F ]  .d.k.V.F.H.H.J.J.J.K.K.J.K.K.K.K.K.K.J.J.H.F.F.Z.V.V.z.z.z.z.z.z.z.z.z.z.z.z.z.z.z.k.z.z.k.z.k.z.k.k.s.s.p...| | ` S Z b 0 2 < #       . O O @ = 5 7 t F ] X.l.V.F.F.F.H.F.F.Z.V.V.V.V.V.V.V.V.V.V.V.Z.Z.Z.Z.F.F.F.H.F.F.H.F.F.F.F.F.F.Z.",
"Z.V.V.V.V.z.z.z.z.z.k.k.k.s.k.s.s.s.s.p.s.k.k.k.z.z.V.V.V.V.Z.V.V.V.V.V.V.V.V.V.V.V.V.V.z.V.z.V.z.z.z.z.k.k.k.k.s.s.p.p.p.....| | ` ` ` ` ` ` ` ` ) ) ) ) ) ) S S Z S Z S S S ) ) ) ) ) ) ) ) ) ) ) S S S S Z Z Z Z Z Z Z Z Z Z m m b 0 2 < % # X   . . o + = ; 5 5 e B G ] o. .d.d.l.d.l.l.l.l.d.d.d.l.d.l.l.d.l.d.d.l.l.l.d.d.d.d.d.d.d.d.d.a.a.d.d.a.d.d.a.a.X.' ] F C t 7 y y > > > > > y 5 t B H ' a.l.z.Z.Z.Z.F.Z.Z.Z.V.V.V.V.Z.V.V.Z.Z.Z.Z.Z.F.F.H.F.H.F.H.F.F.H.F.Z.F.Z.V.V.V.z.z.k.k.k.s.s.s.s.s.k.k.k.k.k.z.z.V.V.V.Z.Z.Z.F.F.F.F.H.F.H.H.H.F.F.F.Z.V.z.z.k.s.s.s.s.s.k.k.z.z.V.V.V.V.Z.V.V.V.V.V.z.z.k.s.p.p...........p.p.p.s.s.p.p.s.s.p.s.p.s.p.p.p.p.p.p.p.p.........| | | ` | ` ` ` ` ` ` ` ` ` ` ` ` ` ) ) ) ) S S S S Z S S S S S S Z m b 8 2 % # X     . . O * ; 5 e t F ]  .d.x.V.F.F.H.J.J.J.K.J.K.K.K.K.K.K.K.J.J.J.F.F.Z.V.V.z.z.z.k.z.z.z.z.z.z.z.z.z.z.z.z.z.z.z.z.z.z.z.k.k.s.p.p...` ) S Z b 8 < % # X   . . o O * = 5 7 t F ] X.l.C.A.H.H.H.H.F.Z.Z.V.V.V.V.V.V.V.V.V.V.Z.Z.Z.Z.F.F.F.F.F.F.F.F.F.F.Z.F.F.F.",
"V.V.V.V.V.V.V.z.z.z.z.k.k.k.s.s.s.s.s.s.s.s.k.k.z.z.V.V.V.V.V.V.Z.V.V.V.V.V.V.V.V.V.V.z.V.V.z.z.z.z.z.k.k.k.s.s.s.p.p.........| | | | ` ` ` ) ` ` ) ) ) ) S S S S S S S S S S ) ) ) ) ) ) ) ) ) ) S ) ) S S S S Z Z Z Z Z S Z S Z Z b 0 8 < % X X     . o O * = 5 7 t C H { X.d.l.x.V.V.V.C.z.x.z.V.x.x.z.z.x.x.z.C.z.x.z.z.C.z.x.k.z.x.k.l.k.k.l.k.k.k.k.k.l.d.a.X.' D N B e i y > : : > > y 7 e C F ' X.l.V.Z.F.F.F.F.Z.Z.Z.V.Z.V.V.V.Z.V.V.Z.Z.F.F.F.F.F.H.H.H.H.H.F.F.F.Z.Z.V.V.z.z.k.k.s.s.s.s.s.s.s.s.s.k.k.k.z.z.z.V.V.V.Z.Z.F.F.F.H.F.H.H.F.F.H.F.Z.Z.V.z.z.k.s.s.p.p.p.s.k.k.z.V.V.V.Z.V.Z.Z.V.V.z.z.k.s.s.s.p.p...p...p.p.p.p.p.s.s.s.p.s.s.p.s.p.s.s.s.s.s.p.p.p.p.p.....| | | | ` | ` ` | ` ` ` ` ` ` ` ` ` ` ` ) ) ) S S S S Z S S S S Z Z m b 8 2 % X X   . . O + * = ; 7 t C ]  .a.x.V.F.H.J.J.J.J.J.J.K.K.K.K.K.J.K.J.J.H.F.Z.Z.V.z.z.z.z.z.k.z.k.z.k.z.z.z.z.V.V.z.V.V.V.V.V.V.V.z.z.s.s...| ` ) S m b 8 2 % # X     . . O @ ; 5 7 t F { +.l.x.F.F.F.H.F.F.Z.V.Z.V.V.V.V.V.V.V.V.Z.Z.V.Z.Z.Z.F.F.F.Z.F.F.F.Z.F.F.Z.F.Z.",
"V.V.V.V.V.V.V.z.z.z.z.k.k.k.s.k.s.s.s.s.s.k.k.k.z.z.z.V.V.V.V.V.V.V.V.Z.V.V.V.V.V.V.V.z.V.z.V.z.z.z.k.k.k.s.s.p.p.........| | | | ` ` ` ` ` ` ) ) ) ) ) ) S S S S Z S S S S S ) S ) ) ) ) ) ) ) ) ) ) S ) S S Z S Z Z S S Z S S Z Z m 0 8 2 % # X     . O @ * ; 5 7 t C ] o.a.k.z.V.Z.Z.Z.Z.Z.V.Z.Z.Z.Z.Z.V.Z.V.V.Z.Z.V.V.Z.Z.V.Z.A.V.V.V.V.z.z.z.z.z.V.V.V.x.k.s.a.' _ F B e 5 > > : : : > y 5 e B H ' a.l.V.V.Z.F.Z.F.Z.Z.Z.V.V.V.Z.V.Z.V.Z.V.Z.Z.Z.F.F.H.H.H.F.H.H.F.F.F.Z.Z.Z.V.z.k.k.s.s.p.s.s.s.s.s.s.s.s.k.k.z.z.z.V.V.Z.Z.Z.F.F.H.H.H.F.H.H.F.F.F.Z.Z.V.z.z.s.s.p.p.p.s.s.s.k.z.z.V.V.V.V.Z.V.V.V.V.z.z.k.s.p.p.p.....p.p.p.p.p.s.p.p.s.s.s.s.p.p.s.s.p.s.p.p.s.p.p.......| | | | ` ` ` | | ` ` ` ` | | ` ` | ` ` ` ) ) ) S S S S S S S S S Z Z b 0 8 < % X X     . . + @ ; 5 e t F ]  .d.x.Z.F.F.H.J.J.J.J.J.K.K.K.K.K.K.K.J.J.H.F.Z.Z.V.z.z.k.k.k.z.k.z.z.z.z.z.z.z.V.z.V.V.V.V.V.V.V.V.z.z.k.s.p.| ` ) Z m 0 8 2 % # X     . . + @ = 5 7 t G ] +.l.V.Z.H.H.H.H.F.Z.Z.V.V.V.V.V.V.V.V.V.V.V.V.Z.Z.Z.Z.F.Z.Z.F.Z.Z.Z.Z.Z.Z.Z.Z.",
"V.V.V.V.z.V.z.z.z.z.z.k.k.k.k.s.s.s.s.s.s.s.k.k.k.z.z.V.z.V.V.V.V.V.V.V.V.V.V.V.V.V.V.V.V.V.z.z.z.z.k.k.s.s.s.p.p.......| | | | | | ` ` ` ` ) ` ) ) ) ) S S S S S S S S S S S S ) ) ) ) ) ) ) ) ) ) ) ) S S S S Z S Z Z Z S S S Z Z m b 8 < % X X     . . O * = 5 7 t V ]  .d.x.Z.Z.F.F.F.F.F.F.Z.Z.Z.Z.Z.Z.Z.Z.Z.Z.Z.Z.Z.Z.Z.Z.Z.Z.Z.Z.V.V.V.V.V.V.V.V.V.V.V.z.k.p. ._ M r 6 5 ; = : = : > y 5 e B H { a.l.z.Z.F.F.F.Z.Z.Z.V.V.Z.Z.V.V.V.V.V.Z.Z.Z.F.F.H.F.H.H.H.H.F.H.F.F.Z.Z.V.V.z.k.k.s.s.s.p.p.p.p.p.s.s.s.s.k.k.z.V.V.V.Z.Z.F.F.F.F.F.H.F.F.F.F.F.F.Z.V.V.z.k.s.p.p.p.p.p.s.k.k.z.V.V.V.V.V.V.Z.V.V.V.z.z.k.s.s.s.p.p.p.p.p.p.p.p.p.p.p.p.p.p.p.s.s.p.s.s.s.s.s.s.p.p.p...| | | | ` ` ` ` ` ` | ` | ` | ` | | ` | ` ` ` ) ) S S S S S S S S Z Z Z m 0 8 < % # X     . O + = = 5 7 t C ] o.d.x.V.Z.H.H.H.J.J.J.J.J.J.K.J.K.J.K.J.H.H.F.F.V.V.z.z.z.z.k.k.z.z.k.z.z.z.z.V.z.V.V.V.V.V.V.Z.V.V.z.z.k.s.....` ) Z m 0 8 < % # X     . . + @ ; ; 7 t F { X.l.V.F.F.H.H.F.F.F.Z.Z.V.V.V.V.V.V.V.V.V.V.Z.V.Z.Z.Z.Z.Z.Z.Z.Z.Z.Z.Z.Z.Z.V.Z.",
"V.V.V.z.V.z.z.z.z.z.k.k.k.k.s.k.k.s.s.k.s.s.k.k.k.z.z.z.z.V.V.V.V.V.V.V.V.V.V.V.V.V.V.V.V.z.z.z.k.k.k.s.s.p.p.p.....| | | | | ` ` ` ` ` ` ` ) ) ) ) ) S S S S S S Z S S S S S S S S ) ) ) ) ) ) ) ) ) S S S S Z Z Z Z Z S S S S S Z m b 0 2 % # X   . . . O @ ; 5 7 t F ]  .d.x.Z.F.F.H.H.F.H.F.F.F.F.F.Z.Z.Z.Z.Z.Z.Z.Z.Z.Z.F.Z.F.Z.Z.Z.Z.Z.V.Z.V.V.V.V.V.V.z.z.l.a.| D M r 6 4 ; = = = : = y 7 e N F ' X.l.z.Z.F.F.F.F.Z.Z.Z.Z.Z.V.V.Z.V.Z.V.Z.Z.F.F.F.F.H.H.H.H.H.H.F.F.F.F.Z.V.z.z.k.k.s.p.p.p.p.p.p.p.p.s.s.k.k.z.z.z.V.V.V.Z.Z.Z.F.F.F.F.H.F.F.F.F.Z.Z.Z.z.z.k.s.p.p...p.p.s.s.k.z.V.V.V.Z.Z.V.V.V.V.V.z.z.k.k.k.s.s.p.p.p.p.p.p...p.p.p.p.p.p.s.p.s.s.p.s.s.s.p.s.p.p.p...| | | ` ` ` ` ` ` ` ` | | | | ` | ` ` | ` ` ` ` ) ) ) S S S S S S Z Z m b 0 2 < % # X X   . . O = ; 5 7 t F ]  .a.x.Z.F.F.H.H.J.J.J.J.J.J.J.J.K.K.J.J.J.H.F.Z.Z.V.z.z.k.k.k.k.k.k.k.z.z.z.z.z.z.V.V.V.V.V.Z.V.V.V.V.z.k.s.p...` ) Z m 0 8 < % # X     . . O @ = 5 7 t F ] +.l.x.A.H.H.H.H.F.F.Z.Z.Z.V.Z.V.V.V.V.V.V.V.V.V.Z.V.Z.Z.Z.V.Z.V.V.V.V.V.V.V.V.",
"V.z.V.V.z.z.z.z.z.k.k.k.k.k.k.s.k.s.s.s.k.k.k.k.k.k.z.z.z.z.z.V.V.V.V.V.V.Z.Z.V.Z.V.V.V.V.z.z.z.k.k.s.s.s.p.....| | | | | ` | ` ` ` ` ` ` ) ) ) S ) S S S S S Z Z S S Z S S S S S ) ) S ) ) ) ) ) ) ) ) S S S Z Z Z Z Z Z S S S S S Z b 8 2 % # X X   . O + @ ; 5 7 t G { X.l.z.Z.F.H.H.H.H.H.F.F.F.F.Z.Z.Z.Z.V.V.V.Z.Z.Z.Z.Z.F.Z.F.F.Z.Z.V.V.V.V.V.Z.V.V.V.V.z.s.p.` D M 9 6 - * * @ = : = > 5 e C H { a.l.V.Z.Z.F.F.F.F.Z.Z.Z.Z.Z.Z.Z.Z.V.V.Z.Z.Z.F.F.F.H.H.H.H.H.H.F.F.F.Z.Z.V.V.z.k.s.s.s.p.p.p.p.p.p.p.s.s.s.k.k.z.V.V.V.Z.Z.Z.Z.F.F.F.F.F.F.F.F.F.Z.Z.V.V.k.k.s.p.p...p.p.p.k.z.z.z.V.V.V.Z.V.Z.V.V.V.V.z.z.k.k.s.s.s.s.p.p...p.p.p...p.p.p.p.p.s.s.p.s.s.s.s.s.p.s.p.....| | ` ` ) ` ` ` ` ` | ` ` ` | | | | | | ` ` ` ` ` ) ) ) ) S S Z Z Z m m b 0 2 < # X X     . O + @ = 5 7 t V ]  .d.z.V.Z.F.H.H.H.H.H.H.J.J.J.K.J.K.K.J.J.H.H.Z.Z.V.z.z.z.k.z.z.k.k.z.z.k.z.z.z.z.z.V.z.V.V.V.Z.V.V.V.z.k.s.p.| ` ) Z m 0 8 < % # X   . . . O * = 5 7 t F { X.l.V.F.F.H.H.H.H.F.F.F.Z.Z.Z.Z.V.V.V.z.V.z.V.V.V.V.V.V.V.V.V.V.z.z.z.z.z.z.z.",
"z.V.z.z.z.z.z.z.k.k.k.k.s.k.s.k.k.k.s.k.k.k.k.k.k.k.k.k.z.z.z.z.z.V.V.V.V.V.V.Z.V.V.V.V.V.z.z.k.k.s.s.p.p.....| | | ` ` ` ` ` ` ` ` ` ) ) ) ) ) ) S S S S S S S S Z Z Z S Z S S S S S S ) S ) ) ) ) ) S S S Z Z Z m m Z Z S S S S S m b 0 2 % # X     . . + @ ; 5 7 t F ]  .d.z.Z.F.H.H.H.H.H.F.F.F.F.Z.Z.V.V.V.V.V.V.V.V.Z.Z.Z.Z.Z.Z.Z.Z.Z.V.V.V.V.V.V.V.V.z.k.d..._ D n 9 1 - + @ @ @ = : 5 5 t B H ' X.l.z.Z.F.F.F.F.F.F.F.F.Z.Z.Z.Z.Z.Z.Z.Z.Z.F.F.F.H.H.H.H.H.H.H.F.F.F.Z.Z.V.z.z.k.s.s.s.p.p.p.p.p.s.p.p.s.s.k.k.z.z.V.V.Z.Z.Z.Z.Z.Z.F.F.Z.F.Z.Z.Z.Z.Z.V.z.k.k.s.p...p.p.p.s.k.k.z.V.V.Z.V.V.V.Z.V.V.V.z.V.z.z.z.k.k.s.s.p.p.p.......p.....p.p.p.s.s.s.s.s.s.s.s.s.p.p.....| ` ` ) ) ) ` ) ` ` ` | | | | | | | | ` | ` ` ` ` ) ) ) ) S S S Z Z m m 0 8 2 % # X     . . O + * = 5 7 t F ]  .d.z.V.F.F.H.H.H.H.H.H.H.J.J.J.K.J.K.J.J.H.F.F.V.V.z.z.z.k.k.k.k.k.z.k.z.k.z.z.z.z.z.z.V.V.V.V.V.V.V.z.k.s...| ` S Z m 0 8 < % X X     . O O @ ; ; 7 t G ] X.l.C.F.F.H.J.J.H.H.F.F.F.Z.Z.V.V.V.V.V.V.z.V.V.V.V.V.V.z.z.z.z.z.k.z.k.k.k.k.",
"z.z.z.z.z.z.z.k.k.k.s.k.s.k.s.k.s.k.k.k.k.s.k.k.k.k.k.k.k.k.z.z.z.V.V.V.V.Z.V.V.Z.Z.V.V.z.z.z.k.k.s.s.p.......| | | ` ` ` ` ) ` ` ) ` ` ) ) ) ) S S S S S Z Z S Z S Z S Z S Z S S S S S S ) S ) ) S ) S S Z Z m m m m Z Z S S S S S Z b 0 2 < # X     . O O @ = 5 7 t F ] +.d.z.A.F.F.H.H.H.F.F.F.Z.Z.Z.V.V.z.z.z.z.z.z.V.V.Z.Z.Z.V.Z.Z.V.V.V.V.V.z.V.z.z.z.z.s.p...) Z b 3 & $ o + O @ = = 5 7 e C H { a.l.C.Z.F.F.H.H.F.F.F.F.F.F.Z.Z.Z.Z.Z.Z.Z.F.F.H.H.H.H.H.H.H.H.H.F.F.Z.Z.V.z.z.k.k.s.p.p.p.p.p.p.p.p.s.s.k.k.k.z.z.V.V.V.Z.Z.Z.Z.Z.Z.Z.Z.Z.Z.Z.Z.Z.V.V.z.z.s.s.p.p.p...p.s.s.z.z.V.V.V.V.Z.V.V.V.V.V.V.z.z.z.z.k.k.k.k.s.s.p.p...........p.p.p.p.p.s.s.s.s.s.s.s.p.p.p.| | ` ` ) ) ) ) ) ` ` ` | ` | | ` ` | ` | ` | ` ` ` ` ` ) ) S ) S Z Z m b 0 8 2 < # X X     . . + * ; 5 7 t V ] +.a.x.V.F.F.F.H.H.H.H.H.H.H.J.J.J.K.J.J.J.H.F.F.Z.V.z.k.k.z.k.z.k.k.k.z.k.z.z.k.z.z.z.z.V.V.V.V.V.V.z.z.k.s.p...` ) Z m 0 8 < % # X     . . + @ = 5 7 t G ] X.l.x.Z.H.H.J.H.H.H.H.F.F.Z.Z.Z.V.V.z.z.z.z.V.z.z.z.V.V.z.z.z.k.k.k.s.s.s.s.s.",
"z.z.z.z.k.z.k.k.k.s.s.s.s.s.s.s.k.k.k.k.k.k.k.s.k.s.s.k.k.k.k.z.z.V.V.V.V.V.V.Z.V.V.V.V.z.z.k.k.s.s.p.......| | ` ` ` ` ` ` ) ` ` ) ` ) ) ) ) S S S S S Z S Z Z S Z Z Z S S Z S S S S S ) S ) ) ) ) ) S S Z Z m m b m m Z S S S S S Z m 8 2 % # X   . . . + * ; 5 7 t F ]  .d.x.V.Z.F.H.H.F.F.F.F.Z.Z.V.V.z.z.k.k.k.k.z.z.V.V.V.V.Z.V.V.V.V.V.z.z.z.z.z.z.k.k.s...| S M 0 3 & # o o O @ @ = ; 5 e B H { X.k.z.Z.F.F.H.F.F.H.F.F.F.F.F.F.Z.Z.Z.F.F.F.F.F.H.H.H.H.H.H.F.H.F.F.Z.Z.Z.V.z.k.k.s.s.p.s.p.p.s.p.s.s.s.s.k.k.z.V.V.V.V.Z.V.Z.Z.Z.V.Z.Z.Z.Z.Z.Z.V.V.V.z.k.s.s.p.p...p.p.s.s.k.z.V.V.V.Z.V.Z.V.Z.V.V.V.V.V.V.z.z.z.z.k.s.s.p...............p.p.p.s.s.s.s.s.s.s.p.p.p...| | ` ) ) ) S ) ) ) ` ` | | | ` | | | | ` | ` | ` | ` ` ` ) ) S Z Z Z m 0 0 8 < % # # X     . . + * ; 5 7 t F ]  .d.x.A.F.F.F.H.F.F.H.F.H.H.H.J.J.J.J.J.J.J.F.F.Z.V.z.z.z.k.z.z.k.z.k.k.z.k.z.z.z.z.z.z.V.V.V.V.V.V.V.z.k.s.p.| ` ) Z m b 8 < % # X       o O * = 5 e t F ] +.l.V.G.H.J.J.H.J.H.H.F.F.F.Z.Z.V.V.z.z.z.z.z.z.z.z.z.z.z.k.k.k.s.s.s.s.p.p.p.",
"k.z.z.z.z.k.k.k.k.k.s.s.s.s.k.k.s.k.k.k.k.k.k.k.k.s.s.k.s.k.k.z.z.z.z.V.V.V.V.V.V.V.V.V.z.z.k.s.s.p.p.....| | ` ` ` ) ` ) ) ) ) ) ) ) ) ) S ) S S S S S S Z S S S S S S S Z S S S S S S S ) ) S ) ) S S Z Z m m m b m m m Z S S S S Z b 0 2 < # X     . O O * * 5 7 t F ]  .d.z.V.F.F.F.H.F.F.F.Z.Z.Z.V.z.z.k.k.k.k.k.k.z.z.V.V.V.V.V.V.V.z.z.z.z.k.k.z.k.k.s.s...` S m 0 < $ #   o O O @ = 5 5 e C H { a.l.V.Z.F.H.H.H.H.H.H.F.F.H.F.F.F.F.Z.F.F.F.F.F.H.H.H.H.H.F.H.H.F.F.Z.Z.V.z.z.k.k.s.s.p.p.p.p.p.p.s.s.s.k.k.z.z.z.V.V.V.V.Z.V.V.V.Z.V.V.Z.V.V.V.V.V.V.z.k.k.s.p.p.p.p.p.s.s.k.z.z.V.V.V.V.V.V.V.V.V.V.V.V.V.V.V.z.z.k.s.s.p...| | | | | ..p.p.p.p.p.s.s.s.p.s.p.p.p...| ` ) ) ) S ) ) ) ) ` ` ` ` | | | ` | ` | ` | | | ` ` ` ` ) ) ) S Z m b b 8 8 < % # X X     . O + = = 5 7 t V ]  .d.l.V.Z.F.H.H.F.F.F.F.F.H.H.H.J.J.J.J.J.H.F.F.V.V.z.z.k.k.k.k.k.z.z.z.k.k.z.k.z.z.z.z.z.z.z.V.V.V.z.z.k.s...| ` ) Z m 0 8 < % # X   . . . O @ ; 5 5 t G { X.l.V.Z.H.H.J.J.H.H.H.H.F.F.Z.Z.V.V.z.z.k.z.z.z.z.z.z.z.k.k.k.s.s.p.p.p.p.p.p.",
"z.z.z.k.k.k.k.k.s.s.s.s.s.s.s.k.k.k.k.k.k.k.s.s.s.s.s.s.s.k.k.k.z.z.V.V.V.V.V.V.V.V.V.z.z.k.k.s.s.p.......| | ` ` ` ) ) ) ) ) ) ) ) ) ) ) ) ) S S S S S S S S S S S S S S S S S S S S S ) ) ) ) ) ) ) S Z Z m m m b b m m Z S S S S Z b 0 2 % # X     . O O @ ; 5 7 t V ]  .d.x.V.Z.F.H.F.H.F.F.Z.Z.V.V.z.z.k.k.s.k.k.k.k.z.z.V.V.V.V.V.z.z.z.k.z.k.k.k.k.k.s.p...` S m 8 < # X   . . O @ = ; 7 e C H { a.l.x.Z.F.F.H.H.H.H.H.H.H.H.F.F.F.F.F.F.F.F.H.F.F.H.H.F.H.F.H.F.F.Z.Z.Z.Z.V.z.z.k.s.s.s.s.s.s.s.s.s.s.k.k.k.z.z.z.V.V.V.V.V.V.Z.V.V.V.V.V.V.V.V.V.V.z.z.k.s.s.p...p.p.p.s.s.k.z.z.V.V.V.V.V.V.V.V.V.V.V.V.V.V.V.V.z.z.k.s.p.....| | | ......p.p.p.p.p.p.p.s.p.p.p.....| ` ` ) S S S S S ) ) ` ` | ` ` | | ` | ` ` | ` | | | | ` ` ) ) S Z m b b 8 2 < % # X X     . . + * = 5 7 t V ]  .d.k.V.F.F.F.F.F.F.Z.F.F.H.H.H.J.J.J.J.H.H.F.Z.V.V.z.z.z.z.k.k.z.k.z.z.z.z.z.k.z.z.k.z.z.V.V.V.V.V.V.z.k.s.p...` S S m b 8 2 % X X     . O + * = 5 7 t F ] +.d.C.F.F.J.J.J.J.H.H.F.F.F.Z.Z.V.V.z.z.z.z.k.k.z.z.z.z.k.k.s.s.p.p.p.p.......",
"z.k.z.k.z.k.k.s.s.s.s.s.s.s.s.s.s.k.k.k.k.k.k.s.s.p.s.p.s.s.s.k.k.z.z.V.V.V.V.V.V.V.z.z.z.k.k.s.p.p.....| | ` ` ` ) ` ) ) ) ) ) ) ) ) ) ) S S ) S S S S S S S S S S S S S S S S S S S ) S ) ) ) ) S S S S Z m b b b b m m Z Z Z S Z Z b 8 2 < # X     . . @ * ; 5 7 t F ]  .d.x.Z.Z.F.F.F.F.F.Z.Z.Z.V.V.z.k.k.s.k.s.k.k.z.z.z.V.z.V.z.z.z.z.z.k.k.k.k.z.k.k.k.p...` S m 8 < # X   . . O O = ; 5 e C H { X.l.V.Z.F.H.H.H.H.H.H.H.H.H.H.F.F.F.F.F.F.F.F.F.H.F.H.H.F.H.F.F.F.F.F.Z.V.V.z.z.k.k.k.s.s.s.s.s.s.s.k.k.k.k.z.z.z.V.V.V.V.V.V.V.V.V.V.V.V.V.V.V.z.z.z.k.s.s.p.p.p...p.p.s.s.k.k.z.z.z.V.V.V.V.V.V.V.V.V.V.Z.V.V.V.z.k.k.s.p.....| | | | | | ......p.p.p.p.p.p.p.....| | ` ) S S S S ) ) ) ` ` ` ` ` | | ` | | ` | ` | | ` | | ` ` ) S S Z m b 0 8 2 < % # X X   . . . + @ ; 5 7 t F ]  .d.x.V.F.F.F.F.F.F.F.F.F.F.F.H.J.H.J.J.H.F.F.Z.V.z.z.k.k.k.z.z.k.z.z.z.z.z.z.z.z.z.z.z.z.z.V.V.V.V.z.z.k.s.p...` ) Z m 0 8 < % # X X   . O O @ = 5 7 t V {  .l.V.Z.H.H.H.H.H.H.F.F.F.Z.V.V.z.z.z.k.k.k.z.k.z.k.k.k.k.k.s.s.s.p.p.p.p.p...",
"z.z.k.k.z.k.k.k.s.s.s.s.p.s.s.s.k.s.k.k.k.s.s.s.s.p.p.s.p.s.s.k.k.k.z.z.z.z.V.z.z.z.z.z.k.k.s.s.p.p.....| | | ` ` ) ) ) ) ) ) ) ) ) ) ) ) ) ) S ) S S ) S ) ) ) S ) ) ) ) ) ) ) ) ) ) ) ) ) ) ) ) ) S S S Z m b b b b b m m Z Z Z Z m b 8 2 % # X     . O @ * = 5 e t V ]  .d.x.Z.Z.F.F.F.F.F.Z.Z.Z.V.V.z.z.k.k.k.k.k.k.z.z.z.z.V.z.z.z.z.z.k.k.k.k.k.k.k.k.k.s...` S m 8 < # X     . O @ = 5 5 e C F { a.l.V.Z.F.H.H.H.H.H.H.H.H.H.H.F.H.F.F.F.F.F.F.H.F.H.F.F.F.F.F.F.F.F.F.Z.Z.V.V.z.z.k.k.k.k.k.k.s.k.k.k.k.z.z.z.z.z.V.z.V.V.V.V.V.V.V.V.V.z.V.z.z.z.z.k.k.s.s.p.p.p...p.p.p.s.s.k.k.z.z.z.V.V.V.V.V.Z.V.Z.V.Z.Z.V.V.V.z.k.s.p.....| | | | | | | ..........p...p.......| ` ` ) ) S S S S S ) ` ` ` ` | ` ` | ` ` | | | | | | ` | ` ` ) ) S Z m b 0 8 2 < % # X X     . o + * ; 5 7 t V ]  .d.x.V.Z.F.F.F.F.F.F.Z.F.F.F.H.H.H.H.H.F.F.Z.Z.V.z.k.k.z.z.k.z.z.z.z.z.z.z.z.z.z.z.z.z.z.z.V.V.V.V.V.z.k.s.p...` ) S m b 8 < % # X     . . O @ = 5 7 t F {  .l.C.Z.H.H.H.H.H.F.F.Z.Z.Z.V.V.z.z.k.k.k.k.k.k.z.k.k.z.k.k.s.s.s.s.p.p.p.p.p.",
"k.z.k.z.k.k.k.s.s.s.s.p.s.s.s.s.s.k.k.s.k.s.s.s.p.p.p.p.p.s.s.s.k.k.z.k.z.z.z.z.z.z.z.k.k.k.s.s.p.p...| | | ` ` ` ) ) ) ) ) ) ) ) ) ) ) ) ) ) ) ) ) ) ) ) ) ) ) ) ` ) ) ) ) ) ) ) ` ) ) ) ` ) ` ) ) ) S Z m m b b b b b m m Z Z Z m m 0 8 < % # X X   . . O @ ; 5 7 t F ]  .d.k.V.Z.F.F.F.F.F.Z.Z.V.V.z.z.z.z.k.k.k.k.k.z.z.z.z.z.z.z.z.z.k.k.k.k.k.k.k.k.k.k.p.p.| S m 8 < % X   . . O + = ; 7 e C H ' X.l.z.Z.F.H.H.H.H.H.H.J.J.H.H.H.H.F.H.F.H.F.F.F.F.F.F.F.F.F.F.F.F.Z.F.Z.Z.Z.V.z.z.z.z.z.k.z.k.z.k.z.z.k.z.z.z.z.V.z.z.V.V.V.z.V.V.V.V.z.z.z.z.z.k.k.s.s.s.p.p.p...p.....p.s.s.s.k.k.z.z.z.z.z.V.V.V.Z.V.V.Z.V.Z.V.V.z.k.s.p.p.| | ` ` | ` | | | | | | ..| | ....| | | ` ) ) S S S S S ) ) ) ) ` ` ` ` | ` | | ` ` | | | | | | ` ` ` S S Z m b 0 8 2 < % # X     . . . O * = 5 7 t F ]  .d.k.V.F.F.F.F.F.F.F.F.F.F.F.F.F.H.F.F.F.Z.Z.V.z.z.k.k.k.k.k.z.z.z.V.V.V.V.V.V.z.V.z.z.z.V.V.V.V.V.z.z.k.s.p...| ) S m b 8 2 % # X   . . o O * = 5 7 t F ] X.l.V.Z.H.H.H.H.F.F.Z.Z.V.V.z.z.z.k.k.k.k.k.k.k.k.k.z.k.k.k.k.s.s.s.s.s.p.p.p.",
"k.z.z.k.k.k.k.k.k.s.s.s.s.p.s.s.s.s.s.s.s.s.p.s.p.p.p.p.p.p.p.s.s.k.k.k.k.z.z.k.k.k.k.k.k.s.s.p.p.p.....| | | ` ` ) ) ) ) ) ) ) ) ) ) ) ) ) ) ) ) ) ) ) ` ) ) ` ` ` ` ` ` ` ` ` ` ` ` ` ` ` ) ) ) ) S S Z Z m m b b b b b m m m m m b 0 8 < % X X   . . . @ * ; 5 5 t V ]  .d.z.V.Z.F.F.F.Z.Z.Z.Z.Z.V.V.z.z.z.z.k.z.k.z.z.z.z.z.z.z.z.z.k.k.k.k.k.k.k.k.k.k.k.s.p.| S m 0 < %     . . O + = ; 5 e C F { a.l.z.Z.F.H.H.H.J.H.H.H.H.H.H.H.H.H.F.F.H.F.F.F.F.F.F.Z.F.Z.F.F.F.Z.Z.Z.Z.V.V.V.V.V.z.z.z.z.z.z.z.V.z.z.z.z.z.z.z.z.z.V.V.z.V.V.V.V.V.V.z.z.k.k.k.s.s.s.p.p.p.....p.p.p.p.p.s.s.s.s.k.k.z.z.V.V.V.V.V.Z.Z.Z.Z.V.V.V.z.k.s.s.....| ` ` ` ` ` ` ` | ` | | | | | | | | ` ) ) ) S S S S S ) ) ) ) ` ` ` ` ` | ` | | | | | | | | | | ` ` ) S Z m b 0 8 2 < % X X       . . @ = = 5 7 t F ] +.d.x.V.F.F.F.F.F.Z.Z.F.Z.F.F.F.F.F.F.F.Z.Z.V.V.z.k.k.k.k.k.z.z.z.V.V.V.V.V.V.V.z.z.V.z.V.V.V.Z.V.V.V.z.k.k.p...| ) S Z b 8 2 % # X     . . O @ ; 5 7 t G { +.d.C.F.F.H.F.F.F.Z.V.V.z.z.z.k.k.k.k.k.k.k.k.k.z.k.k.z.z.k.k.k.s.s.s.s.s.s.s.",
"z.z.k.z.k.k.k.s.s.s.s.s.s.s.p.s.s.s.s.s.s.s.p.p.p...p...p.p.p.s.s.s.k.s.k.k.k.k.k.k.k.s.s.s.s.p.p.......| | ` ` ) ` ) ) ) S ) ) ) ) ) ) ) ) ) ) ) ` ) ` ` ` ` ` ` | ` | | | | | | ` ` ` ` ` ` ` ) ) ) S Z Z m b b b 0 b b b m m m b 0 0 2 < # # X     . o O @ = 5 e t G ]  .d.x.V.F.Z.F.F.F.Z.Z.V.V.V.V.V.z.z.z.z.z.z.z.z.V.z.z.z.z.k.k.k.k.s.k.s.s.k.k.k.z.k.s.p.| ) m 0 < # X   . . O + = 5 5 e C H { X.l.V.Z.F.F.H.H.H.H.H.H.H.H.H.H.H.H.H.H.F.F.F.F.Z.F.Z.Z.F.Z.Z.F.Z.F.F.Z.Z.Z.Z.Z.V.V.V.V.V.V.V.V.V.V.V.V.z.V.z.V.V.z.z.z.z.V.z.V.z.V.z.z.z.k.k.k.s.s.p.p.p.p...p...........p.p.p.s.s.s.k.k.z.z.z.V.V.Z.V.Z.V.V.Z.V.z.z.k.s.p...| | ` ` ` ` ` ) ` ) ) ` ` ` ` ` ` ` ` ` ) ) S S S S S S S ) ) ) ` ` ` ` ` ` | ` | ` | ` | | | | ` ` ) S S Z m b 0 8 2 < % # X X X   . O + @ ; 5 e t C ]  .d.x.V.Z.F.F.H.F.F.F.Z.F.Z.Z.F.F.F.Z.Z.Z.V.V.z.k.k.k.s.k.k.k.z.V.V.V.V.Z.V.V.V.V.z.V.V.z.V.V.V.V.V.V.z.k.s.p...| ` S Z b 8 2 < # X       O + @ = ; 7 t F ] X.l.V.G.F.H.F.F.Z.V.V.z.k.k.k.k.k.s.s.s.s.s.k.k.k.k.z.k.k.k.k.k.k.k.s.s.k.s.s.",
"z.k.k.k.z.k.k.k.s.s.s.s.p.p.s.s.s.s.s.s.s.p.p.p.p...p...p.p.p.p.s.s.s.s.s.s.k.s.k.s.s.s.s.s.p.p.......| | | ` ` ` ` ) ) ) ) ) ) ) ) ) ` ) ) ` ) ` ` ` ` ` | | | | | | | | | ..| | | | | ` ` ` ` ) ) ) S Z Z m m b 0 b 0 b b b m b b 0 8 2 < % X       . O O * ; 5 7 t F ] +.d.x.A.Z.F.F.F.Z.Z.V.V.Z.V.V.V.V.z.V.V.z.z.z.z.z.z.z.k.z.k.k.k.k.s.s.s.k.k.k.k.k.k.s.p.| ) m 0 < # X   . . O O = ; 7 e C H { X.l.C.Z.F.F.H.H.H.H.H.H.J.H.H.J.H.H.H.H.H.F.F.Z.Z.Z.Z.Z.Z.Z.Z.Z.Z.F.Z.F.Z.Z.Z.Z.Z.Z.V.Z.Z.Z.Z.V.Z.V.V.V.V.V.z.V.z.z.z.z.V.z.V.z.V.V.z.V.z.k.k.s.p.p.p.p...p...........p...p.p.p.p.p.s.s.k.k.z.z.V.V.V.Z.V.Z.Z.V.V.z.z.k.s.p.....| ` ` ` ) ) ) ) ) ) ) ) ` ) ` ` ` ` ) ) ) S S S S S S S S ) ) ) ` ` ` ` ` | ` | | | | | | | ` | ` ` S S Z m b 0 8 2 < % # X X   . . o + * = 5 7 t F ]  .d.x.V.F.F.F.F.F.F.Z.Z.F.Z.Z.F.Z.Z.Z.Z.V.V.z.z.k.k.s.k.k.k.k.z.V.V.V.Z.Z.Z.Z.V.V.V.V.V.V.V.V.Z.V.V.V.z.z.s.p...| ` S Z b 0 2 % # X     . . O * = 5 7 t F ] +.l.C.Z.F.F.F.Z.V.V.z.k.k.k.s.s.s.s.s.s.s.s.k.k.k.z.k.z.k.z.k.k.k.k.k.k.k.k.k.",
"z.z.z.z.k.k.k.s.k.s.s.p.s.s.s.p.s.s.p.s.s.s.p.p.p.p...p.p...p.p.p.p.s.s.s.s.s.s.s.s.s.s.s.p.p.p.p.p.......| | ` ` ) ` ) ) ) ) ) ) ) ) ) ` ` ) ` ` ` ` | | | | | | ............| ..| | | | | ` ` ` ) S S Z Z m m b b b b b b b b b 0 0 2 < % # X X     . O + @ ; 5 7 t V ]  .d.k.V.Z.F.Z.F.Z.Z.Z.V.V.V.V.V.V.V.V.V.z.V.V.z.z.z.z.z.k.k.k.s.s.s.s.s.s.s.k.z.k.k.k.p.| ) m 0 < # X   . . O @ = ; 5 e C H ' a.l.z.Z.F.H.H.H.H.H.H.H.H.H.H.H.H.H.H.F.F.F.F.Z.Z.Z.Z.V.V.Z.Z.Z.Z.Z.F.Z.F.Z.Z.F.Z.Z.Z.Z.Z.Z.Z.Z.Z.Z.Z.Z.V.V.V.z.z.z.z.z.z.z.V.V.z.V.V.z.z.k.s.s.p.p.............................p.p.p.s.k.k.z.z.z.V.V.V.V.V.V.V.V.z.z.k.s.p.p.| | ` ` ) ) ) ) ) S S S ) ) ) ) ) ) ) ) ) S S S S Z S S S S ) ) ) ) ) ` ` ` ` ` ` ` | | ` | | ` ` ` ) S S Z m b b 0 2 < % # X   X   . . + * ; 5 7 t V ]  .a.z.V.F.F.F.H.F.F.F.F.Z.F.Z.Z.Z.Z.V.V.V.z.z.k.k.k.s.s.s.k.z.z.V.Z.Z.Z.Z.Z.Z.Z.V.V.V.V.V.V.V.V.V.V.z.z.k.s.s.....` ) Z b 0 2 % # X   . . O O * ; 5 7 t F { X.d.V.F.F.F.F.Z.V.z.k.k.s.s.s.s.s.s.s.s.s.s.k.s.k.k.k.k.z.k.k.k.k.k.k.k.k.k.k.",
"k.k.z.k.z.k.k.k.s.s.s.s.s.s.p.s.s.p.s.s.p.s.p.p.p.p.........p.p.p.p.p.s.p.s.s.s.p.s.p.s.p.p.p.....p.....| | | ` ` ) ) ) ) ) ) ) ) ) ) ) ) ` ` ` ` ` | ` | | | | | ....................| | | ` ` ` ) ) S Z Z m m m b b b b 0 b b b 0 0 2 < % # #       . . + = ; 5 7 t F ]  .d.x.V.Z.F.Z.Z.Z.Z.Z.V.V.V.V.V.V.V.z.z.V.z.z.z.z.z.k.k.k.k.s.s.s.s.s.p.s.s.k.k.k.k.s.p.| ) m 0 < #       . O + * 5 5 e C F { a.l.V.Z.F.H.H.H.H.J.H.H.H.H.H.H.H.H.H.H.F.F.Z.Z.V.V.V.V.V.V.V.Z.Z.Z.Z.Z.F.Z.F.Z.Z.F.Z.Z.Z.Z.F.Z.F.Z.Z.Z.Z.V.V.z.V.z.z.z.z.V.V.z.V.V.z.z.k.k.s.s.p.p.............................p...p.s.s.k.k.z.z.z.V.V.V.V.V.z.z.z.k.s.s.p.....| ` ` ) ) ) S S S ) S ) S ) ) ) ) ) ) S S S S Z S S S S S S S ) ) ) ) ` ` ` ` ` ` | ` ` ` ` ` ` ) ) S Z Z m b 0 8 2 < % # X X     . o @ * = 5 7 t F ] +.d.z.V.Z.F.F.H.F.F.F.Z.F.Z.Z.Z.Z.Z.Z.Z.V.V.z.k.k.s.s.k.k.k.z.z.V.Z.Z.Z.Z.Z.Z.Z.V.Z.V.V.V.V.V.Z.V.V.V.z.k.k.s...| ` ) Z m 0 2 < # X     . . + @ * 5 7 B G { a.l.C.Z.F.H.F.Z.V.z.k.s.s.p.s.p.s.p.s.s.s.s.s.k.k.k.k.k.k.k.z.k.k.z.k.k.k.k.k.",
"z.z.k.z.k.k.k.k.s.s.s.s.p.p.s.s.s.s.s.s.s.s.s.s.p.p.p.p.p.p.p...p.p.p.p.p.p.p.p.p.p.p.p.p.p.p.p...........| | ` ` ` ` ) ) ) ) ) ` ) ) ) ` ) ` ` ` | | | | | ............................| | ` ` ) ) ) S S Z m m m b b b b b b b 0 0 8 8 < % # X X     . O + @ = 5 7 t V ]  .d.x.V.Z.F.F.F.Z.V.V.V.V.V.V.V.V.V.V.V.z.V.z.z.z.z.k.k.k.k.s.s.s.p.p.p.s.s.s.s.k.s.p...| S m 0 < # X   . . O @ = ; 7 e N H { X.l.V.Z.F.H.H.H.H.H.H.H.H.H.H.H.H.H.F.F.F.F.Z.V.V.V.z.V.V.V.V.V.Z.Z.F.F.Z.F.Z.F.Z.F.F.F.F.F.F.F.F.Z.F.Z.Z.V.V.V.z.z.z.z.z.z.V.V.V.V.V.z.k.k.s.p.p.......| ........| ....| ............p.p.s.s.k.z.k.z.z.z.z.z.z.z.z.k.s.p.p...| | ` ` ` ) ) ) S S S S S ) S ) ) S ) S S S Z S Z Z Z Z Z S S S S S ) ) ) ) ) ` ` ` ` ` ` ` ` ) ) ) S S Z m m b 0 8 2 < % # X       . . O * ; 5 7 t V ]  .d.x.V.Z.F.F.F.F.F.Z.F.Z.F.F.Z.F.Z.Z.V.V.z.z.k.k.s.s.s.s.k.k.z.V.V.Z.F.Z.Z.Z.Z.Z.Z.V.Z.V.Z.V.V.V.V.z.z.k.s.p...| ` S Z m 0 2 % # X     . . + @ ; ; 7 t F ] +.l.V.F.F.F.Z.Z.V.k.s.s.s.p.p.p.p.s.p.s.p.s.s.s.s.k.s.k.k.k.k.k.k.k.k.k.k.k.k.",
"z.k.k.z.k.k.k.s.k.s.p.s.s.s.s.s.s.s.k.s.s.s.s.s.s.p.p.p.p.p...p...p.p.p...p.p.p.p.p.p.p.p.p...p.p.........| | ` ` ` ` ) ) ) ) ) ) ) ) ) ` ` ` ` ` | | | | ..| ........p.....p...........| | | ` ) ) ) S S Z Z Z m b b b b b b b b 0 8 2 < % # X       . . + * ; 5 7 t F ]  .d.x.V.Z.F.Z.F.Z.Z.V.V.V.V.V.V.V.z.V.V.z.z.z.z.z.k.k.k.s.s.s.s.p.p.p.p.p.p.p.s.s.s.p...` S m 8 < # X   . . O O = ; 5 e B H { a.l.V.Z.F.F.H.H.H.H.H.H.H.H.H.H.F.H.F.F.Z.Z.V.V.z.z.z.z.z.z.V.V.V.Z.Z.Z.F.F.Z.Z.F.F.F.F.F.F.F.Z.F.Z.F.Z.Z.Z.V.V.V.z.z.z.z.V.V.V.V.V.z.z.k.k.s.p.p.........| ..| ....| ..| ............p.p.p.s.k.s.k.k.k.k.k.z.k.k.k.s.s.p.p...| | ` ` ) ) ) ) ) ) S ) S S S ) S ) S S S Z Z Z Z Z Z Z Z Z Z Z S S S S ) ) ) ) ) ` ) ` ) ) ) ) S S S Z Z m m b 0 8 2 < % # X       . . + * ; 5 7 t V ]  .d.x.V.F.F.F.H.F.F.F.F.Z.F.Z.F.Z.F.Z.Z.Z.V.z.k.k.s.s.s.k.k.k.V.V.Z.Z.Z.F.Z.Z.Z.Z.Z.Z.Z.V.Z.V.V.V.V.z.z.k.s.p...| ` ) S m 0 2 % # X     . . O @ = 5 7 t F { +.d.C.A.F.F.F.Z.V.k.l.s.p.p.p.p.p.p.s.p.s.s.s.s.s.s.s.k.s.k.k.s.k.k.s.k.k.s.k.",
"z.z.z.k.z.k.k.k.s.s.s.s.p.s.s.s.s.k.k.k.k.k.s.k.s.s.s.s.p.p.p.p.p.................p...p.p...p.p...........| | | ` ` ` ` ` ) ) ` ) ` ` ) ) ` ` ` ` ` | | | | ..........p.p.....p...p.....| | ` ` ` ) ) ) S Z Z m m m m m m b b b 0 0 8 2 < % # X X     . O O = = 5 7 t F ]  .d.x.V.Z.F.F.Z.Z.Z.V.V.V.V.V.V.V.V.V.V.z.z.z.k.k.k.k.s.s.s.p.p.p.........p.p.p.p.p...| ) Z b 8 % # X   . . O + = 5 5 e C H { a.l.x.Z.F.H.H.H.J.H.H.H.H.H.H.H.F.F.F.Z.Z.V.V.z.k.k.k.k.k.z.z.V.V.Z.Z.Z.Z.Z.F.F.F.Z.Z.F.F.F.F.F.F.F.F.Z.Z.V.V.V.z.V.z.V.z.V.V.V.V.V.V.z.z.k.s.p.p.....| | ..| ..| ..| | ..| | ..........p.p.p.p.s.p.s.s.k.s.s.s.s.s.p.p.....| | | | ` ` ` ) ) ) ) ) S S S ) S S S S S Z Z Z Z m Z m m Z m Z Z Z Z S S S ) ) ) ) ) ) ) ) ) S S S S Z Z Z m b b 0 0 2 < % # X X     . O + @ ; 5 7 t V ]  .d.x.V.Z.F.F.F.F.F.F.Z.F.F.F.F.F.F.F.Z.Z.V.z.z.k.k.s.s.s.k.z.z.V.Z.Z.F.F.F.F.Z.F.Z.Z.Z.V.Z.V.V.V.V.z.k.k.s.s...| ` ) Z b 0 2 < # X   . . . O @ ; 5 7 t G { X.l.V.Z.F.F.Z.V.z.k.s.s.p.p.p.p.p.p.s.s.p.s.s.s.s.s.s.s.s.s.s.s.s.s.s.s.s.s.s.",
"k.z.k.z.k.k.k.s.s.s.s.s.s.s.s.s.k.k.k.z.k.k.k.k.k.k.s.s.s.p.p.p...................p.p.....p.......p.......| | | | ` ` ` ` ) ` ) ) ) ) ) ) ) ` ` | | | | | ........p.......p.p.........| | | ` ` ) ) S S S Z Z Z Z m m m m m b b 0 0 8 2 < % # X X     . o + * ; 5 7 t V ]  .d.k.A.Z.F.Z.F.Z.Z.V.V.z.V.V.z.V.V.z.z.z.z.z.k.k.k.s.s.s.p.p.......................| ` ) m b 2 < #     . . O + = ; 5 e C H { X.l.z.Z.F.H.H.H.H.J.H.H.H.H.H.F.F.F.Z.Z.V.V.z.k.k.k.s.s.k.k.k.z.V.V.Z.Z.Z.F.F.F.F.F.Z.F.F.F.F.F.F.F.F.Z.Z.Z.V.V.V.V.V.V.V.V.V.V.V.V.z.z.k.k.s.s...........| ..| | ....| ....| ....................p.p.p.p.p.p.p.p.p.p.......| | ` | ` ` ` ) ) ) ) ) ) ) ) S S S S S Z Z Z m m m m m m m m m m Z Z Z Z Z S S ) ) ) S S S S Z Z Z Z m m m m b b 0 8 2 2 % # X X     . . + * ; 5 7 t F ]  .d.x.Z.Z.F.F.F.F.F.F.Z.F.F.F.F.H.F.F.F.F.Z.V.z.k.s.s.s.s.k.k.z.V.Z.Z.F.Z.F.Z.F.Z.Z.Z.Z.Z.Z.V.V.V.z.z.k.k.s.p...| ` ) Z m 0 2 % # X     . O O @ = ; 7 t F { X.l.C.F.F.F.F.V.V.z.s.p.p.p.p.p.p.s.p.p.s.s.p.s.s.p.s.s.s.p.s.s.s.s.s.s.s.p.s.",
"k.z.z.z.k.k.k.k.k.s.s.p.s.s.s.k.k.k.z.z.z.z.z.k.k.k.k.s.s.s.p.........| | | ..........p.p.....p...........| ..| | ` ` ` ` ` ` ) ) ` ) ` ` ` ` ` ` ` | | | ..| ........p.....p...........| | | ` ` ) ) ) S S S Z Z Z m m m m b b b 0 8 8 < % # X X     . O + * ; 5 7 t F ]  .d.x.V.Z.Z.F.Z.Z.Z.V.V.V.V.z.V.z.V.z.z.z.z.k.k.k.k.s.s.s.p.p.p.........| ..| ....| ` ` S m 0 2 % # X   . . O @ = ; 5 e C H { a.l.C.Z.F.F.H.H.H.H.H.H.H.H.F.F.F.F.Z.Z.V.z.z.k.s.s.s.s.s.k.k.z.V.V.V.Z.Z.Z.Z.Z.Z.F.F.F.Z.F.F.F.F.Z.F.Z.Z.Z.Z.V.V.V.z.V.V.V.V.V.V.V.V.z.k.k.s.p.p.....| | | | | | | | | | | ....| ............| ..| | ........p...p.........| ` | ` ` ` ` ` ` ` ) ) ) ) ) S ) S S Z Z Z Z m m m b m b b m m m m m m Z Z Z S S S S S S S Z Z Z m m m m b b b b 0 8 2 < % # X X     . O + * = 5 7 t F ]  .d.k.V.Z.F.H.H.F.F.Z.F.F.F.F.H.H.H.H.H.F.Z.Z.z.z.k.s.s.s.k.z.z.V.Z.Z.F.F.F.F.F.F.Z.Z.Z.Z.V.Z.V.V.z.z.k.k.s.p...| ` S Z m 0 2 < # X       . + = = 5 7 t F { +.d.V.Z.F.F.Z.Z.z.z.s.s.s.p.p.s.p.p.s.s.p.p.s.p.p.p.p.p.p.p.p.p.p.p.p.p.p.p.p.",
"z.z.z.k.k.k.k.s.k.s.s.s.s.s.k.k.k.z.z.z.z.z.z.z.z.k.k.k.s.s.p.p.......| | ..| ............................| | | | ` ` ` ` ) ` ) ) ) ) ) ) ` ) ` ` ` | | | | ............p...............| | | ` ` ) ) ) ) S S Z Z Z Z m m m m b 0 0 8 2 < % # X       . . + = = 5 e t V ]  .d.z.Z.Z.F.F.F.Z.Z.V.V.V.V.V.V.z.z.z.z.z.k.k.k.s.s.s.s.p.p.......| ..| | | | | | ` ` ) Z b 0 2 % X X   . . O @ = 5 7 e C F { a.l.V.Z.F.H.H.H.H.H.H.H.H.F.F.F.Z.Z.V.V.V.z.k.s.s.p.s.s.s.s.k.z.z.V.V.Z.Z.Z.Z.Z.Z.F.Z.F.F.F.F.Z.F.F.Z.F.Z.Z.Z.V.V.V.V.V.V.V.V.V.V.V.z.z.k.k.s.p.p.......| | | | | | | | ..| ..| ........| | | | | ` | | | | | ......| | | | | | ` | ` | ` ` ` ` ` ` ) ) ) ) S S Z Z Z Z m m m b b b b b b b b b m m m Z Z S S S S S Z Z Z m m m b m m b b b b 0 8 2 < % # X X   . . . + @ ; 5 e t F ]  .d.x.V.F.F.F.F.F.F.F.F.F.F.F.H.H.J.H.H.H.F.Z.V.z.k.s.s.k.k.k.z.V.Z.Z.F.F.F.F.F.Z.Z.Z.Z.Z.Z.V.V.V.z.z.k.s.s.p...| ` ) Z b 0 2 % # X     . O O * * 5 7 t F { X.l.C.F.F.F.Z.Z.z.k.k.s.p.s.p.p.p.p.s.p.s.p.p.p.p.p.p.p.p.p.p.p.p.p...p.p...p.",
"z.k.z.k.z.k.k.k.s.s.s.s.s.s.k.k.z.z.z.z.V.V.V.z.z.k.k.k.s.s.s.p.....| | | | | ..| ........p...............| | | | | | | ` ` ` ) ` ) ` ) ) ) ` ` ` | ` | | | | ..| ..................| | | | ` ` ) ) ) ) S S S S S Z Z Z m m m b b 0 8 2 < % # X X     . O + @ ; 5 7 t V ]  .d.x.V.Z.Z.F.Z.Z.Z.V.V.V.V.z.z.z.z.z.z.k.k.k.s.k.k.s.s.p.p.p.......| | | | ` | ` ` ) S Z b 8 < % #       . O + = ; 5 e N H ' X.l.z.Z.F.H.H.H.H.H.H.H.H.H.F.F.Z.Z.Z.V.z.z.k.k.s.p.p.p.s.s.k.k.z.z.V.V.V.Z.Z.Z.Z.Z.F.F.Z.F.F.F.Z.F.Z.Z.Z.Z.V.Z.V.V.V.V.V.V.V.V.V.V.z.z.k.k.s.p.p.....| ..| | | | | | | | | ........| | | | ` ` ` ` ` ` | ` | | | | | | | | | | | ` | ` | ` ` | ` ` ` ) ) ) S S S Z Z m m m b b b b 0 b b b b b b b m Z Z Z Z Z Z Z Z Z m m b b b b b b b b 0 0 0 2 < % # X       . . + = ; ; 7 t G ]  .d.k.V.Z.F.F.F.F.F.Z.F.F.H.H.H.J.J.J.J.H.F.Z.V.z.k.k.s.s.k.z.z.V.V.Z.Z.Z.Z.F.Z.F.F.Z.Z.Z.Z.V.V.z.z.z.k.s.p.p.| | ` ) Z m 0 2 < # X   . . . O * ; 5 7 t F { X.l.V.Z.F.F.F.Z.V.z.k.s.s.p.s.s.p.s.p.s.p.p.p.p.p...p.............p.....p...p.",
"k.z.z.k.k.k.k.k.k.s.s.s.k.s.k.k.z.z.z.z.z.V.z.z.z.z.z.k.k.s.s.p.......| | | | ..........................| ..| | | ` ` ` ` ` ` ) ) ) ) ) ` ) ` ` ` ` ` | ` | | | | | | ................| | ` ` ` ` ) ) S S ) S S Z S Z Z m m m b b 0 8 2 < % # X X   . . o + * ; 5 7 t G ]  .d.x.V.Z.F.Z.F.Z.Z.V.V.V.V.z.z.z.z.z.k.k.k.k.k.s.s.s.s.s.p.p.....| | | | ` ` ` ` ) ) S m b 8 < # X X   . . O @ * ; 5 e B H { a.l.C.Z.F.F.H.H.H.H.H.H.F.F.F.F.Z.Z.V.V.z.z.k.s.s.s.p.s.p.s.s.k.z.z.z.V.V.Z.V.Z.Z.Z.F.Z.F.Z.Z.F.F.Z.Z.Z.Z.Z.Z.V.V.V.V.z.V.V.V.V.V.z.z.z.k.k.s.p.p.......| | | | | | | | | ..| ........| | | ` ` ) ` ) ` ` ` ` ` ` | | | | ` | ` ` | ` | | ` | ` ` ` ` ) ) ) S S S Z Z m m b b b b 0 0 b 0 b b b b b m m m Z Z S S Z Z m Z m b b b b b b b b b 0 8 2 < % # X X     . O @ * = 5 7 t F ] o.d.x.V.F.F.F.F.F.Z.F.Z.F.F.H.H.J.J.J.J.H.F.F.V.z.k.k.k.k.k.k.z.V.V.Z.Z.Z.F.Z.F.Z.Z.Z.Z.Z.V.V.V.V.z.k.k.s.p.p...| ) ) Z b 0 2 % # X X   . . + @ = 5 7 t G { +.l.C.Z.F.F.F.Z.V.z.k.k.s.s.s.s.p.p.s.p.p.p.p.p...p...........................",
"z.z.k.z.z.k.k.k.s.k.s.k.s.k.k.k.z.z.V.V.V.z.V.z.z.z.k.k.k.s.p.p.....| ..| ..| | ................| ..| | | | | | | ` ` ` ` ) ` ) ) ) ) ) ) ) ) ) ) ` ) ` ` ` | ` | | | | | | ......| ..| | | ` ` ) ) ) ) ) S S S S Z Z Z Z Z m b b 0 0 2 < % # X       . o O @ = 5 7 B C ]  .d.z.V.Z.F.F.F.F.Z.Z.V.V.V.V.z.z.z.k.k.k.k.k.k.k.k.k.s.s.s.p.p.....| | | ` | ` ` ) ) Z m 0 8 < % X X X . . . @ = 5 5 e C H { a.d.V.Z.F.F.F.H.H.H.F.F.F.F.Z.Z.Z.V.V.V.z.z.k.k.k.s.s.s.s.s.k.k.k.z.z.z.V.V.V.Z.Z.Z.Z.Z.Z.F.Z.Z.Z.F.Z.Z.Z.V.V.V.V.V.V.V.V.z.V.z.z.z.z.k.s.s.p.p.....| ..| | | | | | | | | ........| | | | ` ` ) ` ) ) ) ) ) ` ` ` ` ` ` ` | ` | ` | | ` | | | | | ` ` ` ) ) ) S S Z Z m m m b b 0 b b 0 0 0 0 0 b b m m Z Z Z S Z Z Z Z m m m m b m b b b b 0 0 0 2 < % # X X     . o O * ; 5 7 t V ]  .d.x.V.Z.Z.F.F.F.F.Z.F.F.F.H.H.J.J.J.J.H.H.F.Z.V.z.k.s.k.k.k.z.z.V.V.V.Z.Z.Z.Z.Z.Z.Z.V.Z.Z.V.V.z.z.z.k.s.p.p.| | ) S Z b 0 2 < # X     . O + @ ; ; 7 t F ] X.l.V.G.F.H.F.Z.Z.z.z.k.k.s.s.s.s.s.s.p.p.p.p.p...............................",
"z.z.k.z.k.k.k.k.k.k.k.k.k.k.z.z.z.z.z.V.z.V.z.z.z.k.k.k.s.s.s.p...........| ......| ......| ....| | | | | | | ` ` ` ` ` ` ) ) ) ) ) S ) ) S ) ) ) ) ) ) ` ) ` ) ` ` ` ` | | | | ....| | | | ` ` ) ) ) ) S S S S S Z Z Z Z m m b b 0 8 2 < % # X X X . . . + @ ; 5 7 t V ]  .d.x.V.Z.F.F.F.Z.Z.Z.V.V.V.z.z.z.k.k.k.k.s.k.k.k.k.k.k.k.s.s.p.p.....| | | ` ` ` ) S Z m 0 2 < % X X   . . O + = ; 7 e N H { a.l.z.Z.F.F.H.H.F.F.F.F.F.F.Z.Z.Z.V.V.z.z.z.z.k.k.k.k.k.k.k.k.k.k.k.k.z.z.V.V.V.Z.Z.Z.Z.Z.Z.Z.F.Z.Z.Z.Z.Z.V.V.V.V.V.V.z.z.z.z.z.z.k.k.k.s.s.p.p.......| | | ..| | | | | ....| ......| | | ` ` ) ) ) ) ) ) ) ` ` ` ` ` ` ` ` | ` | | ` | | ` | ` | ` ` ` ` ) ) S S Z Z m m b b b 0 b 0 0 0 0 0 0 b b m m m Z Z S S Z S Z Z m m m b m m b b b b 0 8 2 2 % # X X   . . . + * ; 5 7 t V ]  .d.x.V.Z.F.F.F.F.Z.Z.Z.F.F.F.H.J.J.J.J.J.H.F.Z.V.z.k.k.k.k.k.k.z.V.V.V.V.V.Z.Z.Z.V.Z.V.Z.V.V.V.z.z.k.k.s.p.....` ` S Z b 8 2 % # X X . . . O @ = ; 7 t F ] X.l.C.Z.F.H.F.F.Z.V.z.z.z.k.k.s.s.p.p.p.p.................| ..| ......| ......",
"z.k.z.z.z.z.k.z.k.k.k.k.k.z.z.z.z.z.V.z.z.z.z.z.z.k.k.k.s.s.s.p.p...........................| | | | | ` ` ` ` ` ` ` ` ) ` ) ) ) ) ) ) S ) S S ) ) S S ) ) ) ) ) ) ` ` ` ` ` ` | | | | | | ` ` ` ` ) ) ) ) S ) S S S Z Z Z m m b b 0 0 2 < % # X X     . . + = = 5 7 t F ]  .d.k.V.Z.F.F.F.F.F.Z.Z.V.V.z.z.z.k.k.k.k.k.k.k.z.z.z.z.k.k.s.s.p.p.....| | ` ` ) ) S Z m 0 2 < # X X   . . O @ = 5 5 e C H { a.l.V.Z.F.F.F.H.H.F.F.F.Z.Z.Z.Z.Z.V.V.V.V.V.z.z.z.z.z.z.k.z.k.k.k.s.k.k.k.z.z.z.V.V.V.Z.Z.Z.Z.Z.Z.Z.Z.Z.Z.Z.V.V.V.V.V.z.z.z.k.z.k.k.s.s.s.p.........| ..| | | | | | ..| | ..........| | | ` ` ) ) ) S ) ) ) ) ) ) ` ` ` ` ` ` | ` | ` | | | | | | ` ` ` ) ) ) ) S S Z Z m m b b 0 0 0 0 0 0 0 b b b m m Z Z Z S S S S Z Z Z Z Z m m m m b b b 0 8 2 < % # X X     . O + @ ; 5 7 t F ]  .d.k.V.Z.F.F.F.Z.Z.Z.Z.Z.F.H.H.J.J.K.J.J.H.H.Z.Z.V.z.z.k.k.z.z.z.z.z.z.z.V.V.V.V.V.V.Z.V.V.V.V.z.z.z.k.s.p.p.| ` ) S Z b 8 2 % # X X     . O = = 5 7 t G { X.l.z.Z.H.H.H.F.F.Z.Z.V.z.z.k.k.s.s.p.p.p...p.............................| ..",
"z.z.k.k.z.z.z.z.z.z.k.z.z.z.z.z.z.z.z.z.z.z.z.k.k.k.s.k.s.s.s.p.p.p.p.....................| | | | | ` ` ` ` ` ` ` ` ` ` ) ) ) S ) S S S S S S S S S S S S S S S S S ) ) ) ` ` | | | | | | ` ` ` ` ) ) ) ) ) S S S Z Z Z m m m m b 0 8 2 < % # X       . . + * = 5 7 t V ] +.d.z.V.F.F.F.F.F.Z.Z.Z.Z.V.V.z.k.k.k.k.s.k.k.z.z.z.z.z.z.z.k.k.s.p.p...| | | ` ) S S Z b 0 2 < % X X     . O + * 5 7 e C H { X.l.x.Z.F.F.F.F.F.F.Z.Z.Z.Z.Z.Z.Z.V.V.V.V.V.V.V.V.V.z.V.z.z.k.k.s.s.s.s.k.k.z.z.V.V.V.Z.Z.Z.Z.Z.V.Z.Z.V.V.V.V.V.V.z.z.z.z.z.k.k.k.s.s.s.p.p.....| ..| | | | | ..| ..| ............| ..| ` ` ` ) ) ) ) ) ) ) ) ` ` ` ) ` ` | ` ` ` | | | ` | | ` | | ` ` ` ) ) ) S S Z m m m b 0 b 0 0 0 0 0 0 0 0 b m m Z Z S S S S S S S S S Z Z m m m m b b 0 0 2 < % # X X     . . + * = 5 7 t F ]  .d.x.Z.Z.F.F.Z.Z.Z.Z.Z.Z.F.F.H.J.J.J.K.J.H.F.F.Z.V.z.z.z.k.k.z.k.k.z.z.z.z.z.z.V.V.V.V.V.V.V.V.z.z.k.k.s.p.....` ) S m b 8 2 % # X     . . O @ = 5 7 t F ] X.l.C.F.F.H.H.H.F.F.Z.V.V.z.z.k.k.s.p.p.....................| ..........| ....",
"k.z.z.z.z.k.z.z.z.z.z.z.z.z.z.z.z.z.z.z.z.z.k.k.k.k.s.s.s.s.s.p.p.p.p.p.p...p.............| | | ` ` ` ` ` ) ` ` ` ) ) ) ) ) ) ) S S S S S Z S Z Z Z Z S S Z Z S S S S S ) ) ` ` ` | | | | ` ` ) ) ) ) ) S S S S S Z Z Z Z m m b b 0 0 2 < % # # X     . O O = ; 5 7 t F ]  .d.x.V.Z.F.F.F.F.F.F.Z.V.V.z.z.k.k.s.s.k.k.k.z.z.V.V.V.V.z.z.k.s.s.p.p...| | ` ) ) S m b 0 2 % # X X   . . O @ = ; 5 e N H { a.l.V.Z.F.F.F.F.F.Z.Z.Z.Z.Z.V.V.V.V.V.V.V.V.Z.Z.Z.Z.Z.V.V.z.k.k.k.s.s.s.s.k.z.z.V.V.V.Z.Z.Z.Z.V.Z.Z.Z.V.V.V.V.V.z.z.z.z.k.k.s.s.s.p.p.p.........| | | | | ..| | ..| ..................| | ` ` ` ) ) ) ) ) ) ) ) ) ) ` ` ` ` ` | ` | ` | | | | | ` ` ` ` ` ) ) ) S S S Z m m b b 0 0 0 0 0 0 b 0 b b m m Z S S S S ) ) S S S S Z Z Z Z Z m b b 0 8 2 < % # X       . O + * ; 5 7 t G ]  .d.x.V.Z.Z.F.F.Z.Z.V.Z.Z.Z.F.H.H.J.J.J.J.J.H.F.Z.V.V.z.z.z.k.k.k.k.k.k.k.k.z.z.z.V.z.V.z.z.z.V.z.z.k.k.s.p...| ` S S m b 8 2 % # X   . . O O @ ; 5 7 t V { +.l.V.A.H.H.H.H.H.F.F.Z.Z.V.z.k.s.s.p.p.......................| ..............",
"z.k.k.z.k.z.z.z.z.V.z.V.z.V.z.V.V.z.z.z.k.k.k.k.k.s.s.s.p.s.s.p.p.s.p.p.p.p...p.........| | | ` ` ` ) ` ) ) ` ) ) ` ) ) ) ) ) ) S S S S Z Z Z Z Z Z Z Z Z Z Z Z Z Z Z S S ) ) ` ` ` | | ` ` ` ` ) ) ) S ) S S S S Z Z Z Z m m b 0 0 8 2 < % # X X     . o O = ; 5 7 t V ]  .d.x.Z.Z.F.F.F.F.F.Z.Z.V.V.z.z.k.k.s.s.k.k.k.z.z.V.V.V.V.V.z.k.k.s.p.p.....| ` ` ) S m b 0 2 < # X X   . . O @ = ; 5 e B H o.a.l.V.Z.F.F.F.Z.Z.Z.Z.Z.V.V.V.V.V.V.V.V.V.Z.Z.Z.Z.Z.Z.Z.Z.z.z.k.s.p.s.p.s.s.k.k.z.V.V.V.Z.V.V.Z.V.V.V.V.V.V.z.V.z.z.z.k.k.k.s.s.p.p.p.......| | | | | | | | | ......................| | | ` ` ) ) ) ) ) ) ) ) ` ) ` ` ` ` ` ` | | ` | | | | ` | | ` ` ` ` ) ) ) ) S S Z m m b b b b 0 0 0 0 0 b b m m m Z S S ) S ) ) ) S ) S S S Z Z Z m m b 0 8 2 < % # X       . o + @ ; 5 7 t F ]  .d.x.V.Z.Z.F.F.Z.Z.V.V.Z.Z.F.H.H.J.J.J.J.H.H.F.Z.Z.V.z.z.z.k.k.k.k.k.k.s.k.k.k.z.z.z.z.z.z.z.z.z.k.k.k.s.p...| ` ) Z m b 8 < % X X       . + = = 5 7 t F { X.l.z.F.H.H.J.J.H.H.F.F.Z.V.V.z.k.s.p.p.......................................",
"k.z.k.k.z.k.z.z.z.z.V.z.V.z.V.z.z.z.z.z.z.k.k.k.s.s.s.s.s.p.s.p.p.s.p.p.p.p.p.....p.......| | | ` ` ` ) ) ` ) ) ) ` ) ) ) ) S S S S S Z S Z Z Z Z Z m m m m m m m Z Z Z S ) ) ) ` ` ` ` ` ` ` ` ` ) ) ) S ) S S S Z S Z Z m m m b 0 0 2 < % # X   X . . O + @ ; 5 7 t F ]  .d.x.A.Z.F.H.H.F.F.Z.Z.Z.Z.V.z.z.k.k.s.k.k.k.z.V.V.Z.V.V.V.z.k.k.s.s.p...| | | ) ) Z Z b 0 2 % # X     . . O @ = ; 7 e C H { X.l.z.Z.Z.F.Z.F.Z.V.V.V.V.V.V.V.V.V.V.Z.Z.Z.F.Z.F.F.F.F.V.V.z.k.s.s.p.p.p.s.k.z.z.V.V.V.V.Z.V.V.V.V.V.V.V.z.z.z.z.k.k.k.s.s.p.p.p.........| | | | ` | | | ..| ..| ......p.............| | ` ` ` ` ) ` ) ) ) ) ) ) ) ) ` ` ` ` ` ` | | ` ` | | ` ` ` ` ` ` ` ` ) ) S S Z Z m m b b 0 0 b b 0 b b b m m Z Z S S ) ) ) ` ) ) ) ) ) S S Z Z m m b 0 8 2 < % # X X     . O O * ; 5 7 t F ]  .d.x.V.Z.F.F.Z.Z.Z.Z.Z.Z.F.F.H.H.H.J.J.J.J.H.F.F.Z.V.V.z.z.k.k.k.s.s.s.k.s.k.k.k.k.k.k.z.z.z.z.z.k.k.s.s.p...` ` S S m b 8 < % # X X . . O O * = 5 7 t G ] @.d.V.F.F.H.J.J.J.H.H.F.F.Z.V.z.k.s.p.p.................................p.....",
"k.k.k.k.z.k.z.z.z.V.z.V.V.z.V.z.z.z.z.k.k.k.k.k.s.s.s.s.p.s.p.s.p.p.s.p.p.p.p.p.p.p.......| | ` ` ` ) ` ) ) ` ) ) ) ) ) ) ) S S S S S S Z Z Z Z m m m m m m m m m m Z Z Z S ) ) ` ` ` ` ` ` ` ) ) ) ) ) ) S S S S Z Z Z m m m b b 0 8 2 < % # X X     . o @ * ; 5 7 t V ]  .d.k.V.F.F.F.F.F.F.F.F.Z.V.V.z.z.k.k.s.k.k.z.z.V.V.V.V.V.V.z.z.k.s.p.p...| | ` ` ) Z Z b 0 2 < # X X   . . O + = ; 5 e C H { a.l.C.Z.F.Z.Z.Z.Z.V.V.V.V.V.z.V.V.V.V.V.Z.Z.F.F.F.F.Z.Z.Z.V.z.k.k.p.p.s.s.s.k.k.z.V.V.V.V.V.V.V.V.z.V.z.z.z.z.z.z.k.k.s.s.s.p.p.........| | | | | ` | | | | | | ......................| | | ` ` ` ) ) ) ) ) ) ) ) ` ) ) ` ` ` ` | ` ` ` | ` ` ` ` ` ` ` ) ) ) ) S S S Z Z m m b b b b b b b b b b m m Z Z S ) ) ) ) ) ) ) ) ) S S S Z Z m m b 0 0 2 < % # X X     . . + * = 5 7 t F ] o.d.k.V.Z.F.Z.F.Z.Z.Z.Z.Z.Z.F.H.H.H.J.J.J.H.H.F.F.Z.V.V.z.z.k.k.k.k.s.s.s.s.s.s.s.k.s.s.k.k.k.k.k.k.k.s.s.p.| | ` ) Z m 0 8 2 % # X   . . o O @ = ; 7 t F { +.l.C.Z.H.H.J.J.H.J.H.F.F.Z.V.z.k.s.s.p.p.....p...p.......p...p.....p.p.......",
"k.k.k.k.k.k.z.k.z.z.V.z.V.V.z.V.z.z.z.z.k.k.k.s.s.s.s.p.s.p.s.p.s.p.p.p.p.p.p.p.........| | | | ` ` ` ` ` ` ` ` ` ` ` ) ) ) ) ) S S Z Z Z Z m m m m m m m b m m m m m m Z S S ) ) ` ) ` ` ) ) ) ) ) S ) S ) S ) S S S Z Z Z m b b 0 8 2 < % # X       . . O * = 5 7 t F ]  .d.z.V.Z.F.F.H.F.F.F.Z.Z.Z.V.z.z.k.k.k.k.k.k.z.z.z.z.V.z.z.k.k.s.s.p.p.....| ` ) ) S Z b 0 2 < # X     . . . @ * ; 7 e C H { X.l.V.V.Z.Z.Z.Z.V.z.z.z.z.V.V.V.V.Z.Z.Z.Z.Z.Z.Z.Z.F.Z.Z.V.z.z.k.s.s.p.s.s.s.k.z.z.z.V.V.V.V.z.V.z.z.z.z.z.k.k.k.k.k.k.s.s.p.p.p.......| | | | ` | ` ` | | | ..........................| | | ` ` ` ` ) ` ) ` ) ) ) ) ) ` ` ) ` ` ` ` | ` ` ` ` ` ` ` ` ` ` ) ) ) ) S S Z Z Z m m m m b b m b m m m m Z Z S S S ) ) ) ) ) ) ) S S S S Z Z m m b 0 8 2 < % # X X   . . . + * ; 5 7 t F ]  .d.x.Z.Z.F.F.F.F.Z.Z.Z.Z.F.F.F.H.H.H.H.H.H.F.F.Z.Z.Z.V.V.z.z.k.k.s.s.s.s.s.s.s.p.s.s.s.s.s.k.s.s.s.s.s.p.....` ` ) Z Z b 8 2 % # X     . . O @ ; 5 7 t G {  .d.V.G.H.H.J.H.J.H.H.F.F.Z.V.V.k.k.s.p.p.p.p.p.p.p.p.p.p.p.p.p.p.p.p.p.p.p.p.",
"s.s.s.s.k.k.k.z.z.z.z.V.V.z.z.z.z.z.z.z.k.k.k.s.s.s.s.p.s.s.p.p.p.p.p.p.p.p.p...p.........| | | | ` ` ` ` ` ` ` ` ` ` ` ) ) ) S S S S Z Z Z Z Z m m m m m m b m m m m Z Z Z S S ) ) ` ) ) ) ) ) ) ) S ) ) S ) S S S S Z Z Z m m b 0 8 8 < % # X X     . O + = = 5 7 r F ]  .a.x.V.F.F.H.F.F.F.F.F.Z.Z.V.V.z.z.z.k.k.z.k.z.z.k.z.z.k.k.k.s.s.p.p.....| | ` ) ) S Z b 0 2 < # X X     . O @ = ; 7 e C F ' a.l.V.Z.Z.Z.V.V.V.z.k.k.z.z.z.V.V.Z.Z.Z.Z.Z.Z.Z.Z.Z.V.V.z.z.z.k.s.s.s.s.k.k.k.z.z.V.V.V.V.z.V.z.z.k.k.k.k.k.k.s.k.s.s.s.p.p.p.....| | | | ` | ` ` ` ` ` | | | | ........p.............| | | | ` ` ` ` ` ` ) ) ) ) ) ) ) ) ` ` ` ` ` ` ` ` ` ` ) ` ) ) ) ) ) ) ) ) S S Z Z Z Z m m m m m m m m m Z Z Z S S S S ) ) ) ) ) ) ) S S S Z Z m m b b 0 8 2 < % # X X     . . + * ; 5 7 t F ]  .d.k.V.Z.F.F.F.F.F.F.F.F.F.H.H.F.H.H.H.H.F.F.F.Z.Z.Z.V.V.z.z.z.k.k.s.s.s.s.p.p.p.p...p.p.p.p.p.s.s.p.p.p...| | ` ) S Z b 8 2 % # X     . O + @ = 5 7 t F ] +.l.C.Z.H.H.J.J.H.H.H.F.F.Z.V.z.z.k.s.s.s.p.p.s.p.p.p.p.p.p.s.p.p.p.s.p.p.p.p.",
"s.s.s.s.s.s.s.k.k.z.z.z.V.z.V.z.z.z.k.k.k.k.k.k.k.s.s.p.p.p.p.s.p.p.p.p.p.p.p...............| | | | | ` ` ` | ` | ` ` ` ` ) ) ) S S Z Z Z Z m m Z m m m b m b m b m m m Z Z S S S ) ) ) ) ) ) ) S S S S S S S ) S S S S Z m m b b 0 8 2 < % # X       . . + = ; 5 7 t V ] o.d.z.V.Z.F.F.H.F.F.F.Z.Z.Z.Z.V.V.V.z.z.z.z.k.k.k.k.k.s.s.s.p.s.p.p.......| | | ` ) S Z m 0 8 < # X X   . . O + = ; 5 e C H o.a.l.z.Z.Z.Z.V.V.z.k.k.k.k.z.z.z.V.Z.Z.Z.Z.Z.Z.V.V.V.V.z.z.z.k.k.k.k.k.k.k.k.z.z.z.V.z.V.z.z.z.k.k.k.k.k.s.k.s.s.s.s.s.p.p.p.........| | ` | ` ` ` ` ` | ` | ................p.............| | | ` | ` ` ) ` ` ) ) ) ` ) ) ` ` ) ` ` ` ) ` ) ) ) ) ) ) ) ) ) S ) S S S S Z Z Z Z Z Z Z Z m Z Z Z Z Z S S S ) ) ) ) ) ) ) S S S S Z Z Z m m m b 0 8 2 2 % # X       . O + = = 5 7 t V ]  .d.x.Z.Z.F.H.H.F.F.F.F.F.F.F.F.H.H.F.F.F.F.F.Z.Z.Z.V.V.V.z.z.z.k.k.k.s.s.p.p.p.......| ........p.p.p.p.....| ` ` ) S m b 8 2 < # X     . . + @ = 5 7 t F { X.l.V.F.H.H.J.H.H.H.F.F.Z.Z.Z.V.z.z.k.k.s.s.s.s.s.s.s.s.s.s.s.s.s.s.s.s.s.s.s.",
"p.p.p.s.s.s.s.k.k.z.z.z.z.z.z.z.z.z.k.z.z.k.k.s.s.s.s.s.p.s.p.p.p.p.p.p...p...p...........| | | | | | | | | | | | | | ` ` ` ) ) ) S S Z Z m Z m m m m m m m m m m m m Z Z Z S S S ) ) S ) S S S S S S ) S ) S ) ) S S S Z Z m b b 0 8 2 < % # X X     . . @ @ = 5 7 t G ]  .d.x.Z.Z.F.F.F.F.F.Z.Z.F.Z.Z.Z.V.V.V.V.z.z.k.k.s.s.s.s.p.p.p.p.......| | | | ` ` ) S Z m 0 8 < % X X   . . O + = ; 7 e C H { a.l.C.V.Z.V.V.z.k.k.k.s.s.k.z.V.V.Z.Z.F.Z.Z.Z.V.z.z.z.k.k.k.k.k.k.k.k.k.k.z.z.z.V.V.V.z.z.z.k.k.k.s.s.s.s.s.s.s.s.p.p.p.p.......| | | | ` ` ` ` ` ` ` ` | | | ............................| ..| | | | ` ` ` ` ) ) ) ) ` ` ) ) ` ` ) ) ) ) ) ) ) ) S S ) S S S S S S S S S S Z Z S Z Z Z Z S Z S S S S S ) ) ) ) ) ) ) S S S S Z Z Z Z m m b b 0 0 2 < % # X     . . . + * ; 5 7 t V ]  .d.x.V.Z.F.H.H.H.H.H.H.H.H.F.H.F.F.F.F.Z.Z.Z.Z.Z.V.Z.V.V.V.z.z.z.k.k.s.s.p.p...| | ` | | | | ............| | ` ) ) S m b 0 2 % # X     . . + @ ; 5 7 t G {  .l.x.Z.H.H.H.H.H.F.F.F.Z.Z.V.V.V.z.k.k.k.k.k.s.k.s.s.s.s.s.s.s.s.s.s.s.s.s.k.",
"p.p.p.p.p.s.s.s.k.k.k.z.z.z.z.z.z.z.z.z.k.k.k.s.s.s.s.s.s.p.p.p.p.p...p.p.......p...............| ..| | ..| | | ..| | | | ` ) ) S S S Z Z Z m Z m m m m m m b m m m m m m Z Z Z S S S ) S S S S S S S S ) S ) S S S S S S Z m m b 0 8 2 < % # X       . o O * ; 5 7 t V ]  .d.x.V.Z.F.F.H.F.F.F.F.Z.F.Z.Z.Z.Z.V.V.V.z.k.k.s.s.p.p.............| | | | | ` ` ) ) Z m 0 8 < % X X   . . O * * ; 7 e C H { a.l.z.Z.Z.Z.V.z.k.s.s.s.s.k.z.V.Z.Z.Z.F.Z.Z.V.z.z.k.k.s.k.s.k.k.k.k.z.z.z.z.V.z.V.V.V.z.z.z.k.k.s.s.p.p.p.p.p.p.p.p.p.p.........| | | ` ` ` ` ` ` ) ` ` ` | | | ........p...................| | | | | ` ` ` ` ) ) ` ) ) ) ) ` ) ) ` ) ) ) S ) ) ) S S S S S S S S S S S S S S S S S S S S S S S S S S ) ) ) ) ) ) ) S S S Z Z Z Z m m m m b b 0 8 2 < % # X X X   . O + * = 5 7 t F ] o.a.x.Z.F.H.H.H.H.J.H.H.H.H.H.F.F.F.F.Z.Z.Z.Z.Z.V.V.V.V.z.V.z.z.z.k.k.k.s.p...| | ` ` ` ) ` ` | | | ..| | | | | ` ) S Z m 8 2 < # X     . . O @ = 5 7 t V ] +.l.V.G.F.H.H.H.H.F.Z.Z.V.V.V.V.z.V.z.z.z.k.k.k.k.k.k.k.k.s.k.k.k.k.k.k.k.s.k.",
"..p...p.p.p.s.s.s.k.z.k.z.z.z.z.z.z.k.z.k.k.k.k.s.s.s.s.p.p.p.p.p...p.................................| ..........| ..| | ` ` ) ) S S Z Z Z m m m m m m m m m m m m Z m Z Z Z S Z S S S S S S S S S S S S ) ) ) ) ) S S S Z m m b 0 8 2 < % # X         . O * ; 5 7 t F ]  .d.z.A.F.F.F.F.F.F.F.Z.F.Z.F.Z.Z.Z.Z.V.V.z.z.k.s.p.......| | | | | | | | ` ` ` ` ) ) Z m b 2 < % X X   . . o @ * ; 5 e C H { a.l.V.V.Z.V.V.k.k.s.s.p.s.k.z.V.Z.Z.F.F.Z.Z.V.z.k.s.s.s.s.s.s.k.k.z.z.z.V.V.V.V.V.V.V.V.z.k.k.s.s.p.p.p...p.p...p...........| | | | | ` ` ` ` ` ) ) ` ` ` ` | ................p...................| | | | ` ` ` ` ) ) ) ) ) ) ) ) ) ) ) ) ) S S S S S S S S S Z S S S S S S ) S S S S ) ) S S S ) S S ) ) ) ) ) ) S S S S Z Z m Z m m b b b b 0 8 2 2 % # X X     . O + * = 5 7 t C ]  .d.x.V.Z.H.H.H.J.J.H.J.J.H.H.F.F.Z.Z.Z.Z.V.V.V.V.Z.V.V.V.V.z.z.z.z.k.k.s.p.....| ` ) ) ) ` ` ` | | | | | | ` ` ) ) S Z m 0 2 < # X X . . . O @ = ; 7 t G ]  .l.C.Z.H.H.H.H.F.F.Z.Z.V.V.V.V.V.V.z.z.z.z.z.k.z.k.k.k.k.k.k.k.k.k.k.k.k.k.k.",
"......p.p.p.p.s.s.k.k.k.k.z.z.z.z.k.z.k.k.k.k.s.k.s.p.p.p.p.p.p...p...................................................| | ` ` ) S S S S Z Z Z m Z m Z m m m m m m m m Z m Z Z Z S Z S S S S Z S S S Z S S S S ) ) S ) S Z Z m m b 0 0 2 < % # X X X . . O @ * ; 5 7 t V ]  .d.x.V.Z.F.F.H.F.F.F.F.Z.F.Z.F.F.F.Z.Z.V.z.k.k.p.p...| | | | ` | | | ` | ` ` ` ` ) S S m b 8 < # X X   . . O @ * ; 7 e C H { a.l.x.Z.Z.V.z.z.k.s.p.p.s.k.z.V.Z.F.F.F.Z.V.V.z.s.s.p.p.p.s.s.k.z.z.V.V.V.V.V.V.V.V.V.z.z.k.s.s.p.p.......................| | | | | | ` ` ` ) ` ) ` ) ` ` | | | ......................................| ` ` ` ) ) ) ) ) ) ) ) ) ) ) ) ) S S S S S S Z S S S S S S S Z S S ) S S ) ) ) ) S ) ) ) S ) ) ) ) ) ) S ) ) S S Z Z Z m m m m m b b b 0 8 2 < % # X X   X . . + * ; 5 7 t F ]  .a.z.Z.F.H.H.J.J.J.J.J.J.J.H.H.F.Z.Z.Z.V.V.V.V.V.V.V.z.V.z.V.z.z.z.k.s.s.p...| ` ` ) ) ) ) ) ` ` | ` ` | | | ` ` ) S Z b 0 2 % # X       . O = = 5 7 t F { X.d.V.F.F.H.H.F.F.Z.Z.V.Z.V.V.V.z.V.V.V.z.V.z.z.z.z.k.k.k.k.z.k.z.k.k.z.k.k.z.",
"..........p.p.p.s.s.k.k.k.z.k.z.k.z.k.k.k.k.k.s.s.s.p.s.p.p...p.......................................................| | | ` ) ) S Z Z Z Z Z m m Z m m m m m m m m m Z Z Z Z Z Z S Z S S Z S Z Z S S S S ) ) ) ) ) S S S Z Z m b 0 0 2 < % # X     . . . @ * = 5 7 t F ] o.d.l.Z.Z.F.F.F.F.F.Z.F.F.Z.F.F.F.Z.Z.Z.Z.V.z.k.s.p.....| | | ` | | ` ` ` ` ` ` ` ) ) S m 0 8 < % X X   . . O + = ; 7 e C H o.a.l.V.V.V.Z.z.z.s.s.s.s.s.k.z.V.Z.F.F.F.F.Z.z.k.s.p.p.p.p.s.s.k.z.z.V.V.V.V.Z.V.V.V.V.z.z.k.s.s.p.p...................| | | | | | ` ` ` ` ` ) ) ) ) ) ` ` ` | | | ....p.p.........................| | | | | ` ` ) ) ) ) ) ) ) ) ) ) S ) S S S S Z S S S Z S Z S Z S S S S ) ) ) ) S S ) ) ) ) ) ) ) ) ) ) ) ) S S S S S Z Z m m m m m b m b b 0 8 2 < % # X     . . o + * ; 5 7 t V ]  .d.x.V.F.H.H.J.J.K.J.J.J.H.H.F.Z.Z.Z.V.V.V.V.V.V.V.V.V.V.V.z.z.z.k.k.k.s.p...| ` ` ) ) ) ) ) ` ` ` | ` | ` ` ` ` ) S Z m 0 2 < # X X   . O O @ ; 5 7 t F ] X.l.C.Z.H.H.F.H.F.Z.V.V.V.V.V.V.V.V.V.V.V.V.z.z.z.z.z.k.z.z.k.k.k.k.k.k.z.k.k.",
"....| ....p.p.p.s.s.s.k.k.k.k.k.k.k.k.k.k.k.s.s.s.s.s.p.p...p.......| ........................................p.........| ` ` ) S S S S Z Z Z Z Z m Z m Z Z m Z Z Z Z Z Z Z S Z Z Z S Z Z S Z S S Z S S S S S S S S S S S Z Z m m b 0 8 2 % # X X     . o O * ; 5 7 t F ]  .d.x.V.F.F.F.F.F.F.F.Z.F.F.F.F.F.F.F.Z.Z.V.z.k.s.p.p.....| | | ` ` ` ) ` ` ` ) ) ) S Z m 0 8 < % X   X . . O @ = 5 5 e N H { a.l.V.V.Z.V.V.x.k.s.s.s.s.z.z.V.Z.F.H.F.F.V.V.k.s.p.p...p.s.s.k.z.z.V.V.Z.Z.V.Z.V.V.V.z.z.k.s.p.......| | | | | | | | | | | ` | ` ` ` ` ) ) ) ) ) ) ) ` ` | | | ..........................p...........| ` ` ` ) ) ) ) ) ) ) ) S ) ) S S S S S S S Z Z Z S Z S Z S S S S ) S S ) ) ) ) ) S ) S S ) S S ) S S ) S S S Z Z Z Z m m m b b m b b 0 0 0 2 < % # X X     . . O @ ; 5 7 t V ] +.d.l.Z.F.H.H.J.J.J.J.J.J.J.H.H.F.Z.Z.V.V.V.V.V.V.V.z.V.z.z.z.z.z.k.k.s.p.p...| | ` ` ) ` ` ) ` ` ` | ` ` ` ` ` ) ) S Z b 0 2 % # X   . . . O @ = 5 7 t F { +.l.V.Z.F.H.H.F.F.Z.Z.Z.V.V.V.V.V.V.V.V.V.V.V.V.z.z.z.z.k.z.k.z.k.k.k.k.k.k.k.",
"............p.p.s.s.s.k.k.k.k.k.k.k.k.k.k.s.s.s.s.s.p.p.p.p.......| ....| ..| ..............................p...........| | ` ` ) S S Z Z Z Z Z Z Z m Z Z m Z Z Z Z Z Z Z Z Z S Z S Z Z S Z S Z Z S Z S S S S S S S S S S Z Z m m b 0 8 2 % # X X X . . . + @ = 5 7 t V ]  .d.k.V.Z.F.F.F.F.F.F.F.Z.F.F.F.F.F.F.Z.Z.V.V.z.k.s.s.p.....| | ` ` ` ) ) ) ) ) ) ) S Z m 0 8 < % X X   . . O @ = 5 5 e C H o.a.l.V.V.Z.Z.V.z.k.k.k.s.k.z.V.Z.F.F.H.F.F.V.V.k.s.p.......p.s.k.z.V.V.V.Z.Z.V.Z.V.V.V.V.z.k.s.p.......| | | | | | | | | ` | ` ` ` ` ` ` ) ) ) ) S ) ) ) ` ` | | | ....p...............................| | | ` ) ) ) ) ) ) S ) ) S ) S S S S Z S S Z S Z Z S S S Z S S S ) S ) S ) ) ) ) S S S S S S S S S S S S S Z Z Z Z Z m m m b m b b b 0 0 8 2 < % # X X   . . o + = = 5 7 t V ]  .d.x.V.Z.H.H.J.J.K.J.J.J.J.H.H.F.Z.V.V.V.V.V.V.V.z.V.z.z.z.z.k.k.k.s.s.p.p.....| | ` ` ` | ` ` ` | ` ` ` ` ` ` ) ) S Z b 0 2 < # X X   . . O @ ; 5 7 t F { X.d.V.G.F.H.H.H.F.Z.V.V.V.V.V.V.V.V.V.V.V.V.V.z.z.z.z.k.z.k.k.k.k.k.k.k.k.k.k.",
"............p.p.p.s.s.s.s.k.s.k.k.k.k.s.k.s.s.s.s.p.p.p.p...........| | ..| ................p.....p.....p.............| | ` ` ) ) S S Z Z Z Z Z Z Z Z Z Z Z Z Z S S S S S S Z S S Z S S S Z Z S S Z S S S S S S S S S S S S Z Z m b 0 0 2 < % X X     . . + = ; 5 7 t F ]  .d.x.Z.Z.F.H.H.F.F.F.F.F.F.F.F.F.F.F.Z.Z.Z.V.z.z.k.s.s.p...| | ` ` ) ) ) ) ) ) S S S Z b 0 8 < # X X     . O + = ; 7 e C H { a.l.x.Z.Z.Z.V.V.z.k.k.k.z.z.V.Z.F.H.F.H.F.Z.z.k.s.p...p.p.s.s.k.z.z.V.V.Z.V.V.Z.Z.V.V.z.k.k.s.p.p...| | | | | | ` | ` ` ` ` ` ` ` ` ) ` ) ) S ) ) ) ) ) ` ` | | ........p.......p.....p.p...p.........| | ` ` ` ) ) ) ) ) ) S S S S S S S S S S Z S Z S S Z Z S S S S S S S S ) S S S S S S S S S S S S S S Z S Z Z Z Z Z m m m m m m m b b b 0 8 8 < % # X X     . . + = ; 5 7 t V ]  .a.z.Z.F.H.J.J.J.J.K.K.J.J.H.F.F.Z.V.V.V.z.V.z.z.V.V.z.z.z.k.k.k.k.s.s.s.p...p.......| | | | | | | ` ` ` ` ` ) ) S S m b 0 2 % # X     . . o @ ; ; 7 t G ] +.l.C.F.F.H.H.F.F.Z.Z.Z.V.V.V.V.Z.V.V.V.V.V.V.V.z.z.z.z.k.z.k.k.k.k.k.s.k.k.k.",
"..........p.p.p.p.s.s.s.s.s.s.k.k.s.s.k.s.s.s.s.p.p.p.............| | | | | ..| ..........p.........p.........p.p.......| ` ` ) ) S S Z S Z Z Z Z Z Z Z Z Z S Z S S S S S S S S Z S S Z S Z S Z Z S Z S S S S S S S S S S Z Z Z Z m b 0 2 < # # X     . . @ @ ; 5 7 t V ] +.d.x.V.Z.F.F.F.F.F.F.Z.F.F.Z.F.F.F.Z.F.Z.Z.V.V.V.z.k.s.s.p...| | ) ) ) S ) S S ) S S Z m 0 2 < # X X   . . O + = ; 5 e C H { a.l.x.Z.Z.Z.V.V.V.z.z.z.z.V.Z.Z.F.H.H.F.Z.Z.z.k.s.p.p.....p.s.k.z.z.V.V.Z.V.Z.V.V.V.V.z.z.k.s.p.....| | ` ` ` ` ` ` ` ` ` ` ` ` ` ) ) ) ) ) ) S S S ) ) ) ` | | ..............p.........p...p.........| | | ` ) ` ) ) ) S S ) S S S S S Z S S Z S S S Z Z S S Z S Z S S S S S S S S S S S S S Z Z Z Z Z Z Z Z Z Z Z Z Z m m m m m m m b b b b 0 8 8 < % # X       . . + @ ; 5 7 t F ]  .d.x.A.F.H.J.J.J.K.J.J.J.H.H.F.F.Z.Z.V.V.V.z.z.V.z.z.z.z.k.k.s.s.s.p.p.p.p.p.p.p.p...........| | | ` ` ` ` ) ) ) S S m b 8 2 % # X     . O + @ * 5 7 t F ] +.l.V.Z.H.H.F.F.F.Z.Z.V.V.V.V.V.V.Z.V.V.V.V.V.z.z.z.z.k.z.k.k.k.k.s.k.s.k.s.s.",
"| ............p.p.p.s.s.s.s.s.s.s.s.s.s.s.s.p.p.p.p.p.........| | | | | | | | ................................p.......| | | ` ) S S S S Z Z Z Z Z Z Z Z S S S S S S S S S S S S S S Z S Z S Z S S Z S Z S S S S S S S S S S S Z Z m b 0 8 < % X       . . O * = 5 7 t F ]  .d.k.V.F.F.F.F.F.F.F.Z.F.F.F.F.Z.F.F.F.Z.Z.Z.V.V.z.z.k.s.p.p.| ` ) ) S S S S S S S S Z b 0 2 < # X X   . . O @ = ; 5 e B H { a.l.V.V.Z.Z.Z.Z.V.z.z.z.V.V.Z.F.F.F.H.H.F.V.V.k.s.p.p.p.p.s.s.k.z.z.V.V.V.Z.V.Z.V.V.V.z.z.s.s.p...| | | | ` ` ` ` ` ` ` ` ` ` ) ` ) ) ) ) ) S ) S S S ) ) ` | | ..........p.......p...................| | ` ` ` ) ) S ) ) S S S S S Z S Z S S Z S Z S Z S Z Z S S S S Z S S S S S S S S Z Z Z Z Z Z Z Z Z Z Z Z Z Z m m Z m m m m m b m m b b 0 8 2 2 % # X X     . O + * = 5 7 t C ]  .a.x.V.Z.F.H.J.J.J.J.K.J.J.H.H.Z.Z.Z.V.V.V.V.V.z.z.z.z.k.k.k.s.s.p.p.p.p.p.p.p.p.p.s.p.p.......| | ` ` ` ` ` ) ) S Z m b 8 2 % # X     . O O @ ; 5 7 t G { X.d.C.F.F.H.H.F.F.Z.V.V.V.V.V.V.V.V.V.V.V.z.V.V.z.z.z.z.k.k.k.k.k.s.s.s.s.s.s.",
"..........p.p.p.p.s.p.s.s.s.s.s.s.s.s.s.s.p.p.p.p.p.........| | | | | | | | | ..| ................p.......p.............| ` ` ) ) S S Z Z Z S Z Z S Z S S S S ) ) S S ) S ) S S S Z S S S Z Z S Z S S Z S Z S Z S S S S S S S Z Z m m 0 8 < % # X       O + @ ; 5 7 t V ]  .d.z.Z.Z.F.F.F.F.F.Z.F.F.F.Z.F.Z.F.F.Z.F.Z.Z.Z.V.V.z.z.k.s.....` ` ) S S S S S S S S m m 0 2 < # X X   . . O @ = ; 5 e C H { a.l.V.Z.Z.F.Z.Z.V.V.V.V.V.V.Z.F.F.H.F.F.F.V.z.k.s.p.p.p.p.p.s.k.z.z.V.V.V.Z.Z.V.V.V.V.z.k.k.p.p...| | | ` ` ) ` ` ) ` ) ) ) ` ) ) ) ) ) S ) S S S S S ) ` ` ` | ......................................| ` ` ` ` ) ) ) S S S S S S S Z S S Z S Z S Z S S Z S S S Z Z S S S S S S S Z S Z Z Z m Z m Z m m m m Z m Z m m m m m m m m m b m b b b 0 8 2 < % # X       . o + @ ; 5 7 t V ]  .d.k.Z.F.H.J.J.J.J.K.J.J.J.H.H.F.Z.V.V.V.V.z.V.z.z.z.k.k.k.s.s.s.p.p.p.p.p.s.s.s.s.k.s.s.p.p.....| | ` ` ` ) ) ) S S m b 8 2 % # X     . O + @ = 5 7 B F ] +.l.V.A.F.H.F.F.F.Z.Z.V.V.V.V.V.V.V.V.V.V.V.z.z.z.z.z.k.k.k.k.k.s.s.s.s.s.s.s.",
"..............p.p.p.p.s.s.p.p.s.s.p.p.p.p.p.p.p...............| | | | | | | | | ..| | ................................| | | ` ) S S S S S Z S Z Z S S S S S S S S ) ) S S S S S S S Z Z Z S Z S S Z Z S S Z S S S Z Z S S S S S Z Z m 0 8 < % X X X . . o + = = 5 7 t F ]  .a.x.A.Z.F.F.F.F.F.F.Z.Z.Z.F.F.Z.Z.Z.Z.Z.Z.Z.V.V.V.z.k.s.s.p.| | ` S S S S S S S S Z Z b 0 2 < # X X     . O + * 5 7 e C H { a.l.z.Z.F.Z.Z.Z.Z.V.V.V.V.Z.Z.Z.F.F.F.F.Z.Z.z.k.s.p.p.p.s.s.k.k.z.z.V.V.V.V.V.V.V.V.z.z.k.s.p.p...| ` ` ` ` ` ) ) ) ) ) ) ) ) ) ) ) ) ) S S S S S S S ) ) ` ` | | | ................................| | | ` ` ) ) ) ) S ) S S S S Z S Z Z S Z S Z Z Z Z Z Z Z Z Z S Z Z Z S Z Z Z Z Z Z m Z m m m m m m m m m m m m m m m m m m m b m b m b 0 0 8 8 < % # X X     . O O * ; 5 7 t F ]  .d.z.V.F.H.H.J.J.J.J.J.J.J.H.F.F.Z.Z.V.V.z.V.z.z.z.z.k.k.k.s.p.p.p.p.p.p.p.s.s.s.k.k.k.s.s.p.p...| | ` ` ) ` ) ) S Z m b 8 2 % # X     . . + @ = ; 7 t G { X.l.V.Z.H.H.H.F.F.Z.Z.V.V.V.V.V.V.V.V.V.V.z.V.V.z.z.z.k.z.k.s.s.s.s.s.s.p.p.p.",
"..........p...p.p.p.p.s.p.s.p.p.p.p.p.p.p.p.................| | | | | | | | | | | ..| ..................................| ` ` ) ) S S Z S Z Z S S S S S S S S ) ) ) S ) S S S Z Z Z Z Z Z Z Z Z Z S S S Z S S Z S S S S S S S S Z Z b 0 8 2 % # X   . . . @ @ ; 5 7 t V ]  .d.k.V.F.F.F.F.F.Z.Z.Z.Z.Z.Z.Z.Z.Z.Z.Z.Z.V.V.V.V.z.z.k.s.p.p.| | ` ) ) ) S S S S S Z m b 0 2 < # X X   . . O + = 5 5 e C H { +.l.z.Z.F.F.F.Z.Z.Z.V.Z.Z.Z.Z.Z.F.F.Z.Z.Z.V.z.k.s.s.s.p.s.s.k.z.z.V.V.V.V.V.V.V.V.V.z.k.k.s.p...| | ` ` ) ` ) ) ) ) ) ) ) ) ) ) ) ) ) ) S S S S S S S S ) ` ` | | ..| ........| | ....| ..| ....| | | | | | ` ` ) ) ) S S S S S Z S Z Z Z S Z Z Z Z Z Z Z Z Z Z Z Z Z Z Z Z Z Z Z Z Z m Z m m m m m m m m m m m m m m m m m m m m m m b b b b 0 8 2 2 % # X X     . . + * = 5 7 t C ] o.a.x.Z.Z.F.H.J.J.K.J.K.J.J.H.F.F.Z.V.V.V.z.z.z.z.k.k.k.k.s.s.s.p.p.p.p.p.p.s.k.k.k.k.k.k.s.s.p.....| | ` ` ` ) ) S Z m b 8 2 % # X     . . + = = 5 7 t F ] +.d.V.F.H.H.H.H.F.Z.V.V.V.V.V.V.V.V.V.V.V.V.z.z.z.z.z.z.k.k.k.k.s.s.s.p.s.p.p.",
"............p.p.p.p.p.p.s.p.p.p.p.p.....................| | ..| | | | | | | | | | | | ..| ..| ............p...p.......| | | ` ) ) S S S Z S Z S S S S S S ) ) S S ) ) ) S S S Z Z Z Z Z Z Z Z S S Z S Z S S S S S S S S S S ) S S Z m b 8 < % # X     . . O * = 5 7 t G {  .d.x.V.Z.F.F.F.F.Z.Z.Z.Z.Z.Z.Z.Z.Z.Z.V.V.V.V.z.z.k.k.s.s.p.....| ` ) ) ) ) ) ) S S S Z m 0 2 < # X X X . . o @ = ; 5 e C H { a.x.V.Z.F.F.F.F.Z.Z.Z.V.Z.Z.Z.Z.Z.Z.Z.Z.V.z.z.z.k.s.k.s.s.k.k.z.z.V.V.V.V.Z.V.V.z.z.z.k.s.p.p...| | ` ) ` ) ) ) ) ) S ) S ) ) ) ) S ) S ) S S S S S S ) ) ) ` | | ....| | ....| ....| ....| ..| ..| | | ` ` ` ) ` ) ) ) ) S S S S S S S Z Z Z Z Z Z Z Z Z Z Z Z Z Z Z Z m Z Z Z Z Z Z m m m m m b m m m m b m m b m m m b m m m m b m m b b b 0 8 8 < % # X X   . . . + * ; 5 7 t F ]  .d.x.V.F.H.J.J.J.J.J.J.J.J.H.H.F.Z.Z.V.V.z.z.z.k.k.k.k.s.s.s.p.p.p.p.p.s.s.s.k.k.k.k.k.k.s.s.p.....| ` ` ` ` ) S S S m b 8 < % # X     . . O @ = 5 7 t V { +.l.C.Z.F.H.F.F.F.Z.V.V.V.V.V.V.V.V.V.V.V.V.V.V.V.V.z.z.z.k.k.s.s.s.p.p.p.p.p.",
"............p.p.p.p.p.p.p.p.p.p...........| ..| ..| | ..| | | ..| | | | | | | | | | | | | ..| ..............p.........| | | ` ) S S S S S Z S S S S S ) S ) ) ) ) S ) S S Z Z Z m Z Z m Z Z Z Z Z S Z S S S S S S S S S S ) S S Z Z m b 8 2 % # X     . . + @ = 5 7 t V ]  .a.z.V.Z.F.F.F.Z.Z.Z.V.V.Z.V.V.Z.Z.V.V.z.z.z.k.k.s.s.p.p.......| | ` ` ` ) ) ) ) S S Z m 0 2 < # X X   . . O + * ; 5 e C H { a.k.V.F.F.H.H.F.F.F.Z.Z.Z.Z.Z.Z.V.V.V.V.V.z.z.z.k.k.k.k.z.z.z.z.V.V.V.Z.V.V.V.z.z.z.k.k.s.p...| | ` ` ) ) ) ) ) ) S ) ) ) ) S ) ) ) S ) ) S S S S S S ) ) ` ` ` | | | | | ..| | | | ..| | ..| | | | | ` ` ` ` ` ) ` ) ) ) S S S S S Z Z Z Z Z Z m Z Z Z Z Z Z m Z Z Z Z m Z Z m Z m m m m m m b m b m m m m m b m m b m m m m b m b m m b b b 0 0 2 < % # X X     . o + * ; 5 7 t V ]  .d.x.Z.F.F.J.J.J.J.K.K.J.J.H.F.F.Z.Z.V.V.z.z.k.k.k.s.s.s.s.s.p.s.p.s.s.s.s.k.k.z.k.k.k.k.k.s.p.....| | | ` ` ` ) ) Z m b 0 2 % # X     . . O @ = ; 7 t F { +.d.V.Z.H.H.H.F.F.Z.V.z.V.V.V.V.V.V.V.V.Z.V.V.V.V.z.z.z.z.k.k.s.s.p.s.p.p.p.p.",
"........p.....p.p.p.p.s.p.p.p.......| | | | | | | | | | | ..| | ..| ..| | | | | | ` | | | | | | | ..........p...p.......| ` ` ) ) S S Z Z S S S S ) ) S ) S S ) S ) S S S Z Z Z m m m m m Z m Z S Z S S S S ) S S ) ) ) ) S S ) S Z m 0 8 < % # X     . O O @ ; 5 7 t F ]  .d.x.Z.Z.Z.F.Z.Z.Z.V.V.V.V.V.V.V.V.V.V.z.z.k.s.p.p.......| | | | | | ` | | ` ` ) ) S Z b 0 8 < % X X   . . O @ = 5 7 e C H o.a.x.A.F.F.F.F.F.F.Z.Z.Z.V.V.V.V.V.V.V.z.z.z.z.k.k.z.k.z.z.z.V.V.V.Z.Z.V.V.V.V.z.z.k.k.s.p.p...| ` ` ` ) ) ) ) ) S ) S ) ) S ) ) S ) ) S S S S S S S S ) ) ) ` ` | | | | | | | | | | | | | | | | | | | ` | ` ` ` ` ) ) ) ) ) ) S S S S Z Z Z Z m m m m m m m m m m m m m m m m m m m m m m m m b m b b b b b b m b m m b m b m b b m b b m b b 0 8 8 < < # X     . . . O * = 5 7 t V ]  .a.z.V.F.H.H.J.K.K.J.J.J.J.H.H.F.Z.Z.V.V.z.k.k.k.s.s.s.s.s.p.s.s.s.s.s.s.k.k.z.k.z.z.z.k.s.s.p.p...| | | | ` ) ) ) S Z b 8 2 % # X     . . O = = 5 7 t F ] X.l.C.F.F.F.F.F.Z.V.V.V.z.z.V.z.V.V.V.V.V.V.V.V.V.V.V.z.z.k.k.s.s.s.p.p.p...p.",
"............p.p.p.p.s.p.p.p.....| | | | ` | | | | | | | | | ..| ..| ..| | | | | ` ` ` ` ` | | | ..........p.............| ` ` ) S S S S S S S S S S ) S ) ) ) ) S S S S Z Z Z m m m m m m m m Z Z Z S S S S S ) ) S S ) ) ) S S S Z m b 8 < % # X     . . + * ; 5 7 t F ] +.d.z.V.Z.F.Z.Z.Z.V.V.V.z.V.V.z.V.V.z.z.z.k.s.s.....| | | | | | | ..| ..| | | | ` ) S Z m 0 8 < # X       . O + = ; 5 e C F o.a.k.V.Z.F.H.H.F.F.F.Z.Z.V.V.V.z.z.z.k.z.z.k.z.z.z.z.z.V.z.V.V.V.V.V.Z.V.V.V.z.z.k.s.s.p.p...| | ` ) ) ) ) S S ) ) S S ) S S ) S ) S S S S S S S S S S ) ) ) ` ` ` ` ` | | ` | ` ` ` ` | ` ` | | | ` ` ` ` ` ` ) ) ) ) ) S ) S S S S Z Z Z m m m m m m m m m m m m m m m m m m m m m m b m b b m b m b b m b b b b b m b b b b m b m m b b b b 0 0 8 < % # X       . . @ * ; 5 7 t V ]  .d.x.A.F.H.H.J.J.J.J.J.J.J.H.H.F.Z.Z.V.z.z.k.k.s.s.s.p.p.p.p.s.s.s.s.k.k.k.k.z.k.k.z.k.k.k.s.p.p.....| | ` ` ` ) ) S Z b 8 2 < # X X . . O O @ = 5 7 t V { +.l.V.Z.F.F.H.F.Z.Z.V.z.z.V.z.z.V.V.V.V.V.V.V.V.V.V.z.V.z.k.k.k.s.p.p.....p...",
"............p...p.p.p.p.p.p.....| | ` ` ` ` ` ` ` | | | | | | ..| ..| ....| | ` | ` ` ` ` ` ` | | ............p.........| | ` ) ) S S S S S S ) ) ) ) ) S ) S S S S S Z Z Z m m m b b m m m Z Z Z S S S S S ) S S ) ) ) S ) S S Z Z m 0 8 2 % X X   . . O O = = 5 7 t V ]  .d.x.V.Z.Z.Z.Z.Z.V.V.z.V.z.z.z.V.z.z.z.k.s.p.....| ` ` ` ` ` | | ........| | | ` ) ) S m 0 2 < % X X   . . O @ * 5 7 t C H ' f.l.C.Z.F.F.F.F.Z.Z.V.V.V.V.z.k.k.s.k.s.s.k.k.k.z.z.z.z.V.V.V.V.V.Z.V.V.V.z.z.k.s.s.p.p...| ` ` ) ) ) S S S S S S S S S S S S S S S S S S S Z S S S S S S ) ) ) ` ` ` ` ` ` ` ` ` ` ` ` ` ` ` ` ` ` ` ` ` ) ` ) ` ) ) ) ) S S S S Z Z Z Z m m m m b b b b b m b b b b b b b m b b b b b b b b b b b b b b b b b b b b b b b b b b b b b b b b 0 8 2 < % # X X X   . o + = = 5 7 t G ]  .a.x.V.F.H.H.J.J.J.K.J.J.J.H.F.F.Z.Z.V.z.z.k.k.s.s.p.p.p.p.s.s.s.k.k.k.k.k.z.k.z.z.z.k.k.s.s.s.p.....| | | | ` ` ) S Z b 0 2 < # X     . . O @ ; 5 7 t G ] X.l.V.A.H.H.F.F.Z.V.z.z.z.z.z.z.V.z.V.V.V.V.V.V.V.V.V.z.z.z.k.s.p.p...p.......",
"........p...p.p.p.p.s.p.p.p.....| | ` ` ) ` ` ` ` | ` | | | | ......| | ..| | | ` ` ) ` ` ` ` | | | ........p.......| | | | ` ) S S S S S S S S ) S S ) ) S S S S S Z Z Z m m b b b b b m m Z Z Z S S S S ) S ) ) ) S ) S ) S S Z Z m 0 8 < % # X X   . O + = = 5 7 t F ]  .d.z.V.Z.Z.Z.Z.V.V.z.z.z.z.z.z.z.z.z.z.k.s.p...| ` ` ) ) ` ` | ....p.......| | | ` S S m b 8 < # X X   . . O @ = 5 5 e C F ' X.l.z.Z.Z.Z.Z.Z.Z.V.V.z.z.k.k.s.s.p.p.p.p.s.s.k.k.k.z.z.z.V.V.V.V.V.V.z.k.k.s.s.s.p...| | ` ` ) ) S S S Z Z S Z S Z Z S S Z Z S Z Z S Z Z S Z S Z S S S S S ) ) ) ) ) ) ) ) ` ) ) ) ) ) ) ) ) ) ) ) ) ) ) ) ) ) S ) S S S S S Z Z Z Z m m m b b b b 0 b b 0 b b 0 b b b b b b b 0 b b b b 0 b b 0 b b 0 b 0 b b 0 b b 0 0 b 0 b b 0 b b b 0 0 0 8 2 < % # X X X . . . + * = 5 7 t F ]  .d.k.Z.F.H.H.J.J.J.J.J.J.J.H.F.F.Z.Z.V.z.z.k.s.s.p.p.p.p.p.p.s.s.s.k.k.k.k.z.k.z.k.k.k.k.s.s.p.p.p.....| | | ` ` ) S Z m 0 2 % # X       . O @ = 5 7 t F { +.l.x.Z.F.H.F.F.Z.V.V.z.z.z.z.z.z.V.V.V.V.V.V.V.V.V.V.V.z.z.k.s.s.p.p.........",
"..........p...p.p.p.p.s.p.p.......` ` ` ` ` ` ) ` ` ` | | | | | | ......| | ` ` ` ` ` ) ) ` | | | ..| ................| | ` ) ) ) S S S S S S S S ) ) S ) S S S S S Z Z Z m m m m b b m m m m m Z Z Z S S S ) S S ) ) S ) ) S S S m m 0 8 < % # X   . . . + @ ; 5 7 t F ]  .d.x.A.Z.Z.Z.Z.V.V.z.z.k.z.z.z.z.z.z.k.s.s.p...| ` ` ) ` ` ` | | ....p.......| ` ` S S m 0 8 < % X X   . . O @ = ; 5 e C F { X.a.k.z.z.V.V.V.z.z.k.k.s.s.p.p.......| ....p.p.s.k.k.k.k.z.k.z.k.k.k.k.k.s.p.p...| | ` ` ) ) S Z Z Z Z Z Z m Z m Z Z m Z Z Z m Z Z Z Z Z m Z m Z m Z Z Z S S Z S S S S ) S S S S ) S S S S S S ) S S S S S S S S S S S S Z Z Z Z m m m b b b 0 0 0 0 0 0 0 0 0 0 0 0 0 0 0 0 0 0 0 0 0 0 0 0 0 0 0 0 0 0 0 0 0 0 0 0 0 0 0 0 0 0 0 0 0 b 0 0 8 8 2 < % # X X     . O + = ; 5 7 t V ]  .d.x.V.Z.F.H.J.J.J.J.J.J.J.H.H.F.Z.Z.V.z.k.k.s.s.p.p...p.p.p.p.s.s.k.k.k.k.k.z.k.z.k.k.k.s.s.p.p.......| | | ` ` ) ) Z b 0 2 < # X     . O + @ ; 5 7 t F ] X.l.V.F.F.H.F.Z.Z.V.z.z.z.k.z.z.V.V.z.V.V.V.V.V.V.V.V.z.z.k.k.s.s.p.p.........",
"..........p.p.p.p.s.s.p.p.p.....| | ` ` ` ) ) ` ` ` ` | ` | | ............| | ` ` ` ) ) ` ` ` | | ......| ......| ..| | ` ` ` ) ) S S S S S S S S S S S S S S S Z Z Z Z m m m b b b m b b m m Z Z Z Z Z Z S S S S S S S S S S Z Z m b 0 8 < % X       . . + * ; 5 7 t F ]  .d.x.V.Z.F.Z.Z.V.V.z.z.k.z.k.z.z.k.z.k.k.s.p...| ` ` ` ` ` ` | ..............| | ` ) S Z b 8 < % X X     . O @ = ; 5 7 t V D ' ..a.s.k.k.k.k.k.s.s.p.p.....| ` ` ) ` ` ` | ....p.s.p.s.s.s.s.s.p.p.p.p.....| ` ` ) S S S Z Z m m b m m b b m m m m m b m m m m m b m m m m b b m m m m m m Z Z Z Z Z Z Z Z Z Z Z Z Z Z Z Z Z Z Z Z Z Z Z Z Z Z Z m Z m m m m b b b 0 0 0 0 0 8 8 8 8 8 8 8 8 8 8 8 8 8 8 8 8 8 8 8 8 8 8 8 8 8 8 8 8 8 8 8 8 8 8 8 8 8 8 8 8 8 8 8 0 8 8 8 8 2 < % # X X       . o O * = 5 7 t V H  .d.k.V.Z.H.H.J.J.J.J.J.J.H.H.F.Z.Z.V.V.z.k.k.s.p.p.....p.p.p.p.s.s.s.k.s.k.k.k.k.k.k.s.s.s.s.p.p.p.....| | | | ` ` S Z m 0 2 < # X   . . . O @ = 5 7 t G { X.l.C.Z.F.H.F.F.Z.V.z.z.z.z.z.z.z.z.z.V.z.z.V.V.z.V.z.z.z.k.k.s.p.p...........",
"............p.p.p.s.s.s.s.p.p...| | ` ` ` ) ` ` ) ` ` ` ` | | | | | ......| | ` ` ) ` ) ) ` ` ` | | | | ....| | | | | ` ` ` ) ) ) S S S S Z S S S S S S Z Z Z Z Z Z m m m m m m m b b m m m m m m m Z Z Z Z S Z Z S S S Z S S Z Z m b 0 2 < % X X     . O + * = 5 7 t G ]  .d.x.V.Z.Z.Z.Z.V.z.z.k.z.k.z.k.k.z.k.k.k.s.p.p.....| | | | | | ..| ....| | | | ` ` ) Z m 0 8 < % X X   . . + + * ; 7 7 r N F D _ | ............| | | ` ` ) S S S S S S ) ) ` ` | | | | | | ..| | | ` ` ` ) S S S S Z m m b b b b 0 0 0 0 0 0 0 0 0 0 0 0 0 0 0 0 0 0 0 0 0 b 0 0 0 0 b b b b m b b b b b b b b b m b m b b b b b b m b b m b m b b b b b b b 0 0 0 0 8 8 2 2 2 2 2 2 2 2 2 2 2 2 2 2 2 2 2 2 2 2 2 2 2 2 2 2 2 2 2 2 2 2 2 2 2 2 2 2 2 2 2 2 8 2 2 2 2 2 2 2 < < % # X X       . o @ * ; 5 7 t C ]  .a.x.V.Z.F.H.H.H.H.H.J.H.H.H.F.F.Z.Z.V.z.z.k.s.s.p.p.........p.p.p.s.s.s.s.s.k.s.s.k.k.s.s.s.p.p.........| | | ` ) ) S m 0 2 < # #     . . O @ ; ; 7 t G { X.l.V.G.F.H.F.F.Z.V.z.z.k.k.z.k.z.z.z.z.z.z.V.z.z.z.z.z.k.k.s.s.p.p.p.......| ",
"..........p.p.p.s.s.s.s.s.s.p.....| | ` ` ` ` ) ` ` ` ` ` ` | | | ........| | ` ` ) ) ) ` ) ` ` | | | | | | | | ` ` ` ` ` ` ) ) ) S S S S S S Z Z Z Z Z Z Z Z m m m m m m m m m m m b m m m m m m Z m Z Z Z Z Z Z Z Z Z Z Z Z Z m m b 8 2 < # X X X . . . + @ = 5 7 t V ]  .d.x.V.Z.Z.Z.Z.V.z.z.z.k.z.k.z.k.z.k.z.k.s.s.s.p...........| ..| | | | | | ` ` ` ) ) S m 0 8 < # X       o O * = ; 5 7 e r n M S S ) ) ) ) ) ) S S S S Z Z m m m m b m m Z Z S S S S ) ) S ) S S S S Z Z Z m m m b b 0 0 0 8 8 8 8 8 2 8 8 2 8 8 8 8 8 8 8 2 8 8 8 8 8 8 8 8 8 8 8 8 8 8 8 8 8 0 0 8 0 0 8 0 8 0 8 8 0 8 8 0 8 0 8 0 8 0 8 0 0 0 8 8 8 8 8 8 8 8 2 2 2 2 < < < < < % < < < < < < < < < < < < < < < < < < < < < < < < < < < < < < < < < < < < < < < < < < < % % % # # X       . . o @ * ; 5 7 t V H  .a.l.V.Z.F.F.H.H.H.H.H.H.H.F.F.F.Z.V.V.z.z.k.s.p.p.................p.p.p.p.s.s.s.s.s.s.s.s.p.p.p.........| | | ` ` S Z m 0 8 < # X   . . . O @ = 5 7 t G ] X.l.V.Z.F.H.F.F.Z.V.V.x.k.k.z.k.k.z.k.z.z.k.z.z.k.z.z.k.k.k.s.p.p.p.p.........",
"............p.p.s.s.s.s.s.s.p.p.....| ` | ` ` ` ` ) ` ) ` ` | | | ..| ....| | ` ` ` ` ) ) ` ` ` | ` | | | | | ` ` ` ` ` ) ) ) ) ) ) ) S S S Z Z Z Z Z m m m m m m m m m m m m m m m m m m m m m m m m m m m m m Z m m Z Z m m m m b 0 8 2 < % X X     . . + = ; 5 7 t F ]  .d.z.V.Z.Z.Z.Z.V.z.z.z.k.k.k.k.z.k.z.k.k.k.k.k.s.s.s.p.p.....| | | ` ` ` ` ` ` ` ` ) S m b 8 2 % # X   . o o * = ; 5 5 6 w r q n b M m m m m m m b m b b 0 0 8 8 8 0 8 0 0 0 b b b m b m b m m b m b b b 0 0 0 8 8 8 8 2 2 2 2 < < < < < < < < < < < < < < < < < < < < < < < < < 2 < 2 < 2 2 2 2 2 2 2 < 2 2 2 2 2 2 2 2 2 2 2 2 2 2 2 2 2 2 2 < 2 2 < 2 2 < < < < < < % % % % % % % % # % % % % % % # % % % % % % % % % % % % % # % % # % % % % % % % % % % % % % % % % % % # # X X X         . o O * ; 5 7 t V H  .a.k.V.Z.F.F.H.H.H.H.H.F.F.F.F.Z.Z.V.V.z.k.k.s.s.p.........| ............p...p.p.s.p.s.p.p.p.p.p.p.........| | ` ) ) Z m 0 2 < # X       O + @ = 5 7 t F { X.d.C.F.F.H.F.Z.Z.V.z.z.k.k.k.k.k.k.k.k.k.k.k.k.k.k.k.k.k.s.s.p.p.p.......| ..",
"........p.p.p.p.s.k.s.k.s.s.s.p.p.....| | ` ` ` ) ` ` ) ` ` ` | | | ......| | ` ` ) ` ) ) ) ` ` | | | | | ` ` ` ) ) ) ) ) ) ) ) S ) ) S S Z Z Z m m m m m b b m m b m m m m m m m Z m Z m m m m m m b m m m m m m m m m m m m m b b 0 8 2 % % X X     . . @ @ ; 5 7 t G ] X.d.x.V.Z.Z.Z.Z.V.V.z.z.k.z.z.k.k.z.k.k.z.z.k.k.k.k.k.s.s.s.p...| | ` ) ` ) ` ) ` ) ) S m b 8 < % X X   . o + * * ; 5 5 4 6 3 3 8 8 8 8 8 8 8 8 8 8 8 2 2 2 < 2 < < < < 2 2 2 2 8 8 8 8 8 8 8 8 8 2 8 2 2 2 < < < < < < % % % % % % % # % % % % # % % % % % % % # % # % % % % # % % % % % % % % % % % % % % % % % % % % % % % % % % % % % % % % % % % % % % % % % # # % # # # # # # X # # # # X # # X # # # # # X X # X # # # # # # # # # # # # # X # # # # # # # # # # # # X # X X             . o + * ; 5 7 t F ] ' a.l.V.V.Z.F.F.F.H.F.F.F.F.F.F.Z.Z.V.V.z.k.k.s.s.p.......| | ..| | | | ........p.p.p.p.p.p.p.p.........| | | | ` ` ) S m 0 2 < # X   . . . + @ ; 5 e t F { +.l.V.Z.F.F.H.F.Z.V.z.z.z.k.k.k.k.s.k.k.k.k.k.k.k.s.k.s.s.s.s.p.p.............",
"..........p.p.s.s.s.k.k.k.k.s.s.p.....| | | ` ` ` ` ) ` ` ` | | | ..| ..| | | | ` ) ) ) ` ` ` ` ` ` | ` ` ` ` ) ) ) ) S S ) S ) ) ) ) S S Z Z Z m m b m b b b b b b b b m m m m m Z Z m Z m m b b b b b b b b b b b b m b m b m b 0 0 8 2 % # X       . o O * = 5 7 t V ]  .d.x.V.Z.F.Z.Z.V.z.z.z.k.k.k.z.z.k.z.k.z.z.z.z.V.V.z.z.k.s.p...| ` ` ) ) ) ) ) ) ) S Z Z b 8 < % X   X . o $ * = ; 5 5 5 - 4 1 1 & 1 < < < % < % % % % % % & # % % # % # % % % % % % % < % % % < % % % % % % % % # # # # # # # X X # # # # X # # X X X # X # # # X X X # X X # # # X # X # X X # # # # # # # # # # X # # # # # # # X # # # # # # # # # # X X X # # X X X # X X X X X X X X X X X X X X X X X X X X X X X X X X X X X X X X X X X X X X X X X X X X X X X X X X X X           X . o * * ; ; 7 t N H  .a.l.z.Z.Z.F.F.F.F.F.F.F.Z.F.Z.Z.Z.V.V.z.z.k.s.s.p.......| | | ` ` | ` | | | ........p.p...p.p.p.........| | | ` ) S Z m 0 2 < # X X   . . O @ = 5 5 t G {  .l.C.G.F.H.F.Z.Z.V.z.k.k.k.k.k.k.s.k.s.s.s.s.k.s.s.s.s.s.s.p.p.p.p...........",
"........p.p.p.s.s.k.s.k.k.s.s.s.s.p.......| | | ` ` ) ` ` ` ` | ..| ....| | | ` ` ) ` ) ) ) ` ` | ` | | ` ` ) ) ) S S S S S ) S S S ) S S S Z m m m b b b b 0 b b b b b b m m Z Z Z Z Z Z m m m b b b b b b b b b b b b b b b b b 0 0 2 < % # # X       . O * ; 5 7 t F ]  .d.x.V.Z.Z.Z.Z.V.z.z.z.k.k.z.k.k.z.k.z.z.z.V.V.V.Z.V.V.z.k.s...| ` ) S S ) ) ) ) ) ) S Z b 8 < % X X   . o o * = ; ; ; - - & $ $ # # # # X X X # X # X X # # X # X   X X X X # X X X # X # X # X X # X # X X X X X X X X X X X   X X X X X X   X X   X X X X X X X X   X X X X X   X X X X X X X X X X X X X X X X X X X X X X X X X X X X X X X X X X X X X X   X X X X X   X   X   X   X   X   X   X X   X X X   X X X   X X   X   X X   X X X   X   X   X X   X   X X   X X           X   . . + + = ; 5 7 t C H  .a.s.z.V.Z.Z.Z.F.F.F.F.F.Z.F.Z.Z.Z.V.V.z.z.k.k.s.p.p.....| | | ` ` ` ` ` ` | | ......................| | | | ` ` ) ) Z m 0 2 % # X X   . . O @ = 5 7 t F ] X.l.V.Z.F.H.F.F.Z.V.z.z.z.k.k.k.s.s.s.s.s.s.s.s.s.s.s.s.p.p.p.p.p.............",
"..........p.p.p.s.s.k.k.k.k.k.s.p.p.p.....| | | ` ` ` ` ` ` ` | | ..| ....| | ` ` ` ` ) ` ` ` ` ` ` ` ` ` ` ) ) ) S S S S S S ) ) ) ) S S Z Z m m b b b b 0 b 0 b b b b m m Z Z Z Z Z Z Z m m b b b 0 b 0 b 0 b b b b b b b b b b 0 8 8 2 % # X   X . . O @ * ; 5 7 t F ]  .d.z.V.Z.Z.Z.Z.Z.V.z.z.z.z.k.k.z.k.z.k.z.z.V.V.V.Z.Z.V.V.k.s.p.| ` ) ) S ) S S ) ) S Z m 0 8 < % # X   . o + - = ; 5 ; ; - * $ $ o           X                         X         X                           X                                                                 X                   X                                         X                                                                                                                 X                             o o o + = = 5 7 t N H ' a.l.z.V.Z.Z.F.F.F.Z.Z.F.Z.Z.Z.Z.Z.V.V.V.z.k.k.s.p.p.....| | | ` ` ` ` ` ` ` | | | ....................| | | ` ` ) S Z b 0 2 % # X     . O O = = ; 7 t F { +.d.C.F.F.H.F.F.Z.Z.V.z.z.k.k.k.k.s.s.p.s.p.s.p.s.s.p.s.s.p.p.p...p...........",
"..........p.p.s.s.s.k.k.k.k.k.s.s.s.p.p.....| | | | ` ` ` ` | | | | ..| | | | | ` ` ` ` ` ` ` ` ` | ` ` ` ) ) ) S S S S S S S S S ) ) S S Z Z m m b b b 0 b b 0 b 0 b b m m Z Z Z S S Z Z m m b b b b 0 0 b b b b b b b m b b b b 0 8 2 < % # X X   . . . @ * = 5 7 t F ]  .a.x.V.Z.Z.F.Z.Z.V.V.z.z.k.z.z.k.k.z.z.z.z.V.Z.Z.Z.Z.Z.V.z.k.p...` ` ) ) ) S ) ) ) S S m b 8 < % X X X . o $ * = ; y ; ; ; * o o .   .           .       .   .       .       .   .   .       .   .   .       .   .       .   .         .     .         .     .     .   .   .     .       .   .     .   .     .     .   .     .     . .       .   .       .   .         .         .   .           .         .     .         .     .         .     .         .       .     .               o   o o + * = ; 5 7 t V H  .a.s.z.V.Z.Z.Z.F.Z.Z.Z.Z.F.Z.Z.Z.Z.V.V.V.z.k.k.s.s.s.p.p...| | ` ` ` ` ` ` ` ` | | | | | | | ..| ..| | | | ` ` ) S S m b 0 2 % # X     . O O @ ; 5 7 t G { +.l.V.F.F.H.H.F.F.Z.V.z.z.z.k.k.k.s.s.s.p.s.s.p.s.p.s.p.p.p.p...p.............",
"| ........p.p.p.s.s.k.s.k.s.k.s.s.s.p.p.p.p.....| | | | | ` | | | ..| ....| | | | | ` ` ` ` | ` ` | ` ` ` ` ) S S S Z S S S S S ) ) S S S S Z Z m m m b b b b b 0 b b b m m m Z S Z S S Z Z m m b b b 0 b b b b b m b m b b b b 0 0 8 2 < % # X       . . O = ; 5 7 t F ]  .d.z.A.Z.F.Z.Z.Z.V.V.V.z.z.z.z.k.k.k.k.z.z.V.V.Z.Z.F.Z.V.z.k.s.p.| ` ` ) ) ) ) ) ) S Z m 0 2 < # X X     o + * ; ; ; ; ; * * + o . . . . . . . . . . . . . . . . . . . . . . . . . . . . . . . . . . . . . . . . . . . . . . . . . . . . . . . . . . . . . . . . . . . . . . . . . . . . . . . . . . . . . . . . . . . . . . . . . . . . . . . . . . . . . . . . . . . . . . . . . . . . . . . . . . . . . . . . . . . . . . . . . . . . . . . . . . . . . . . . . . . . . . . .   o .   o o o $ * * = ; 5 7 t N H ' X.d.z.V.Z.Z.Z.F.Z.F.F.Z.Z.Z.F.Z.Z.Z.V.V.V.z.z.k.s.s.p.p.....| | ` ` ) ` ` ` ` ` ` ` | | | | | | | | ` | ` ` ) ) S Z m b 8 < % # X     . . O @ = 5 7 t F { +.d.V.Z.F.H.H.F.F.Z.Z.V.V.z.z.k.s.s.s.s.p.p.p.s.p.s.p.s.p.p.p.p.p.............",
"............p.p.s.s.s.k.k.k.s.k.k.s.s.s.p.p.p.........| | | | | | ....| | | | | | ` | ` | | ` | | ` ` ` ` ) ) ) S S S Z Z S S S S S S S S Z Z Z m m m m b b b 0 b b b b m Z Z Z S S S S Z Z m m b b b 0 b b b b m m m b b m b b b 0 8 2 < % # # X     . O + = = 5 7 t V ]  .d.x.V.Z.Z.F.F.Z.Z.V.V.V.z.z.k.k.k.k.k.z.z.z.V.Z.Z.Z.F.Z.V.k.s.p...| ` ` ` ) ) ) ) S Z m 0 8 < % X X   . o * * = ; ; > ; = = + + O O . . . O O O O O O . O O . O O O O O O . . O O . O O . O O O . O O . O O O O O O O . O O . O o O o O . O O o O . . O O . O o o O . O . . O o O O . o O . O O . . . O . O O O O . . O o O O o O . O . O . O O O . o O . O o O . O O o o . . o . o . O o o O o O o o o O o O o o . O . o . O o . O o O o o O O o o O . O O o o O o . o O O o o o o o o $ o * * = = = ; 5 7 t V H ' X.k.z.V.V.Z.Z.Z.Z.Z.Z.F.Z.Z.F.Z.Z.Z.V.V.V.z.z.k.k.s.s.s.p.....| | ` ` ` ` ` ` ) ` ` ` ` ` ` ` | | ` ` ` ` ) ) S Z Z b 0 8 < % # X     . o O * = 5 5 t F ] X.l.V.G.H.H.H.H.H.F.Z.V.V.V.z.z.k.s.s.s.s.s.p.s.p.p.s.p.p.p.p.p...p...........",
"........p.p...p.p.s.s.s.s.s.k.s.s.s.s.s.s.s.p.p...........| ..| | | | | | | | | | | | | | ` ` | | ` | ` ` ) ) S S S Z S S Z S S S S S S S S Z Z Z Z m m m b b b 0 b b b m m Z S S S S S Z Z m b b b b b b b m m m m m m m m b b b 0 8 2 < % # X X     . . + * ; 5 7 t F ]  .d.x.Z.Z.F.F.F.Z.Z.Z.V.V.V.z.z.k.k.k.k.k.z.V.V.Z.Z.F.Z.V.V.z.k.s.p...| | ` ` ` ) S S Z m 0 2 < # X X     o o * - ; ; ; ; > = = @ + O O O + O O O O O O O + + + O + O O + O + + + O O O + O O O + + O O + + O O O O + + + + + + + O @ @ O @ + @ + + + @ + + + + O @ O @ O @ O @ O + + @ O + + + + @ O @ O @ O O + + + + + + O O O @ + + O + + + + + + + O @ O O @ @ O @ O @ @ @ + @ @ + @ O @ @ O O @ * + + + + + @ O @ + @ O @ + + @ + + @ O + + O @ + + + @ + + @ + @ O + + + + * * * * * - * * = = ; > y 7 t N H  .a.d.z.V.Z.Z.F.Z.F.F.Z.Z.F.F.Z.Z.Z.Z.Z.Z.Z.V.V.z.z.k.k.s.s.p.....| | | ` ` ) ) ` ) ) ) ) ` ` ` ` ` ` ` ` ) ) S Z Z m b 0 2 < % X X X   . . O @ ; 5 e t F ] +.l.C.Z.H.H.H.H.H.H.F.Z.Z.V.V.z.k.k.s.p.p.p.p.p.p.s.p.s.p.p.p.p...............",
"............p.p.p.s.s.s.s.s.s.k.k.k.k.s.s.s.s.s.p.p.........| ....| ..| | | | ..| | | | | | | | ` | ` | ` ` ) S S S S Z Z S S S S S S S S Z S Z Z Z m m m m b b b b b b m Z Z Z S ) ) S Z Z m m b b b b b m m m m Z Z m m m m b 0 0 8 2 < % # X       . o + = = 5 7 t V ]  .d.x.V.Z.F.F.F.Z.Z.Z.Z.V.V.z.z.k.k.k.s.k.k.z.V.V.Z.Z.Z.Z.V.z.k.s.p.....| | ` ` ) ) S m b 0 2 < # X X   . o * * - ; 5 > > ; ; = = = = @ @ @ @ @ @ @ @ @ * * * @ = = = @ = = @ @ @ @ @ @ @ = @ @ @ * * @ @ = = @ = @ = * * * * = = = * * * * * * * * * * = = * = * * * * @ * * * * * = @ * * * = = * @ * = * = = = * * = = * = = = * * = = @ @ @ = = = @ * * * * * = * * * * * * = = * * * * * * * * = * * * * = * = = * * = = * * * * * * = * * = * * * * * * * * * * * * * = * * = * - * - = = = = > ; ; y 7 t V H ' X.k.z.V.Z.Z.Z.Z.Z.F.Z.F.Z.F.F.Z.Z.Z.Z.Z.V.V.V.V.z.z.k.k.s.s.p.p...| | ` ` ` ) ) ) ) ) ) ) ) ) ` ` ` ) ) ) S S Z m b b 8 2 < % # X     . O O @ = 5 7 t F { X.l.V.F.F.H.H.H.H.H.F.F.Z.Z.V.z.k.k.s.s.p.s.p.p.s.p.s.p.p.p.p.p...............",
"..........p.p...p.p.p.s.s.s.k.s.s.k.k.k.k.k.s.s.s.s.p.p.p.........| | | | | | | | ....| | ..| | | | | ` ` ) ) ) S S Z S Z S Z S S S S S S S S Z Z Z Z Z m m m b b b b b m m Z S S S S S S Z m m b b b b b m m m Z m Z Z m m m m b 0 0 2 < % # X       . o O @ ; 5 7 t F ]  .d.z.Z.Z.F.F.F.F.F.Z.Z.V.V.z.z.k.s.k.s.k.k.z.V.V.Z.Z.Z.Z.V.V.z.k.s.p...| | | ` ) ) S Z b 0 2 % # X X   X o o * = 5 ; > 5 > ; > ; ; ; = > ; ; ; ; ; = ; ; ; = ; = = ; ; = ; = ; ; ; ; ; = ; = ; ; = ; ; ; = ; ; ; ; = ; = ; ; ; = = ; ; ; ; = ; ; ; ; = ; ; ; = ; ; ; ; ; ; ; ; ; ; ; ; ; ; ; ; = ; ; = ; ; ; ; = ; ; ; = = ; ; ; = ; = ; ; ; ; ; ; = ; ; ; ; ; ; ; ; ; ; ; = ; ; - = ; ; ; ; ; ; ; ; ; ; ; = ; ; = ; ; ; = ; ; ; ; ; ; ; ; ; ; ; ; ; ; ; ; ; ; ; ; = ; ; ; ; ; ; ; ; ; ; ; ; ; ; ; > > > 5 e t N H ' a.d.z.V.Z.Z.Z.F.F.Z.Z.F.Z.F.Z.F.F.Z.Z.Z.Z.Z.V.V.V.z.z.k.k.s.p.p.p...| | ` ` ` ) ) ) S ) ) ) ) ` ) ) ) ) S S Z Z m b 0 8 2 % # X X     . . @ * = ; 7 t G ]  .d.C.A.H.J.J.J.H.H.H.F.F.Z.V.z.z.k.s.s.s.p.s.p.p.s.p.s.p.p.p.p.p...p.........",
"............p.p.p.p.p.s.s.k.s.k.k.k.k.k.k.k.k.s.s.s.p.p.p.......| | | | | | | | | ..| ....| | | | | | ` ` ` ) ) ) S S S S Z S S Z S Z S Z Z S Z Z Z Z Z Z m m b b b b m m Z Z S S S S S Z Z m m b b b b b m m Z Z Z Z m Z m m b b 0 8 2 < % # X X     . O O = ; 5 7 t V ]  .d.z.A.Z.F.F.F.F.F.Z.Z.Z.V.V.z.k.s.s.s.k.k.k.z.V.V.Z.Z.Z.V.z.z.k.s.p.p...| | ` ` S S Z b 0 2 < % X X   o o + * ; ; y 5 5 y y 5 5 5 5 5 5 5 5 5 5 5 5 5 5 5 5 5 5 5 5 5 5 5 5 5 5 5 5 5 5 5 5 5 5 5 5 5 5 5 5 5 5 5 5 5 5 5 5 5 5 5 5 5 5 5 5 5 5 5 5 5 5 5 5 5 5 5 5 5 5 5 5 5 5 5 5 5 5 5 5 5 5 5 5 5 5 5 5 5 5 5 5 5 5 5 5 5 5 5 5 5 5 5 5 5 5 5 5 5 5 5 5 5 5 5 5 5 5 5 5 5 5 5 5 5 5 5 5 5 5 5 5 5 5 5 5 5 5 5 5 5 5 5 5 5 5 5 5 5 5 5 5 5 5 5 5 5 5 5 5 5 5 5 5 5 5 5 5 5 5 5 5 5 ; 5 ; ; > > ; > y y 7 t N ] ' X.k.z.V.Z.Z.F.Z.Z.Z.F.Z.Z.F.F.Z.Z.F.Z.Z.Z.Z.Z.V.V.V.z.z.z.k.s.p.p.....| | ` ) ) ) S S S S ) ) ) ) ) ) S S Z Z m m 0 0 2 < < # X       . O O = ; 5 7 t V { X.l.V.Z.H.H.H.H.J.H.H.H.F.Z.Z.V.z.k.s.s.s.p.p.p.s.p.s.p.s.p.p.......p.........",
"..........p.p.p.p.s.p.s.s.s.s.k.k.k.k.k.k.k.k.s.s.s.s.p.p.......| | | | ` | | | ..| ........| ..| | | ` ` ` ) ) ) S S S S Z Z Z Z S Z Z Z S Z Z Z Z Z Z m m b m b b b b b m Z Z S S S S Z Z m m b b b b m m m Z m Z Z Z Z m m b b 0 8 2 < % # X   X . . . @ * = 5 7 t F ]  .a.x.V.Z.F.F.H.F.F.F.Z.Z.V.V.z.k.k.k.s.s.k.k.z.V.V.Z.V.V.V.z.k.k.s.p.....| | ` ) ) Z m b 0 2 % # X X     o o * = ; ; y y i 5 i 5 7 7 7 e 7 7 7 7 7 7 7 7 7 e 7 7 7 e 7 7 7 7 7 e 7 7 7 7 7 7 7 7 7 7 6 7 7 7 7 7 7 7 7 6 7 e 7 e 7 7 7 7 7 7 7 7 7 7 7 7 e 7 7 w 7 7 7 7 7 7 7 7 7 7 7 w 7 7 7 7 7 7 7 7 e 7 e 7 7 7 7 7 7 7 7 7 7 e e 6 7 7 7 7 7 7 e 7 7 7 6 7 e 7 7 7 7 7 e 7 7 7 7 7 7 e 7 7 7 7 7 e 7 7 7 7 7 w e 7 7 7 7 7 e 7 7 7 7 6 7 7 7 7 7 7 e 7 7 7 7 e 7 e 7 7 7 7 7 5 5 5 y y > > > > > > 5 7 t N D ' a.l.z.V.Z.Z.Z.F.Z.F.Z.F.F.F.Z.F.F.Z.F.Z.Z.Z.Z.Z.Z.V.V.V.z.k.k.s.s.p.....| ` ` ` ) S ) S S S ) ) ) ) ) S S Z Z m b 0 8 8 < % # X X     . . + @ = 5 7 t F ] +.d.C.F.H.J.J.J.J.H.H.F.F.Z.V.V.z.k.k.s.s.p.s.p.s.s.p.p.p.p.p.p.p.p.......p...",
"......p.p...p.p.p.s.s.s.s.s.k.k.k.k.k.k.k.k.k.k.s.s.s.p.p.p...| | | | ` | | | | | ....| ..| ....| | | | ` ` ` ) ) ) S S S S S Z Z Z Z Z Z Z Z Z Z Z Z Z m m b b b b b m m Z Z Z S S S S Z Z m b b b b m b m m m Z Z m Z m m m b b 0 0 2 < % # X       . . @ * ; 5 7 t V ]  .d.x.V.Z.F.H.F.F.F.F.Z.Z.Z.z.z.k.k.s.s.s.k.k.z.z.V.V.V.V.z.z.k.s.p.p...| | | ` ) ) S Z b 0 2 < # X X   o o $ * * ; 5 5 y 7 e e t r t t t t t t t t t t t t t t t t t t t t t t t t t t t t t t t t t t t t t t t t t t t t t t t t t t t t t t t t t t t t t t t t t t t t t t t t t t t t t t t t t t t t t t t t B t t t t t t t t t t t t t t t t t t t t t t t t t t t t t t t t t t t t t t t t t t t t t t t t t t t t t t t t t t t t t t t t t t t t t t t t t t t t e e e i 7 y y y y > > > > > 5 7 t V H ' a.s.z.V.Z.Z.F.Z.Z.F.F.Z.F.Z.Z.F.Z.Z.F.Z.F.Z.Z.Z.Z.Z.Z.V.V.z.z.k.s.p.p...| | ` ` ) ) ) S ) ) ) ) ) ) ) S Z Z m m b 0 8 2 2 % # # X     . o + @ ; 5 5 t G { +.l.V.F.H.H.J.J.J.H.H.F.F.Z.Z.V.z.k.k.s.s.s.s.s.p.s.p.s.p.p.p.p.p.p.....p.p...",
"....p.....p.p.p.s.s.s.k.k.k.k.k.k.z.k.k.k.k.k.s.k.s.s.p.p.p.....| | ` | ` | | | | ..................| | | | ` ` ` ) ) ) S S S S S Z Z m Z Z Z Z Z Z m Z m m m b b b b b b m m Z Z Z Z Z Z m m m b b b b b m m Z m Z Z m m m m m b 0 0 2 < % # X X     . o O = = 5 7 t F ] +.d.x.V.F.F.F.H.F.F.F.Z.Z.V.V.z.k.s.s.s.s.k.k.k.z.z.z.z.z.z.k.s.p.p.....| | ` ` ) ) S Z b 0 2 < # X       . o * = ; 5 5 i e t t C N V V V F V F V V V V V V V V V V V V V V V V V V V V V V V V V V V V F V V V V V V V V V V V V V V V V V V V V V V V V V V V V V V F V F V V V V V V V V V F V F V V V V V V V V N V F V V F V V V V V V F V V V V V V V F V V V V V F V V V V F V V F V V F V V F V F V V F V V V V V V V V V V V F V V V V F F V F V V V V F V F F V V V N C t e e 7 y y > > > > > y 5 7 t N H  .X.d.z.V.Z.Z.Z.Z.F.Z.Z.F.Z.F.Z.Z.Z.Z.Z.Z.Z.Z.F.Z.Z.Z.Z.V.V.z.z.k.k.s.p.p...| | ` ` ) ) ) ) ) ) ) ) S S S S Z Z b b 0 0 2 < % # X       . . O * = 5 e B F ] X.l.A.F.H.J.J.J.H.H.H.F.Z.Z.Z.V.z.z.k.k.k.s.s.s.s.p.s.s.p.p.p.p.p.p.p.p.p.p...",
"p...p...p.p.p.s.s.s.k.k.k.k.k.k.z.k.z.k.k.k.s.k.s.s.s.p.p.p.......| | ` | | | | ..| ..................| | | | ` ` ` ) ) ) S S Z Z Z m Z m Z m m Z m Z m m m m b b b b b m m m Z Z Z Z m Z m m m b b b b b m m m m m Z m m m m m b 0 8 8 2 % # X X X . . . + @ = 5 7 t V ]  .d.z.V.Z.F.H.H.F.F.F.Z.Z.V.V.z.z.k.k.s.s.s.k.k.z.k.z.z.k.k.s.p.p...| | | ` ` ` ` ) S Z m 0 2 < # X X   . . o * * ; 5 i e t B C F H H ] ] H ] H _ H H ] H D H ] H ] H H H ] H D ] D H ] H H _ H H H H ] H H D H H H D H ] H H _ H ] H H _ H H H ] D ] ] H ] H ] H ] H ] H ] H ] H D ] H ] D H ] H H ] D ] H H ] H D ] ] H D H ] H H ] ] H ] H ] H D ] H ] D H ] H H ] H ] H D ] H H H _ ] H ] H ] H ] H ] D ] ] ] H ] H H ] H ] H D ] H H ] H H ] ] H ] H ] H H ] ] ] ] D ] H H V C B e i 5 i > > > > > > y 7 t V H  .a.s.z.V.Z.Z.Z.F.Z.Z.F.Z.Z.F.Z.Z.Z.Z.Z.Z.Z.Z.Z.F.F.F.Z.Z.Z.V.z.z.k.k.s.s.p...| | ` ` ) ) ` ) ) ) ) ) S S S Z m m b 0 8 2 < % # X X     . . + @ = 5 7 t G { a.l.A.F.H.J.J.J.H.H.F.F.Z.Z.Z.V.z.z.z.k.k.s.k.s.s.s.p.p.s.p.s.p.p.p.p.s.p.p.s.",
"..p...p.p.p.p.s.s.k.k.k.k.z.z.k.k.k.k.k.k.k.s.s.s.s.s.p.p.....| | | ` ` ` ` | | | | ....| ................| | | | ` ` ) ) S S Z Z m m m m m m m m m m m m b b b b b b b b m m m m Z Z m m m b b b b b b m b b m m m m m m m b b b 0 0 2 < % # X X     . . + = ; 5 7 t F ]  .d.x.V.Z.F.F.F.F.F.F.Z.Z.Z.z.z.k.s.s.s.s.s.s.s.k.k.k.k.k.s.p.p...| ` ` ` ) ` ) ) ) S Z m 0 8 < % X X   . . O * = 5 5 5 t B V F ] { '  . . . . . . .' '  . .'  .' '  . .' '  .'  . .' '  .'  . . . . .'  . . . . . . .'  . .'  .' '  .'  . . .'  .'  . . .'  .'  . . .'  .'  . . .'  .'  . . . . .'  .'  . . . . . . . . . . . . .'  .'  . .'  . .'  .'  . . . . .'  . .'  . . . . . . .'  . . . . . . . . . . .'  . . . . .' '  .'  . . . . .'  . .'  .'  . . . . . . . . .' ] H F N t f i y y , : , > > y 7 t N D ' X.k.z.V.Z.Z.Z.F.F.Z.F.Z.Z.Z.Z.Z.V.Z.Z.Z.Z.Z.F.F.F.F.F.F.Z.Z.V.V.z.k.k.s.p.p.....| ` ` ` ` ) ` ` ) ) ) S Z Z m m b 0 8 8 < % # X       . . + * = 5 e t F { +.x.V.F.H.J.J.H.H.H.F.Z.Z.V.V.V.V.z.z.z.k.k.k.s.s.p.s.p.p.p.p.p.s.s.p.p.s.p.s.",
"....p.p.p.p.s.s.s.k.k.k.k.z.k.k.k.k.k.s.k.s.s.s.p.p.p.p.....| | ` ` ` ` ` ` ` ` | | | | ....| ............| ..| | ` ` ` ) ) S Z Z m m b b b m b m m b b b b b b b b b b b b b m m m m m m b b b b b b b b b b m m b m b m b b b b 0 8 8 2 % # X       . o O @ ; 5 7 t V ] +.d.x.V.Z.F.H.F.H.F.Z.Z.Z.Z.V.z.k.s.s.s.s.s.s.s.k.k.k.s.s.p.p...| ` ` ) ) ) ) ) ) ) S Z m 0 2 < % X X     . O @ * 5 5 e t C F ] '  .X.a.a.d.a.a.a.X.a.a.a.a.a.a.a.a.a.a.a.a.a.a.X.a.a.a.a.a.a.a.a.a.X.X.a.a.a.a.a.a.a.a.a.a.a.a.a.a.a.a.a.a.a.a.a.a.a.X.a.a.a.a.a.a.a.a.a.a.a.a.a.a.a.a.a.a.a.a.a.a.a.a.a.a.a.a.a.a.a.a.a.a.a.a.a.a.a.a.a.a.a.a.a.a.a.a.a.a.a.a.a.a.a.a.a.a.a.a.a.a.a.a.a.a.a.a.a.a.a.a.a.a.a.a.a.X.a.a.a.a.a.a.a.a.a.a.a.a.a.a.a.a.a.a.a.a.a.a.a.a.d.a.a.a.X. .{ H V B e 7 y y : : : > 5 y 7 t V H ' a.d.z.V.Z.Z.Z.Z.Z.Z.Z.Z.Z.Z.Z.Z.Z.V.Z.Z.Z.F.Z.F.F.F.F.F.F.Z.V.V.V.z.k.k.s.p.p.....| ` | ` ` ` ) ) ) ) S Z Z m m b 0 8 2 < % # X X     . . + * = 5 5 t F { a.l.A.F.H.J.H.H.F.Z.Z.Z.V.V.z.z.z.z.z.z.k.k.s.s.p.s.p.p.p.p.p.p.p.s.s.s.s.s.s.",
"..........p.p.p.s.s.k.k.k.k.k.k.k.s.s.s.s.s.p.p.p.p.p.......| | ` ` ` ` ) ` ` ` ` ` | | | | | ..| ....| | ..| | | ` ` ` ) S Z Z m m b b b b b b b b b b b b b b b 0 b b b b b b b b b b b b b b b b b 0 b b b b b b b b b b b b 0 0 8 2 < % # X X     . O + * = 5 7 t F ]  .d.k.V.F.F.F.H.F.F.F.Z.Z.V.V.z.k.k.s.s.p.s.s.s.s.s.s.s.p.p...| ` ` ) ) S ) ) ) ) ) S S m b 8 < % X X   . o O * * 5 5 e t C H ' X.a.s.l.k.k.k.l.k.k.k.k.d.k.l.l.k.d.k.k.l.l.l.l.k.k.l.l.k.s.l.k.d.k.k.k.k.l.l.d.k.s.l.l.s.l.k.l.k.d.k.d.k.l.l.k.d.k.l.k.k.d.k.s.k.l.s.k.d.k.l.s.l.k.l.k.l.s.l.l.k.d.k.l.k.l.l.s.l.k.d.s.l.k.d.l.k.d.k.k.d.k.l.s.l.k.l.k.l.s.l.l.k.d.k.k.l.k.d.d.k.l.k.l.k.l.s.k.l.k.d.s.l.k.l.k.s.l.k.k.d.k.l.k.d.k.l.s.k.l.s.k.l.k.l.l.s.k.d.k.k.l.k.x.k.s.d.X. ._ F B t 7 5 > > : : > > 5 7 t N H ' X.l.z.V.Z.Z.Z.F.F.F.Z.F.Z.Z.Z.Z.V.Z.V.Z.Z.Z.F.F.F.F.F.F.F.Z.Z.Z.V.z.z.k.k.s.s.p.....| | ` ` ` ` ` ) S S S Z m m b 0 8 8 2 % # X       . O O @ ; 5 7 t F ] +.l.V.A.F.H.F.F.Z.Z.V.z.z.z.z.z.k.z.k.k.k.s.s.s.p.p.p.p...p...p.p.p.p.p.p.p.p.",
"| | | | ......p.p.s.s.s.s.s.s.s.s.p.p.p...p.........| | | | ` ) ) ) ) ) ) ) ) ) ) ` ` ` ` ` | | | | | | | | | ` ` ` ` ) S Z Z Z m b 0 0 0 0 0 0 0 0 b 0 0 0 0 b 0 0 0 0 0 0 0 b 0 0 0 0 b 0 0 0 0 0 0 0 0 b 0 0 0 0 b 0 0 b 0 0 0 0 8 2 < % # X X     . o O = ; 5 7 t V ]  .d.x.Z.Z.F.H.F.F.F.F.F.Z.V.V.z.k.k.s.s.p.s.s.s.s.s.s.p.p...| ` ` ) S S S S ) ) ) ) S S m b 8 < # X     . . O @ * ; 5 e B F ]  .a.s.k.x.V.z.z.z.z.V.z.z.z.z.z.z.z.V.z.z.z.z.z.V.x.V.z.x.z.z.z.z.z.V.z.z.z.z.x.z.V.V.z.z.z.z.z.z.z.V.z.z.x.z.z.z.V.z.z.x.z.z.z.z.z.z.z.x.z.z.z.z.z.z.z.z.z.z.z.z.z.z.z.z.z.z.z.z.x.z.z.z.z.z.z.z.z.z.z.x.z.z.z.z.z.z.z.z.z.z.z.z.z.z.z.z.z.x.z.z.x.z.z.z.z.z.z.x.z.z.z.z.x.z.z.z.z.x.z.z.z.z.x.z.z.z.z.z.z.x.z.z.z.z.z.z.z.z.z.z.z.V.V.z.z.z.l.a.X._ H N t 7 5 > > : : > > 5 7 t N ] ' a.s.z.V.Z.Z.F.Z.F.Z.Z.F.Z.Z.Z.V.Z.Z.V.Z.Z.Z.F.F.H.H.F.H.F.F.F.Z.V.V.V.z.k.k.s.p.p.....| | ` ` ` ) ) ) S S Z m m b b 0 2 < % # # X     . o O * ; 5 7 t G ]  .d.x.V.Z.Z.Z.Z.V.z.z.k.k.k.k.s.k.k.s.s.s.p.p.p...........| ............p...p.",
"` ` ` ` ` | | | ..p...p.p.p.p.........| | | | | | ` ` ` ` ) ) ) S S S S S S S S S S ) ) ) ) ) ) ` ` ` ` ` ` ` ) ) ) S S S Z m b b 0 0 0 8 0 0 8 0 0 8 8 0 8 0 8 8 0 0 8 0 0 8 8 8 0 0 8 8 0 8 0 8 0 0 8 8 0 0 8 0 8 8 0 0 8 0 0 8 8 8 < < # X X   X . . O + * ; 5 7 t F ] X.a.z.A.Z.F.F.F.H.F.Z.Z.Z.V.V.z.k.k.s.s.p.p.p.p.s.p.p.p.....| ` ) ) S S S S S ) S ) S Z m b 8 2 % X X X . . O @ = ; 7 e B F ]  .d.l.V.V.Z.Z.Z.Z.Z.V.V.Z.V.Z.V.V.V.Z.V.Z.V.Z.V.V.V.V.V.Z.V.Z.V.V.V.Z.V.Z.V.Z.V.V.V.V.V.Z.V.Z.V.V.V.Z.V.Z.V.V.Z.V.V.V.V.V.V.V.V.V.V.V.V.V.V.V.V.V.V.V.V.V.V.V.V.V.V.V.V.V.V.V.V.V.V.V.V.V.V.V.V.V.V.V.V.V.V.V.V.V.V.V.V.V.V.V.V.V.V.V.V.V.V.V.V.V.z.V.V.V.z.z.V.z.V.V.z.z.V.z.z.z.V.z.V.V.V.V.Z.Z.V.V.V.V.V.V.V.V.V.V.V.V.V.V.V.V.V.V.V.V.V.z.k.p.X._ D N w 6 5 ; = : : ; > y 7 r N H ' a.d.z.V.Z.F.Z.F.F.F.F.F.F.Z.Z.Z.V.V.Z.V.Z.Z.Z.F.F.F.F.F.F.F.F.Z.Z.Z.V.z.z.k.s.s.p.......| | ` ` ) ) S S Z Z m m b 0 8 2 < % # X X     . . @ * = ; 7 r N H  .X.d.x.z.V.z.z.k.s.s.p.p.p.p.p.p.p.p.p.p.....| | | | ` ` ` | | | | ..| ..| ..",
"S ) S ) ) ) ) ` ` ` ` | | | | ` ` ` ) ` ) ) ) ) S ) ) S S S Z Z Z m m m m m m m Z Z Z S S S S S S S S S S S S S S Z Z m m b b 0 8 8 2 2 2 2 8 2 2 2 2 8 8 2 2 2 8 2 8 2 2 2 2 8 2 8 2 8 2 8 2 8 2 8 2 8 2 2 2 8 8 2 8 2 8 8 8 2 8 2 2 < % # X X       . o O * = 5 7 t V ]  .d.x.V.Z.F.F.H.H.F.F.Z.Z.V.V.z.k.s.s.s.p.p.p.p.p.p.p.p...| | ` ) S S S S S S ) S ) S S m b 8 < % X X   . . O + * ; 5 e N F ' ..d.z.V.Z.Z.Z.Z.Z.Z.Z.Z.Z.Z.Z.Z.Z.Z.Z.Z.Z.Z.Z.Z.Z.Z.Z.Z.Z.Z.Z.Z.Z.Z.Z.Z.Z.Z.Z.Z.Z.Z.Z.Z.Z.Z.Z.Z.Z.Z.Z.Z.Z.Z.Z.Z.Z.Z.Z.Z.Z.Z.Z.V.Z.V.Z.V.V.Z.V.V.Z.V.V.V.Z.V.V.V.V.Z.V.V.V.V.Z.V.V.Z.V.Z.Z.V.V.V.Z.V.V.Z.V.Z.Z.V.Z.V.V.V.Z.V.V.V.Z.V.V.V.Z.V.V.V.V.V.V.z.V.V.V.z.V.V.z.V.z.z.z.z.V.V.V.V.V.Z.Z.Z.Z.Z.Z.Z.Z.V.V.V.V.V.V.V.Z.V.V.V.V.V.V.Z.V.V.z.k.d..._ A N w 6 ; = = : : : ; 5 7 t V H  .X.k.z.V.Z.Z.F.F.F.F.F.F.F.Z.Z.Z.V.Z.V.V.V.Z.Z.F.F.F.H.F.F.F.F.F.Z.Z.Z.V.z.k.k.s.p.p.....| | ` ` ) ) S S Z Z m m b 0 0 8 < % # X X     . o + * ; ; 7 e B F _  ...p.s.s.s.p.....| | | | | | | | | | | ` ` ) ) S ) S ) S ) ) ) ) ) ` ` ` ) ",
"m m m Z m Z Z Z S S S ) S S S S S Z S Z Z Z Z Z Z Z m m m b m b b b b 0 b 0 b b b b b b b b b m m m m m m m m m b m b b 0 0 8 2 2 2 2 < < < < < < < < < < 2 < < < < < 2 < < < < < < < < < < < < < < < < 2 < < < < < 2 < < 2 < 2 < < % % # # X X       . o @ * ; 5 7 t F ]  .a.z.V.F.F.H.F.F.F.F.Z.Z.V.z.z.k.s.s.p.p.p.p.p.p.p.......| | ` ) S S S Z S S S ) S S Z m 0 8 < # X X   . . O @ * 5 5 e C F {  .d.x.V.Z.Z.F.F.F.F.F.F.F.F.F.F.F.Z.F.F.F.Z.F.F.F.F.F.F.F.F.F.Z.F.F.F.F.F.F.F.F.F.F.F.F.F.F.F.F.F.F.F.F.Z.F.Z.F.Z.Z.Z.Z.Z.Z.Z.V.Z.Z.V.Z.V.Z.Z.Z.V.Z.Z.V.V.Z.Z.V.Z.V.Z.Z.Z.Z.V.Z.V.Z.Z.V.Z.Z.Z.Z.V.Z.V.Z.Z.V.Z.V.Z.Z.Z.Z.Z.Z.Z.Z.V.Z.V.Z.V.V.Z.V.V.V.V.V.V.z.z.V.z.z.z.z.z.z.z.z.z.z.V.V.Z.Z.Z.Z.F.F.F.Z.Z.Z.Z.V.V.V.Z.V.V.V.Z.Z.Z.V.Z.V.V.V.z.k.p.| _ A q 3 4 * = = @ = = > 5 7 t N H ' a.d.z.V.Z.F.F.H.F.H.H.F.F.F.F.Z.Z.V.V.Z.Z.Z.Z.Z.F.F.F.F.F.F.F.F.F.Z.Z.V.V.z.k.k.s.p.....| ` ` ` ) ) S Z Z Z m m b 0 8 2 2 % # X X     . o + * = 5 5 e r N A D ) ` ` | ` ` ` ) ) S S S S S S ) S S S S S Z Z m m m m Z m Z Z Z Z Z Z Z S ",
"0 0 0 0 b 0 b b b m m m m m m m b b b b b 0 b b 0 0 0 0 0 8 0 8 8 8 8 8 8 8 2 8 8 8 8 8 0 8 0 0 0 0 0 0 0 0 0 8 0 8 8 8 2 2 2 < < % % % % % % % % % % % % % % % % % % % % % % % % % % % % % % % % % % % % % % % % % % % % % % % % % # # X X X         . o + * ; 5 7 t V ]  .d.x.V.F.F.H.H.F.F.F.F.Z.V.V.z.k.s.s.p.p.p.p.p.p.p.p.....| | ) ) S S Z S Z S S S S S Z b 0 8 < # X X     . O @ = ; 7 e B H _ X.d.z.V.Z.F.F.F.F.F.F.F.F.F.F.F.F.F.F.F.F.F.F.F.F.F.F.F.F.F.F.F.F.F.F.F.F.F.F.F.F.F.F.F.F.F.H.F.F.F.H.F.F.F.F.F.Z.Z.F.Z.Z.Z.Z.Z.Z.Z.V.V.Z.Z.Z.V.Z.V.Z.Z.Z.Z.V.Z.V.Z.V.Z.V.Z.Z.V.Z.V.Z.Z.Z.V.Z.Z.Z.V.Z.Z.V.Z.Z.V.V.Z.Z.V.V.Z.Z.V.Z.V.Z.V.V.Z.V.V.V.V.V.V.z.z.z.z.z.z.k.z.z.k.k.k.z.z.z.V.Z.Z.F.F.F.F.F.Z.Z.Z.V.V.V.V.V.V.Z.V.Z.V.V.Z.V.V.V.z.k.s.p.` S M q 3 1 * @ @ @ @ = > y 7 t N ] ' a.d.z.Z.Z.F.F.H.H.H.H.H.H.F.F.Z.Z.V.Z.V.V.Z.Z.Z.Z.F.F.F.F.F.H.F.F.F.F.Z.V.z.z.k.s.p.....| ` ` ` ) ) S S Z m m b b 0 0 2 < % # #       . o o * - 5 5 7 w r n M M Z Z Z Z Z m m m b b b b b m b b b b b b b 0 0 0 0 0 0 0 b b b b b b b b ",
"2 2 2 2 2 2 8 2 8 8 8 8 8 8 8 8 8 8 8 8 8 2 2 2 2 2 2 2 2 2 < 2 < < < < < < < < < < 2 < < < < 2 < 2 2 < < 2 < 2 < < < < < % % % # # # X # # X X # # # X X # # # # # X # # # X X # # X X # X # # # # # # # # # # # # # # # # # # # # # X X X           . O @ * ; 5 7 t V ]  .d.x.Z.Z.F.F.F.F.F.Z.Z.Z.V.z.k.k.s.p.p.p...........p...| | ` ` ) S S S Z S S S S S S Z m 0 8 < % X     . . O + = ; 5 e B F ] X.d.z.V.Z.Z.F.F.F.F.H.F.F.H.H.H.H.F.H.F.H.F.F.H.H.F.H.F.F.H.F.H.H.F.H.F.H.H.F.H.H.F.H.H.H.F.H.H.H.F.F.H.F.F.F.F.F.F.Z.Z.Z.Z.Z.V.V.Z.V.Z.V.V.Z.V.V.Z.V.V.V.V.V.V.Z.V.Z.V.Z.V.V.Z.Z.V.V.Z.V.Z.Z.V.Z.V.V.Z.Z.V.V.Z.Z.V.V.Z.Z.V.V.Z.Z.V.V.V.V.V.V.V.z.z.z.z.z.z.z.k.k.k.k.s.k.s.s.k.k.k.z.V.V.Z.F.F.F.F.F.Z.Z.Z.V.V.V.V.V.V.V.Z.V.V.V.V.V.V.z.k.k.p...` D b 8 1 & $ o O @ @ = ; 5 7 t N H ' a.s.z.V.Z.F.H.H.H.H.H.H.H.F.F.F.Z.V.V.V.V.Z.Z.V.Z.Z.Z.Z.F.F.F.F.F.F.F.Z.Z.V.z.k.s.p.p.....| ` ) ) S Z Z Z Z m m b 0 8 2 2 % # X X     . o * = ; ; 5 5 7 6 9 q 0 q b 0 0 0 0 8 8 8 8 8 8 2 8 8 8 8 8 8 2 2 2 2 2 < 2 2 2 2 2 2 8 8 8 8 8 ",
"% % % < % % % 1 % < < < < < < % < < % % % < % % % % % % % % % # % % # % # % # & # % # % % % % % % % % % % % % % % % % # % # # # # X X X X X X X X X X X X X X X X X X X X X X X X X X X X X X X X X X X X X X X X X X X X X X X X X X X               . o + * ; 5 7 t G ]  .d.x.V.Z.F.H.H.F.F.F.Z.Z.V.z.k.k.s.p.p.......p...p.......| ` ` ) S S Z Z S Z S S S S Z b 0 2 < # X X . . . O + = ; 7 e C F '  .d.l.V.Z.Z.F.F.F.H.F.H.F.H.H.F.F.H.H.H.F.H.H.H.H.F.F.H.F.H.H.H.F.H.H.F.H.F.H.H.H.H.H.F.F.H.H.F.F.H.F.H.F.F.F.F.F.Z.Z.Z.Z.Z.Z.V.Z.V.V.V.Z.V.V.V.V.V.V.V.V.V.V.Z.Z.V.V.Z.V.V.V.Z.V.Z.Z.V.V.Z.V.V.V.Z.Z.V.V.V.V.V.V.Z.Z.V.Z.V.V.Z.V.V.V.V.V.V.z.z.z.z.z.k.k.k.k.k.k.s.s.s.s.p.s.p.s.s.k.V.V.Z.F.F.F.H.F.Z.V.V.V.V.z.V.V.V.V.V.V.V.V.V.z.z.k.k.s...| ) Z q 3 1 $ o o o O @ = > 5 e t N H  .X.l.z.V.Z.F.H.H.J.H.H.J.H.F.F.Z.Z.V.V.V.V.V.V.V.Z.Z.Z.Z.Z.F.F.F.F.F.F.Z.Z.V.z.k.k.p.p...| | ` ) ) S S Z Z m m b b 0 8 8 < % # X X     . o * = - ; 5 4 4 4 3 3 3 < 2 2 < < < < < < < < % < < < < < < % % % % % % % % % % % % % < < % < % ",
"X # X # # # # # # # # # # # # X # # # # # # # # # # # # X # X X X X X X # X X # # X # X X # X # X # # X # # X # X # X # X X X X X X X X X X X X X X X X X X X X X X X X X X X X X X X X X X X X X X X X X X X X X X X X X X X X X X   X               . o + * = 5 7 t F ]  .d.z.Z.Z.F.F.H.F.F.F.Z.Z.V.z.k.s.s.p...p...............| | ` ) ) S S S S S S S S S Z Z b 0 2 < # # X     . o * = ; 5 e N F ]  .d.k.V.Z.Z.F.F.F.F.H.H.H.H.H.H.H.H.H.H.H.F.H.H.H.H.H.H.H.H.F.H.H.H.H.H.H.H.H.H.F.H.H.H.H.H.H.H.H.H.H.H.H.F.F.F.F.Z.F.Z.Z.Z.V.Z.V.Z.V.V.V.V.V.V.V.Z.V.V.Z.V.V.V.V.V.V.V.V.V.V.V.V.V.V.V.V.V.V.V.V.V.V.V.V.V.Z.V.V.V.V.V.V.V.V.V.V.V.V.V.V.z.z.z.z.z.k.k.k.k.k.s.s.s.s.p.p.p.p.p.s.s.k.z.V.Z.F.F.F.F.F.Z.Z.V.z.z.z.z.z.z.V.V.V.V.V.z.z.k.k.s.p...` D m 0 2 % # X . . O @ = = 5 5 t C H ' a.l.z.Z.Z.F.H.H.J.J.J.J.H.H.F.F.Z.Z.Z.V.V.V.V.V.V.V.V.Z.Z.F.F.F.F.H.F.Z.Z.V.z.z.s.s.p...| | ` ) S S Z Z m m m m b 0 8 8 < % # X     X o o * * ; 5 ; ; 5 - & & & & # % % # % # # # # # # # # # # # # # # # X # # # # X # # # # X # # # # ",
"X X   X   X   X X X X X   X X X X X X   X X       X         X   X X X   X   X X X X X X X X X X X X X X X X X X X X X X X X X X X X X X X X X X X X X X X X X X X X X X X X X X X X X X X X X X X X X X X X X X X X X X X X X X X X X     X           o + + * ; 5 7 t V ]  .d.x.V.Z.F.F.F.F.F.F.Z.V.V.V.k.k.p.p.p.................| | ` ` ) ) S S S S S S S Z Z Z b 0 2 < # X     . . O + * ; 7 e B F '  .d.k.V.Z.Z.F.F.H.F.H.H.H.H.H.H.H.H.H.H.H.H.H.H.H.H.H.H.H.H.H.H.H.H.H.H.H.H.H.H.H.H.H.H.H.H.H.H.H.H.H.F.F.F.F.F.F.Z.Z.F.Z.Z.Z.V.V.V.Z.V.V.V.V.V.V.Z.V.V.V.V.V.V.V.V.V.V.Z.V.V.V.V.V.V.V.V.V.V.V.V.V.V.V.V.V.V.V.V.Z.V.Z.V.V.V.V.V.V.V.z.z.z.z.z.z.k.k.k.k.s.s.s.p.p.p.p.p.....p.p.s.k.k.V.V.Z.F.F.F.Z.Z.V.V.z.z.z.z.z.z.z.V.V.z.z.z.z.k.k.s.....) S m 0 < % X     . O + = = 5 7 t C H  .X.k.z.V.F.F.H.H.H.J.J.H.H.H.F.F.Z.Z.V.V.V.V.V.V.V.V.Z.Z.Z.Z.F.F.F.F.F.F.Z.V.z.k.s.s.p...| ` ` ) ) S Z Z Z m m b b 0 0 2 < % # # X     . o * * ; ; ; ; 4 - & $ # # # # # # X # # # # # # X # # # # X # # X # X # X X X X X X X   X     X ",
"        o                               .       .       o           .           X X X X X X X X X X X X # X X # X # X # # # X # # X X # # # # # # # # # X # # # # # # # # # # # # # # # # # # # # # # # X X X # # X X X X # X X X X X X X   X       o o + * * ; 5 7 t V ]  .a.k.A.Z.F.F.H.F.F.F.Z.Z.V.z.z.s.s.p...............| ..| | | ` ) ) ) S S S S S S S Z m b 0 2 < # X X   . o O @ ; 5 5 e B F _  .d.k.V.Z.Z.F.H.H.H.H.H.J.H.H.H.H.J.H.H.H.J.J.H.J.H.H.J.J.H.H.H.J.H.J.H.H.H.H.H.H.F.H.H.F.H.H.H.H.F.F.H.F.H.F.F.F.F.Z.F.Z.Z.Z.V.V.Z.V.V.V.Z.Z.V.V.Z.Z.Z.Z.Z.Z.Z.Z.Z.V.Z.V.V.V.V.V.V.z.V.V.V.V.V.z.V.V.V.V.V.V.V.V.V.V.V.V.V.V.V.V.V.V.z.V.z.z.k.z.k.k.k.s.s.s.s.p.p.p.p...p...p.p.p.s.k.z.V.Z.Z.Z.Z.Z.V.V.z.z.k.z.k.z.z.z.z.V.V.z.z.z.k.s.s...| ` S b 8 2 # #     . . O @ ; 5 7 t N H ' a.d.z.V.Z.F.H.H.H.J.J.H.H.H.F.F.Z.V.Z.V.V.V.V.V.V.V.V.Z.Z.Z.F.F.F.F.Z.Z.Z.V.z.k.k.s.p.....| ` ) S S Z Z m m m m b 0 0 2 2 % # X X   X . o * * ; ; 5 ; ; = & & # # # # # # # # # # # # % # # # # # # # # # # # # # # X X X X             ",
". . .     . .   . . . . . . . . . . . . . .   . . .   .   . . . . . .         X X # # X # # # # # # # # # # % # % # % % % % % % % % % % % % % % % < < < % < < < < < % < < < % < < % % < < % < % % % % % % % % % % % % % % # % % # # # # # X X   o o o + + @ = ; 5 7 t F ]  .d.x.V.Z.F.F.F.F.F.F.F.Z.V.z.k.k.p.p.....................| | ` ` ` ) ) ) S ) ) S S Z Z b 0 2 < # X X X . . O + * ; 7 e B F { X.d.z.V.Z.F.F.F.H.H.H.H.H.H.J.J.J.H.J.H.J.H.J.H.J.J.H.H.H.H.H.H.H.H.H.H.H.H.H.F.H.H.F.F.F.H.F.F.F.F.H.F.F.F.F.F.F.F.Z.Z.Z.Z.Z.Z.Z.V.Z.V.Z.Z.Z.Z.Z.Z.Z.Z.Z.Z.Z.Z.Z.Z.V.V.Z.Z.V.V.V.V.V.V.V.z.V.V.V.V.V.V.V.V.V.V.V.V.Z.V.V.V.V.V.V.V.V.V.z.z.z.z.k.k.k.k.s.s.p.p.p.p.p.p...p.....p.p.s.k.z.z.V.Z.Z.Z.V.V.z.z.z.k.k.z.z.z.V.z.V.z.z.z.k.k.s.p...| ) S b 0 < % #   . . . + * = 5 7 t V H ' X.k.z.V.Z.F.F.H.H.H.H.H.H.F.F.Z.Z.V.V.V.V.V.V.V.V.V.V.Z.V.Z.Z.Z.Z.Z.Z.Z.V.V.z.k.s.s.p.p.| | ` ) S S Z Z m m m b b 0 8 2 < % # X       . o * * ; ; ; 5 4 4 & 1 % < < % % < < < < < < < < < < % % < < % % < % < < % % # # X X X           ",
"o . o o o . o . . O . . . O . . . O . . . . . . . . . . . O . . O . . . o o $ # # # & % % % % % % % % % % % % < < < < < < < < < < < < 2 2 2 2 2 8 2 2 8 8 8 2 8 2 8 8 2 8 8 8 2 8 8 8 2 2 8 2 2 2 2 2 2 2 < 2 2 2 < < < 2 < < < < < % & % $ $ $ $ $ $ + * = ; ; 5 7 t V H  .a.l.V.Z.Z.F.F.F.F.F.Z.V.V.z.k.s.p.p...................| | | ` ` ` ) ) ) ) ) S S S Z m b 8 2 < # X       o O @ = ; 5 e N H ] X.s.x.V.Z.F.F.H.F.H.H.H.H.J.J.H.J.J.J.J.J.J.J.J.J.H.J.J.J.J.J.J.J.H.H.H.H.F.F.H.F.F.F.F.F.F.F.F.F.F.F.F.F.F.F.F.F.Z.F.Z.Z.Z.Z.Z.Z.Z.Z.Z.Z.Z.Z.F.F.F.F.F.F.Z.F.Z.Z.Z.Z.Z.V.V.V.V.V.z.z.V.z.V.V.z.V.z.V.z.V.V.V.V.V.V.V.V.Z.V.Z.V.V.V.V.V.V.z.z.z.k.k.k.s.s.p.s.p.p.p.........p...p.p.s.k.k.z.z.z.V.z.z.z.z.k.k.k.k.k.k.z.z.z.z.z.z.z.k.k.s.s...| ` Z b 0 < % X     . O O * ; 5 5 t N H  .a.l.z.V.Z.F.F.H.F.H.F.H.F.F.Z.Z.Z.Z.V.V.V.V.V.V.V.V.V.V.V.Z.V.Z.Z.Z.V.V.V.z.z.k.s.s.p.....| ` ) S S Z Z Z m m b b 0 8 8 < % % X X     . o * * - 5 5 5 4 4 3 3 3 3 2 8 8 8 8 8 8 8 8 8 8 8 8 8 8 8 2 8 8 8 8 8 2 2 2 < % # X X           ",
"+ $ + o + o + O O o O o O o O O O . O O O O O O O O O O O O O + O O O + o o # & & < < < < 2 < < < 2 < 2 2 2 2 2 8 8 8 8 0 8 8 0 0 8 0 0 0 0 0 0 b b b b b b b b b b b b b b b b b b b b b b 0 0 0 0 0 0 0 0 8 8 0 8 8 8 8 8 8 8 2 2 3 < 1 & & $ $ * * * = = : ; 5 7 t V H  .a.k.V.Z.Z.F.F.F.F.F.Z.Z.V.z.k.s.s.p.................| ..| | | | ` ` ` ) ) ) ) S S Z m b 0 2 % # X X   . . O + * 5 5 e B F { X.d.x.V.Z.F.F.H.H.H.H.H.J.H.J.J.J.J.J.J.J.J.J.J.J.J.J.J.J.H.J.H.J.H.H.H.H.F.F.F.F.F.F.F.Z.F.Z.Z.Z.F.Z.F.F.Z.Z.F.Z.F.F.Z.Z.Z.Z.Z.Z.Z.Z.Z.Z.F.F.F.F.H.F.H.F.F.F.F.F.F.Z.Z.Z.Z.V.V.V.z.z.z.V.z.z.z.z.V.V.z.V.V.V.V.Z.V.V.Z.V.Z.Z.V.V.V.V.V.z.z.z.z.k.k.k.s.s.s.p.p.p.......p.....p.p.p.s.s.k.k.k.z.k.z.k.k.k.k.s.k.k.k.k.z.z.z.z.z.z.z.k.k.s.s...| ` S b 8 < % X X   . O O @ = 5 5 t N ] ' a.d.z.V.Z.Z.F.F.F.F.F.F.Z.F.Z.Z.Z.V.V.V.V.V.V.V.V.V.V.V.V.V.V.V.V.V.V.z.z.z.k.k.s.s.p.....| ` ) S S Z Z m m b b b 0 0 2 < % # X X     o o o * ; ; 5 5 6 w 9 9 0 0 b b b b m m m m m m b m b b b b b b b b b b b 0 8 8 2 % # X X         ",
"* * * * * * * * * @ @ @ @ @ @ @ @ @ @ * @ @ @ * @ @ @ @ @ @ @ @ + @ * * - - 1 1 2 3 8 8 8 8 8 8 8 8 8 8 8 0 0 0 b b b b b b b b b b b b m m m Z Z Z Z Z S Z Z S S Z Z Z Z S Z Z S Z Z Z Z Z Z Z m Z Z m m m m m b m b b b b b 0 0 0 0 8 3 3 1 & - - = = = = ; > 5 7 t C H  .a.l.z.Z.Z.Z.F.F.F.Z.Z.Z.V.V.k.k.p.p.........| ..........| ....| | ` | ` ` ) ) ) S S m b 0 2 % % X X   . . O @ = ; 7 e C H ' X.d.V.V.F.F.H.H.H.H.H.H.H.J.H.H.J.J.J.J.J.J.K.J.J.J.J.J.J.J.J.J.H.H.H.H.H.H.F.F.Z.Z.Z.Z.Z.Z.Z.Z.Z.Z.Z.Z.Z.F.Z.F.F.F.Z.F.F.F.Z.Z.Z.Z.F.Z.F.F.F.H.H.H.H.H.H.H.H.F.F.F.F.Z.Z.V.V.V.z.V.z.z.z.z.z.z.z.z.z.V.V.z.V.V.V.V.V.V.V.V.V.V.V.V.V.z.V.z.z.z.z.k.s.s.s.p.p.....p.p.....p.p.p.p.p.s.p.s.s.s.k.k.s.k.s.k.s.s.s.s.k.k.k.z.k.z.z.z.k.k.s.s.p...| ` Z m 8 2 # X     . . O = ; 5 7 t V H  .a.s.z.V.Z.Z.Z.Z.Z.Z.F.Z.Z.Z.Z.V.V.V.Z.V.V.V.V.V.V.V.V.V.V.V.z.z.z.z.z.z.k.k.k.s.s.s.p.p...| ` ) S S Z Z Z m m m b 0 0 2 < % # # X       o * * = ; 5 7 w w q M M Z Z S S S S S ) S ) S S S S S Z Z Z S S S S S Z Z m 0 8 < % # X         ",
"= - ; ; = - ; = = ; = = = = * = = = = = = = = = = = = = = = = = = = * - - 4 6 3 9 0 q b b b b b b b b b b m m m m Z Z Z Z Z Z Z Z S S S S S S ) ) ) ` ` ` ) ` ` ) ` ) ` ` ` ) ` ` ` ` ) ) ) ) ) ) ) S S S S S Z Z Z Z Z Z Z Z Z m m n q q 3 6 4 - - ; ; = : > > y e t N H ' a.k.z.Z.Z.F.F.F.F.Z.Z.V.V.z.k.s.p.p.........................| | ..| | ` ` ` ) ) S Z Z b 0 2 < # X X     . O + = ; 5 e N F { a.l.z.Z.Z.F.H.H.H.H.H.H.J.H.J.J.J.J.J.J.K.J.J.J.K.J.K.J.J.J.J.H.J.H.H.H.F.F.F.Z.Z.Z.Z.V.Z.Z.Z.Z.Z.Z.Z.Z.Z.Z.F.Z.Z.F.F.Z.Z.Z.F.Z.Z.F.F.F.F.H.H.H.H.J.J.H.H.J.H.H.F.F.F.F.Z.V.V.V.V.z.z.z.z.z.z.z.z.z.z.z.z.V.V.V.V.V.V.V.Z.V.V.V.V.V.V.V.z.z.z.k.k.k.k.s.s.s.p.p.......p.p...p.p.p.p.p.p.s.p.s.p.s.s.s.s.s.s.s.s.k.s.k.k.k.z.z.z.k.k.k.k.s.p...| ) Z m 0 2 # X   . . O + @ ; 5 e t N H ' a.l.z.V.Z.Z.Z.Z.Z.Z.Z.Z.Z.Z.Z.V.Z.V.V.V.V.V.Z.V.V.V.V.V.V.z.z.z.z.k.k.k.k.k.s.s.s.s.p...| | ` ) ) S Z Z m m m b b 0 8 2 2 % # # X   . o o @ * ; 5 5 7 w N M Z D _ ` ` ` | | | | | | | | | ` ` ` ` ` ` ` ` ` ` ` ) S m 0 8 < # X         ",
"; ; ; ; ; 5 ; 5 ; ; 5 ; 5 ; 5 ; ; 5 ; 5 ; 5 ; 5 ; 5 5 ; ; ; ; 5 ; ; ; 5 6 6 w 9 n b m m Z Z Z Z m Z m Z Z S S S S ) ) ) ` ) ) ) ) ) ) ) ` ` | | | ..| ..........................| | ....| | | | | ` ` ` ` ` ` ) ` ) ) ) ) ) S S S S M m n 9 6 6 5 ; ; > : > > ; 5 7 t V D  .a.d.z.V.Z.Z.Z.F.F.F.Z.Z.V.z.z.s.s.p...............................| | | | ` ` ) S S m b 8 2 < # X X   . . O * = ; 7 e C H ' X.l.C.V.F.H.H.H.H.H.H.J.H.J.J.J.J.K.K.J.J.K.K.K.J.K.J.J.J.J.J.J.J.H.H.H.H.F.F.Z.Z.Z.Z.V.V.V.V.Z.V.V.V.Z.Z.Z.Z.Z.Z.Z.Z.F.F.F.Z.Z.F.Z.F.F.F.H.H.H.J.J.J.J.J.J.J.H.H.H.F.Z.Z.V.V.z.z.z.z.k.z.k.z.z.z.z.z.z.z.z.V.V.V.V.V.V.V.V.V.V.V.V.z.V.z.V.z.z.z.k.k.s.s.p.p...p...p...p.p.p.p.s.p.s.p.p.p.p.p.p.p.p.p.p.p.s.s.s.s.s.k.k.k.k.k.k.k.k.s.s.p.p.| ` S b 8 < % #     . . O @ = 5 5 t C H  .X.s.x.V.Z.Z.Z.Z.V.Z.Z.V.Z.V.V.Z.V.V.V.V.V.V.V.V.V.V.V.V.z.z.z.k.k.s.s.s.s.s.s.s.s.p.p.....| ` ) S S Z Z Z m m b b 0 8 8 < % # X X       o + * ; ; 7 e t N A _ _ | | ..p.p.p.p.p.p.p.p.p.p.......| ............| ` ) Z b 8 < % X         ",
"y ; y 5 y 5 5 5 5 5 5 5 7 5 7 7 5 7 7 5 5 7 5 5 7 7 5 7 5 7 i 5 i 5 7 7 w r q M M Z D S S S S S S S S S ) ) ) ` ` ` ` | | | | | | | | | ......p.p.p.p.p.p.p.s.p.p.s.p.p.s.p.p.p.s.p.p.p.p.p.p.p...........| | | | | | ` | ` ` ` ) ) D A M r w 7 5 5 ; > > > > > 5 7 t V D  .a.k.z.V.Z.Z.Z.F.Z.Z.Z.Z.V.z.k.s.s.p...................................| | ` ` ) ) Z m b 0 2 < # X X   . . O @ = ; 7 e C F ' X.l.V.Z.F.H.H.H.H.H.H.H.J.H.J.J.J.K.J.J.K.J.K.K.J.K.J.K.J.J.J.J.H.H.H.H.H.F.F.Z.Z.Z.V.Z.V.V.Z.V.Z.V.Z.Z.Z.Z.Z.Z.Z.F.F.Z.Z.F.Z.F.F.Z.F.F.H.H.H.J.J.J.J.J.J.J.H.J.H.H.H.F.Z.V.V.z.z.z.k.k.k.k.k.z.k.k.z.z.z.z.z.V.V.V.z.V.V.V.V.V.V.V.z.V.z.z.z.z.k.k.k.s.s.p.p.p.p.p.p.p.p.p.p.s.s.p.s.p.p.p.p.p.p.p.p.p.s.p.s.s.s.s.s.k.k.k.k.k.k.k.k.s.s.p...| ) S m 8 < % X   . . O O * ; 5 5 t N ]  .X.k.z.V.V.Z.Z.Z.Z.V.V.Z.V.Z.V.V.Z.V.V.V.V.V.V.V.V.z.V.z.z.k.k.k.s.s.s.s.p.p.p.s.p.p.....| | ` ) S S Z Z m m m m b 0 8 8 < % # X       . o @ * ; 5 7 e B V D _ | ..p.s.s.s.k.s.k.k.k.s.s.s.s.p.p.p.p.p.p.p.p.p.p...` S m 0 < % X         ",
"y > > y 5 y y 5 7 e e t e e e e t e t e e e t t e t t e e t t e t t t t t N M A D S ) ) ` ` ` ` ` ` ` ` ` | | | ......................p.p.p.p.s.s.s.k.k.k.k.k.k.k.s.k.k.k.k.k.k.k.k.k.s.s.s.s.s.s.s.p.p.p.p.p.p.............| ..| ` ` D A n r w 5 y > > : : > > y 7 t N H ' X.d.x.V.Z.Z.F.Z.F.Z.Z.V.V.z.k.k.s.p.p.......................p.........| | | ` ) ) S Z b 0 2 % # X     . . O @ = ; 5 e C H { a.l.V.Z.F.F.H.H.H.H.H.H.H.J.J.J.J.J.K.K.K.K.J.K.K.K.K.J.K.J.J.J.J.J.J.H.F.F.F.F.Z.V.V.V.V.V.V.V.V.V.V.V.V.Z.Z.Z.Z.F.Z.F.F.Z.F.Z.Z.F.F.F.F.H.H.J.J.J.K.J.J.J.J.H.H.H.F.F.Z.Z.V.z.k.k.k.k.k.s.k.k.k.k.k.z.z.z.z.z.z.z.z.V.z.z.z.z.z.z.z.z.z.V.z.z.z.z.k.k.s.s.p.p.p.p.p.s.s.s.s.s.s.s.s.p.p.p.p.p.p.p.p.p.p.s.s.s.s.s.k.s.s.k.k.k.k.s.s.s.p.p...` ) Z b 8 < # # X   . O + @ ; 5 7 t C H ' a.l.z.V.Z.Z.Z.Z.Z.Z.Z.Z.Z.V.Z.V.V.V.V.V.V.V.V.V.V.z.z.k.k.k.s.s.s.p.p.p.p.p.p.p.p.p.....| ` ) ) S S Z Z Z m m b b 0 8 8 < % # X X     . o + * = ; 5 w B V D ` X.a.s.k.k.z.k.z.k.z.k.k.k.k.s.s.s.s.p.s.s.s.s.s.p...| ) m 0 < % X         ",
"y > y y i 5 5 e e t t t B N B B B B N C N C B C C C N C C C C C C C V F H H D _ _ | | | ..| ..| ..| ..| ....p.p.p.p.s.s.p.s.s.s.s.s.s.s.s.k.k.k.z.z.k.z.z.z.z.z.z.z.z.k.z.z.z.z.z.k.z.z.z.k.z.k.k.k.k.s.s.s.s.s.s.s.s.p.p.s.p.p.p...` ) D V N e 7 i , > > , > > y 7 t V H ' a.s.z.V.Z.Z.Z.F.Z.Z.Z.V.V.z.k.k.s.p...p.p.........p.....p.p...........| | | ` ` ) S Z b 0 2 < # X X   . . O @ = ; 7 e B H { a.l.V.Z.F.F.H.H.J.H.H.H.J.H.J.J.J.K.K.K.K.J.K.K.K.J.J.K.K.J.J.J.J.H.J.H.H.F.F.Z.Z.Z.V.V.Z.V.V.V.V.V.V.Z.Z.Z.Z.Z.F.Z.Z.F.F.Z.Z.F.Z.F.F.F.H.H.J.J.J.J.J.J.J.J.J.J.H.H.H.Z.Z.Z.z.z.k.k.k.s.k.s.s.s.k.k.k.k.k.k.k.k.k.z.z.z.z.k.z.z.z.z.z.z.z.z.z.z.z.k.z.k.k.s.s.s.s.s.s.s.s.s.s.k.k.s.s.s.s.p.p.p.p.p.p.p.s.s.s.s.s.s.s.k.k.s.s.s.s.s.s.p.p...| ` ) Z b 8 < # X     . O O * = 5 7 t N H ' a.s.x.V.Z.Z.Z.Z.Z.Z.Z.Z.Z.Z.Z.V.Z.V.V.V.V.V.z.z.z.z.z.k.k.s.s.p.p.p...............| | | ` ` ) ) S S Z Z m m m b b 0 8 2 2 % # # X     . o O @ ; 5 5 e N V _  ...s.s.k.k.z.z.z.z.z.z.z.k.k.s.s.s.s.s.s.s.s.k.s.p...| ) m 0 2 % #         ",
"> y > 5 5 i e e t C N F F A F H H H H F H F H H H H H H H H H H ] H ] ] ] '  ...X...a.p.p.p.p.p.p.s.p.p.p.s.s.s.k.s.k.k.k.k.k.k.k.k.k.k.k.z.z.z.z.V.V.V.V.V.V.V.V.V.V.V.V.V.V.V.V.V.V.V.V.z.z.z.z.z.z.z.z.z.k.k.k.k.k.k.k.k.k.k.d.p.X.' H F N e 7 y y : > : > > 5 7 t N D ' X.k.z.V.Z.Z.Z.Z.Z.Z.Z.V.V.z.k.s.s.p.p.p.....................p...p.......| | ` ) ) S Z m 0 2 < % X X   . . . O = 5 5 e C H { X.l.V.Z.F.F.H.H.H.H.H.H.H.J.J.J.J.K.J.J.K.K.K.K.K.K.K.K.J.K.J.K.J.J.J.H.H.H.F.Z.Z.Z.Z.Z.V.V.V.Z.Z.V.Z.V.Z.Z.Z.Z.Z.Z.F.Z.Z.F.F.Z.F.F.F.F.H.H.H.H.J.J.J.J.J.J.J.J.J.H.F.F.Z.V.z.k.k.s.s.s.s.s.s.s.s.s.s.s.k.s.k.k.k.k.k.k.k.k.k.k.k.k.k.k.z.z.z.z.z.z.z.k.k.k.k.s.s.s.s.s.k.k.k.k.k.k.k.s.s.s.s.p.s.p.s.s.s.s.s.s.s.k.k.s.s.s.s.s.s.p.p.p.....| ` ) Z 0 8 < % X     . . + * ; 5 7 t C H  .a.d.z.V.Z.Z.F.F.F.F.F.Z.Z.F.Z.Z.Z.V.V.V.z.z.z.z.k.k.k.k.s.s.p.p.p.............| | | | ` ` ` ) S S Z Z Z Z m m m b 0 0 2 < % # X X     . o O * ; 5 7 e N H ] ` a.d.k.z.z.z.V.z.z.z.z.z.z.k.k.s.s.s.p.s.s.s.s.s.p.p.| ) m 0 2 % X         ",
", > > y 5 i e B N F D H _ ] _ ' _ _ ' _ { ' ' ' { o. .{ o. .o.o.o.o. .X.X.a.a.a.d.s.s.k.k.k.k.k.k.k.k.k.k.k.k.z.z.z.z.z.V.z.z.V.z.z.V.z.z.V.V.Z.V.Z.Z.Z.Z.Z.Z.Z.Z.Z.Z.Z.Z.Z.Z.Z.Z.Z.Z.Z.V.Z.Z.V.V.V.V.V.V.V.z.V.z.V.z.z.z.z.z.z.k.l.a.X._ H N r i i y > : : , > y e t N H  .a.d.z.V.Z.Z.Z.Z.Z.Z.V.V.V.z.k.k.s.p.p.p.p...p...............p.........| | | | ` ) S Z m 0 8 < # X X     . O @ = ; 5 e C H { a.l.z.Z.F.H.H.H.H.H.H.H.J.H.H.J.J.K.J.K.J.K.K.K.J.K.K.J.K.K.K.J.J.J.J.H.H.H.F.F.Z.Z.Z.V.Z.V.Z.V.Z.V.Z.Z.Z.Z.F.F.Z.F.F.F.F.Z.Z.F.F.F.F.F.F.H.H.J.J.J.J.J.J.J.J.J.H.H.F.F.V.V.z.k.s.s.s.p.p.p.p.s.p.s.s.s.s.s.s.s.s.k.s.s.s.s.s.s.k.s.k.k.z.z.z.z.z.V.z.z.z.z.k.k.k.k.k.k.k.k.z.z.k.k.k.k.k.s.s.s.s.s.s.s.s.s.k.k.s.k.k.s.s.s.s.p.p.p.p.......` ` S Z 0 8 < # X     . O + * = ; 7 t V H  .a.s.z.V.Z.F.F.F.H.F.F.F.F.F.F.Z.Z.Z.V.V.z.z.z.k.k.k.s.s.s.p.p.p.......| | | | | | ` ` ` ) ) ) S S Z Z Z Z m m b b 0 0 2 < % # X       . . O * ; 5 7 e C F _  .a.s.k.k.z.z.V.z.z.z.z.z.k.k.k.s.s.p.p.s.p.s.s.p.p...| ) m 0 2 % X         ",
"> > y y 7 e t N V H _ '  . . .X. .X.X.X.X.X.X.X.X.a.a.a.a.a.d.a.d.d.d.d.l.l.k.x.z.x.z.V.z.z.V.z.z.z.z.V.V.V.V.V.V.Z.Z.V.Z.V.V.Z.Z.Z.V.Z.Z.Z.Z.Z.Z.Z.Z.F.Z.Z.Z.Z.Z.F.Z.Z.Z.Z.Z.F.Z.F.Z.Z.Z.Z.Z.Z.Z.Z.Z.Z.Z.Z.Z.V.Z.V.V.Z.Z.Z.Z.V.V.z.s.X.' H V t e 5 > , : : > y y 7 t N H ' a.s.z.V.V.Z.Z.Z.Z.Z.V.V.z.z.k.s.s.s.p.p.p.......p...p...p.p...p.........| | | ` ) S Z m 0 8 < % X     . . O + = ; 7 e C H { a.l.V.Z.F.F.H.H.H.H.H.J.H.J.J.J.K.J.J.K.K.K.K.K.K.K.K.J.K.J.K.J.K.J.J.J.J.H.H.F.F.Z.Z.Z.Z.Z.V.Z.Z.Z.Z.Z.Z.Z.Z.Z.F.Z.Z.F.Z.F.F.Z.Z.F.F.F.F.H.H.H.J.H.J.J.J.J.J.J.J.H.F.Z.Z.V.k.k.s.p.p.p.p.p.p.p.p.p.p.p.p.p.s.p.p.s.s.p.p.s.p.s.s.s.s.k.k.z.z.z.z.V.V.z.z.z.z.z.k.z.z.z.z.z.z.z.z.z.z.z.k.k.k.k.s.k.k.k.k.k.k.k.k.k.s.s.s.s.p.p...p.....| | ` ) S m 0 8 % # X X   . . + = ; 5 7 t N H ' X.k.z.V.Z.F.F.H.H.H.H.H.F.F.F.F.Z.V.V.z.z.z.k.k.s.s.s.p.p.p.........| | | | ` ` ` ` ) ) ) S S S S Z Z Z m m m b b 0 8 2 < % % X X     . . @ * ; ; 7 w N H _ | a.s.k.z.z.V.z.z.z.z.z.k.k.s.s.s.p.p.p.p.p.p.s.p.p...` S m 8 2 % X         ",
"> > > 5 7 e t N H _ | X.a.a.s.d.s.d.s.d.d.d.l.l.l.l.l.l.x.x.x.x.x.x.x.C.z.C.V.V.V.Z.Z.Z.Z.Z.Z.V.Z.Z.Z.V.Z.Z.Z.Z.Z.Z.Z.Z.Z.F.Z.F.Z.F.F.Z.F.Z.F.F.F.F.F.F.F.F.F.F.F.F.F.F.F.F.F.F.F.F.F.F.F.F.F.F.F.F.F.Z.F.Z.Z.F.Z.F.F.F.F.F.F.Z.Z.V.k.d. .] V t 7 y y : : : > > 5 7 t V D ' X.l.x.V.V.Z.Z.V.Z.V.V.V.V.z.z.k.s.s.s.p.p.p...p.......................| | | | ` ` S Z m 0 2 < % X X   . . O @ * ; 7 e B H { a.l.C.Z.F.H.H.H.H.H.H.H.J.J.J.J.J.J.K.K.J.K.K.K.J.K.K.K.K.K.J.K.K.J.J.J.H.H.H.F.F.Z.Z.Z.Z.Z.Z.Z.Z.Z.Z.Z.Z.Z.Z.F.Z.F.F.Z.F.F.Z.F.Z.F.F.F.F.H.H.H.H.H.J.J.J.J.H.H.H.H.F.F.V.z.k.s.s.p...p...p.p.p...p.p.p.p.p.p.p.p.p.p.p.p.p.p.p.p.p.s.k.k.k.z.z.V.V.V.V.z.V.z.z.z.z.z.z.V.z.V.z.z.z.z.z.k.k.k.k.k.k.k.k.k.k.k.k.k.k.k.s.s.s.p.p.........| | ` ) Z m 0 2 < # X   . . . + @ = 5 7 t V H ' a.d.z.Z.Z.F.H.H.H.H.H.H.H.H.F.F.Z.Z.V.V.z.z.k.s.s.p.p.p.........| | | | ` ` ` ) ) ) ) ) S S S S Z S Z Z Z m m b b 0 8 8 2 % # X X     . o + @ ; ; 7 e B F _  .a.s.z.z.z.z.z.z.z.z.k.k.k.s.s.p.p.p...p.p.p.p.p...| ` S m 0 2 % #         ",
"> > 5 y 7 e t H D ' X.a.s.k.k.k.k.x.k.k.z.z.z.z.z.V.V.V.V.V.V.Z.Z.Z.Z.Z.Z.F.Z.F.Z.F.F.F.F.F.F.F.F.F.F.F.F.F.F.F.H.F.F.F.F.F.F.F.F.F.F.H.F.F.F.F.H.F.H.F.H.H.F.H.F.H.F.H.H.F.H.F.H.F.H.F.F.H.H.F.F.F.H.F.H.F.F.F.F.F.F.F.F.H.H.H.F.Z.z.d. .] V t 7 y ; > : : > > y 7 t N H  .a.s.z.V.V.Z.Z.Z.V.Z.V.V.z.z.k.k.s.s.p.p.p...p.......................| ....| | ` ) ) S m b 8 < # # X X . . O * * 5 5 e C F ' X.l.z.Z.F.F.H.H.H.H.H.H.H.J.J.J.K.J.K.J.K.K.J.K.K.J.J.K.J.K.K.J.K.K.J.J.J.H.H.H.F.F.F.F.Z.F.Z.F.Z.F.Z.F.F.Z.F.Z.F.Z.Z.F.F.Z.F.Z.F.Z.F.F.F.H.F.H.H.H.H.H.H.J.H.J.H.F.F.Z.V.z.k.s.p.p...............p.....p...p...p.....p.p.....p.p.p.s.s.k.k.z.z.z.V.V.z.z.V.V.z.V.V.V.z.z.V.V.z.V.z.z.z.z.z.k.k.k.k.k.k.z.k.k.k.k.s.s.s.p.p.p.......| | | ` ` S Z m 0 2 < # X     . O O @ ; 5 7 t N H  .a.d.z.V.F.F.F.H.H.J.J.J.H.H.F.Z.Z.V.V.z.z.k.s.s.p.p.p.......| | | | ` ` ` ` ) ) S S S S S S S S S S Z Z Z m m m b 0 8 8 < % # #       . o + * * 5 7 e C F _ | a.d.k.z.z.z.z.z.z.k.k.k.s.s.s.p.p...p...p...p.p...| ` Z m 8 < # X         ",
"> > y 5 7 r N F _  .X.s.k.z.z.V.V.z.V.V.V.Z.V.Z.Z.Z.Z.Z.Z.F.F.F.F.F.G.F.H.H.F.H.H.F.H.H.H.H.H.H.H.H.H.H.H.H.H.H.H.F.H.H.F.H.F.H.H.H.F.H.F.H.H.H.H.F.H.H.H.H.H.H.H.H.H.H.H.H.F.H.H.H.F.H.H.H.F.F.H.F.H.F.H.H.H.F.H.H.H.H.H.H.H.H.F.Z.C.d. .] F t 7 5 > : : : : > 5 7 t V D ' a.d.z.z.V.Z.Z.Z.V.V.V.z.z.z.k.k.k.s.s.p.p.p.....................| ..| ..| | | ` ` ) Z m b 8 < % X X   . . O + * ; 7 e B H { a.l.z.Z.F.F.H.H.H.H.H.J.H.J.J.J.J.J.K.J.K.J.K.J.K.J.J.K.K.J.K.J.J.J.J.J.J.H.H.H.F.F.F.F.F.F.F.F.F.F.F.F.F.F.F.F.F.Z.Z.F.F.F.Z.F.Z.Z.F.F.F.H.F.H.H.H.H.H.H.H.H.H.F.F.Z.Z.z.z.s.s.p.................p...............................p.p.s.s.k.z.z.z.V.z.V.V.V.z.V.z.V.V.V.V.z.V.z.z.z.z.z.z.k.k.z.k.k.k.k.k.k.k.k.k.s.s.s.s.p.p.........| ` ` ) S Z m 0 2 % # X     . . + * ; 5 5 t C H ' a.d.z.V.Z.F.H.J.J.J.J.H.H.H.F.F.Z.V.V.z.k.k.s.s.p.p.....| | | | | | ` ` ` ) ) ) S S S Z S S Z S S S Z Z Z m m m b 0 8 8 2 % # X X     . . + * = ; 7 e N F ' ..a.k.k.k.z.z.z.z.k.k.k.s.s.p.p.p...................| ) S b 8 2 % #         ",
": > > y 7 e N H ' ..s.k.z.V.V.V.V.Z.V.Z.Z.Z.Z.Z.F.F.F.F.F.F.H.H.H.H.J.H.H.J.H.H.J.H.H.H.H.H.H.H.H.J.H.H.H.H.H.H.H.H.H.H.H.H.H.H.H.F.F.H.H.H.H.F.H.H.H.H.H.H.H.H.H.H.H.H.H.H.H.H.F.H.F.H.F.H.H.H.H.H.H.F.H.F.H.H.H.F.H.H.H.J.J.J.H.F.V.l.| _ F r 6 5 = = = : = > y e t N H ' a.k.x.V.V.Z.V.Z.V.V.V.V.V.z.z.k.k.s.s.s.p.p.p.......| | | | ..| ..| | | | | ` ` ) ) S Z b 8 < % X     . . O @ = ; 5 e C H { a.l.V.Z.F.H.H.H.H.H.H.H.H.H.J.J.J.J.J.K.J.K.J.K.J.K.J.J.J.K.J.K.J.K.K.J.J.H.J.H.H.H.H.F.H.F.F.H.H.F.H.F.H.F.F.Z.F.F.F.Z.Z.Z.F.Z.F.F.F.F.F.F.H.F.F.H.H.H.F.H.F.F.F.Z.V.V.z.k.s.p.p.......| ........................................p.p.p.s.k.k.z.z.z.V.V.V.V.V.V.V.V.V.z.V.V.z.z.z.z.z.z.z.k.k.k.k.k.k.k.k.k.k.s.k.s.s.s.s.p.p.......| | | ` ` S Z m 8 2 % # X X   . O + * ; 5 7 t N H  .X.k.z.Z.Z.F.H.H.H.J.H.J.H.H.F.F.Z.V.z.z.k.k.s.p.p.........| | | | ` ` ` ) ) S S S S S S S S S S S S S Z Z Z m b b 0 8 2 < % # X X     . o + * ; 5 5 t N H _  .a.d.k.z.z.z.z.z.k.k.k.s.s.s.p.p.............p.....| ) Z m 8 < # X         ",
"> > > 5 7 e N H _ X.d.k.V.V.Z.Z.Z.Z.Z.F.F.F.F.F.F.F.H.H.H.H.H.H.J.J.J.J.J.J.J.J.J.H.H.J.H.J.H.J.H.J.H.H.H.H.H.H.H.H.H.H.H.H.H.F.H.H.H.F.H.F.F.H.H.H.H.H.H.H.H.H.H.J.H.H.H.H.H.H.H.H.H.F.F.H.F.H.F.H.F.H.F.H.F.F.F.H.H.H.J.J.J.H.H.F.V.l.X._ V r 4 - = = @ : : ; 5 7 r V H  .a.d.z.V.Z.Z.V.Z.Z.V.V.z.z.z.z.k.k.s.s.s.p.p.....| | | | | | | | | | | | | ` ` ` ` ) S m b 8 < % # X     . O @ * 5 7 e C H { a.l.C.Z.F.F.H.H.H.H.H.H.J.H.H.J.J.J.J.J.J.J.J.K.J.J.J.J.J.J.K.J.J.J.J.J.J.J.J.H.H.J.H.H.H.H.H.H.H.H.H.H.F.F.F.F.Z.F.Z.F.Z.F.Z.F.F.Z.F.F.F.H.H.F.F.H.F.F.F.F.Z.Z.Z.V.V.z.k.k.s.p.............| ......................................p.p.s.s.k.k.k.z.z.z.V.z.z.V.V.V.z.z.z.z.z.z.z.k.k.k.k.k.k.k.k.s.s.s.s.s.s.s.s.s.s.s.p.p.p.p.p.......| ` ) S Z b 0 2 % # X   . . . @ @ ; 5 7 t N H ' a.d.z.V.F.F.H.H.H.J.J.H.H.F.Z.Z.V.V.z.k.k.s.p.p.....| | | | ` ` ` ` ) ` ) ) S S Z S Z S S S S S S S S S Z Z m m b 0 0 2 < % # X X     . o + = = 5 7 e C H _ | a.s.k.z.z.z.k.k.k.s.s.s.s.p...........| ........| | ) S b 8 2 # X         ",
": > 5 5 7 t N H ' X.d.k.V.Z.Z.Z.F.F.Z.F.F.H.F.H.H.H.H.H.H.H.J.H.H.J.H.J.J.H.J.J.J.H.J.H.J.H.J.H.J.H.J.H.J.J.H.H.H.H.H.H.H.F.H.F.F.F.F.F.F.H.F.F.H.F.H.H.H.H.H.H.H.J.H.H.H.H.H.F.F.F.F.F.F.F.F.F.F.F.F.F.F.F.F.F.F.F.F.H.H.J.H.J.H.F.V.l..._ M 9 1 = @ @ @ @ = > 5 5 t V H ' a.d.z.V.V.V.Z.Z.V.V.V.V.V.z.z.z.k.k.s.s.p.p...| | | ` ` ` ` ` | ` | | | | | ` ` ` S S m 0 8 < % X     . . O @ = ; 5 e C H { X.l.z.Z.F.H.H.H.H.H.H.H.H.J.J.H.J.J.J.J.J.J.J.J.J.J.J.J.J.J.J.J.J.J.J.J.J.J.J.J.H.J.J.J.H.J.H.J.J.J.H.H.H.H.F.F.F.F.F.Z.F.Z.F.Z.F.F.F.F.F.F.F.H.F.F.F.F.F.Z.Z.V.V.z.z.k.k.s.p.p.....................................| ..............p.p.p.s.s.k.k.k.z.z.z.V.z.z.z.V.z.z.z.z.k.k.k.k.k.k.s.k.s.s.s.s.s.s.s.s.p.s.p.s.p.p.s.s.s.p.p.p...| | ` ` S Z b 0 2 < # X     . . O * = 5 7 t V H ' a.l.z.V.Z.F.F.H.H.H.H.H.H.F.Z.Z.V.z.k.k.s.s.p.p.....| | | ` | ` ` ` ) ) ) ) S S S Z S S S S S ) ) ) S S S Z Z m b 0 0 2 < < # X X     . . + * = 5 5 t N F _ X.a.s.z.k.z.z.k.k.s.s.s.p.p.p.......| | ..| ......| ` ) Z b 8 < # X         ",
": > > y e t N H ' X.l.z.V.Z.Z.Z.F.F.F.F.H.F.H.H.H.H.H.H.J.H.J.J.J.H.J.J.H.J.J.J.J.H.J.H.J.J.H.H.H.J.H.J.H.H.H.H.H.H.H.F.F.F.F.F.F.F.Z.F.F.F.F.F.F.F.F.H.H.H.H.H.H.H.H.H.H.H.F.F.F.F.Z.F.Z.F.F.Z.Z.F.F.Z.Z.F.Z.F.Z.F.F.F.H.H.J.H.H.F.V.d.| D M 9 & $ * O @ @ = ; 5 7 t N H  .a.s.z.V.V.Z.Z.V.V.V.V.z.V.z.z.z.k.k.k.s.p.p...| ` ` ` ) ` ) ` ` ` ` ` ` | ` ` ` ` ) Z m b 8 < % X X   . . O + = ; 5 e C F ' a.l.V.Z.F.F.H.H.H.H.H.H.H.H.J.H.J.J.J.J.J.J.H.J.J.J.J.J.J.J.J.H.J.J.J.J.J.J.J.J.J.J.J.J.J.K.J.J.K.J.J.J.H.H.H.F.F.F.Z.F.Z.F.Z.F.F.Z.F.F.F.F.F.F.F.F.F.Z.Z.V.V.V.z.k.k.s.s.p.p.p.........| ..............| ..........................p.p.p.p.s.s.s.k.k.k.k.z.z.z.z.z.z.k.k.k.k.s.s.s.s.s.s.s.s.p.s.p.p.p.p.p.p.p.p.p.p.s.s.s.s.s.p.p.p...| ` ` S Z b 0 < % # X     . . + @ = 5 7 t N ] ' X.k.z.V.Z.F.F.H.H.H.H.F.F.Z.Z.V.z.z.k.s.s.p.p.......| | | ` ` ` ` ` ) ) ) ) S S S Z S Z S ) ) ) ) ) ) S S Z Z m b 0 0 2 < % # X X     . o O = = 5 5 e N H ]  .p.s.k.z.z.k.k.k.s.s.p.p.p.....| | | ..| ....| ..| ` ) Z b 8 < # X         ",
": > > 5 5 t N H ' X.d.z.V.Z.Z.F.F.F.F.H.H.H.F.H.H.H.H.H.H.H.H.H.H.J.J.H.J.J.H.H.J.H.H.H.H.H.H.J.J.H.H.H.H.H.H.H.F.F.F.F.F.F.F.Z.Z.Z.Z.Z.Z.Z.Z.F.F.F.F.H.F.F.H.H.H.H.H.H.H.F.F.F.F.Z.Z.Z.Z.Z.Z.Z.Z.Z.Z.Z.Z.Z.Z.Z.Z.Z.F.F.H.H.H.J.H.Z.V.s.| D b 3 & $ o O O @ @ ; 5 e t C H ' a.d.z.V.V.Z.Z.V.Z.V.V.V.V.V.z.z.z.k.k.s.p.p...| ` ` ) ) ) ) ) ` ` ` ` ` ` ` ` ` ) ) S Z b 8 < % X X     . O @ = 5 7 e C H { a.l.z.Z.F.H.H.H.H.H.H.H.J.H.H.J.H.H.H.J.H.J.H.J.J.J.H.J.J.J.H.J.J.H.H.J.J.J.K.J.K.K.K.K.K.K.K.K.K.K.J.J.J.J.H.F.F.F.F.Z.F.Z.Z.F.F.F.F.F.F.F.F.F.F.F.F.Z.V.V.z.k.k.s.s.s.p.p.p.........................................................p...p.p.p.p.s.s.k.k.k.z.z.z.z.z.k.k.k.s.s.s.s.p.p.p.p.p.p.p.p.p.p...........p.p.s.p.s.s.s.s.p.p.....| ) S Z m 8 2 % # X     . O + @ ; 5 7 e V H  .a.d.z.V.Z.F.F.F.F.F.F.F.F.Z.V.V.z.k.k.s.s.p.p.....| | ` ` ` ` ` ` ) ) ) ) S S S S S S S S S ) ) ) ` ) ) S S Z m b b 8 2 2 % # #       . o O * ; 5 7 t C H _ X.a.k.k.k.k.k.k.s.p.p.p...........| | | | | | ..| | ` ) Z b 8 < % X         ",
": > y 5 7 t N H _ X.s.z.V.Z.F.F.F.H.F.F.H.H.H.H.H.H.H.H.H.H.H.H.H.J.H.H.H.H.H.H.H.J.H.J.H.J.H.H.H.H.J.H.H.H.H.H.F.F.F.F.F.Z.Z.Z.Z.Z.Z.Z.Z.Z.Z.F.F.F.F.F.H.F.H.H.H.H.H.F.F.F.F.Z.Z.Z.Z.Z.Z.Z.V.Z.Z.Z.Z.Z.Z.V.Z.V.Z.Z.Z.Z.F.H.H.H.H.Z.V.s.| S 0 3 & o o . O + = = 5 5 t V H  .X.k.z.V.V.Z.Z.Z.Z.V.V.V.V.z.V.z.z.k.k.s.s...| | ` ) ) ) ) ) ) ) ) ` ` ) ) ` ` ) ) ) Z m b 8 < % X X   . . O + = ; 5 e C F { X.l.C.Z.F.H.H.H.H.H.H.H.J.H.H.J.J.J.H.J.H.J.H.J.H.H.H.J.H.J.H.J.H.J.H.J.J.J.J.J.K.K.K.L.L.K.K.L.K.K.K.K.J.J.H.H.F.F.F.Z.Z.F.F.Z.F.Z.F.F.F.F.F.F.F.Z.Z.V.V.z.k.k.s.p.p.p.p.p.....p.......................................................p.p.p.p.p.s.s.s.k.k.k.z.z.k.k.k.s.s.p.p.p.p.p.p.p.p.p.p.p.................p.p.p.s.s.s.k.s.s.p.p.| | ) ) Z b 0 2 < # X   . . O + * ; 5 e t V H ' X.k.z.V.Z.Z.F.F.F.F.F.Z.Z.V.V.z.k.k.s.s.p.p.....| | | | ` ` ` ` ` ` ) ) S ) S S S Z S S ) ) ) ) ` ) ) ) S S Z m b 0 8 8 < % # X       . . @ * ; ; 7 t N H ' | a.d.k.k.k.k.s.s.p.p.......| ..| | | | | | | | | | ` ) Z b 8 < # X         ",
": > y y 7 t N H ' a.s.z.V.Z.Z.F.F.F.H.H.H.H.H.H.H.H.H.H.H.H.H.H.H.H.H.H.H.J.H.H.H.H.H.H.H.H.H.J.J.H.H.H.H.H.F.F.F.F.F.F.Z.Z.Z.V.Z.V.V.Z.Z.Z.Z.Z.Z.F.F.F.F.H.H.H.H.H.H.H.H.F.F.Z.V.Z.V.V.V.V.V.V.V.V.V.V.Z.V.V.V.Z.V.Z.F.F.H.H.H.F.F.z.p.| Z 0 2 # X   . O @ @ ; 5 7 t N ] ' a.d.x.V.V.Z.V.Z.V.V.V.V.V.z.V.z.z.z.k.s.p...| ` ) ) S S S S S ) ) ) ) ) ` ` ) ` ) ) S m b 8 < # X X   . . O + = ; 5 e C H { a.d.V.Z.F.F.H.H.H.H.H.H.H.H.H.H.H.H.H.H.J.H.H.H.J.H.H.H.H.H.H.H.J.H.H.J.J.J.K.K.K.L.K.L.L.L.L.L.L.L.L.K.J.J.J.H.F.F.F.F.F.Z.F.Z.F.Z.Z.Z.F.Z.F.F.F.F.Z.V.z.z.k.s.s.p.p.............................................................................p.p.s.s.k.k.k.k.k.k.s.s.s.p.p.......p...p...........| | | | | | ....p.s.s.k.s.k.s.p.....| ` S Z m 8 2 % # X     . . + * = 5 5 t V H ' a.l.z.V.Z.Z.F.F.Z.F.F.Z.Z.V.z.z.k.s.s.p.p.......| | ` | ` ` ` ` ) ) ) ) ) S S S S S S S ) ) ) ` ` ` ` ) ) Z Z m b b 8 2 < % # X X X   . o O * = 5 5 e N F _ X.a.s.k.k.k.s.s.s.p...........| | | | | | | | | | | ) S m b 8 < # X         ",
": > > 5 7 t N H ' a.l.z.V.Z.F.F.F.H.H.H.H.H.H.H.H.H.H.H.H.H.H.H.H.H.H.H.H.H.H.J.H.H.J.H.J.H.H.J.H.J.H.H.H.H.H.F.F.F.F.Z.Z.Z.Z.Z.V.Z.V.Z.V.Z.Z.Z.F.Z.F.F.F.H.H.H.H.H.H.H.F.F.Z.Z.Z.V.V.V.V.V.V.V.V.V.V.V.V.V.V.Z.V.V.Z.Z.F.H.H.H.H.Z.z.s.| Z 0 < #     . O O @ = 5 7 t V H  .a.k.z.V.Z.V.Z.V.V.V.V.V.V.z.z.z.z.k.k.s.p...| ` ` ) S Z S S S ) ) ) ) ) ) ` ) ) ) S S m b 8 < % X X   . . O * = ; 5 e N H { a.l.x.Z.F.H.H.H.J.H.H.H.H.H.H.H.H.J.H.H.H.H.H.H.H.H.H.H.H.H.H.H.H.H.J.H.J.J.K.K.K.K.L.L.L.L.L.L.L.L.L.K.K.J.J.H.H.F.F.F.Z.Z.Z.Z.Z.Z.Z.Z.Z.Z.Z.Z.Z.Z.Z.V.V.k.k.s.p.p...p.............................................................| ............p.p.p.s.k.s.k.k.k.s.s.s.p.p.p.....................| | ..| | | | ....p.s.s.s.k.s.s.p.p.| | ` S Z b 0 2 < # X     . . + * = 5 7 t C H  .X.l.z.V.Z.Z.Z.F.F.Z.Z.Z.V.V.z.k.k.s.p.p.......| | | | ` ` ` ` ) ` ) ) ) ) S S S S Z S S ) ) ) ` ` ` ) ) S S Z m m 0 8 2 < % # X       . . + * ; 5 7 t N H _ ..a.k.k.k.k.s.s.p.p.......| | | | | | ` | | | | ` ` ) S m b 8 < # X         ",
": > y 5 7 t N H ' X.s.z.V.Z.F.F.F.H.H.H.J.H.H.H.H.H.H.H.F.H.H.H.H.H.H.H.H.H.H.H.J.H.J.J.J.J.J.J.J.J.J.H.H.H.H.H.F.F.F.Z.Z.Z.Z.Z.Z.Z.Z.Z.Z.Z.Z.F.F.F.F.F.F.F.H.H.H.H.H.F.F.F.Z.Z.V.V.V.z.z.V.z.V.V.V.V.V.V.V.Z.V.Z.Z.Z.F.F.H.H.H.F.F.z.s.| Z 0 2 #     . O O @ = 5 7 t N H ' a.l.z.V.V.Z.Z.Z.Z.V.V.z.V.V.V.z.z.z.k.s.p...| ` ) S S S S Z S S ) S ) ) ) ) ` ` ) S Z m 0 8 < % X X   . . O + = ; 7 e C H { X.l.V.Z.F.H.H.H.H.H.H.H.J.H.H.J.H.H.H.H.H.H.H.H.H.H.H.H.H.H.H.H.H.H.H.H.J.J.K.K.L.L.L.L.I.L.I.L.L.L.L.K.K.K.J.J.H.H.H.F.F.Z.Z.V.V.Z.Z.V.Z.Z.Z.Z.Z.Z.V.V.z.k.k.s.p.p.p...........................................| ..| ......| ..| ........| | ......p.p.s.s.s.k.k.k.k.s.s.p.........................| ..| | | | ......p.s.s.s.s.s.s.p.p...` ` S Z m 0 2 % # X     . . @ = ; 5 7 t N H ' a.k.z.V.Z.Z.F.Z.F.Z.Z.Z.V.z.k.k.s.s.p.......| | | ` ` ` ` ` ) ` ) ` ) ) ) S S S S S S S S ) ) ) ) ` ) ) S S Z m b 0 0 2 < % # # X     . o + * = 5 5 e N F _ X.a.s.k.k.k.s.s.p.........| | | | | | | | | | ` | ` ) S m 0 2 < # X         ",
": > > y 7 t N H ' X.l.z.V.Z.F.F.F.H.H.H.H.H.H.H.H.H.F.H.H.H.H.H.F.H.F.H.H.H.H.J.J.J.J.J.J.J.J.J.J.J.J.J.J.H.H.F.F.F.F.F.F.F.Z.Z.Z.Z.Z.Z.Z.Z.F.F.F.F.F.F.H.H.H.H.H.H.H.H.F.F.Z.V.V.V.V.z.V.z.V.V.V.V.V.V.V.Z.V.Z.Z.Z.F.F.H.H.H.H.H.Z.z.p.` Z 0 < #     . O O @ = 5 7 t V H  .a.l.z.V.Z.Z.Z.V.Z.V.V.V.z.V.V.z.z.k.k.s.s...| ` ) S S S S S S ) S ) ) ) ) ` ) ) ) ) S m 0 8 < % X X     . O + * 5 5 e C F ' a.l.z.Z.F.F.H.H.H.H.H.H.H.H.H.H.H.H.H.H.H.H.H.H.H.H.H.F.H.F.H.H.H.H.H.J.J.J.K.K.L.L.L.I.I.L.I.L.L.L.L.L.L.K.J.J.J.H.H.F.F.Z.Z.V.V.V.z.z.V.V.Z.Z.Z.V.V.V.z.z.k.s.p.p.p...p...............................| ....| | ....| ..| | ....| | ..| | ..........p.p.s.s.k.k.s.s.s.p.p.p.........................| | | | | | ....p.p.s.s.s.s.p.p.p.| | ` S Z b 8 2 % # X   . . . O @ = 5 7 t V H  .a.d.z.V.Z.Z.Z.F.Z.Z.Z.V.V.z.k.k.s.p.p.....| | | | ` ` ` ) ` ` ) ` ` ) ) ) ) ) S S S S S S ) ) ) ) ` ) ) S Z Z m b b 0 2 2 % # X X     . . + = ; ; 7 t N H ] | a.d.k.k.s.s.s.p.......| | ..| | | | | | ` | | ` ) ) Z m 0 2 % # X         ",
"> > > 5 7 t N H _ X.d.z.V.Z.F.F.H.H.H.H.H.H.H.H.H.H.H.F.F.F.F.F.F.H.H.F.H.H.J.H.J.J.J.K.K.J.K.K.K.J.K.J.J.H.H.H.F.F.F.Z.Z.Z.Z.F.Z.F.Z.F.F.F.F.F.F.F.H.F.H.H.H.H.H.H.H.F.F.Z.Z.V.V.z.z.V.z.z.z.z.z.V.V.Z.V.Z.Z.Z.F.Z.F.F.H.H.J.J.H.Z.V.s.| Z 0 < # X . . O O = = 5 7 t V H  .d.l.z.Z.Z.Z.Z.Z.V.V.V.V.V.z.z.z.z.z.k.s.p.....` ) ) S S S S S S S S S ) ) ) ) ) ) S Z m b 8 < # X X   . . o @ ; ; 5 e C H { a.l.V.Z.F.H.H.H.H.J.H.H.H.J.H.H.J.H.J.H.H.H.H.F.F.F.F.H.F.H.H.F.H.H.H.J.J.J.K.K.L.L.L.L.L.I.L.I.L.I.L.L.K.L.K.K.J.J.H.H.F.Z.V.V.z.z.z.z.z.z.V.V.V.Z.V.V.z.z.k.s.s.s.p.p.p...p.................................| ..| ..| | ..| | ..| | | | | | | | ....p.p.p.s.k.s.s.s.s.p.p.p...................| ....| | | ..| | ....p.p.p.s.s.s.p.....| ` ` S Z b 0 2 < # X     . O + * ; 5 5 t V H ' a.d.z.V.Z.Z.F.Z.Z.Z.V.V.V.z.k.s.p.p...| | | | ` ` ` ` ` ` ` ` ` ` ) ` ) ) ) S S S S S S S S ) ) ) ) ) S S Z m m b 0 8 2 < % # X       . o + @ = 5 5 e B H { ..a.s.k.k.k.s.s.....| | | | | | | ..| | | | ` ` ` ) ) Z b 0 2 < # X         ",
": > y 5 7 t V H ' a.d.z.V.Z.F.F.F.H.H.H.H.H.H.H.F.H.F.F.F.F.F.F.F.F.H.F.H.H.H.J.J.J.K.K.K.K.K.K.K.K.K.K.J.J.H.H.F.F.F.F.Z.F.F.F.F.F.F.F.F.F.F.F.H.H.H.F.H.H.H.H.H.H.H.F.F.Z.Z.V.z.z.z.z.z.V.z.V.V.V.V.Z.Z.Z.Z.Z.F.F.F.H.H.J.H.H.H.F.z.p.| Z 0 < & X   . O O @ = 5 7 t V ]  .a.k.z.Z.Z.Z.Z.Z.Z.V.V.z.V.z.z.z.k.k.k.s.p...| ` ) ) S S S S S S S ) S ) S ) ) ) S S Z m b 8 < % X X   . . O + = ; 5 e B H { a.l.x.Z.F.H.H.H.H.H.H.H.J.H.H.H.H.H.H.H.H.F.F.H.H.F.F.F.F.F.F.H.H.H.H.J.J.J.K.K.L.L.L.L.I.L.I.I.L.L.L.L.L.K.K.K.K.J.J.H.F.Z.V.z.k.k.k.k.z.z.z.V.V.V.V.V.z.z.k.k.s.s.s.p.p.p.p...........................| ....| | | | | | | | | | | | | | | | | | ....p.p.s.s.s.s.s.s.s.p.p.........................| | ..| ..| ......p.p.p.p.p.p.p.....| ` ` S Z m 0 2 % # X     . O O * = 5 7 t V ] ' a.k.z.V.Z.Z.Z.Z.Z.Z.V.V.z.z.k.s.p.p...| | | ` ` ` ` ` ` ` ) ` ` ` ` ` ) ) ) S S S S S S S S S ) S ) S S Z Z m m b 0 0 2 < % # X X     . o + * ; 5 7 t N H _  .a.s.k.k.k.s.p.p.....| | | | | | | | | | | ` ` ` ) S Z b 8 2 % # X         ",
": > y 5 7 r N H ` X.l.z.V.Z.F.F.H.F.H.H.H.H.H.H.H.H.F.F.F.F.F.F.F.F.F.F.F.H.J.J.J.K.K.K.K.L.K.L.K.K.K.K.K.J.J.H.F.F.F.Z.F.Z.F.F.F.F.F.H.H.F.H.H.H.F.H.H.H.H.H.J.H.H.H.H.F.Z.Z.V.V.z.z.z.z.z.z.V.V.V.V.V.Z.Z.Z.F.F.F.H.H.J.H.J.J.F.Z.V.s.` Z 0 2 # X   . . O @ = ; 7 t V H  .a.k.z.V.Z.Z.Z.V.V.V.V.z.z.z.z.z.k.k.s.p.p...| ` ) ) S S S Z S S S S S ) S ) ) ) S S Z m 0 2 < % X X   . . O @ = 5 7 e C H { X.l.V.Z.F.F.H.H.H.H.H.H.H.H.H.J.H.H.H.H.H.H.H.H.F.F.F.F.H.F.H.F.H.H.H.H.J.K.K.K.K.L.L.I.L.I.L.L.L.L.L.L.L.L.L.L.K.K.J.H.F.Z.V.z.k.s.s.s.k.k.z.V.V.V.V.V.V.z.z.k.k.k.s.s.p.p.p.........................| ..| | | | | | | | | | | | | | | | | | | | | ....p.p.p.s.s.s.s.p.p.p...p.........................| ..............p.p.p.p.p.....| | ` ) ) Z b 8 2 % X X X   . . + * ; ; 7 t N H  .X.k.x.V.Z.Z.Z.Z.Z.Z.V.V.z.k.s.p.p...| | | ` ` ` ` ) ) ` ` ` ` ` ` ` ` ` ` ) ) S S S Z S S S S S S S S S Z Z m m b 0 0 2 < % % X X     . o O * = ; 7 e B H _ X.p.s.k.k.s.s.p.....| | | | ..| ......| | | | ` ) ) S m b 8 2 % # X         ",
": > > y 7 t N H ' X.k.z.V.Z.F.F.H.H.H.H.H.H.H.F.F.F.F.F.F.Z.F.F.F.F.F.F.H.H.H.J.K.K.K.K.L.L.L.L.L.L.K.K.K.J.J.H.H.F.F.F.F.F.F.F.F.H.H.F.H.H.H.H.H.H.H.H.H.J.H.H.H.H.H.F.F.Z.Z.V.z.z.z.z.z.z.V.z.V.V.V.Z.Z.Z.F.F.F.H.H.H.H.J.J.H.H.Z.z.s.| Z 0 < #   . . O O @ = 5 7 t V H ' a.s.z.V.V.V.V.V.z.z.z.k.z.k.k.k.k.s.p.p...| ` ` ) S S Z Z S Z S S S S S S S S S S Z m b 0 2 < # X X     . O + * ; 5 e C H { a.l.V.Z.F.H.H.H.H.H.H.J.J.H.H.H.J.H.H.H.H.H.F.F.F.F.F.F.F.F.F.H.H.H.H.J.J.J.K.K.L.L.L.L.L.L.L.L.L.L.L.L.L.L.L.L.L.K.K.H.F.Z.V.k.k.s.s.s.s.k.k.z.V.V.V.V.V.z.z.z.k.k.k.s.s.p.p.p.........................| ..| | | | | | | | ` | | | | | ` | | | | | | ....p.p.p.s.s.p.p.p.p.p.............................| ................p.........| | ` ) S Z m 0 2 < # X   . . O + = ; 5 7 t V H ' a.d.z.V.V.Z.Z.Z.Z.V.V.z.z.k.s.p.....| | ` ` ` ` ` ` ` ) ) ` ` ` ` ` ` ` ) ) ) S S S S S S S Z S S S S Z Z Z m m b 0 8 2 < % # X X     . . @ * ; 5 5 t C H '  .p.s.k.k.s.s.p...| | | | | | | ..| | | | | ` ` ) S Z m b 8 < % # X         ",
": > y 5 5 t N H ' X.d.z.V.F.F.F.F.H.F.H.H.H.F.H.H.F.F.Z.F.F.Z.F.F.Z.F.F.F.H.J.J.K.K.L.L.L.L.L.L.L.L.L.L.K.J.J.H.H.F.F.F.Z.F.F.F.F.F.H.H.H.F.H.H.F.H.H.H.H.H.H.H.H.H.H.F.F.Z.V.V.V.V.z.z.z.z.z.V.V.V.V.Z.Z.Z.F.F.F.H.H.H.J.J.H.J.H.F.z.s.` Z 0 < #     . O + @ ; 5 7 t N H ' X.d.k.x.z.z.z.z.k.k.s.k.s.s.s.s.p.p.p.....| ` ) S Z Z Z Z Z Z Z Z Z Z Z Z S S Z Z Z m b 0 2 % # X     . . O @ * 5 7 e C H { X.l.z.Z.F.F.H.H.H.H.H.H.H.H.H.J.H.H.H.H.H.F.H.F.F.F.F.F.F.F.F.H.F.H.H.J.J.J.K.K.K.K.L.L.L.L.L.L.L.L.I.L.L.L.L.L.L.L.K.J.F.Z.V.k.s.s.p.s.s.k.k.z.z.z.V.V.V.V.z.z.k.k.k.s.s.s.p.p...p.p.................| | | | | | ` | | ` | | | | ` ` | | ` ` | | | | ....p.p.p.p.p.p.p.p.............................................p...p.........| | | ` ) ) Z b 0 2 % # X     . . + @ = 5 7 t N H  .a.d.z.V.V.Z.V.Z.V.V.V.z.k.k.s.p.....| ` ` ` ` ) ) ) ) ` ` ) ` ` ` ` ` ` ` ) ) S S S S Z Z S S S S S Z Z Z m m b b 0 8 8 2 % # X X     . o O * = ; 7 t N F _ X.a.d.k.k.k.s.p.....| | | | | ....| ....| | ` ) ) S Z m 0 8 2 % X X         ",
": > > y 7 t N H ' a.l.z.Z.F.F.F.H.H.H.H.H.H.H.F.F.F.F.F.F.Z.F.Z.Z.F.F.F.H.H.H.J.K.K.L.L.L.L.L.I.I.L.L.K.K.J.J.J.H.F.F.F.Z.F.F.F.H.F.H.H.F.H.F.H.H.F.F.H.H.H.H.H.H.F.F.F.F.Z.V.V.V.z.z.V.z.V.V.V.V.Z.Z.Z.Z.F.F.F.F.H.H.H.H.J.J.H.F.F.z.s.` Z 0 < #     . O O @ = 5 7 w N F _  .X.s.s.k.k.k.s.s.s.p.p.p.p.........| | ` ) S S Z Z m m m m m m m m m Z m Z m Z m m b 0 8 < % # X     . . O = = 5 5 e B F ' X.l.V.Z.F.H.H.H.H.H.F.H.H.H.H.H.H.H.H.H.H.H.F.F.F.F.F.F.F.F.F.F.H.H.H.J.J.K.J.K.K.L.L.L.L.L.L.L.L.L.L.L.I.L.I.L.L.L.K.J.H.F.V.z.k.s.s.s.s.k.z.z.V.V.V.V.V.z.V.z.z.k.k.k.s.s.s.p.p.p...............| ....| | | | ` | | ` ` | ` | ` | ` | ` | ` | | | | ........p.p.p.p.p.......| ....| ..| ........................................| ..| ` ` ) S Z b 0 2 < # X X   . . + * = ; 7 t N H ' X.s.z.z.V.Z.V.V.V.V.z.z.k.s.s.p...| | ` ` ` ` ) ` ) ) ) ) ` ` ` ` ` ` ` ) ) ) S S S Z S S Z S S S Z Z Z Z m m m b 0 8 2 2 % # #       . . @ * ; 5 7 t N A ]  .p.s.s.k.s.s.p...| | | | | | ......| | | | ` ` ) S Z m 0 8 < % # X         ",
": > y 5 7 t V H ' a.l.V.Z.Z.F.H.H.H.H.H.H.H.H.H.H.F.F.F.F.F.Z.F.F.Z.Z.F.F.H.J.J.K.K.L.L.L.I.I.L.L.L.L.L.L.K.J.H.H.H.F.F.F.F.F.F.F.F.F.F.F.F.F.F.F.F.F.F.F.F.F.F.H.F.F.F.F.Z.Z.V.V.V.z.V.V.V.V.V.Z.V.Z.Z.F.Z.Z.F.F.F.F.H.H.H.J.H.F.Z.z.p.` Z 0 < # X   . . O = = ; 7 e B M D _ | | ............| | | | | | ` ` ` ) ) S S Z Z m b b b b b b b b b b b b b b b b b 0 8 2 < % # X X   . o O @ = ; 5 e C H { a.d.z.Z.Z.F.F.H.H.H.H.H.H.H.H.H.H.H.H.H.H.F.H.F.F.F.Z.F.F.F.F.H.H.H.H.H.J.J.J.K.K.K.K.K.L.L.L.L.L.L.L.L.L.I.L.I.I.L.K.J.H.F.V.z.k.k.s.s.k.k.k.z.z.V.V.V.V.V.z.z.z.z.z.k.k.s.s.p.p.p.p.........p.......| | | | | | ` | ` | ` | ` | ` | ` ` ` ` ` ` | ` | ..................| | | | | ..| | ..........p...........p.................| | | | ` ` S Z m 8 2 % # X     . O + * ; 5 7 t C H ' X.d.z.z.V.V.V.V.V.z.z.k.k.s.s.p.p...| | ` ` ` ) ) ) ) ) ) ) ) ` ` ` ` ` ) ) ) S S S S S S S S S S S S Z Z Z m m b b 0 2 < % # X X     . o + * = 5 5 e C H _ | X.s.k.s.s.s.p.....| | | ..| ..| ....| | ` ` ) S S Z m 0 2 < % X X         ",
": > > 5 7 t N H  .a.k.V.Z.F.F.H.H.H.H.H.H.H.H.F.H.F.F.F.F.F.F.Z.Z.F.F.F.F.H.J.J.K.K.L.L.L.I.I.L.L.I.L.L.K.K.K.J.H.H.H.F.F.F.F.F.F.F.F.Z.F.Z.Z.F.F.Z.F.F.F.F.F.F.F.F.F.F.Z.Z.Z.Z.Z.V.V.V.V.Z.Z.Z.Z.Z.Z.F.F.Z.F.Z.F.F.F.F.H.H.H.H.F.Z.z.p.` Z 0 2 #   . . O + @ ; 5 5 7 r N M D S ) ) ` ` ) ) ) ) S ) S S S S Z S Z Z m m m b 0 0 0 0 8 8 8 8 0 8 0 8 0 0 0 0 8 8 8 2 < % # X X       . O @ = 5 5 e C F { X.l.z.V.F.F.H.F.H.F.F.H.H.H.H.H.H.J.H.H.H.F.F.F.F.Z.Z.F.F.F.F.H.H.H.H.J.H.J.J.K.J.K.K.L.L.K.L.L.L.L.L.I.I.L.I.I.L.L.L.J.J.F.Z.V.z.k.k.k.k.z.z.z.z.V.V.z.V.z.V.z.z.z.z.k.k.k.s.s.p.p.p.p.p.............| | | | ` ` | ` | ` | | ` ` | | ` ` ` ` ` ` ` | | | | ......| ..| | | | | ` | | | | ..........p.............p...p.............| | ` ` ) S Z m 0 2 % # X   . . . @ = = 5 7 t N H ' X.s.k.z.z.V.V.z.z.z.k.k.k.s.p.p.....| | | ` ` ) ) ) ) ) ) ) ` ) ` ` ` ) ) ) ) ) S S S S S S S S S S S S Z Z m m b 0 0 2 < % # X   X   . . + * = ; 5 e N H _  .X.d.s.s.s.p.p.......| | | | | | ..| | | ` ` ) S S Z b 0 8 < % # X         ",
": > > i 7 t F ]  .a.x.V.F.F.H.H.H.H.H.H.H.H.H.H.H.H.F.H.F.F.F.F.F.Z.F.F.H.H.H.J.K.L.L.L.I.L.I.I.I.L.L.L.L.K.J.J.J.H.H.F.F.F.Z.Z.Z.Z.Z.Z.Z.Z.Z.Z.Z.Z.Z.Z.Z.Z.Z.F.F.Z.F.Z.F.Z.Z.Z.Z.Z.Z.Z.Z.Z.Z.Z.F.Z.Z.F.Z.F.Z.Z.Z.Z.Z.F.F.H.H.H.F.Z.z.p.` Z 0 < #     . . + = = ; 5 7 e r q b M M Z m Z Z Z m m m m m m m b b b b 0 0 0 8 8 8 2 2 2 2 2 2 2 2 2 2 2 2 2 2 2 2 2 2 < % # X X X     . . O + * ; 7 e B H { X.l.x.V.Z.F.F.F.F.H.F.F.F.H.H.H.H.H.H.H.H.H.H.F.F.F.F.F.F.F.F.F.H.H.H.H.J.J.J.J.K.K.K.K.K.K.L.L.L.L.L.L.L.I.I.L.L.L.L.K.J.H.F.Z.V.z.z.z.z.z.z.V.V.V.V.V.V.V.V.V.z.V.z.z.k.k.k.s.s.s.p.p.p.p...p.........| | | | | ` | ` ` | ` | ` ` ` ` ` ` ` ` ` ` ` ` ` | | | | | | ` ` ` ` ` ` ` ` | | ..| ..........p.....p.........p.........| ..| | ` ` ) Z b 0 2 < # X     . . O * ; 5 7 e C H ' X.a.k.z.z.z.z.z.z.k.k.k.s.s.s.p.p.....| | ` ` ` ) ) ) ) ) ) ) ) ) ) ) ) ) ) ) S S S S S S S ) ) ) S S S S Z m m b b 8 8 2 % # # X     . o + * ; 5 7 w B V _  ...p.s.s.s.s.p.......| | ....| ..| ..| | ` ` ) ) Z Z m 0 8 < % X X         ",
": > y y e t V ]  .d.z.Z.F.F.H.H.J.J.H.H.J.H.H.H.H.H.F.H.F.F.F.F.F.F.F.F.F.H.J.J.K.L.L.L.L.I.I.L.I.L.L.L.L.K.K.J.J.H.H.F.F.F.Z.Z.Z.Z.V.V.V.V.V.V.V.V.V.Z.V.Z.Z.Z.Z.Z.Z.Z.Z.Z.Z.Z.Z.F.Z.F.F.F.F.F.F.F.F.F.Z.Z.Z.Z.Z.Z.Z.Z.F.F.F.F.F.Z.z.p.` Z 0 < # X   . O + * ; 5 5 5 6 6 9 9 0 0 0 0 0 0 0 8 0 8 0 0 8 8 8 8 2 8 2 2 2 2 < < < < < % % % < % % < < % < < < < % % % # X X X         o o * = ; 7 e B F '  .d.z.V.Z.Z.F.F.F.F.F.F.H.F.H.H.H.H.H.H.H.F.H.F.F.Z.F.F.F.F.F.H.H.H.H.J.H.J.J.J.J.J.K.K.K.K.K.L.L.L.L.L.L.I.I.I.L.L.L.K.J.J.H.F.Z.V.V.V.V.V.z.V.V.V.V.V.V.V.V.V.z.z.z.z.z.k.k.k.s.s.s.p.p.p.p.........| | | | | | ` | ` | ` ` | ` ` ` ` ` ` ` ) ` ` ` ` ` ` ` | ` ` ` ` ` ` ) ) ) ` ` ` | | ........p.....p.......p...p.............| | | ` ) S Z m 0 2 % # X X   . O O = = 5 5 t N H ' X.p.s.k.k.z.k.k.k.k.s.s.s.s.p.p.......| | ` ` ` ) ) ) ) S ) ) ) ) ) ) ) ) ) ) S S S S S S ) S ) ) ) S S S Z m m b 0 0 2 < < # X       . . + * ; 5 7 e N F _ ' ..p.s.s.s.s.p.......| | ..| | ..| | | ` ` ` ) S S Z m 0 8 2 % X X         ",
": > ; i 7 t V ]  .d.C.Z.F.H.H.J.H.H.H.H.H.H.H.H.H.H.H.H.H.F.F.F.Z.F.F.F.F.H.J.J.K.K.L.L.I.L.L.I.I.L.L.L.K.K.K.J.J.H.H.F.F.F.Z.Z.V.V.V.V.V.z.V.V.V.V.V.V.V.V.V.V.Z.Z.Z.Z.Z.Z.F.F.F.F.F.F.F.F.H.F.F.F.F.F.F.Z.Z.V.V.V.V.V.Z.F.F.F.F.V.k.p.` m 8 < #     . O + * ; ; 5 5 4 4 1 3 < 1 < < < < < < < < < < < < < < < % % % % % # # # # # # # # # # # # # # # # # # # # X X X           . . + * = 5 5 e B F ' X.d.z.V.Z.F.F.F.F.F.F.F.F.H.F.H.H.H.H.H.H.H.F.H.F.F.F.Z.F.F.F.H.H.H.H.H.J.H.H.J.J.J.J.J.K.K.K.L.L.L.L.L.L.I.L.I.L.L.L.L.K.J.H.H.F.Z.Z.Z.Z.V.V.V.V.V.V.V.V.V.V.V.V.V.V.z.z.z.k.k.k.k.s.s.p.p.p.......| ..| | | | ` | ` | ` | | ` | ` | ` ` ` ) ` ` ) ) ` ` ` ` ` ` ` ` ) ) ) ) ) ) ) ` ` | | | ..........................p.........| ..| ` ` ) ) Z m 0 2 % # X   X . . + @ ; 5 7 t N F _  .X.s.k.k.k.k.k.s.s.s.s.p.p.p.p.p.....| | | ` ) ) ) S S S S S S ) S ) S S S S S S S S S S S ) ) ) S ) S S Z Z m b b 8 8 2 % # X X     . o + * = 5 7 e B F D ' X.a.s.s.p.s.p.p.........| | ..| | | ` ` ` ` ) ) Z Z b 0 8 < % # X         ",
": > > 5 e t V ] X.d.C.Z.H.H.J.H.J.H.H.H.H.H.H.H.H.H.H.H.H.H.F.F.F.F.F.F.F.H.H.J.K.K.K.L.L.I.L.L.L.L.L.L.L.K.K.J.J.H.H.H.F.Z.Z.Z.V.V.z.z.z.z.z.z.z.z.V.z.V.z.V.V.V.V.Z.Z.Z.F.F.F.F.F.H.F.H.F.H.H.H.H.F.F.Z.Z.V.V.V.z.V.V.Z.Z.Z.F.Z.V.k.p.` Z 0 < # X . . o * * ; 5 ; 5 - - & & $ # # % # # # # # # # # # # # # # X # X X # X X X X X X X X X X X X X X X X X X X X X X             o o o @ = ; 5 e C F ] X.d.k.V.V.Z.Z.F.Z.F.Z.F.F.H.H.H.H.H.H.H.H.F.H.F.F.Z.F.F.F.F.F.H.F.H.H.H.J.H.H.H.J.H.J.J.J.K.K.K.K.L.L.L.I.L.L.L.L.L.L.K.K.J.J.H.F.F.F.Z.Z.Z.Z.V.Z.V.V.V.V.V.V.V.z.V.V.z.z.z.z.z.k.k.k.s.s.s.p.........| | | | | | ` | ` | | ` | | ` ` ` ` ) ` ` ) ` ) ` ` ) ` ) ` ) ) ) ) S S ) S ) ) ` ` | | ....................................| | | | ` ) S Z b 0 2 % # X   . . o + = ; 5 7 w N F _ ` ..p.s.s.s.s.s.p.p...p.p...p.......| | | ` ` ) S S S S S Z S S S S S S S Z S Z Z S S S S S S ) S ) S S Z Z Z m b b 8 2 < % # X X     . o + * ; ; 5 w N V D ' ..p.s.s.p.p.p.p.......| ..| | | | ` | ` ` ) ) S S Z b 0 8 < % X X         ",
": : > 5 e t F ]  .d.V.Z.H.H.H.J.H.J.H.H.H.H.H.H.H.H.H.H.F.F.H.F.F.Z.F.F.H.H.H.J.K.K.K.L.L.L.L.L.L.L.L.K.K.K.K.J.J.H.H.F.F.Z.Z.V.V.z.z.z.z.z.k.z.z.z.z.z.z.z.V.z.V.V.V.Z.Z.Z.F.F.F.H.H.H.H.H.H.H.H.F.F.F.Z.V.V.V.z.z.z.V.V.Z.Z.Z.Z.V.k...) Z 8 < #     . o + * ; ; ; ; ; - $ $ X X X X X X X X X X   X X X X     X X X X X X   X X X X   X X X   X X   X   X X                     . o + * = 5 7 e N F _  .d.l.V.Z.Z.Z.F.Z.F.F.Z.F.F.F.F.H.H.F.H.F.H.F.F.F.F.F.F.F.F.F.F.H.H.H.H.H.H.H.H.H.H.H.H.J.J.J.K.K.L.L.L.L.L.L.L.L.L.K.K.J.K.J.H.H.H.H.F.F.Z.Z.Z.V.V.V.V.V.V.V.V.V.V.V.V.V.z.z.z.k.k.k.k.s.s.p.p.p.......| | | | | ` | | ` | | ` | | ` ` ` ` ) ) ) ) ) ) ` ) ) ` ) ) ) ) ) S S ) S ) ) ` ` | | ................................| | | | | ` ` ) S Z b 0 2 % # X     . . + * = ; 5 e t V D _  .......p.......| ..| | ..| | | | | | ` ) ) S S Z Z Z Z Z Z Z Z Z Z Z Z Z Z Z Z Z Z Z S S S S S S S S Z m m b 0 0 8 2 < % # X       . o + * = 5 5 e B A D ' | X.p.p.s.p.p.p.....| ..| | | | | ` ` ` ` ` ) ) S Z m 0 8 < % # X         ",
": > y 5 7 t F ] X.l.V.G.H.H.J.J.J.H.H.H.F.H.H.H.H.H.H.H.H.F.F.F.F.F.Z.F.F.F.H.J.J.K.K.L.K.L.L.L.K.L.L.K.K.K.J.J.J.H.H.H.F.Z.Z.V.z.z.z.k.z.k.z.z.k.z.k.z.z.z.z.V.V.V.V.V.Z.Z.F.F.H.H.H.H.H.H.H.H.H.F.F.F.Z.V.V.z.z.z.k.z.V.V.Z.V.V.z.k...) m 8 < # X   . . + * ; ; 5 ; = * $ o o o                                             X               X             .           X     X o o o * = = ; 5 e B H ] X.d.k.V.V.Z.Z.Z.F.Z.Z.F.F.F.F.F.H.H.H.H.H.H.H.F.F.F.F.F.F.H.F.H.F.H.F.H.F.H.F.F.H.F.H.H.H.J.J.K.K.L.K.L.L.L.L.K.K.K.K.K.K.K.J.H.J.H.H.F.F.Z.Z.Z.Z.V.Z.V.V.V.V.V.V.V.V.V.z.V.V.z.z.z.k.k.s.s.s.s.p.p.........| | | | | ` | ` | | ` ` ` ` ` ` ) ) ) ) ) ) ) ) ) ) ) ) ) ) S S S ) ) ) ) ` ` | | | ............| ..| ..| | | | | | | | | ` ` ` ) S Z b 8 2 < # X     . o + * ; ; 7 e t V A S ` ` | | | | ` ` ` ` ` ` ` ` ` ` ` ` ) ) S S Z Z m m m m m m m m m m m m m m m m m m m Z Z Z Z Z Z Z m m m b 0 0 8 8 < % % # X X   X . o + * = ; 7 e N F D ' | p.p.s.p.p.p.p.........| | | | ` ` ` ) ` ) ) ) S Z m 0 8 2 % X X         ",
": > > i e t F ]  .l.V.F.H.J.H.H.H.H.H.F.H.F.F.H.H.H.F.H.F.H.F.F.Z.F.F.Z.F.F.H.J.J.J.K.K.K.K.K.K.K.K.K.K.K.J.J.J.J.H.F.F.F.Z.V.V.V.z.k.z.k.k.k.k.k.z.k.z.k.z.z.z.z.V.V.V.Z.Z.F.F.H.H.H.H.J.H.H.H.H.F.F.Z.Z.V.V.z.z.k.k.z.z.V.V.V.z.z.s.| ) m 8 < #     . o @ * ; ; ; ; ; * * o . . . . . .   . . . . . . . . . . . . . . .   . . . . . . . . . . . . . .   . .   .     . o   . o o o o * = ; ; 5 e t F ]  .p.k.z.V.Z.Z.Z.Z.Z.Z.Z.F.Z.F.F.F.F.H.H.H.F.H.F.H.F.F.H.F.F.F.F.F.F.F.F.F.F.F.F.F.F.F.H.H.H.J.J.K.K.K.K.K.K.K.K.K.K.K.J.J.J.J.J.J.H.H.H.F.F.Z.Z.V.V.V.V.V.V.V.V.V.V.V.V.V.V.z.z.z.z.z.k.k.k.s.s.p.p.p.p.....| | | | | | | | | | | | ` | ` ) ` ) ) ) ) ) ) ) ) ) ) ) ) S ) ) S ) ) ) ) ` ` | | | | | | | | | | | | | | | | | | ` ` ` ` ` ) ) S S m b 0 2 % # X     . o + * ; ; 7 e w r M A S _ ) ) ) ) ) S ) S S S S S S S S S Z Z Z m m b b b b 0 b 0 b 0 b b 0 b b b 0 b b b b b b b m m b m b b 0 0 8 8 2 2 < % # X X       . o + * ; 5 5 e B F D ' X.p.p.p.s.s.p.p.......| | | | ` ` ` ` ` ) ) ) ) S Z m b 8 < % # X         ",
": : > 5 e t F ] X.l.C.F.H.H.J.H.H.F.F.F.F.F.F.F.F.F.H.F.F.F.F.F.F.Z.Z.F.F.F.F.H.J.J.J.J.K.K.J.K.K.K.J.J.J.J.J.H.H.H.F.F.F.Z.V.V.z.z.z.k.k.k.k.z.k.z.k.z.z.z.z.z.z.z.V.V.Z.Z.F.F.H.H.H.H.H.H.H.H.F.F.Z.Z.V.V.z.k.k.s.k.k.k.z.z.V.z.k.p.| S m 8 % #     o o + * ; ; y ; = = * + O . O . . . . . . . . . . O . . . O . . . . O . o . . . . . . . . . . . . . o . . . o . o o o o o $ $ * * = ; 5 7 e B H _ X.d.k.V.V.Z.Z.Z.Z.Z.Z.Z.Z.Z.F.F.F.F.F.F.F.H.H.H.F.H.H.H.F.F.F.F.F.Z.Z.Z.Z.Z.Z.Z.Z.Z.Z.F.H.H.J.J.J.K.K.K.K.K.K.J.J.J.J.J.J.H.J.J.J.H.H.H.H.F.Z.Z.Z.V.V.V.V.V.V.V.V.V.V.V.V.V.V.z.z.z.z.z.k.k.k.k.s.s.p.p...........| | | | | | | | | | ` ` ` ) ` ) ) S ) ) ) ) ) ) ) ) ) ) ) ) ) ) ` ` ` ` ` | | | | | | ` | ` ` ` ` ` ` ` ` ` ` ` ) ) ) ) ) S Z m b 8 < % # X   . . o + * ; ; 5 7 w 9 n n M M Z Z Z Z m m m m m m m m m m m m m b b b 0 0 0 8 8 8 8 8 8 8 8 8 8 8 8 8 8 8 8 8 0 0 0 0 0 0 0 0 0 0 8 8 2 2 < % % # # X X       o o + = = 5 7 w B F D _ ..p.p.s.p.p.p.p.....| | | | ` ` ` ` ) ) ` ) ) ) S S m b 8 2 % # X         ",
": > > y e B F ] +.d.V.F.H.H.H.H.H.F.F.F.F.Z.F.F.F.F.F.H.F.F.F.Z.Z.Z.Z.Z.Z.F.F.H.H.H.J.J.J.J.J.J.J.J.H.J.J.H.J.H.H.H.F.F.Z.Z.V.V.z.z.z.k.z.k.k.k.k.k.k.z.k.z.k.z.z.z.V.V.V.Z.F.F.H.H.H.J.H.H.F.F.F.Z.Z.Z.V.z.z.k.k.k.s.k.k.z.z.z.z.s.p.| S b 8 % #     . o $ = ; ; ; > ; = * + + O O O O O O O O O O O O O O O O O O O O O O O O + O O O + O + O + O O O + O O o + O + + o + $ * * * * * = ; > 5 e B F _  .d.l.z.V.Z.V.Z.Z.Z.V.Z.Z.Z.Z.F.F.F.F.H.H.F.H.H.H.H.H.H.H.F.F.F.F.Z.Z.Z.V.Z.V.Z.Z.Z.Z.Z.F.F.H.H.J.K.J.K.J.J.J.H.J.H.H.H.H.H.H.J.H.H.H.H.F.F.Z.Z.Z.V.V.V.V.V.V.V.V.V.V.V.V.V.V.V.V.V.z.z.z.z.k.k.k.k.s.s.p.p.....| | ..| | | | | | | | | ` ` ` ) ) ) ) ) S ) ) ) ) ) ) ) ` ) ` ` ` ` ` ` | | ` ` ` | ` ` ` ` ` ` ` ` ) ` ` ) ) ) ) ) ) ) S S S Z m 0 8 2 % # X     . o @ * ; ; 5 5 7 w 9 9 0 0 b 0 0 0 0 0 0 0 0 0 8 0 0 0 0 0 8 0 8 8 2 2 2 2 2 < 2 < 2 2 < 2 2 < 2 2 2 2 < 2 2 2 2 2 2 2 2 2 2 2 < < < < % % # X X X         . o + * ; ; 7 e B F D ' ..a.p.s.s.s.p.......| | | ` ` ` ` ` ) ) ) ) ` ) S S Z b 0 2 % # X         ",
": > > 5 7 t G ] X.l.V.F.F.H.H.H.F.F.Z.Z.Z.Z.Z.F.F.F.F.F.F.F.F.Z.Z.Z.V.Z.Z.F.F.F.H.H.H.H.J.H.H.H.H.H.H.H.H.H.H.H.H.F.F.F.Z.Z.V.V.V.z.k.k.z.z.k.k.z.k.z.k.z.k.z.z.z.z.z.V.V.Z.Z.F.H.H.H.H.H.F.F.F.F.Z.V.V.z.z.k.k.k.s.s.k.k.k.k.k.k.s...` S b 2 < #   . . o * * = ; > > ; ; = = @ @ + @ + + + + @ + @ @ O @ + @ @ @ @ @ + * @ @ * @ @ @ + * @ + @ * @ + @ + * @ * * * * * * * - * = ; = ; = > 5 5 w B H _  .a.z.V.V.Z.Z.V.Z.Z.V.Z.Z.Z.Z.Z.F.F.F.F.F.H.H.H.H.H.H.H.H.F.F.F.Z.V.V.V.V.V.V.V.V.V.V.Z.Z.F.F.H.J.J.J.J.J.H.H.H.F.F.F.F.H.H.H.H.H.H.H.H.F.F.F.Z.V.V.V.V.V.V.V.V.V.V.V.V.V.V.V.V.V.V.z.V.z.z.z.z.k.k.k.s.s.p.p.........| | | ..| | | | | ` ` ` ) ) ) ) ) ) ) ) ) ) ) ) ` ` ` ` ` | ` ` ` ` ` ` ` ` ` ` ` ) ` ) ) ) ) ) S S S S S S S S S S S Z Z b 0 8 < % X X     o o * * ; ; 5 5 4 6 3 3 2 2 2 2 2 2 2 2 2 2 2 2 2 2 2 2 2 < 2 < < < < % < % % % % % % % % % % % % % % % % % < < % < < < < < % % % % % # # # X X X           . o + * ; ; 5 e N F _ ` X.a.p.p.s.p.p.X.....| | ` ` ` ) ) ) ) ) ) ) ) ) ) S Z b 0 2 % # X         ",
": : y 5 e t F ] X.l.A.Z.H.H.H.H.F.F.Z.Z.Z.Z.Z.Z.Z.F.F.F.Z.Z.Z.Z.Z.Z.Z.V.Z.Z.Z.Z.F.F.H.H.H.H.H.H.H.F.H.H.H.F.F.F.F.F.F.F.Z.V.V.V.z.z.z.k.k.k.k.z.k.k.k.z.k.z.k.z.z.z.z.V.Z.Z.F.F.F.H.H.H.H.H.F.F.Z.Z.V.V.z.z.k.k.s.s.s.s.k.k.k.s.s.p...` Z b 2 % #       o + * - 5 ; 5 > > ; ; = = = = = = = = = @ = = = = = * = * * ; * = = * = = = = ; * ; ; * = = = ; = * = = ; * = ; = - - = ; ; ; = ; > y 7 e B F ] X.d.k.z.V.Z.Z.Z.V.Z.Z.V.Z.Z.Z.Z.Z.F.F.F.F.H.H.H.J.J.J.J.H.H.F.Z.Z.V.V.V.z.z.z.z.z.z.V.V.Z.Z.F.H.H.H.H.J.H.H.H.F.F.F.F.F.F.F.H.H.H.H.H.H.F.F.Z.Z.Z.V.V.V.V.V.V.V.V.V.V.V.V.V.V.V.z.V.V.V.V.z.V.z.z.z.k.k.s.p.p.....| ..| ..........| | | ` ` ` ) ` ) ) ) ) ) ) ) ) ) ` ` ` ` | | | | | | | ` ` ` ` ) ) ) ) ) ) S ) S S S S S S S Z Z S Z Z Z Z m b 0 2 < % # X       o * = ; ; 5 5 - 4 & & 1 % % < % % % % # % % % # % % % % % % % % # % # # # # # X # # # # # X # # # # # # # # # # # # # # # # # # # # X X X X X X             o * * ; 5 7 e B V _ _ ..p.p.s.s.p.p.....| | ` ` ` ) ) ) S ) ) ) ) ) ) _ S Z b 0 2 % # X         ",
": > > 5 7 B F ]  .l.z.F.H.H.H.F.F.Z.Z.Z.Z.Z.Z.Z.Z.F.Z.F.F.Z.Z.Z.V.Z.V.V.V.Z.Z.Z.Z.F.F.F.F.F.F.F.F.F.F.F.F.F.F.F.F.F.Z.Z.Z.Z.V.z.z.z.z.z.z.k.z.k.k.z.z.k.z.k.z.k.z.z.z.V.V.V.Z.F.F.H.H.H.F.F.F.Z.Z.V.V.V.z.z.k.k.s.s.s.s.k.s.k.s.s.p...) Z 0 2 % # X   . o $ = ; ; y y y > 5 5 5 ; ; ; 5 ; ; ; 5 ; 5 ; ; ; 5 ; 5 ; ; ; 5 ; ; 5 5 ; ; ; ; ; 5 ; 5 ; ; 5 ; 5 ; ; 5 ; ; ; ; ; ; ; 5 ; ; > ; > > 5 5 e B F _  .d.k.z.V.Z.V.Z.Z.V.Z.V.V.Z.Z.Z.Z.F.F.F.F.H.H.J.J.J.J.H.H.H.Z.Z.V.V.z.z.z.z.z.z.z.z.V.V.V.Z.F.F.H.H.H.H.H.F.F.F.Z.Z.Z.Z.Z.F.F.H.H.F.H.H.F.F.Z.Z.Z.V.V.V.V.V.V.V.V.V.V.V.V.V.V.V.V.V.z.V.V.V.V.z.z.z.z.k.s.s.p.p...................| | | | ` ` ) ) ) ) ) ) ) ) ) ) ) ` ` ` | | ..| | | | ` ` ` ` ) ) ) ) ) ) S S S S Z S Z Z Z Z Z Z Z Z Z Z m m b 0 2 < % X X   o o o * = ; 5 5 5 - - $ $ # # # # X X X X X # X X X X X X X X X X X X X X X X X X X X X X X X X X X X X X X X X X X X X X X X X X X X X X   X             X . . o + = = ; 7 w B V D _  ...p.p.p.p.....| | ` ` ` ) S _ S S S S S ) ) ) S S m b 0 2 < # X         ",
": > y y e t F { X.l.C.Z.F.H.H.H.F.F.Z.V.Z.V.Z.Z.F.Z.F.Z.Z.Z.Z.Z.Z.Z.V.V.V.V.Z.Z.Z.Z.Z.Z.Z.F.F.F.F.F.F.F.F.Z.F.F.F.F.Z.F.Z.Z.V.V.V.z.z.k.k.z.k.z.z.z.k.z.k.z.k.z.k.z.z.z.V.Z.Z.F.F.H.F.F.F.F.F.Z.Z.Z.V.z.z.z.k.k.k.s.k.s.s.s.k.s.p.p.| ) Z 0 2 % X o . . . * * ; ; > 5 5 y 5 i 5 7 5 7 7 5 7 7 5 7 7 5 i 5 7 7 5 7 7 5 7 7 5 7 5 7 7 7 5 7 5 7 5 7 5 7 5 7 5 7 5 5 7 5 5 5 5 > 5 > ; > > > > > 5 e B F _  .d.k.V.V.V.Z.V.V.V.V.V.Z.V.Z.Z.Z.Z.F.F.H.H.H.J.J.J.J.J.H.F.F.Z.V.V.z.z.z.k.z.k.z.z.z.z.V.V.Z.F.F.F.H.H.F.F.Z.Z.Z.Z.Z.Z.Z.F.F.F.H.H.F.F.F.Z.Z.Z.V.Z.V.V.V.V.V.V.V.V.V.V.V.V.z.V.z.V.z.V.V.z.V.V.V.z.k.k.s.s.p.p.p...................| | ` ` ` ` ) ) ) ) ) ) ) ) ` ) ` ` | | | | | | | | | ` ) ) ) ) ) S S S S S S Z Z Z Z Z m m m m m Z m m m b 0 0 2 < % X X       o * = - ; ; ; - * * $ o     X   X X   X   X   X X   X   X X     X     X   X   X     X     X     X X         X   X   X X     X                             o o * * ; 5 5 e B V D _ | ..X.......| | ` ` ) ) ) S D S S Z S D S S S S S Z Z b 8 2 % X X         ",
": : y 5 e t F ] X.l.C.F.F.H.H.F.F.Z.Z.Z.Z.Z.Z.Z.Z.Z.F.Z.F.Z.Z.Z.V.V.V.V.V.V.V.V.V.Z.V.Z.Z.Z.Z.Z.Z.Z.F.F.Z.F.F.F.Z.F.Z.Z.Z.Z.V.V.V.z.z.z.z.z.z.k.z.k.z.k.z.k.k.k.k.z.z.z.V.V.Z.F.F.F.F.H.F.F.F.Z.Z.V.V.V.V.z.z.k.k.k.k.s.k.k.k.k.s.p.| ) Z 0 2 % X     . o + * ; ; y i i 5 f e e t t e t t t e t t e t e t e t e e t e e t e e e e e t e e e t e e e e e e e e e e 7 7 5 i i 5 y 5 > > > > > y i e B H _  .d.x.z.V.Z.Z.V.Z.V.V.Z.V.Z.Z.Z.F.F.F.F.H.H.J.J.J.J.J.J.J.F.F.Z.V.V.z.z.k.k.z.k.k.z.z.z.V.V.Z.Z.Z.F.F.F.F.F.Z.Z.V.Z.Z.V.Z.Z.F.F.F.F.F.F.F.Z.Z.Z.V.V.V.V.V.V.V.V.V.V.V.V.V.V.V.z.z.z.V.z.z.z.V.z.z.z.z.k.k.s.s.p.p.p...p.......p.......| | ` ` ` ) ) ) ) ) ) ) ) ) ) ` ` | | | | | | | | ` ` ) ) ) ) S S S S S Z Z Z Z Z m m m m m m m m m m m b 0 8 2 % # X X   o o o $ ; ; > ; ; = - $ o o                               .     .         .       .     .   .         .     .                           X                 . o o o * = ; ; 5 e t N F D _ ` |  .| | ` ` ) _ S S D D Z Z Z m Z A Z D A Z Z A b n 8 3 % # X         ",
": > y 5 e t F ]  .l.V.G.H.H.H.H.F.F.Z.Z.Z.Z.Z.Z.Z.F.Z.F.Z.Z.Z.V.V.V.V.V.V.z.V.V.V.V.V.V.V.V.Z.Z.Z.Z.Z.Z.Z.F.F.Z.Z.F.F.Z.Z.Z.Z.V.z.z.z.z.z.k.k.z.z.k.k.z.k.k.z.z.k.z.z.z.V.V.Z.Z.F.F.F.F.F.F.F.Z.Z.Z.Z.V.V.V.z.z.z.k.z.k.k.k.k.k.s.p...` Z 0 2 % X X   . . @ * ; 5 y 5 e t t t C C C C C G C V C C C V C C C C C C N C C N C N B N B C N N N C N C N N C B C N t t t t e 7 5 y y y > > > > > 5 7 e N F _ ..a.k.z.V.V.V.Z.V.V.V.V.V.Z.Z.Z.F.F.F.F.H.H.J.J.J.K.J.J.H.H.F.Z.V.z.k.k.k.k.k.k.k.z.z.z.z.V.V.Z.Z.Z.Z.F.Z.Z.Z.Z.Z.V.V.Z.Z.Z.Z.F.F.F.F.F.F.Z.Z.V.Z.V.V.V.V.V.V.V.V.V.V.z.z.z.z.z.z.z.z.z.z.z.z.z.z.z.k.k.k.s.s.s.p.p.p.p.p.p...p.......| | | ` ` ` ` ` ) ) ) ) ) ) ` ` ` ` | | | | | ` ` ` ` ) ) S S S S S Z Z S Z Z Z m m m m m b b b m m m b b 0 8 2 < # # X       o * * ; ; ; ; = * @ O . o . . . . . . . . . . . . . . . . . . . . .   . . . . . . . .   . . . .   . . . .   . . . . . . . . . . . . . . . . . .   . . . o o + * = : 5 5 7 e r V H D _ _ _ _ _ _ D D Z A A A M M M n M n n M m A M M M n 0 2 < % X X         ",
": > > y e B G ] X.l.V.Z.F.H.H.H.F.F.F.Z.Z.Z.Z.Z.F.F.Z.Z.Z.Z.Z.V.V.V.z.V.z.z.z.z.z.z.z.V.V.V.V.V.Z.Z.Z.F.F.F.Z.F.F.F.Z.F.Z.V.Z.V.V.V.z.z.z.z.z.z.k.z.k.z.z.k.k.k.z.k.z.z.z.V.V.Z.Z.F.Z.F.F.F.Z.F.F.Z.Z.Z.V.Z.V.V.z.z.z.z.z.z.z.k.k.s...) Z b 8 % #     . . + * ; ; 5 7 f t C G F H H ] ] { ] ] ] ] ] ] ] ] H H H H H H H H H F H H F H F H F F F H F H F H F F F C C C t e i 5 i y , > , > > 5 5 e N F ]  .d.k.V.V.Z.V.V.V.V.V.V.V.Z.Z.Z.F.F.H.H.J.J.J.J.K.J.K.J.J.F.Z.Z.V.z.z.k.k.k.k.k.k.k.z.z.z.V.V.V.Z.Z.Z.Z.Z.Z.V.V.V.V.Z.Z.Z.Z.Z.F.F.F.F.Z.Z.Z.Z.Z.V.V.V.V.V.V.V.V.V.V.V.z.z.z.z.k.z.k.k.k.k.k.k.k.k.k.k.s.s.k.s.s.s.s.p.p.p.p.p.p.p.......| | ` ` ` ` ) ) ) ) ) ` ) ` ` ` ` | ` | | | ` ` ) ) ) S ) S S S S S Z S Z Z Z m m m b m b b m m b b b b 0 8 < % # X X   o o $ * = ; ; 5 ; ; * * + O O O . . O . . O . O . O . . . . . O . . . O . O O . . . . . . . O . . O . O O . . O . O O O O . O . O O . . o . . . . . o o o o + + * = = = ; 5 5 e r B V M F D D A A A A M M V M n N n q N n q q n n N n n n 9 3 3 & #   X         ",
": : > 5 7 t V ] +.l.V.F.H.H.J.H.H.F.F.F.Z.F.F.F.F.Z.F.F.Z.Z.Z.V.V.V.V.z.z.z.z.z.k.z.k.z.z.z.V.V.Z.Z.Z.Z.Z.F.F.F.F.Z.F.Z.Z.Z.V.V.V.z.V.z.z.z.k.z.z.k.z.k.z.k.z.k.k.z.z.z.z.V.V.V.Z.Z.Z.F.Z.F.F.F.F.F.F.Z.Z.Z.Z.V.Z.V.V.V.V.V.V.z.k.s...` S b 2 % #     . o + * = 5 y e t C G H { o. .+.+. .+. .+.+. .o.o.o. .o.{ { ' { { { { ' { { ' ] ' { ' { ' { { _ ' _ _ _ _ H F N C t e 7 i y > > : > > y i e B A _  .d.k.z.V.Z.Z.V.V.V.V.Z.Z.Z.Z.F.F.H.H.H.H.J.J.K.J.K.J.J.H.F.F.Z.V.z.z.z.k.k.k.k.z.k.k.k.z.z.V.V.V.V.Z.V.Z.Z.Z.Z.Z.Z.Z.V.Z.Z.Z.Z.Z.Z.Z.Z.Z.Z.V.V.V.V.V.V.V.V.Z.V.V.V.V.V.z.z.k.k.k.s.k.s.k.s.k.s.k.s.k.s.k.s.s.s.s.s.s.s.s.p.s.p.p.p.......| | ` ` ) ` ) ) ` ) ) ) ) ) ` ` ` ` | ` ` ` ` ) ) ) S S S S S S Z S Z Z Z Z m m m b b b m b b b m b b 0 8 2 % # X X       o * = - ; > ; ; = = @ + O O O O O O O O O O + O O O O O O O O O O + O O O + O O + + O O O + O O O O + O O O O O O O O O O O O + O O O @ O @ O + + O O @ + * = = = : > > y 7 7 e r N N N n V n N B n r r r 9 r 9 w w w w w w r w r r w w 1 1 & $ X           ",
": : > 5 e t F ]  .l.V.G.H.J.H.H.H.H.F.F.F.F.F.F.F.F.Z.F.Z.Z.Z.V.V.z.z.z.z.k.k.k.k.k.k.k.k.z.V.V.V.Z.Z.Z.Z.F.F.Z.Z.F.F.F.Z.Z.Z.V.V.V.V.z.V.z.z.z.k.z.z.k.k.k.z.k.z.k.z.z.z.z.V.V.V.Z.Z.Z.F.F.F.F.F.F.F.F.F.F.F.F.Z.Z.Z.Z.Z.Z.V.z.z.k.p.` S b 8 < X X   . . O @ = 5 5 t B G H { X.a.d.l.l.d.d.l.d.h.d.d.a.d.d.a.a.a.a.a.a.a.X.X.X.X... .X.X.X.X.X.X.X... .X. . . .' H H N B e 7 i y > > > > > > 5 e B F _  .d.l.V.V.Z.Z.V.V.V.V.Z.Z.Z.F.F.F.H.J.H.J.J.J.K.K.K.J.J.J.F.F.Z.V.z.z.k.k.k.z.k.k.z.k.z.z.z.z.z.V.V.V.V.V.Z.V.Z.V.Z.Z.Z.Z.Z.Z.Z.Z.Z.Z.Z.Z.Z.Z.V.V.V.V.V.V.V.V.V.V.V.V.z.z.k.k.s.s.s.s.p.s.s.p.s.s.s.s.s.s.s.k.s.k.s.s.s.s.s.s.p.p.p.p.....| | ` ` ` ` ) ` ) ) ) ) ) ` ) ` ` ` ` ` ` ` ) ) S S S S S S S Z S S Z Z Z Z m m b b b b b b b b b b 0 0 2 2 % # X X X o o o * * ; ; y ; > ; = = @ @ @ @ @ @ @ + @ @ + @ @ @ @ @ @ + @ @ @ @ @ + @ @ @ * * * * @ = @ @ @ @ @ @ + * @ + * @ + @ @ @ @ * @ + * @ * @ @ + * @ * * @ = = = = = = ; > ; 5 5 7 e e e r r r r r r w w e w w 7 6 6 6 6 6 w 7 6 6 w 6 6 6 6 1 & $ #   X         ",
": > y i e t F ] X.d.C.F.H.H.J.J.H.H.H.H.H.F.F.F.F.F.F.F.Z.Z.V.V.V.V.z.z.z.k.k.k.k.k.s.k.k.z.z.V.V.Z.F.Z.F.F.F.F.F.F.Z.Z.Z.Z.Z.Z.V.V.V.V.z.z.z.z.z.z.z.k.z.k.z.k.k.k.z.z.z.V.V.V.V.Z.Z.Z.Z.F.F.F.H.F.H.F.F.F.F.F.F.F.Z.F.Z.Z.Z.V.z.k.p.| S b 8 % #     . O O @ ; 5 7 t C J { +.a.l.x.V.C.V.C.C.x.V.z.x.x.x.l.x.l.l.l.l.l.d.d.s.d.d.d.d.d.d.d.d.s.d.p.d.d.a.s.a... .' D H N t e 5 y > > : > > 5 5 e B H _  .d.k.z.V.V.V.Z.V.V.V.V.V.Z.F.F.H.J.J.J.J.K.K.K.J.K.J.J.H.F.F.Z.V.z.z.k.k.k.k.k.k.z.z.z.z.z.z.z.z.z.V.V.V.V.V.Z.Z.Z.Z.Z.Z.Z.Z.Z.V.Z.V.Z.V.V.V.V.V.V.V.V.V.V.Z.V.V.z.z.z.z.k.s.s.s.p.p.p.p.p.p.p.p.p.s.s.s.s.s.k.s.k.k.k.s.s.s.p.p.p.p.......| ` ` ` ` ` ) ` ` ) ) ) ) ` ` ) ` ` ) ) ) ) ) ) S S S S S Z S Z S Z Z Z m m m m b b b b b b b b b 0 8 8 < % # #         o $ * ; ; > y ; ; > ; ; = ; = = = = ; = ; = = = * ; * = ; ; * ; * = ; ; = ; = = = = = = = = = ; = ; ; = ; = = ; ; * = ; * ; * ; = = = ; * ; = ; * ; = ; = ; > > > > > y y i 5 5 e e e e e 7 7 e e 7 7 7 6 7 7 7 7 7 5 7 7 7 e 5 7 7 7 4 - - $ o o X         ",
": > > 5 7 t F ] X.l.V.Z.F.J.J.H.J.H.H.H.H.F.H.F.F.F.Z.Z.Z.V.Z.V.V.z.z.z.k.k.k.s.k.s.k.s.k.z.z.V.V.Z.Z.F.Z.F.F.F.F.Z.Z.Z.Z.Z.Z.V.V.V.V.V.V.z.z.z.z.k.z.k.k.z.k.z.k.z.z.z.z.V.V.V.V.Z.V.Z.Z.F.F.F.F.H.H.H.H.H.H.F.F.F.F.F.F.F.Z.Z.V.k.p.| ) b 8 < #   . . . + @ = 5 5 t V ] +.a.x.V.A.Z.F.F.F.A.Z.Z.A.A.Z.V.V.A.V.V.z.z.z.z.z.k.x.k.k.k.z.x.k.k.z.k.z.k.x.k.k.s.d.a.| _ A N t w 5 > > : : : > y 5 e B F _ X.a.k.V.V.Z.Z.V.Z.V.Z.V.Z.Z.F.H.H.J.J.J.K.K.K.J.K.K.J.J.H.H.F.Z.V.z.z.z.z.k.z.k.z.k.z.z.z.k.z.z.z.z.V.z.V.V.V.Z.Z.Z.Z.F.Z.Z.Z.Z.Z.V.V.V.V.V.V.V.V.V.V.Z.V.V.V.V.V.V.z.z.k.k.s.s.p.p.p.........p.p.p.p.p.s.s.k.k.k.k.k.k.k.s.s.s.p.p.....| ..| | | ` ` ) ) ` ) ) ) ` ) ) ) ) ` ) ) ) ) ) S S S S S S S S S S Z S Z Z Z m m b b b 0 b b b b b b 0 0 2 2 % # X X   o o o * = = 5 5 5 y y 5 5 5 5 5 5 ; 5 ; 5 ; 5 ; 5 5 5 5 5 5 ; ; 5 5 5 5 ; 5 5 5 5 ; 5 5 5 ; 5 5 5 ; 5 ; ; 5 5 ; 5 ; 5 5 5 ; ; 5 5 5 ; 5 5 ; 5 5 5 5 5 5 5 5 y ; 5 5 5 y 5 y 5 5 5 7 5 7 7 7 7 7 7 7 e 5 7 7 7 7 7 7 7 5 5 7 7 5 5 7 7 7 5 4 - & $ #             ",
": : y y 7 B F ]  .l.C.F.H.H.J.J.J.H.H.H.H.F.H.F.F.F.F.Z.Z.Z.V.V.z.z.z.z.z.k.k.k.s.s.k.k.k.k.z.V.V.Z.Z.F.Z.F.Z.F.Z.Z.Z.Z.Z.Z.V.Z.V.V.V.V.V.z.V.z.z.z.z.z.z.k.z.z.z.z.z.z.z.z.z.V.V.V.V.Z.Z.Z.Z.F.F.F.F.H.F.H.F.H.H.H.F.F.F.F.F.Z.V.z.s.| S b 8 % #     . O O @ ; 5 e t F ]  .l.V.Z.F.F.H.H.H.F.F.Z.F.Z.F.F.Z.Z.Z.Z.Z.Z.V.V.V.V.z.V.V.z.z.z.z.V.z.z.z.z.z.z.z.k.s.s.X._ D V t 7 5 ; ; : : > > y 7 e B F _ X.s.l.V.V.V.V.Z.Z.V.V.Z.Z.F.F.F.H.J.J.J.J.K.K.K.J.K.J.J.H.H.Z.Z.V.V.z.z.k.z.k.z.k.z.k.k.k.z.k.z.k.z.z.z.V.V.Z.Z.Z.Z.Z.F.Z.Z.Z.Z.V.Z.Z.V.V.Z.Z.V.V.Z.V.V.Z.V.Z.V.V.V.V.k.k.s.s.p.p...................p.p.s.s.s.s.s.k.k.k.k.s.s.s.p.p.p.....| | | | ` ` ` ` ) ` ) ) ) ) ` ) ) ) ) ) ) ) S S S S S S Z Z S Z Z S Z Z Z m m m b b b 0 b b b b b b 0 8 2 < % # X X       o $ - ; ; 5 y 5 i y 5 7 5 5 7 7 7 7 7 7 7 7 7 7 5 5 7 7 7 7 7 7 7 5 7 7 5 7 7 7 5 7 7 7 7 7 7 7 7 7 7 7 7 7 7 7 7 7 7 7 7 7 7 7 7 7 7 7 7 7 5 7 7 5 e 5 7 7 e 5 7 7 7 e i 7 e e e 7 e 7 e e e 7 e e e e 7 7 7 7 7 e e 7 e e e e f 7 7 4 4 - $ o o X         ",
": : > 5 e t F ] X.l.V.F.H.H.J.J.H.J.H.H.H.H.F.F.F.Z.Z.Z.Z.V.V.V.V.z.z.z.z.k.k.k.k.k.k.k.k.z.z.V.Z.Z.Z.F.F.Z.Z.Z.Z.Z.Z.V.V.V.Z.V.V.V.V.V.V.V.V.z.V.z.z.z.z.z.z.z.z.z.V.z.V.V.V.V.V.V.V.Z.Z.Z.Z.Z.Z.Z.F.F.F.H.F.H.F.F.H.F.F.F.F.Z.V.z.s.| ) m 8 < #     . O O @ = 5 7 B G { a.l.C.G.H.H.H.J.H.H.F.F.F.F.F.F.F.F.F.F.F.Z.Z.Z.V.V.V.V.z.z.V.V.V.V.z.V.z.V.V.V.z.z.k.p.X.` D M t 6 5 ; ; = : : : y 5 e N F _  .s.k.z.V.V.Z.Z.Z.Z.V.Z.F.F.F.H.H.J.J.J.K.K.K.K.K.K.J.J.H.H.F.Z.V.V.V.z.z.z.k.z.k.z.k.z.z.z.k.z.k.z.z.z.z.V.V.Z.Z.F.F.Z.Z.Z.Z.Z.Z.Z.Z.V.Z.V.Z.V.Z.V.Z.V.Z.V.Z.V.V.V.V.z.k.s.p.p.......................p.p.s.s.s.k.k.k.s.s.s.s.s.p.p.......| | | ` ` ` ` ` ) ) ` ) ) ) ) ) ) ) ) ) ) ) S S S S Z Z S Z S S S Z S Z Z Z m m b b b 0 b b 0 0 b 0 0 8 8 < % # X       . o * * ; ; y y i 7 e e e t t t t t t r t t t t t t t t t t t t t t t t t t t t t t t t t t t t t t t t t t t t t t t t t t t t t t t t t t t t t t t t t t t t t t t t t t t t t t t t t t t t t t t t t t t t t t t t t t t t t t t t w 6 1 & $ o X         ",
": > y 5 7 B F ] X.l.C.Z.H.H.J.J.J.H.J.H.H.H.F.F.F.Z.Z.Z.V.V.V.V.z.z.z.z.z.z.k.z.z.k.z.z.z.z.V.Z.Z.Z.Z.Z.Z.Z.Z.Z.Z.V.V.V.V.V.V.V.V.V.V.V.V.V.V.V.V.z.V.z.z.V.z.V.z.V.V.V.V.V.V.V.V.Z.V.Z.Z.V.Z.V.Z.Z.Z.Z.Z.Z.F.F.F.H.H.F.F.F.F.Z.V.z.s.| S m 8 < #     . . O @ = 5 7 B F { a.l.V.F.H.J.J.H.H.F.Z.Z.F.F.Z.F.F.F.H.F.F.F.F.Z.Z.V.V.z.V.V.V.z.V.V.V.V.V.V.V.V.z.z.k.d...' D M 9 6 - ; = = = : ; 5 i e B F _ X.a.k.V.Z.Z.Z.Z.Z.Z.Z.Z.Z.F.H.H.H.J.J.J.J.J.J.K.J.J.J.J.H.F.F.Z.Z.V.V.z.z.z.z.z.z.k.z.k.k.k.k.k.z.k.k.z.V.V.V.Z.Z.F.F.F.F.F.F.Z.Z.Z.Z.Z.Z.Z.Z.Z.Z.Z.Z.Z.Z.Z.V.V.V.V.z.k.k.s.s.p.p.....| | ..| ......p.p.p.s.s.s.s.s.k.s.s.s.s.p.p.p.p.....| | ` ` ` ` ` ` ) ) ) ) ) ) ) ) ) ) ) ) S ) S S S S S S Z S S S Z S Z Z Z m m b b b b b 0 0 b b 0 0 0 8 2 < % # X X     . o + * ; 5 5 5 e f t B N C C C V C C N C N C C C V V N V N C C N C C N V C N V C C C V V F F G C V G V V G G V V C F C G G V V G C G F V V F G C F G G V F V V F F C C F F C F C C C C N V N C C C C C C C C V V N C C G C G G G C C N N r 3 1 # #           ",
": > > 5 7 t G ] X.d.V.F.H.J.J.J.J.J.H.H.H.H.F.F.Z.Z.V.V.V.V.V.z.z.V.z.z.z.z.z.z.z.z.z.z.V.V.V.Z.Z.Z.F.Z.Z.Z.Z.V.V.z.z.V.z.V.V.V.V.V.V.V.V.V.V.V.V.V.V.V.V.V.V.V.V.V.V.V.V.V.Z.V.Z.Z.V.Z.V.V.V.V.V.V.V.V.Z.Z.Z.Z.F.F.F.F.F.F.Z.Z.V.z.s.| ) b 8 % #     . O O @ = 5 e B G { f.x.A.H.H.H.H.F.F.F.Z.Z.V.Z.Z.F.F.F.F.H.H.F.Z.Z.V.V.z.z.z.z.z.V.V.V.V.V.V.V.V.V.z.k.k.d...` A n 9 4 - * * @ @ = > > 5 e B H _  .d.k.V.V.Z.Z.Z.Z.Z.Z.F.F.F.H.H.J.J.J.J.J.K.K.J.J.J.J.H.H.H.F.F.Z.V.V.V.z.z.z.z.z.z.k.z.k.k.k.k.k.z.z.z.V.V.Z.Z.Z.F.F.F.F.F.F.F.Z.Z.Z.Z.Z.Z.Z.Z.Z.Z.Z.Z.Z.Z.V.Z.V.z.z.z.k.s.p.p.......| ..| | ........p.p.p.p.s.s.s.s.s.s.s.p.p.p.p.......| | ` ` ` ` ` ) ) ) ` ) ) ) ) ) ) ) ) ) ) S S S S S S Z S S Z Z S Z Z Z m m m b b b 0 0 b b 0 0 b 0 0 0 2 < % # X X     o o + * ; 5 y 7 e t C G F H H ] H ] ] ] ] H ] H ] H H ] H ] H H ] ] H ] H ] ] ] ] ] ] ] ] ] ] ] { ] { ] ] ] ] ] ] ] ] { ] ] { ] ] { ] ] { ] { ] { ] ] ] ] ] ] ] { ] ] ] ] ] ] ] ] H ] ] ] H ] H H ] ] ] ] ] ] ] ] ] ] ] ] ] { ] ] ] ] H A n q 3 1 # X         ",
": > > i e t F {  .l.C.Z.H.H.J.J.J.H.H.H.F.F.F.F.Z.V.V.V.V.z.V.z.z.V.z.V.z.z.z.V.V.V.V.Z.Z.Z.Z.Z.Z.F.F.Z.Z.Z.V.V.z.z.z.z.z.z.z.V.V.V.Z.V.V.Z.V.V.V.V.Z.V.V.V.Z.V.V.Z.Z.V.Z.Z.Z.Z.Z.Z.Z.V.V.V.V.z.z.z.z.z.z.V.Z.Z.Z.F.Z.F.F.F.F.Z.V.z.s.| ) m 8 < #   . . O O @ ; 5 7 B G { a.x.V.F.H.H.H.F.Z.V.V.z.V.V.V.Z.F.F.H.F.F.F.Z.Z.V.z.z.x.z.z.z.z.z.z.V.V.z.z.V.z.z.z.s.a.| ) Z n 3 1 $ $ @ @ @ @ = ; 5 e B F _  .d.k.V.V.Z.F.Z.Z.F.F.F.F.H.H.H.H.J.J.J.J.J.J.J.J.J.J.H.H.H.F.Z.Z.Z.V.V.V.z.V.z.z.k.z.k.z.z.k.k.k.k.z.z.z.V.Z.Z.F.F.H.F.F.F.F.F.F.F.F.F.F.F.F.F.F.F.F.Z.Z.Z.Z.V.V.V.z.z.k.s.s.p.....| ..| ............p.p.p.p.s.s.p.s.p.p.s.p.p.p.......| | | ` ` ` ) ) ) ` ) ) ) ) ) ) ) ) ) ) ) ) S ) S S Z Z S Z Z Z S Z Z S Z Z Z m m b b b b 0 0 b b b 0 0 8 2 < % # X X     . o @ * ; 5 5 e e C G H { { o. . .o.o.o. .o. . .o. .o.o. . .o.o. .o. .o. . .o. . .+.+. .+.X.+. .X.+. .X.+.X.X.+.X.X.+.X. .+. .X.+. .X.+. . .+. .X.+.X.+.X.X.+.+.X.X.X.X.+.X. .X. .o.+. .o. .+. .+. . . .o. . .+. . .+. . .+.X.+.X.+.+. ._ A n 8 1 # X         ",
": > > 5 e t G ] X.l.V.F.H.H.J.J.J.J.H.H.H.F.F.Z.Z.V.V.z.z.V.z.z.z.V.z.V.V.V.V.Z.V.Z.Z.Z.F.Z.F.F.F.F.Z.Z.Z.V.V.z.z.k.k.k.k.z.z.z.z.V.V.V.Z.V.Z.V.Z.V.Z.V.Z.Z.Z.Z.Z.Z.Z.Z.Z.Z.Z.Z.Z.Z.Z.Z.V.z.z.k.k.s.k.k.k.z.V.V.Z.Z.Z.Z.F.F.Z.Z.V.k.s.| ) m 8 % #     . O O @ = 5 7 B F { a.l.Z.F.H.F.F.Z.V.z.z.k.z.z.V.V.Z.F.F.H.F.F.Z.V.V.z.k.k.k.k.k.z.z.z.z.z.z.z.z.z.z.k.s.p.| _ M 0 3 & # o O O + = ; 5 5 e B F _  .d.k.V.Z.Z.Z.F.F.F.F.H.H.H.H.H.H.H.J.H.J.J.J.J.J.H.J.H.H.H.F.F.F.Z.Z.V.V.z.V.z.z.z.z.k.k.k.k.k.k.k.z.z.V.V.Z.F.F.F.F.H.H.H.H.F.F.F.F.F.F.F.F.F.F.F.F.F.Z.F.Z.V.V.V.z.z.k.s.p.p.............| ............p.p.p.p.p.p.p.p.p.p.p.........| | ` ` ) ` ` ) ) ) ) ) ) ) ) ) ) ) ) ) ) S ) S S S S S Z S Z S Z S S Z Z m m m b b b b 0 0 b b b 0 b 0 8 2 < % X X X     . o + * ; 5 5 e B C H {  .a.a.d.d.d.d.a.d.d.a.a.a.a.a.a.d.a.d.a.a.d.a.d.a.d.d.d.a.d.d.d.d.d.d.d.l.l.d.d.l.d.d.l.d.d.l.d.d.l.d.d.l.d.d.d.d.d.d.d.l.l.d.l.l.d.l.d.d.l.d.l.l.d.d.d.d.d.d.d.d.d.d.d.d.d.d.d.d.d.d.d.d.d.d.d.l.l.l.x.l.l.d.a.| _ A 0 3 % X         ",
": : 5 i e t F ]  .l.C.F.H.H.J.J.J.H.J.H.H.F.Z.Z.V.V.V.z.z.z.z.z.z.V.V.V.V.V.Z.Z.Z.F.F.F.F.F.F.F.F.F.F.Z.Z.V.V.z.k.k.k.k.k.k.k.z.V.V.V.V.V.V.Z.Z.Z.Z.Z.Z.Z.Z.Z.Z.Z.Z.Z.Z.Z.Z.F.Z.Z.Z.Z.V.V.z.k.k.s.s.s.s.k.k.z.V.V.V.V.Z.Z.Z.Z.Z.V.z.s...S m 8 < #     . . O @ = 5 7 B G { f.l.C.F.F.F.F.Z.V.k.s.k.s.k.z.V.Z.F.F.F.H.F.Z.V.z.z.k.k.s.k.k.k.k.z.z.z.z.z.z.k.k.k.p...` S m 0 2 & $ o . O + @ = ; 7 e B F ' X.a.k.V.Z.Z.F.F.F.F.F.F.H.H.H.H.J.J.H.J.H.H.H.J.H.J.H.H.H.H.F.F.F.Z.Z.Z.V.V.V.z.z.z.k.z.z.k.k.z.z.z.z.z.V.V.Z.Z.F.F.H.H.H.H.H.H.H.H.H.H.H.H.H.H.F.H.F.F.F.Z.Z.Z.V.V.z.z.k.s.s.p.p.....................p.p.....p.p...p.p.p.....p.......| | | ` ` ` ) ) ) ) ` ) ) ) ) ) ) ) ) ` ) ) ) ) S ) S S Z S Z S Z S Z S Z Z Z Z m m m b b 0 b b 0 0 b 0 0 8 2 2 % # X X     . o O * ; ; 7 t C H { o.a.d.x.z.x.z.x.x.x.l.x.x.x.x.x.x.k.x.l.x.k.k.x.l.l.k.x.x.x.x.z.C.V.C.V.C.z.C.C.C.V.C.V.C.V.z.C.V.C.C.V.C.C.C.C.C.V.C.C.C.x.V.C.x.V.C.V.V.C.C.V.x.V.C.V.V.C.V.x.z.C.V.x.C.z.C.V.C.V.V.C.C.V.z.C.x.V.C.V.V.C.V.x.k.d.| S b 8 < X         ",
": : > 5 e t F ] X.l.V.F.H.H.J.J.J.H.H.H.F.F.F.Z.Z.V.V.V.z.z.V.z.V.z.V.V.V.Z.Z.Z.F.F.F.F.F.F.F.F.F.F.Z.Z.V.V.z.z.k.k.s.k.k.k.k.z.z.V.V.V.V.Z.Z.Z.Z.Z.F.Z.F.Z.Z.Z.Z.Z.Z.Z.F.Z.Z.F.Z.Z.Z.V.z.z.k.s.s.p.s.s.s.k.z.z.V.V.V.Z.Z.Z.Z.Z.V.z.s.| ) m 8 % #   o . O O @ = 5 7 B H { a.l.V.Z.F.Z.Z.V.z.k.s.s.s.s.k.V.V.Z.F.F.F.Z.Z.V.z.k.s.s.s.s.k.k.k.z.k.k.k.z.z.k.k.s.p...` S b 8 < # #   o O O @ = ; 5 e B F _ X.a.k.V.V.Z.F.F.F.F.H.H.H.H.H.H.H.H.H.H.H.H.J.H.H.H.H.H.H.F.F.F.F.F.Z.Z.Z.V.V.z.z.z.z.k.k.k.z.k.z.z.z.V.V.V.Z.F.H.H.H.H.H.H.H.H.H.H.H.H.H.H.H.H.H.H.F.F.F.F.Z.Z.V.V.z.z.k.s.s.p.p...........................p.......p.....p.........| | ` ` ` ` ) ) ) ) ) ) ) ) ` ) ) ) ) ) ) ) ) ) ) S S S S S S S Z S S Z Z S Z Z Z m m b b b b 0 b b 0 b b 0 0 2 < % # X     . . . @ * ; 5 7 t C H { a.l.x.C.V.Z.V.V.V.V.V.V.V.V.V.V.V.V.C.V.V.C.V.V.V.V.A.V.Z.V.Z.A.Z.Z.F.A.F.Z.F.Z.Z.Z.F.A.Z.A.F.Z.Z.Z.A.F.Z.Z.F.Z.Z.F.Z.F.F.Z.F.Z.F.F.Z.G.A.F.Z.Z.F.A.Z.F.Z.F.A.F.F.A.A.F.Z.F.Z.A.Z.Z.Z.A.F.A.F.Z.Z.G.F.F.F.G.F.Z.V.l...) M 0 < #         ",
": > > 5 e t F ]  .d.C.G.H.J.J.J.J.J.H.H.H.F.F.Z.V.V.z.z.V.z.z.V.V.V.V.V.Z.Z.Z.F.F.F.F.H.F.H.F.F.Z.Z.Z.Z.V.V.z.z.k.k.k.s.k.k.k.z.z.z.V.V.V.Z.V.Z.Z.Z.Z.F.Z.Z.Z.Z.Z.Z.Z.Z.Z.Z.Z.Z.Z.Z.V.V.z.k.k.s.p.s.p.s.s.s.k.z.z.V.V.V.Z.V.Z.V.V.k.s.| S m 8 < #     . O O @ ; 5 e t F { X.x.C.Z.F.F.Z.V.z.k.s.p.s.s.z.z.Z.Z.F.F.F.Z.Z.V.z.z.k.s.k.k.s.k.k.k.k.k.z.k.k.k.s.s.p.| ` S m 8 < #   X . . O + = ; 5 e B F _  .d.l.V.Z.F.F.F.F.H.H.H.H.H.H.H.H.H.H.H.H.H.H.H.H.H.H.H.H.F.H.F.F.Z.Z.Z.Z.Z.V.V.V.z.z.z.z.z.k.z.z.z.z.z.V.Z.Z.F.F.H.H.H.H.H.H.H.H.H.H.H.H.H.J.H.H.H.H.H.F.F.F.Z.Z.V.V.z.z.k.s.p.p.p...............................p.................| | | ` ) ) ) ) ) ) ) ) ) ) ) ) ) ` ) ) ) ) ) ) S ) S S S S Z S S S S S S S S Z Z m m b b b b b b b b b b 0 8 8 < % # X X   X . O + * ; 5 7 t C ]  .a.k.V.Z.Z.F.F.F.Z.F.Z.Z.Z.Z.Z.Z.Z.Z.Z.Z.Z.Z.Z.Z.Z.Z.Z.Z.Z.F.F.F.F.F.F.H.F.H.F.H.F.H.F.H.H.H.F.H.H.F.H.H.F.H.F.H.H.F.H.F.H.F.F.H.F.F.F.F.F.F.F.F.F.F.F.F.F.F.H.F.H.H.H.F.H.F.H.H.F.H.H.F.F.F.H.F.F.H.F.H.H.H.F.F.V.k...) Z 8 < # X       ",
": > y y 7 t F ]  .l.V.F.H.J.J.J.H.H.H.H.H.F.F.Z.V.V.V.V.V.z.V.V.V.Z.Z.Z.Z.Z.F.F.F.F.H.F.F.F.F.Z.Z.Z.Z.V.V.z.z.z.k.k.k.k.k.k.z.k.z.z.z.V.V.V.V.Z.Z.Z.Z.F.F.Z.Z.Z.Z.V.V.V.V.V.V.V.V.V.V.V.z.k.s.s.s.p.s.p.s.s.k.k.z.z.V.V.V.Z.Z.V.V.z.s.| ) m 8 < X     . O O @ = 5 7 B G { a.l.A.G.F.F.Z.V.z.k.s.s.s.k.k.z.Z.Z.F.F.F.F.Z.V.z.k.k.k.k.k.k.k.k.k.z.k.k.k.k.k.s.s.p...` Z b 8 < # X   . . . + * ; 7 e C F ] X.d.k.V.V.Z.F.F.F.F.H.F.H.H.H.H.H.H.F.H.F.H.F.H.H.H.F.H.F.F.H.F.F.F.F.Z.Z.V.Z.V.V.z.z.z.z.z.z.z.z.z.V.V.V.Z.Z.F.H.H.H.H.J.H.H.H.H.H.J.H.H.H.J.H.H.H.H.H.F.F.F.Z.Z.Z.V.z.z.k.s.s.p.p.p.p...................p.....................| | | | ` ` ` ) ) ) S ) ) ) ) ) ) ) ) ) ` ) ) ) ) ) ) S S S S S S S S S S S S S S S Z Z m m b b b b b b b b b 0 8 2 < % # X X X . . . + * ; 5 e B V ]  .d.z.Z.F.F.H.F.F.F.F.F.F.F.F.F.Z.F.Z.Z.F.Z.Z.Z.F.Z.F.Z.F.F.F.F.F.H.H.H.H.H.H.H.H.H.H.H.H.H.H.J.H.H.H.J.H.H.H.H.H.H.H.J.H.H.H.H.H.H.H.H.H.H.F.F.H.F.F.F.F.H.H.H.H.H.H.J.H.H.H.H.H.H.H.H.H.H.H.H.H.H.H.H.H.H.H.H.Z.V.k...` Z 8 < #         ",
": > > 5 e t F ] X.d.V.F.H.H.J.J.J.J.H.H.H.F.F.Z.Z.Z.V.V.V.V.V.V.V.Z.Z.Z.F.Z.F.F.F.H.F.F.F.Z.F.Z.Z.V.V.V.z.V.z.z.z.z.z.z.k.z.k.z.z.z.z.z.V.V.Z.Z.Z.Z.F.Z.Z.Z.Z.V.V.V.V.V.V.V.V.V.V.z.z.z.z.k.k.s.s.s.s.s.s.k.k.k.k.z.z.z.V.V.V.V.z.z.s.| S m 8 % # X   . O O @ = 5 7 t F { X.l.V.Z.F.F.Z.V.z.k.k.s.s.k.z.V.V.Z.F.H.F.F.Z.Z.V.z.z.k.k.k.k.k.z.z.k.z.z.k.k.k.s.p.p.| ) Z b 8 % # X   . . O @ = 5 5 e N F _  .p.k.V.Z.Z.F.F.H.H.F.H.F.H.F.F.F.F.F.F.F.F.F.F.F.F.F.F.F.F.F.F.F.F.Z.F.Z.Z.Z.V.V.V.V.V.V.z.V.z.z.V.V.V.Z.Z.F.F.F.H.H.H.H.H.J.H.H.H.H.H.H.J.H.H.H.H.H.F.H.F.F.F.Z.Z.V.V.z.z.k.k.s.s.p.p.p.p.p...................p.....p...........| | ` ` ` ) ) ) S ) ) ) ) ) ) ) ) ) ) ) ) ) ) ) ) ) ) ) S S S S S S S S ) ) S S S Z Z Z m m m b b b m m b b 0 0 8 2 % # # X     . o + * = 5 7 t G ] X.d.x.Z.F.H.H.H.H.H.F.F.F.F.F.F.F.F.F.F.F.F.F.F.Z.F.F.F.F.F.F.H.H.H.H.H.J.J.H.H.J.H.J.H.H.H.H.H.H.H.H.H.H.J.H.J.H.H.H.H.H.H.H.H.H.H.H.F.F.F.F.F.F.F.F.F.H.F.H.J.H.J.H.J.J.J.H.H.H.H.H.F.H.H.H.H.F.H.H.H.F.H.F.F.Z.V.k...) m 8 < #         ",
": > y 5 e t F ] +.l.C.Z.H.H.J.J.J.J.J.H.H.F.F.F.F.Z.Z.Z.Z.Z.Z.Z.Z.F.F.Z.F.F.F.F.F.F.F.F.F.Z.Z.V.V.z.z.z.V.z.z.z.z.z.V.z.z.z.z.k.z.k.z.z.z.V.V.Z.Z.F.F.Z.Z.Z.V.V.z.z.k.z.z.z.z.z.z.z.z.k.k.k.k.k.s.s.s.k.s.s.k.k.k.k.z.z.V.V.V.V.V.k.s.| ) m 8 < X   . . O O @ = 5 7 B F { +.l.V.F.F.F.F.Z.z.z.k.s.k.k.z.V.V.Z.F.F.F.F.Z.Z.V.V.z.z.z.z.k.z.k.z.k.k.k.k.k.k.s.p.p.| ) Z b 2 < # X   . . O O = ; 7 e B F {  .d.k.V.Z.Z.F.F.F.F.F.H.H.F.F.F.F.F.F.F.F.F.F.Z.Z.F.F.Z.F.Z.F.F.Z.F.F.Z.Z.Z.Z.V.V.V.V.V.V.V.V.V.V.V.V.V.Z.Z.F.F.H.H.H.J.H.J.H.J.H.H.J.H.H.H.J.H.H.H.H.H.H.H.F.F.Z.Z.Z.V.V.z.z.k.k.s.s.p.p.p.p...............p.......p.........| ..| | ` ` ) ) ) S ) S ) ) ) ) ) ) ` ) ) ) ) ) ) ) ) S ) S ) ) S ) S S ) ) ) ) ) S S S S Z Z m m m m m m b b b 0 0 8 < < # X       . . + @ ; 5 7 t F ] X.d.z.Z.F.F.H.H.H.H.H.H.F.F.F.F.F.Z.F.F.Z.Z.F.Z.Z.Z.Z.F.F.F.F.F.H.H.H.H.H.H.H.H.H.H.H.H.H.H.H.J.H.H.H.H.H.H.H.H.H.H.H.H.H.H.H.H.H.F.F.F.F.Z.F.Z.Z.Z.Z.Z.F.F.H.H.H.H.J.H.J.H.H.H.H.F.H.F.H.F.H.H.F.F.F.H.F.F.F.Z.V.k.s.| S b 8 % # X       ",
": : > y e t F ] X.d.V.F.H.J.H.J.J.J.H.H.H.H.F.F.F.F.Z.Z.Z.Z.F.F.Z.F.F.F.F.F.F.F.Z.F.F.Z.Z.V.V.V.z.z.z.z.z.z.z.V.V.V.V.V.V.z.z.z.k.k.k.k.z.z.V.Z.Z.Z.Z.Z.Z.V.z.z.z.k.k.k.k.s.s.k.k.k.k.k.k.k.k.k.k.k.k.k.k.k.k.k.k.k.k.z.z.z.V.V.V.z.s.| ) m 8 < #     . O O = = 5 e t F { f.l.C.F.F.F.F.Z.V.z.z.k.k.z.z.V.Z.F.F.F.F.F.Z.Z.Z.V.V.z.V.z.z.z.z.z.z.k.z.k.k.s.s.p...| ) Z b 8 % X X   . . O @ = ; 5 e B F _ X.d.l.z.V.Z.F.F.F.F.F.F.F.F.F.F.Z.F.Z.Z.Z.Z.F.Z.Z.Z.F.Z.F.Z.Z.F.Z.F.Z.F.F.Z.Z.Z.Z.Z.Z.V.V.V.V.V.Z.V.Z.Z.Z.F.F.F.H.H.H.H.H.H.H.J.H.J.H.H.J.H.H.H.H.J.H.H.H.F.H.F.F.F.Z.Z.Z.V.z.z.k.k.k.s.p.p.p...p.........p...p.p.p...........| | | ` ` ) ) ) ) S S S ) S S ) ) ) ) ) ` ) ) ) ) ) ) ) ) ) ) S S ) ) ) ) ) ) ) ) ) ) S S Z Z Z m m m m m m m m b 8 8 2 % # X X     . O + * = 5 7 t G {  .d.x.Z.F.H.H.H.H.F.F.F.F.F.F.Z.F.Z.Z.Z.Z.Z.Z.Z.Z.Z.Z.Z.Z.Z.F.F.F.F.F.H.H.H.H.H.H.H.H.H.H.H.H.H.H.H.H.H.H.H.H.H.H.H.H.H.H.F.H.F.F.F.F.F.Z.Z.V.V.V.V.V.V.Z.Z.F.H.H.J.J.H.H.H.H.F.F.F.F.F.F.F.F.F.F.F.Z.F.Z.Z.V.V.z.k.p.` S b 8 % X         ",
": : > 5 7 t F ]  .l.V.F.H.H.J.J.H.J.H.H.H.H.H.F.F.F.F.F.F.F.F.F.F.H.F.F.F.F.F.F.Z.Z.Z.Z.V.V.V.z.k.k.k.z.z.z.z.V.V.Z.Z.Z.V.V.z.z.k.k.k.k.k.z.V.V.Z.Z.Z.Z.Z.V.z.k.k.s.s.s.s.s.p.s.s.s.k.s.k.k.k.k.z.k.z.k.k.k.k.k.k.s.k.k.z.z.V.V.V.k.s...) m 8 < #   . . O O @ = 5 7 B G ] a.l.A.Z.F.H.F.Z.Z.V.z.z.z.z.V.V.Z.Z.F.F.F.F.Z.Z.Z.Z.V.V.V.V.V.z.z.z.z.z.k.k.k.s.s.p...` ) Z 0 2 < # X   . . O @ = ; y e N F _  .d.k.V.V.Z.Z.F.F.F.F.F.F.F.F.Z.Z.Z.Z.Z.Z.Z.V.Z.Z.Z.Z.Z.Z.Z.Z.Z.F.F.Z.F.Z.F.Z.Z.Z.Z.Z.Z.Z.Z.Z.Z.V.Z.Z.Z.F.F.F.F.H.H.H.H.H.H.H.J.H.J.H.H.J.H.H.H.H.H.H.H.H.H.H.H.F.F.F.F.Z.V.V.V.z.k.k.s.s.p.p.p...........p.p.p.p.....p.......| | | ` ` ) ) ) S S S S ) S ) ) ) ) ) ) ) ) ` ) ) ) ) ) ) S ) S ) ) ) ) ) ) ` ) ) ` ) ) S S Z Z Z m Z m m m m b b 0 8 2 % # X X     . . + @ ; 5 7 t F ]  .d.x.Z.F.F.H.H.H.F.F.F.F.F.F.Z.Z.Z.Z.V.Z.Z.V.Z.V.Z.Z.Z.Z.Z.F.Z.F.F.F.F.F.F.F.H.F.F.F.H.F.F.H.F.F.H.F.H.F.H.F.F.H.F.F.F.F.F.F.F.Z.Z.Z.Z.V.V.z.z.z.z.z.V.V.Z.Z.F.H.H.H.H.H.F.H.F.F.Z.Z.F.Z.Z.F.Z.Z.Z.Z.Z.V.V.V.z.k.p...) Z 0 2 % X         ",
": > y y e t F ]  .l.C.Z.H.H.J.J.J.J.H.H.H.H.H.H.H.F.F.H.F.H.H.F.F.H.H.F.H.F.F.F.Z.Z.Z.V.V.V.z.k.k.k.k.k.k.z.V.V.Z.Z.Z.F.Z.V.z.z.k.k.s.k.k.z.z.V.Z.Z.Z.Z.V.z.z.k.s.s.p.p.p.p.p.p.p.p.p.s.s.k.k.k.z.z.z.z.z.k.k.s.k.s.k.k.z.z.V.V.z.z.s.| ) b 8 % # X   . O O @ = ; e B F { f.l.V.F.F.H.F.F.Z.V.V.V.V.V.V.V.Z.Z.Z.F.F.Z.F.F.Z.Z.Z.Z.V.V.V.V.z.z.z.k.k.k.s.s.s.p...| ) Z b 8 % # X   . . O O = ; 5 e B H ] X.a.k.V.Z.Z.Z.F.Z.F.Z.F.F.Z.Z.Z.Z.Z.V.Z.Z.Z.V.Z.V.V.V.Z.Z.Z.Z.Z.Z.Z.F.Z.F.Z.Z.F.F.Z.Z.Z.Z.Z.Z.Z.Z.Z.Z.Z.F.F.F.H.H.H.H.H.J.H.H.H.H.H.H.H.H.H.H.J.J.H.H.H.H.H.H.H.F.H.F.F.Z.Z.V.V.V.z.z.k.s.s.p.p.p...p.....p.p.p.p.p.p.........| | ` ` ) ) ) S ) S S S S S ) ) ) ) ) ) ) ) ) ) ) ) ) ) ) ) ) ) ) ) ) ` ) ` ` ` ` ` ) ) ) S S S Z Z Z Z Z Z m m b b 8 2 < % X X X   . O + = = 5 7 t V ]  .d.z.Z.Z.F.H.F.F.F.F.Z.F.Z.Z.Z.Z.Z.Z.Z.V.Z.V.Z.V.V.V.V.Z.Z.Z.Z.F.Z.F.F.F.F.F.F.F.F.F.F.F.F.F.F.F.F.F.F.F.F.F.F.F.F.F.F.F.F.Z.Z.Z.Z.Z.V.V.z.z.k.k.k.z.z.z.V.Z.F.F.H.H.H.H.F.F.Z.Z.Z.Z.Z.V.Z.Z.Z.Z.Z.V.V.V.z.k.s.s.p.` ) m 0 2 % X         ",
": > ; i 7 B F ] X.l.V.F.H.H.J.H.J.H.H.H.H.H.H.H.H.H.H.H.H.F.H.H.H.H.F.H.F.F.F.Z.Z.Z.V.V.z.z.k.k.k.k.s.k.k.z.V.Z.Z.F.F.F.F.Z.V.z.k.k.s.k.k.z.z.V.V.Z.Z.V.V.z.k.s.s.p.p...............p.p.s.s.k.z.z.z.z.z.k.k.k.k.s.s.k.k.z.z.z.V.V.k.s...) m 8 < X     . O O @ ; 5 e t F { X.d.V.F.F.H.F.F.F.Z.V.V.V.V.Z.V.Z.Z.Z.F.Z.F.Z.F.Z.Z.Z.Z.Z.V.V.V.V.z.k.k.k.k.s.s.p.p...` ) m b 2 < #       . O @ = 5 5 e B F _ X.a.k.z.Z.Z.Z.F.Z.F.F.Z.Z.Z.Z.Z.Z.V.Z.V.V.V.V.V.V.Z.V.Z.V.Z.Z.Z.Z.F.F.Z.Z.Z.F.Z.Z.F.Z.Z.Z.Z.Z.Z.Z.Z.F.F.F.F.F.H.H.H.H.H.H.H.H.H.H.H.H.H.H.H.H.H.H.H.H.H.H.H.H.H.H.H.F.F.F.Z.Z.Z.V.V.z.k.k.s.s.p.p.....p.p.p.p.p.p.p.p.p.....| | | ` ` ) ) S S S S S S S S ) S ) ) ) ) ) ) ) ) ) ) ) ) ) ) ) ) ) ) ) ) ` ` ` ` ` ` ` ) ) ) S S Z Z Z Z Z Z m m m b 8 2 % % X X X . . . + * ; 5 7 t G ]  .d.x.V.Z.F.F.F.F.F.F.Z.F.Z.Z.Z.Z.Z.V.V.Z.V.Z.V.V.V.V.V.Z.Z.Z.Z.Z.F.F.F.F.F.F.F.F.F.F.Z.F.F.F.Z.F.F.Z.F.F.F.Z.F.F.F.F.Z.Z.Z.Z.Z.Z.V.V.V.z.z.k.k.k.s.k.k.z.V.V.Z.F.F.H.F.H.F.F.Z.Z.Z.V.V.V.V.V.V.V.V.z.z.z.z.k.s.p...` S m 8 2 % X         ",
": > > 5 e t F ] X.l.C.F.H.H.J.J.H.H.H.H.H.H.H.H.H.H.H.H.H.H.H.H.H.H.H.F.F.F.F.Z.Z.Z.V.V.V.z.z.k.s.s.s.k.k.z.V.Z.F.F.F.F.F.Z.V.z.z.k.k.k.k.z.V.V.V.Z.Z.V.V.z.k.s.p.p.........| | ..| ....p.s.s.k.z.z.z.z.z.k.k.s.k.s.s.k.k.z.V.V.z.k.s.| ) m 8 % # X   . O O @ ; 5 7 B G ] f.l.A.Z.H.H.H.H.F.Z.Z.V.Z.V.V.Z.V.Z.Z.Z.Z.Z.Z.Z.Z.F.Z.Z.Z.V.V.z.z.z.k.k.k.s.s.s.p.....` ) m 0 2 % # X   . . O + = 5 5 e C F ] | d.x.V.V.Z.Z.F.F.F.Z.F.Z.F.Z.Z.Z.Z.V.V.V.V.V.V.V.V.V.V.V.Z.Z.Z.Z.Z.Z.F.Z.F.Z.Z.Z.Z.Z.Z.Z.Z.F.Z.Z.F.Z.F.F.F.H.F.H.H.H.J.J.H.H.J.J.H.H.H.H.J.H.H.H.H.H.J.H.J.H.H.H.H.H.F.F.F.Z.V.V.V.z.k.k.s.s.p.p.p.p.p.p.p.s.s.s.s.p.p.....| | ` ` ` ) ) ) S S S S S S S S ) ) ) ) ) ) ) ) ) ) ) ) ) ) ) ) ) ) ) ` ) ` ` ` | ` ` ` ` ) ) ) S S S S Z Z Z Z m m b 0 2 < # X       . O O @ = 5 7 t F ]  .a.x.Z.Z.F.F.F.F.F.Z.Z.Z.Z.Z.Z.V.V.Z.V.V.V.V.V.Z.Z.Z.Z.Z.Z.Z.F.F.F.F.F.F.F.F.F.F.Z.F.F.F.Z.F.F.Z.Z.F.F.Z.F.Z.F.Z.F.Z.F.Z.Z.Z.Z.V.V.V.V.z.z.k.k.s.s.k.k.z.V.V.Z.F.F.H.F.F.F.Z.Z.V.V.V.V.V.V.V.V.V.V.V.z.k.k.s.p.p.| ) S b 8 < % X         ",
": > > 5 e t F ]  .l.V.F.H.H.J.H.H.H.H.H.F.H.F.H.H.H.H.H.H.H.H.H.F.H.F.F.F.F.Z.Z.Z.V.V.V.z.z.z.k.k.k.s.k.z.z.V.Z.F.F.H.F.F.Z.Z.V.z.z.k.k.k.z.z.V.V.Z.V.V.z.z.k.s.p.......| | | ` | | | ..p.p.s.k.k.z.z.z.z.k.k.k.k.s.k.k.z.z.V.V.V.k.s...) m 8 % X   . . . O @ = 5 7 B F { +.l.V.G.H.H.H.H.F.F.Z.Z.Z.Z.V.V.V.V.V.V.V.Z.V.Z.Z.Z.Z.Z.Z.Z.V.V.z.k.k.k.s.s.s.p.p...| ` S m 0 2 % # X     . O @ = ; 5 e N F ]  .a.k.V.V.Z.F.F.F.Z.Z.F.F.Z.Z.Z.V.V.V.V.V.V.V.V.V.V.V.Z.Z.V.Z.Z.Z.Z.Z.Z.Z.Z.Z.Z.Z.Z.Z.Z.Z.Z.Z.Z.Z.Z.F.F.F.F.F.H.H.H.H.H.H.H.H.H.H.H.J.H.J.H.H.H.J.H.H.H.J.H.H.H.H.H.H.F.F.F.Z.Z.V.V.V.z.k.k.s.s.p.s.p.s.s.s.s.s.s.s.p.p.p...| ` ` ` ) ) S S S S Z Z S S S S S ) S ) ) ) ) ) ) ) ) ) ) ) ) ) ) ) ) ` ` ` ` | ` ` ` ` ` ` ) ) ) S S S S S S Z Z m b 0 8 < # # X     . . + * ; 5 7 t V ]  .d.x.V.F.F.F.F.F.Z.F.Z.Z.Z.Z.V.Z.Z.V.V.V.Z.Z.Z.Z.Z.Z.F.F.F.F.F.F.F.H.H.F.F.F.F.F.F.Z.F.Z.Z.F.Z.F.F.F.Z.F.F.Z.Z.F.F.Z.Z.Z.Z.Z.V.V.V.z.z.z.k.k.k.k.k.k.k.z.V.V.Z.Z.F.F.F.F.Z.Z.Z.V.V.V.V.V.V.V.V.V.z.z.z.k.k.s.s...| ` S b 8 < % X         ",
": : y 5 e B F ] X.d.C.G.H.H.H.J.H.H.F.F.F.F.H.H.H.H.H.J.H.H.H.H.F.F.F.Z.Z.Z.Z.Z.V.V.V.V.V.z.k.k.k.k.k.k.z.z.V.Z.F.F.H.H.F.Z.Z.V.z.z.z.k.z.z.V.z.V.V.V.V.z.k.k.p.p.....| | ` ` ` ` ` ` | | ..p.s.s.k.k.k.k.k.k.k.k.k.k.z.z.V.V.V.z.z.s.| ) m 8 < #     . O O @ = 5 7 B F { a.d.V.F.H.H.H.H.F.F.F.Z.Z.Z.V.V.V.V.z.V.z.V.V.V.Z.Z.Z.Z.V.V.V.z.z.k.k.s.s.s.p.p.p...| ` S m 0 2 % X X   . . O O = 5 5 e B F '  .d.k.z.Z.Z.Z.F.F.F.F.F.F.Z.Z.Z.Z.V.V.V.V.V.z.V.V.V.V.V.Z.V.V.Z.Z.Z.Z.Z.Z.Z.Z.Z.Z.Z.Z.V.V.Z.Z.Z.Z.Z.Z.Z.F.F.F.H.H.H.H.H.J.H.J.H.H.J.H.H.H.H.H.H.H.H.H.J.H.H.H.J.H.H.H.H.F.F.Z.Z.Z.V.V.z.z.k.k.k.s.s.s.s.s.s.k.k.k.s.s.p...| | ` ` ) ) ) S S S Z S S S S S S ) S ) ) S ) ) S S ) ) S S ) ) ) ) ` ` ) ) ` ` ` | | | ` ` ` ` ) ) ) ) ) ) S S S Z Z b 0 8 < % # X     . O + * = 5 7 t F ] +.d.x.V.Z.F.F.F.F.F.Z.Z.Z.Z.Z.Z.V.V.Z.Z.Z.Z.Z.Z.F.F.F.F.F.H.F.H.H.H.H.H.H.H.F.F.F.F.Z.Z.F.Z.Z.F.Z.F.Z.F.Z.Z.F.F.F.Z.F.Z.Z.Z.V.V.V.V.z.z.z.z.k.k.k.k.k.k.z.V.V.Z.Z.Z.F.F.F.Z.Z.Z.Z.V.V.V.V.V.V.V.z.V.z.z.k.k.s.p...| ) Z b 8 2 # X         ",
": : > i 7 t G ] X.l.V.Z.H.H.H.H.H.F.F.F.F.F.F.H.H.H.H.H.H.H.H.F.F.F.Z.Z.Z.Z.V.V.V.V.V.V.z.z.z.k.k.k.k.k.z.V.Z.Z.F.H.H.F.F.F.Z.Z.V.z.z.z.z.V.V.V.V.V.V.z.z.k.s.s.p...| | ` ` ` ) ) ) ) ` | | ..p.s.s.k.k.k.k.k.k.k.k.k.z.z.V.V.V.V.k.s.| S m 8 < # X . . . O @ = 5 7 B F ] a.l.A.Z.H.H.J.J.H.H.F.F.Z.Z.V.V.z.z.z.k.z.z.z.V.V.V.Z.Z.V.V.z.z.k.k.s.s.p.p.p.p.....| ` S m 0 2 % # X   . . O @ = 5 5 e N F ' X.d.x.V.Z.Z.F.F.F.F.F.F.F.Z.F.Z.Z.Z.V.V.z.V.V.z.V.V.V.V.V.V.Z.V.V.Z.Z.V.Z.V.Z.V.V.V.V.V.V.Z.V.Z.Z.Z.Z.F.F.F.F.H.H.H.J.J.H.H.J.H.H.J.H.H.H.H.H.J.H.H.H.H.H.J.H.H.H.H.H.F.F.F.Z.Z.V.V.V.z.z.k.k.k.k.k.k.k.k.k.k.k.k.s.s.s.p...| ` ) ) S S S S S S Z S Z S S S S ) S S S S S S S S S ) S ) ) ) ) ) ) ` ` ` ` | ` | | ` | ` ` ` ) ) ) ) ) ) S S S Z m 0 8 < % # X   . . O O * ; 5 7 t V ]  .d.x.V.F.F.F.F.F.Z.Z.Z.V.V.Z.Z.V.V.Z.Z.Z.Z.Z.F.F.H.H.H.H.H.J.H.J.J.J.J.H.H.H.F.F.F.F.Z.F.F.Z.Z.F.Z.F.Z.F.F.F.F.Z.F.Z.Z.Z.Z.V.V.V.V.z.z.z.z.k.k.k.k.k.z.z.V.V.Z.Z.Z.F.Z.Z.Z.V.V.V.V.V.V.V.z.V.z.V.z.z.k.k.s.s.p...| ) S b 8 < % X         ",
": > > 5 e t F ]  .l.C.F.H.H.H.H.F.F.Z.Z.F.F.F.H.H.H.H.H.H.H.F.F.F.Z.Z.Z.V.V.V.V.V.V.V.V.V.z.z.z.k.z.z.z.z.V.Z.Z.F.F.H.H.H.F.Z.Z.Z.V.V.V.z.V.V.V.V.V.z.z.k.k.s.s.p.....| ` ` ) ) ) S ) ) ` | ....p.s.s.k.k.k.k.z.z.k.z.V.V.V.V.V.z.z.s.| ) m 8 % #     . O O @ = 5 7 t F { +.l.V.Z.H.H.J.H.H.H.F.F.Z.Z.V.V.z.k.k.k.k.k.k.z.V.V.V.V.V.V.z.k.k.s.s.p.p.p.......| ` ) S m 0 2 % # X X . . O + * ; 7 e B F _  .d.k.z.V.Z.F.F.F.F.F.H.F.F.Z.Z.V.V.V.V.V.V.V.V.V.V.V.V.V.V.V.Z.Z.V.V.Z.V.V.V.V.V.z.V.V.V.V.V.V.Z.Z.Z.Z.F.F.F.H.H.H.H.H.J.H.H.H.H.H.H.H.H.H.H.H.H.H.J.H.H.H.J.J.H.H.H.F.F.F.Z.Z.Z.V.V.z.z.z.z.k.k.k.k.k.z.z.z.k.z.k.s.p...| ` ` ) S S S S S S Z S S Z S S S S S S S S S S S S ) S S ) S ) S ) ) ) ) ` ` ` ` | | ` | ` ` ` ` ` ` ) ` ) ) ) ) S Z m b 8 2 % X X     . O O * = 5 7 t F ]  .a.z.V.Z.F.Z.F.Z.Z.Z.Z.V.Z.Z.V.Z.Z.Z.Z.Z.F.F.F.H.H.H.J.J.J.J.K.J.J.J.J.J.H.H.H.H.F.Z.F.Z.F.Z.F.Z.F.Z.F.Z.F.Z.Z.F.F.Z.Z.Z.Z.V.V.V.z.z.z.z.z.z.z.z.z.z.z.V.z.V.Z.Z.Z.Z.Z.Z.Z.Z.Z.V.V.V.V.V.V.z.V.z.z.z.k.k.k.s.p...| ` Z m 8 < % X         ",
": > y 5 e t F ] X.l.z.F.F.H.H.F.F.F.Z.Z.Z.Z.Z.F.H.H.H.H.H.F.F.Z.Z.Z.V.V.V.V.V.z.V.V.V.V.V.z.z.z.z.z.z.z.V.V.Z.F.F.H.H.H.H.F.F.F.Z.Z.V.V.V.V.V.z.V.z.z.z.k.s.s.p.p...| | ` ` ) S S S S S ) ` | | ..p.s.s.s.k.k.k.z.z.z.V.V.V.V.V.z.z.s.| ) m 8 < X X     O O = = 5 7 B F { X.l.V.F.H.H.J.J.J.H.H.F.F.Z.V.z.z.k.s.s.s.s.k.z.z.V.V.V.V.z.z.k.k.s.p.p.p.........| | ) S m 0 2 % # X   . . O @ = ; 5 e B F _  .d.x.V.Z.Z.F.F.F.F.F.H.F.F.F.Z.Z.V.V.V.V.V.V.V.V.V.V.V.V.V.Z.V.Z.V.Z.V.V.V.V.z.z.z.V.z.V.V.V.V.V.V.Z.Z.Z.F.F.F.H.H.H.H.H.J.J.H.H.H.H.J.H.J.H.H.H.H.J.H.H.J.H.J.H.H.F.H.F.Z.Z.Z.V.V.V.V.V.z.z.z.z.z.z.z.z.z.V.z.z.k.k.p.p.| | ) S S S S S Z S Z S S Z S S S S S S S S S S S S S S S ) S S S ) ) ) ` ` ` ` ` | | | | ` | ` ` ` ` ` ) ` ) ) ) S S m b 8 2 < # X     . O + * = 5 7 t F ] +.d.x.V.F.Z.F.Z.F.Z.V.V.Z.V.Z.V.Z.Z.Z.F.F.F.H.H.H.J.J.J.K.K.K.K.K.K.K.K.J.J.J.H.F.F.F.F.Z.F.Z.Z.F.F.Z.Z.F.F.Z.Z.F.F.Z.Z.Z.Z.V.V.V.z.z.z.z.z.z.z.z.z.z.z.V.V.V.V.Z.V.Z.Z.V.Z.V.V.Z.V.V.V.V.V.z.V.z.z.k.k.k.k.s.p...| ) S b 8 2 % X         ",
": > > 5 e t F { X.l.A.Z.H.H.H.H.F.F.Z.Z.Z.Z.F.F.F.F.H.H.F.F.F.Z.V.V.V.z.z.V.z.V.V.V.V.V.V.V.V.V.V.V.V.V.V.Z.Z.F.F.H.F.H.F.H.F.F.F.Z.Z.V.Z.V.V.V.z.z.z.k.k.k.s.p.p.....| ` ) ) S S S S S ) ) ` | ..p.p.s.s.k.z.z.z.z.V.V.Z.Z.Z.Z.V.z.s.| S m 8 < #   . . O O @ ; 5 7 B G { +.l.C.F.H.J.H.J.H.H.H.F.F.Z.V.z.k.k.s.s.s.s.k.k.z.z.V.V.V.z.k.k.s.p.p.p.........| | ` ) Z m 0 2 % X     . . O + = ; 5 e B F _  .d.l.V.Z.F.F.F.H.H.H.F.F.F.F.Z.Z.Z.V.V.V.V.V.V.V.V.V.V.V.V.V.V.V.V.V.V.V.V.V.V.V.z.z.z.z.V.z.V.V.V.V.Z.Z.F.F.F.H.H.H.H.H.H.H.H.H.H.H.H.H.H.J.H.H.H.H.H.H.H.H.H.H.H.H.H.F.F.Z.V.Z.V.V.V.z.V.z.V.z.z.V.z.V.V.z.V.z.k.k.s.p.| ` ` ) S S Z Z S Z S Z S S Z Z S S Z S S S S Z S Z S S S S S ) ) ) ) ) ` ) ` ` ` ` ` ` | | ` | ` ` ` ` ` ` ` ` ) ) S Z b 0 2 % # X     . . + * ; 5 7 t F ]  .d.x.V.Z.F.F.F.Z.Z.Z.Z.V.Z.V.V.Z.Z.Z.Z.F.F.H.J.J.K.K.K.K.K.L.K.L.L.K.K.K.J.J.H.H.F.F.F.F.Z.F.F.Z.Z.F.F.Z.F.F.F.F.F.Z.Z.V.V.V.V.z.z.z.z.z.z.z.z.z.V.V.V.z.V.V.V.V.Z.V.Z.V.V.Z.V.V.V.V.V.z.z.V.z.z.z.k.k.k.s.s.p...| ` S b 8 < # X         ",
": > ; i 7 t F ] X.l.V.F.F.H.H.F.Z.Z.Z.Z.Z.Z.Z.F.F.F.H.F.F.F.F.Z.V.V.z.z.z.z.z.V.V.V.V.V.V.V.V.V.V.V.V.Z.Z.Z.F.F.H.H.H.H.H.F.F.F.F.Z.Z.Z.V.V.V.V.z.z.z.k.k.s.s.s.p.....| ` ` ) S S Z Z S ) ) ` | | ..p.p.s.k.k.z.z.z.V.V.Z.V.Z.V.V.k.s...) b 8 % X   . . O O @ = 5 7 t F { X.l.V.A.H.H.J.J.J.H.H.F.F.Z.V.z.k.k.p.p.p.s.s.k.z.V.z.z.V.z.k.s.s.p...............| ` ) S m 0 2 % # X     . O * = ; 5 e B F _ X.a.z.z.V.Z.F.F.F.H.F.H.H.F.F.F.Z.Z.V.V.V.V.V.V.V.V.V.Z.V.Z.Z.V.V.V.V.V.V.V.z.z.z.z.z.z.z.z.z.V.V.V.V.Z.Z.Z.F.F.F.H.H.H.H.H.H.H.J.H.H.H.H.J.H.H.H.H.H.J.H.J.H.H.H.H.H.F.F.F.Z.Z.V.V.V.V.V.V.V.V.V.V.V.V.V.V.V.V.V.z.k.s...| ` ) S S Z S Z S Z S S Z S Z Z S Z S Z S S Z S S S S S S S ) ) S ) ) ) ) ) ` ` ` ` | ` ` | ` ` ` ` ` ` ` ` ` ` ` ) S Z m 8 2 % # X   . . . + = = 5 7 t F ]  .d.x.V.Z.F.Z.Z.Z.Z.Z.V.V.Z.V.Z.Z.Z.Z.F.F.H.H.J.J.K.K.L.L.L.L.L.L.L.L.K.K.J.J.H.H.F.F.F.Z.Z.Z.Z.F.F.Z.F.F.Z.F.F.Z.Z.F.Z.Z.V.V.z.z.z.k.z.z.z.z.z.V.z.V.V.V.V.V.V.V.Z.V.V.V.V.V.V.V.V.V.V.z.z.z.z.z.k.k.k.s.s.s.p...| ) Z b 8 < % X         ",
": : > y e B F ] X.l.C.Z.H.H.H.F.F.Z.Z.V.V.Z.Z.Z.F.F.F.F.F.F.Z.V.V.z.z.z.z.z.z.z.V.V.V.V.Z.V.Z.Z.Z.Z.Z.Z.F.F.F.F.F.H.H.H.H.H.H.F.F.Z.Z.Z.Z.V.V.z.z.z.k.k.k.s.s.s.p.p.....| ` ) S S S Z S S ) ) ` | ..p.p.s.k.z.z.V.V.V.Z.Z.Z.Z.Z.V.k.s.| ) m 8 < #     . O O @ = 5 e B G { X.l.A.F.H.J.J.J.J.H.H.H.F.Z.V.z.k.s.s.p.s.s.s.k.z.z.z.V.z.z.k.k.s.p.p...............| ` S m b 2 % #     . . O @ = ; 7 e C F ] | d.k.V.Z.F.F.F.H.H.H.H.H.F.F.F.Z.Z.Z.Z.Z.V.V.V.V.V.V.V.V.V.V.V.V.V.V.V.V.V.V.z.z.V.z.V.z.V.z.z.V.z.V.V.V.Z.Z.Z.F.F.F.H.H.H.H.H.H.H.H.H.H.H.H.H.J.H.H.H.H.H.J.H.H.H.H.F.F.Z.Z.Z.Z.V.V.V.V.V.V.V.V.V.V.Z.V.V.Z.V.V.z.k.s.p...` ) ) S S Z S Z S Z Z S Z S S Z S S S Z Z S S Z Z S S S S S S ) S ) ) ) ) ` ) ) ` ` ` ` ` ` ` ` ` ` ` ` ` ` ) ) S S m b 8 2 % # X     . O O @ ; 5 7 t V ]  .d.k.V.Z.F.F.F.Z.Z.V.Z.Z.Z.Z.Z.Z.Z.F.F.H.H.J.J.K.K.L.L.L.I.L.I.L.L.L.L.K.K.J.J.H.H.F.F.F.F.F.F.Z.F.F.Z.F.Z.F.F.Z.F.Z.Z.Z.V.V.V.z.z.z.k.k.z.z.z.z.V.z.V.V.V.V.V.V.V.V.V.V.V.V.V.V.z.V.V.z.z.z.k.z.k.k.k.s.s.p.p...| ) S b 8 < % X         ",
": : > y 7 t G ] X.d.V.F.F.H.H.F.F.Z.Z.Z.V.Z.Z.Z.F.F.Z.F.Z.Z.Z.V.V.z.z.z.z.z.z.V.V.V.Z.V.Z.Z.Z.F.Z.F.F.F.F.H.H.H.H.H.H.H.H.H.F.F.F.F.Z.Z.V.V.z.z.z.k.k.k.s.k.s.s.s.p.p...| | ` ) S S S S S ) ) | ......p.s.k.k.z.V.V.V.Z.Z.Z.Z.V.V.z.s.| ) m 8 % # X . . O O @ = 5 7 t F { +.l.V.F.H.H.J.J.J.H.H.F.F.Z.V.z.k.k.s.s.s.s.k.k.z.z.V.V.z.z.k.s.s.p...........p.......| ) Z 0 2 % # X     . O @ = ; 5 e B F ]  .a.l.V.Z.F.F.F.F.H.H.H.H.F.F.F.F.Z.Z.Z.Z.V.V.Z.V.V.V.V.V.V.V.V.V.V.V.V.V.V.V.V.V.V.z.V.z.V.z.V.z.z.z.V.V.V.Z.Z.Z.F.Z.F.F.F.H.H.H.H.H.H.H.H.H.J.H.H.J.H.H.J.H.H.H.H.H.H.F.F.Z.Z.V.V.V.V.V.V.V.V.V.V.V.V.Z.Z.V.V.V.z.k.s.p...` ` ) S S S Z S S Z S S Z Z S Z S Z S Z Z S S Z S S S S S S S ) ) S ) ) ) ) ) ` ) ) ` ` ` ) ` ` ) ` ) ` ) ) ) ) S S Z b 8 2 % # X     . O + * = 5 7 t V ]  .d.k.V.Z.F.F.F.F.Z.Z.Z.Z.Z.Z.Z.F.F.F.F.H.H.J.K.K.K.L.L.L.L.I.L.L.L.K.K.K.K.K.J.H.H.H.F.F.F.F.F.F.Z.Z.F.Z.Z.F.F.F.F.Z.Z.Z.V.V.z.z.z.k.k.k.k.z.z.z.z.z.z.V.V.V.V.V.V.V.V.V.V.V.V.z.V.z.z.z.z.z.k.k.s.s.s.s.p.p.p.| ` ) Z b 8 < % X         ",
": > y 5 e t F ] X.d.C.G.H.H.H.H.F.Z.Z.Z.Z.V.Z.Z.Z.Z.Z.Z.Z.Z.V.z.z.z.k.z.z.z.z.V.V.V.Z.Z.Z.F.F.F.H.F.H.H.H.H.H.H.H.H.F.H.F.F.H.F.F.Z.Z.Z.V.V.V.z.k.k.k.k.k.s.s.s.s.s.p.p...| ` ` ) S ) ) ) ` ` | | ..p.p.s.s.k.z.z.V.V.Z.Z.Z.Z.Z.V.k.s.| S m 8 < #     . O O @ = 5 7 B F { X.l.V.F.H.H.J.J.H.H.H.F.F.Z.Z.V.z.k.s.s.s.s.k.z.z.z.V.V.z.k.k.s.p.p.....p...p.p.p.p.p.| ` Z b 8 < # X   . . O O = 5 5 e B H _  .d.k.V.V.Z.F.H.H.H.H.H.H.H.H.F.F.Z.Z.Z.Z.Z.V.Z.Z.V.V.V.V.V.V.V.V.V.Z.V.V.V.V.V.V.Z.V.V.V.V.z.z.z.z.z.z.z.V.z.V.V.V.Z.Z.F.F.F.F.H.H.H.J.J.J.H.H.H.H.H.H.H.H.H.J.H.H.F.F.F.Z.Z.V.Z.V.V.V.V.V.Z.V.V.Z.Z.V.V.Z.Z.Z.V.V.z.s.p...| ` ) S S S S S Z S S Z Z S Z Z Z S Z S S Z S S S S S S S ) ) S S ) S ) S ) ) ) ) ) ) ) ) ) ) ) ) ) ) ) ) ) ) ) S Z m b 8 2 % X X X . . . + @ ; 5 7 t G ]  .d.x.V.F.F.F.F.F.F.Z.F.Z.Z.Z.Z.F.F.F.F.H.J.J.J.K.L.L.L.I.I.L.L.L.L.L.L.K.K.J.J.J.H.H.H.F.F.F.F.F.F.F.F.F.F.F.Z.F.Z.Z.Z.Z.V.V.z.k.k.k.k.k.k.k.k.k.z.z.z.z.z.V.V.V.V.V.V.V.V.V.V.V.z.V.z.z.k.k.k.s.s.s.p.s.p.....| ` S Z b 8 < # X         ",
": > > 5 7 B F ] X.l.V.Z.F.H.H.H.F.F.Z.Z.Z.Z.Z.Z.Z.Z.Z.V.V.V.V.z.z.k.z.z.z.z.z.V.Z.Z.Z.F.F.F.H.H.H.J.J.J.J.H.H.J.H.H.H.H.H.F.F.F.F.Z.Z.Z.V.V.z.z.k.k.s.s.s.k.s.k.k.s.s.s.p...| ` ` ) ) ) ) ` ` | | ....p.s.k.k.z.V.V.V.Z.Z.Z.Z.Z.V.z.s.| ) m 8 < #     . . O @ ; 5 7 B G { X.l.C.Z.H.J.J.J.H.H.H.F.F.Z.V.V.z.k.k.k.k.k.z.z.z.z.V.z.z.z.k.s.s.p.p.....p.p.s.s.s.p...` S m 8 < # X .   . O @ = ; 7 e C F _ X.d.k.V.Z.F.F.F.H.H.H.H.H.H.H.F.F.F.F.Z.Z.Z.Z.V.V.V.Z.V.V.V.V.V.V.V.V.V.Z.V.Z.Z.Z.Z.Z.Z.V.V.V.z.z.z.k.z.k.z.z.z.V.V.V.V.Z.Z.F.H.H.H.H.H.H.H.J.H.H.H.J.H.H.J.J.H.H.H.H.F.F.F.Z.Z.V.V.V.V.V.V.V.V.Z.Z.V.Z.Z.Z.V.V.V.V.k.s.s...| ` ) ) ) S S S S Z S S S Z Z S S Z S Z S S S S S S S ) ) S S S S ) S S ) S S S S S S S S S S S S S S ) S S S S S Z m 0 8 < % # X     . . + * = 5 7 t F ]  .d.l.V.F.F.F.H.F.F.F.F.F.F.F.F.F.F.H.H.H.H.J.K.K.L.L.L.I.I.L.L.L.K.L.K.K.K.J.J.J.J.H.H.H.H.H.F.F.F.F.Z.F.F.Z.F.Z.F.Z.Z.V.V.V.z.k.k.s.k.k.k.s.k.k.k.z.z.z.z.z.z.V.V.V.V.V.V.V.z.V.z.z.z.z.k.k.s.s.s.p.p.p.p...| | ` S Z 0 2 < # X         ",
": > ; i e t F {  .l.C.F.H.H.H.H.H.F.Z.Z.Z.V.Z.V.V.V.V.V.V.z.z.z.z.z.z.k.z.z.V.V.Z.Z.Z.F.H.H.J.J.J.J.K.J.K.K.J.J.H.J.H.H.F.F.F.F.Z.Z.V.V.V.z.k.k.k.k.s.k.s.k.k.k.k.k.k.s.p.p...| | ` ` ` ` ` | | ......s.s.k.k.z.V.V.V.Z.Z.Z.Z.Z.V.z.s.| ) m 8 % #     . O O @ = 5 7 B F { X.l.V.G.H.H.J.H.H.H.H.F.F.Z.Z.V.z.z.z.k.k.z.z.z.V.V.V.V.z.z.k.s.s.......p.p.s.s.s.s.s.p.| ) m 0 < # X   . . o + = ; 5 e N F _  .d.k.V.V.Z.F.H.F.H.H.H.H.H.H.H.H.F.F.F.Z.F.Z.Z.Z.V.V.V.V.V.V.V.V.V.V.V.Z.Z.Z.Z.Z.Z.Z.Z.Z.V.z.z.z.k.k.k.k.k.k.z.z.z.z.V.V.Z.F.F.H.H.J.J.H.J.H.H.J.H.J.H.H.J.H.H.J.H.H.F.F.Z.Z.Z.Z.V.V.V.V.V.V.Z.V.V.Z.V.V.Z.Z.V.V.z.z.k.p.p.| ` ` ) ) S S S S S Z Z S Z S Z Z S Z S S S S S ) S S ) S S S ) S S S S S S S Z S S Z S S S S S S S S S S S S S Z m m 0 8 2 % X X     . o O * ; 5 7 t V ]  .d.x.Z.Z.F.F.H.F.F.F.F.F.F.F.H.F.F.H.H.H.J.J.K.K.L.L.L.L.L.L.L.L.L.K.K.K.K.J.K.J.J.H.J.H.H.F.F.F.Z.F.Z.F.F.Z.F.F.F.Z.Z.V.V.z.k.k.k.s.s.s.s.s.k.s.k.k.k.k.z.z.V.V.V.V.V.V.V.V.V.z.z.z.z.k.k.k.s.s.p.p.p.......| ` ` S m 0 8 < % X         ",
": : 5 5 e t G ] X.l.V.G.H.H.J.H.F.F.Z.Z.Z.Z.V.V.V.V.z.z.V.z.z.z.z.k.k.z.z.z.V.V.Z.Z.F.H.H.J.J.K.K.K.L.L.K.K.K.J.J.J.H.H.H.F.F.F.Z.Z.V.V.z.z.k.k.k.s.s.s.k.k.k.k.z.z.k.k.s.s.p...| | | | | | | ......p.p.s.k.k.z.z.V.Z.Z.Z.Z.Z.V.V.z.s.| ) m 8 % #   . . . O @ ; 5 7 t F { a.l.V.F.F.H.J.H.H.F.F.F.F.Z.Z.V.V.V.z.z.z.z.V.z.V.V.V.V.z.k.k.s.s.p.....p.p.s.k.k.k.k.s...) m 0 2 # X   . O O O = ; 5 e B F _ X.a.x.V.Z.F.F.F.H.H.H.H.H.H.H.H.H.F.H.F.F.F.Z.Z.Z.V.V.V.V.V.V.V.V.V.V.Z.V.Z.Z.F.F.F.F.Z.Z.V.V.z.k.k.s.k.s.s.k.s.k.k.z.z.V.Z.Z.F.F.H.H.H.J.H.H.H.H.H.H.H.H.J.H.J.H.H.H.F.F.F.Z.V.V.V.V.V.V.V.V.V.V.V.V.Z.V.Z.Z.V.V.V.k.k.s.p...| ` ` ) ) S S S S S S Z Z Z S Z S Z S S S S ) S ) S ) S ) S S S S S S Z S Z Z Z Z Z Z Z Z Z Z Z Z Z Z Z Z Z Z Z m b 0 2 < % X X     . . O * = 5 7 t F ]  .d.x.V.F.F.F.H.H.H.F.H.H.F.H.H.F.H.H.H.J.J.J.K.K.K.L.L.L.L.L.L.K.K.K.K.K.J.K.K.J.J.J.J.H.H.H.H.F.F.F.Z.F.Z.F.F.F.Z.Z.Z.V.V.z.k.k.s.s.s.s.s.s.s.s.s.k.k.k.k.z.V.V.z.V.V.V.V.z.z.z.z.z.k.k.k.s.s.p.p.p.....| | | ` ) Z m 0 2 % # X X       ",
": > > i 7 B F ] X.l.V.Z.H.H.H.H.H.F.F.F.Z.Z.V.Z.V.V.V.z.z.z.k.z.k.z.z.z.z.V.V.Z.Z.F.H.H.J.J.K.K.L.L.L.L.L.L.K.K.J.J.H.H.F.F.F.Z.Z.Z.V.V.z.z.k.k.k.s.s.k.s.k.k.z.z.z.z.k.k.s.p.p.......| | | | | ....p.p.s.s.k.z.z.V.V.V.Z.Z.Z.Z.V.k.s...S m 8 < #     . O O @ = 5 7 B F { +.l.C.F.H.H.J.H.H.H.F.Z.F.Z.Z.Z.V.V.V.V.z.V.z.V.V.V.V.z.z.z.k.s.p.p.p.p.p.s.s.k.k.z.k.s...` Z 0 < % X   . . O @ @ ; 5 e B F _ X.d.l.z.V.Z.F.F.F.H.H.H.J.H.H.H.H.H.H.F.F.F.F.Z.Z.Z.V.V.V.V.z.V.V.V.V.V.Z.Z.F.F.F.F.F.F.Z.V.z.z.k.k.s.s.s.s.s.s.s.s.k.k.z.V.Z.F.F.H.H.H.H.H.H.J.J.H.H.H.H.H.H.H.H.H.H.F.F.Z.Z.Z.V.Z.V.V.V.V.V.V.V.V.V.V.V.V.V.V.V.z.z.k.s.p...| | ` ) ) ) ) S S S Z Z S S Z S Z S S S S ) S S ) ) ) ) S S S S S S Z S Z Z Z Z Z Z m Z Z Z Z m Z Z Z Z Z Z Z m m b 0 2 < % # X   . . . + * ; 5 7 t V ] +.a.x.V.F.F.H.F.H.H.F.F.H.F.H.H.F.H.H.H.H.J.J.K.K.L.L.L.L.L.L.L.K.K.K.J.K.K.K.J.J.J.J.J.J.H.H.H.F.F.F.F.Z.F.Z.F.Z.Z.F.Z.Z.V.z.k.k.k.s.s.s.p.s.s.s.s.s.k.k.k.z.z.z.V.V.V.V.V.V.z.z.z.k.k.k.s.s.p.p.........| | ` ` ) S m 0 2 < # X         ",
": : y 5 7 B F ]  .l.C.F.H.H.J.H.H.F.F.Z.Z.V.Z.V.V.z.z.z.z.z.z.z.z.z.z.z.V.V.V.Z.F.F.H.H.J.K.K.L.P.I.I.I.I.L.K.K.K.J.J.H.H.F.F.Z.Z.V.V.z.z.z.k.k.k.s.s.s.k.k.k.z.z.z.V.z.z.k.s.s.p...................p.p.s.s.k.k.z.V.V.V.V.Z.Z.V.V.k.s.| S m 8 % X     . O O @ = 5 e t F { X.l.V.F.F.H.J.H.H.H.F.F.Z.Z.Z.Z.V.V.V.V.V.V.V.V.V.V.V.V.z.k.k.s.s.p.p.p.p.s.k.k.z.z.k.s...` Z 0 2 % X     . O @ = ; 5 e B F _  .d.k.V.Z.F.F.F.F.H.F.H.H.H.J.H.H.H.H.F.F.F.Z.Z.Z.V.V.V.V.V.z.V.V.V.V.V.Z.Z.Z.F.F.F.F.Z.Z.V.z.z.k.s.s.p.p.s.p.p.s.s.s.k.z.z.V.Z.F.F.H.H.H.H.H.H.H.H.H.H.H.H.H.H.H.H.H.F.F.Z.Z.Z.V.V.V.V.V.V.V.V.V.V.V.V.V.V.V.z.z.z.k.k.s.p...| | ` ` ) ) ) S S S Z S Z Z S S Z Z S S S ) S ) ) S ) ) ) ) S S Z Z Z Z Z Z m m Z m m m m m m m m m m m Z m m m m 0 0 2 < # X X     . O + * = 5 7 t V ]  .d.x.V.Z.F.H.H.H.H.H.F.H.H.H.H.H.H.H.H.J.J.J.J.K.K.K.L.K.K.K.K.K.K.K.K.K.K.K.J.K.K.J.J.J.J.H.H.F.F.F.F.Z.F.F.Z.F.F.F.Z.V.V.z.z.k.s.s.s.s.s.p.s.s.s.k.s.k.z.z.z.z.z.V.V.z.z.z.z.z.k.k.s.s.s.p.p.........| | | ` ) S Z b 0 2 % # X         ",
": : > y e t F ] +.d.V.F.F.H.H.H.H.F.F.Z.Z.Z.Z.V.V.V.V.z.z.z.z.k.k.z.z.z.V.V.Z.F.F.H.J.J.K.K.P.P.I.U.T.T.U.U.P.P.K.J.J.H.H.F.F.Z.Z.V.V.V.z.z.k.s.s.s.s.k.k.k.z.V.V.V.z.z.z.k.s.s.p.p...p...........p.p.p.s.s.k.z.z.z.z.V.V.V.V.V.z.k.p.| ) b 8 < X X   . O O @ = 5 7 B F ] f.l.V.G.H.H.H.H.H.F.F.F.Z.Z.Z.Z.Z.V.V.V.V.V.V.V.z.z.z.z.k.k.k.s.s.p.p.p.p.s.k.k.z.k.k.s...` m 0 2 #     . . O @ = ; 7 e C F ] | d.k.V.V.Z.F.F.F.H.F.H.H.H.H.H.H.H.H.H.H.F.F.Z.Z.V.V.V.V.V.V.V.V.V.V.V.V.Z.Z.Z.Z.Z.F.Z.V.V.z.k.s.s.s.p.p.p.p.p.p.s.s.k.k.z.V.V.Z.F.F.F.H.F.H.H.H.F.H.H.H.H.H.H.F.H.F.F.F.Z.Z.V.Z.V.V.V.V.z.V.z.V.z.z.z.V.V.V.z.z.z.k.k.s.p.....| ` ` ) ) S S S S S S S S Z S S S S S S S ) S ) ) ) S S S S S S S Z Z Z Z Z Z m Z m m m m m m m m m m m m m m b 0 8 2 < # # X X . . . + @ ; 5 7 t F ]  .d.z.V.F.F.F.H.F.F.H.F.H.H.F.H.H.H.H.H.H.H.J.J.K.J.K.K.K.K.K.K.K.K.K.J.K.K.J.K.K.K.K.J.J.J.H.H.F.F.Z.F.F.Z.F.F.F.Z.Z.Z.V.V.z.k.k.k.s.s.s.s.s.s.s.s.s.s.k.k.k.z.z.z.z.z.z.z.z.z.k.k.k.k.s.s.p.p.p.....| | | ` ` ) S Z b 8 2 % # X         ",
": > y 5 7 t F ] X.l.V.Z.H.H.H.H.F.F.Z.Z.Z.Z.V.V.V.V.V.V.V.z.z.z.z.z.z.V.V.V.Z.F.H.J.J.K.K.P.U.U.R.T.R.T.T.T.P.P.P.K.J.J.H.F.F.Z.Z.V.V.z.z.k.k.k.k.s.s.k.k.k.z.z.z.V.V.z.z.k.k.k.s.p.p.p.p.p...p.p.p.p.p.s.s.k.k.z.z.z.z.V.V.V.V.z.k.p.| S b 8 < #   . . O O = = 5 e B F { X.l.V.F.F.H.H.H.H.F.F.F.Z.Z.Z.Z.Z.V.V.V.V.V.z.V.z.z.z.z.k.k.s.s.s.s.s.s.s.k.k.k.z.k.k.p.| ) m 0 < % X     . O @ = ; 7 e B F ]  .d.k.V.Z.Z.F.F.F.F.F.F.H.H.H.H.H.H.H.H.F.F.Z.Z.Z.V.V.V.z.V.z.V.V.V.z.V.V.V.Z.Z.Z.Z.Z.V.V.z.k.k.s.s.p.p.p.p...p.p.p.s.s.k.z.z.V.Z.Z.Z.F.F.F.F.F.F.F.F.H.H.H.F.H.F.F.F.F.F.Z.Z.Z.V.V.V.V.z.V.z.z.z.z.z.z.z.z.z.z.z.k.k.s.p.p.....| ` ` ` ) ) ) S S S S S S S S S S S S S S ) ) S ) S S S S S S Z S Z Z Z Z Z m Z m Z m m m b m m m m m m m m b b 0 8 2 < # X X     . O O = = 5 7 t G ]  .d.x.Z.Z.F.F.H.F.F.F.F.F.F.F.F.H.H.H.H.H.J.J.J.J.J.J.J.J.J.J.J.K.K.J.K.K.K.K.K.K.K.K.J.J.J.H.H.H.F.F.F.Z.F.Z.F.Z.F.Z.Z.Z.V.z.z.z.k.k.s.s.k.s.s.s.k.s.k.k.k.k.z.k.z.k.z.k.k.k.k.k.s.s.s.s.p.p.p.......| | ` ` ) ) S m b 0 2 % X X         ",
": > > i e t F ]  .l.C.F.H.H.H.H.F.F.F.Z.Z.Z.Z.Z.Z.V.V.V.V.V.z.V.z.z.z.V.V.Z.F.F.H.J.J.P.P.U.U.R.E.E.W.E.E.E.R.P.P.P.K.J.J.H.F.F.Z.V.z.z.z.k.k.k.k.k.k.k.k.z.z.z.V.V.V.V.z.z.k.k.k.s.s.p.p.p.p.p.p.p.p.s.p.s.s.k.k.k.k.z.z.z.z.z.k.s.p.` S b 8 % X X   . . O @ ; 5 7 t G { +.l.A.F.H.H.J.H.H.F.F.Z.F.Z.Z.Z.V.Z.Z.V.V.V.z.z.z.k.k.k.k.s.k.k.s.s.k.s.k.s.k.k.k.k.s.p.| ) m 0 < # X   . . O O = ; 5 e B H _ X.d.l.V.V.Z.Z.F.F.Z.F.F.F.F.H.H.H.H.H.H.H.F.F.Z.V.V.V.z.z.z.V.z.z.V.z.V.V.V.V.V.V.V.V.z.z.k.k.s.s.p.p.p.p.....p.p.p.p.p.s.k.k.z.V.V.Z.Z.Z.Z.F.F.F.F.F.F.F.F.F.F.F.F.F.F.Z.Z.Z.V.V.V.V.V.z.z.z.z.z.k.k.k.k.k.k.k.k.k.s.s.p.p.....| | ` ` ) ) ) S S S S S S S S S S S ) S S S ) S ) S S S S S Z S Z S Z Z Z m Z m m m m m m m b m b m b b b m b b 0 8 < < # X X     . . + * ; 5 7 t F ]  .a.k.A.Z.F.F.F.F.Z.F.F.Z.F.F.F.H.H.H.H.H.H.H.H.H.J.H.H.J.J.J.J.J.J.K.K.K.K.K.K.K.K.J.K.J.J.H.H.F.F.F.F.Z.F.F.F.Z.F.Z.Z.V.V.V.z.z.k.k.k.k.k.k.k.k.k.k.k.k.k.k.k.k.k.k.k.k.k.k.s.s.s.s.s.s.p.p.p.....| ..| | ` ) ) S m b 8 2 % # X         ",
": : > 5 e t F ] X.l.C.F.F.H.H.H.F.F.Z.Z.V.Z.Z.V.Z.Z.Z.Z.Z.V.V.V.z.z.V.V.V.Z.F.H.J.J.K.P.P.T.R.E.W.Q.Q.Q.W.E.E.R.P.P.P.K.J.H.F.F.V.V.z.z.z.k.k.k.k.k.k.k.k.z.z.z.z.V.V.z.V.z.z.k.k.s.s.s.s.p.p.p.p.p.p.p.s.s.s.s.k.s.k.k.k.z.z.k.k.s...` Z b 2 % X X   . O O @ = 5 7 B F { a.l.V.F.F.H.H.H.H.F.F.F.Z.Z.Z.Z.Z.V.V.V.V.z.z.k.k.k.s.k.s.s.k.k.s.k.k.k.k.k.k.k.k.s.s...` S m 8 < # X . . . O @ = ; 7 e C F ]  .d.l.V.Z.Z.Z.Z.Z.Z.F.F.F.F.F.H.H.H.H.H.F.F.Z.Z.V.V.V.z.z.V.z.V.z.z.z.V.z.z.V.z.z.z.z.k.k.s.s.s.p.p.p...p.........p.p.p.s.s.k.z.z.z.V.V.V.Z.Z.Z.F.Z.F.Z.F.F.F.Z.F.F.Z.Z.Z.Z.Z.Z.V.V.V.z.z.z.k.k.k.s.k.s.s.k.k.s.s.s.s.p.p.p.......| | ` ` ) ) ) ) S S S S S ) S S ) S ) ) S ) S S S S S S S S Z Z Z Z Z Z Z Z Z m Z m m m b b b m b m b m b b 0 0 8 < % # X X     . O @ * = 5 7 t F ]  .d.x.Z.Z.F.F.F.Z.Z.Z.Z.Z.F.Z.F.F.H.H.H.H.H.H.H.F.F.F.H.F.H.H.J.J.J.K.J.K.K.K.K.K.K.K.K.J.J.J.H.F.F.F.F.F.Z.F.F.F.Z.F.Z.Z.Z.V.V.z.z.z.z.z.k.k.z.z.z.k.k.k.k.k.s.k.k.s.s.s.s.s.s.s.s.p.p.p.p.p...p...| | | ` ` ) S S m b 8 < % # X         ",
": > > y e t F { +.d.V.Z.H.H.H.H.F.F.Z.Z.Z.Z.Z.Z.Z.Z.Z.Z.Z.Z.V.V.V.V.V.V.Z.Z.F.H.J.K.L.P.U.T.R.W.Q.!.!.!.!.W.W.R.U.P.P.K.K.H.H.Z.Z.V.z.z.z.k.k.k.k.k.k.k.z.z.z.V.V.V.V.V.z.z.z.k.k.k.s.s.s.s.s.p.s.p.s.p.p.p.s.s.s.s.s.s.k.k.k.k.s.s...` S b 8 % X   . . O O @ ; 5 7 B G ] X.l.C.F.H.H.J.H.H.F.F.Z.F.Z.Z.Z.Z.Z.V.V.z.z.z.k.k.s.s.s.s.s.s.s.k.k.z.k.k.k.k.k.s.p...| ) Z b 8 % # X     . o + = ; 5 e N F _ X.p.k.z.V.Z.Z.Z.Z.Z.Z.Z.F.F.F.F.H.H.H.H.F.F.Z.Z.V.V.z.z.z.z.z.z.z.z.z.z.z.z.k.k.k.s.k.s.s.s.p.p.p.p.p.....p...p.....p.p.p.s.s.k.k.z.z.z.V.V.V.Z.Z.Z.F.Z.Z.Z.F.Z.Z.Z.Z.Z.Z.Z.V.Z.V.V.z.z.z.k.k.s.s.s.s.s.s.s.s.s.s.s.p.p.p.p.....| | | ` ` ) ) ) S S S S S ) S S ) S S S S S S S S S S S S Z S S S Z S Z Z Z Z Z Z Z m m m b b b b b b b b b b 0 0 2 2 % # X X     . o O * ; 5 7 t V ]  .d.x.V.Z.Z.F.Z.Z.V.V.V.Z.Z.Z.F.F.F.H.H.H.H.F.F.F.F.Z.Z.F.F.H.H.J.J.J.K.K.K.K.K.K.K.K.K.J.J.H.H.H.F.F.Z.F.F.Z.Z.F.F.Z.Z.Z.Z.V.V.z.z.z.z.z.z.z.z.z.z.z.z.k.k.k.s.s.s.p.s.s.p.s.p.p.p.p.p.p...p.p.......| | ` ` ) ) Z m b 8 < % X X         ",
": > > 5 e t G ]  .l.V.F.F.H.H.F.F.Z.Z.Z.Z.Z.Z.Z.F.F.F.Z.F.F.Z.Z.V.V.V.V.Z.F.F.J.J.L.L.U.T.R.E.Q.!.!.^.~.~.Q.W.E.T.T.P.L.K.J.F.F.Z.V.z.z.k.k.k.k.k.k.k.k.z.z.z.z.V.V.V.z.V.z.z.z.k.k.k.s.s.s.s.s.s.s.p.p.p.p.p.p.p.p.s.s.s.k.k.s.s.p.| ) Z b 2 % X     . O O @ = 5 7 B F { +.l.V.F.H.H.H.H.H.F.F.F.Z.Z.Z.Z.V.Z.V.V.z.z.k.k.s.s.s.p.s.s.s.k.k.k.z.z.k.k.k.s.s.p...` ) Z 0 2 % # X   . . O @ = ; 5 e B H ] X.a.k.V.V.V.Z.Z.Z.V.Z.Z.Z.F.F.F.H.F.H.H.F.F.Z.Z.V.z.z.z.z.z.z.z.z.z.k.z.k.k.k.s.s.s.s.p.p.p.p.p.p.p.....p.......p...p.p.p.p.s.s.k.k.k.z.z.z.V.V.Z.V.Z.Z.Z.Z.Z.V.Z.Z.V.Z.Z.Z.V.Z.V.V.z.z.k.k.k.s.p.p.p.p.p.p.p.p.p.p.p.p.p.........| | | ` ` ) ) ) ) ) ) S ) ) S ) ) S ) S S S S S Z S Z Z S S Z S Z S Z S Z Z Z Z Z m m m b b b b b b b b b 0 0 0 2 < % % X X X . . . + * = 5 7 t V ] +.d.x.V.Z.F.Z.Z.V.V.V.V.V.V.Z.Z.F.F.H.H.H.F.F.F.Z.Z.V.Z.Z.Z.F.F.H.J.J.K.K.K.K.K.K.K.J.J.J.J.H.H.F.F.F.Z.F.Z.F.F.Z.Z.F.Z.Z.Z.Z.V.V.V.z.V.z.V.z.z.z.z.z.z.k.k.s.s.s.p.p.p.p.p.p.p.p.p...p.p.p...........| | ` ` ) S Z m b 8 < % # X         ",
": : y y 7 B F ] X.l.C.F.H.H.H.F.F.Z.Z.V.V.Z.Z.Z.F.F.H.F.F.F.Z.Z.Z.Z.V.Z.Z.F.H.J.J.L.I.I.T.R.W.Q.~.^.^.^.^.!.Q.E.T.T.I.L.K.J.H.F.V.V.z.z.k.k.k.z.z.k.z.z.z.z.V.V.z.V.V.V.z.V.z.z.z.k.k.k.s.k.s.s.p.p.p.p.p.p.p.p.p...p.p.p.s.s.s.s.p.| ) Z 0 2 % # X   . O O @ = 5 7 B F { a.l.V.F.F.H.J.H.H.H.F.Z.F.Z.Z.Z.Z.V.V.V.V.z.k.s.s.p.p.p.p.s.k.k.k.z.z.z.z.k.k.s.p...| ` S m 0 2 % #     . . O + = ; 5 e B F _ ..d.x.z.V.Z.V.Z.Z.Z.V.V.Z.Z.F.F.H.H.H.F.F.F.Z.Z.V.V.z.z.k.z.z.k.z.z.z.k.k.k.s.s.s.p.p.p.p.p...........................p.p.p.p.s.s.s.s.k.k.z.z.V.V.V.V.V.V.Z.Z.V.V.V.V.V.V.V.V.V.V.V.V.z.k.s.s.p.p.p.p...p...p.....p.p.....p.......| | | | ` ` ) ) ) ) ) ) ) ) ) ) ) ) S ) S S S S S S S S Z Z S Z S Z S Z S S Z Z Z Z m m b b b 0 b b b b b b 0 8 8 2 % # X X     . O + * ; 5 7 t F ]  .d.k.V.Z.Z.Z.Z.Z.V.V.V.z.V.Z.Z.F.H.F.H.F.F.F.Z.V.V.V.V.V.Z.Z.F.H.J.J.J.K.J.K.K.K.K.K.J.J.J.H.H.H.F.F.F.F.Z.F.Z.F.F.Z.Z.Z.Z.V.V.V.z.V.z.V.V.V.V.V.V.z.z.k.k.s.s.p.p.p.p...........p.................| | ` ` ` ) S Z m 0 8 < % # X         ",
": > ; y e t F ] X.d.V.Z.F.H.H.H.F.Z.Z.V.V.Z.Z.Z.F.F.F.H.F.F.F.Z.Z.V.Z.V.Z.F.H.J.K.L.P.I.T.R.W.!.~.^.^.^.~.!.Q.E.T.T.I.L.K.J.F.F.Z.V.z.z.z.k.k.k.k.k.k.z.k.z.z.V.V.V.z.V.V.z.z.z.z.z.z.k.k.s.s.s.s.p.p.p.................p.p.p.p.p...| ) m 0 < % X X . . . + @ ; 5 e t F ] +.d.C.G.F.H.H.H.H.F.F.F.Z.F.Z.V.Z.Z.V.V.z.z.k.k.s.s.p.p.p.s.s.k.k.z.z.z.k.k.s.s.p.| | ) Z m 8 2 % X X     . O * = ; 5 e B F _  .d.k.z.V.Z.Z.V.V.V.V.Z.Z.Z.F.F.F.F.H.H.F.F.Z.Z.V.z.z.z.k.z.k.z.z.k.k.k.k.s.s.s.p.p...p...p.....p...................p.....p.p.p.p.s.s.s.k.k.z.z.V.z.V.V.V.V.V.V.V.V.V.V.V.V.V.V.V.z.z.k.k.s.p.p.......| ..| ..........................| | | ` ` ` ) ) ) ) ) ) ) ) ) ) ) S S S S S S S Z S S Z S S Z S Z S Z Z S Z Z m m m b b b b b b b b b 0 0 8 2 < < # X       . . + @ ; 5 7 t F ] X.d.x.V.Z.F.Z.Z.V.V.V.z.V.V.V.Z.F.F.F.F.H.F.Z.Z.V.V.V.z.V.V.Z.F.F.H.J.J.J.J.J.J.J.J.J.J.J.H.H.F.F.F.Z.F.Z.F.Z.F.Z.Z.F.Z.Z.Z.V.V.V.V.V.z.V.z.V.z.z.z.z.z.k.k.s.s.p.........p.........................| | ` ` ) ) S Z m 0 8 2 % X X         ",
": > y 5 7 B F ] +.d.A.Z.F.H.H.F.F.Z.Z.Z.Z.Z.F.F.H.F.H.H.H.F.F.F.Z.Z.Z.Z.F.F.H.H.J.L.I.I.T.R.E.!.!.~.^.^.~.!.W.E.R.T.I.L.K.J.H.F.V.V.z.z.k.k.k.k.k.k.k.k.z.z.z.V.V.V.V.V.V.V.V.z.z.z.k.k.k.s.s.p.p...........| | | | ..| ....p.p.....` S m 0 2 % X     . . O @ ; 5 7 B F { a.l.V.F.H.H.J.H.F.F.F.Z.Z.Z.Z.Z.Z.Z.V.V.V.z.z.k.s.s.s.s.s.s.s.k.z.k.z.z.k.k.s.p.p.| ` ) Z b 0 < % X X   . . O @ = ; 7 e C F {  .d.k.V.V.Z.Z.V.Z.V.V.Z.V.Z.Z.F.H.H.H.F.F.F.Z.V.V.z.z.z.z.k.z.k.k.k.k.k.s.s.s.p.p.p.........................................p.p.p.p.s.s.s.k.k.z.z.z.z.V.z.V.z.z.V.z.z.z.z.V.V.z.z.z.z.k.s.s.p.......| | | | | | | ..| ......p...p.......| | | ` ` ` ` ` ` ` ` ) ) ) ) S ) ) S S S S S S S Z S Z Z S Z S Z S Z Z Z m m m b b b b 0 b 0 b b b 0 0 0 2 < % # X X     . O + * ; 5 7 t G ]  .d.x.Z.Z.Z.Z.Z.Z.V.V.z.V.V.Z.Z.F.F.H.F.F.F.Z.V.V.z.z.z.z.V.Z.Z.F.H.H.H.J.J.J.J.J.H.J.H.H.H.H.F.F.F.Z.Z.Z.F.Z.Z.F.Z.Z.Z.Z.Z.V.V.V.z.V.z.z.z.V.z.V.z.z.z.k.s.s.p...p.............................| | | | ` ` ) ) S Z m 0 8 < % # X         ",
": > > 5 e t F ] X.l.C.Z.H.H.H.F.F.Z.Z.Z.Z.Z.Z.F.F.H.H.H.H.F.F.F.Z.Z.Z.Z.Z.F.H.J.K.K.P.P.U.R.E.W.Q.!.~.!.!.Q.W.R.R.I.P.L.J.J.H.F.Z.V.z.z.k.k.k.k.k.k.k.k.k.z.z.z.V.V.V.V.V.V.V.V.z.z.z.k.k.s.p.p.....| | | ` | ` ` ` ` | | ........| ` S m 0 2 % X     . . O @ = 5 7 t F { X.l.A.F.F.H.H.H.F.F.Z.Z.Z.Z.Z.Z.V.Z.V.Z.V.z.z.z.k.k.s.s.s.s.k.k.k.k.z.k.k.s.s.p...| ` ) Z b 8 2 % X X X . . O @ = ; 5 e C F ]  .d.l.z.V.V.Z.V.V.V.V.V.V.Z.Z.F.F.H.H.F.F.F.Z.Z.V.V.z.z.z.k.z.k.k.k.k.k.s.s.s.p.p.....................................p...p...p.p.p.p.s.s.s.k.k.z.z.z.z.z.z.z.k.z.z.k.z.z.z.z.z.z.z.k.s.s.p...| | | ` ` ` ` | ` ` | | | ....p.p.p.p...p.......| | | ` ` ` ` ` ) ) ` ) ) ) ) S S S S S S S S Z S S S Z S Z Z Z Z Z Z m m m b b b 0 0 b 0 0 b 0 0 8 2 < % # X X     . O + * ; 5 7 t F ]  .a.x.Z.Z.Z.F.Z.Z.V.V.V.V.Z.Z.Z.F.F.H.F.F.F.Z.V.V.z.z.z.z.z.V.Z.Z.F.H.H.H.H.H.H.H.H.H.H.F.F.F.F.F.Z.Z.F.Z.Z.Z.Z.Z.Z.Z.Z.Z.V.V.V.z.z.z.z.z.z.z.z.z.z.z.k.k.s.s.p.p...................| ....| | | | | ` ` ` ) ) ) S Z m b 8 < % X X         ",
": : 5 i 7 B F ]  .l.V.F.F.H.H.H.F.Z.Z.Z.Z.Z.F.F.F.H.H.H.H.H.F.F.F.F.Z.Z.F.F.H.H.J.K.L.P.P.U.R.E.Q.Q.Q.Q.Q.E.E.R.U.P.L.K.K.H.H.Z.Z.V.z.z.z.k.s.k.s.k.s.s.k.k.z.z.z.V.V.V.V.V.V.V.V.z.z.k.s.p.p...| ` | ` ` ` ) ` ) ` ` ` | | | | | ` ) Z b 8 < # X     . O O @ ; 5 7 B F ] f.l.V.F.H.H.H.H.H.F.Z.Z.Z.Z.Z.Z.Z.Z.V.V.V.V.V.z.k.k.k.k.k.k.k.k.k.k.k.k.s.s.p.....` ` S Z b 8 < % # X   . . O + * 5 5 e N F _ X.d.x.V.V.Z.Z.V.V.V.Z.V.Z.Z.F.F.H.F.H.H.F.F.F.Z.V.V.z.z.z.k.k.k.k.k.s.k.s.s.p.p.p...p.........................................p...p.p.p.s.s.s.k.k.k.k.k.k.k.k.k.k.k.k.k.k.k.k.z.k.k.k.s.p.....| ` ` ` ` ` ) ` ` ` | | | ....p.p.p.p.p.p.p.p.........| | | | ` ` ` ) ` ) ) ) ) ) ) ) ) S S S S Z Z Z Z Z Z Z Z Z m m m b b b b 0 0 b 0 b b 0 0 0 8 2 < % # X X     . . + * = 5 7 t V ]  .d.z.V.Z.Z.F.F.Z.Z.Z.V.Z.Z.Z.Z.F.F.F.F.F.Z.Z.V.z.z.z.z.z.z.V.V.Z.Z.F.F.F.F.H.F.F.F.F.F.F.F.Z.Z.Z.Z.Z.Z.Z.Z.Z.Z.Z.Z.Z.Z.V.V.z.z.z.k.k.k.k.k.k.k.k.k.k.s.s.s.p.p.......| ................| | | | ` ` ` ` ` ` ) ) S Z Z b 8 2 % # X         ",
": : > 5 e t G ] X.l.V.A.H.H.H.F.F.F.Z.Z.Z.F.F.F.F.H.H.H.H.H.F.F.Z.F.Z.Z.F.F.H.H.J.J.J.P.P.P.R.R.E.E.Q.W.E.R.R.U.U.P.K.K.J.H.F.F.Z.V.V.z.z.k.k.s.s.s.s.s.k.k.k.z.V.V.V.Z.Z.V.V.V.V.V.z.k.k.p.....| ` ) ) ) ) S S ) ) ) ) ` ` | | | ` S Z b 8 < % X   o . O O @ ; 5 7 B F { a.l.z.Z.H.H.H.F.F.Z.Z.Z.Z.V.V.Z.Z.Z.Z.Z.Z.V.V.V.V.z.z.k.z.k.k.k.k.k.s.s.p.p.....| | ) S Z b 8 < % #     . . O @ * ; 7 e B F ] | d.k.z.V.Z.Z.V.Z.V.V.Z.Z.Z.F.F.F.H.H.F.H.F.Z.Z.V.V.z.z.z.z.k.k.k.k.s.s.s.p.p.p.p...p.......................................p.......p.p.s.s.s.k.k.k.k.k.k.k.k.s.s.s.s.k.k.k.k.k.k.k.s.p.p...| | ` ) ) ) ) ) ) ) ` ` | | ....p.p.s.s.s.s.s.p.p.p.p.......| | ` ` ` ` ` ) ` ) ) ` ) ) ) S S S S S Z S Z Z Z Z Z Z Z m m m b b b b b 0 0 0 0 b 0 0 8 2 < % # X X     . . + * = 5 7 t F ] o.d.z.V.Z.F.F.F.F.Z.Z.Z.Z.Z.F.F.F.F.F.F.F.Z.V.V.V.z.z.z.z.z.z.V.V.Z.Z.Z.Z.Z.F.F.Z.Z.Z.Z.Z.Z.Z.Z.Z.Z.Z.Z.Z.Z.Z.Z.Z.Z.V.V.V.V.z.z.k.k.k.s.s.s.s.s.k.k.s.s.s.p.p.p.........................| | | ` ` ` ) ) ` ) ) ) S S Z b 8 2 % # X         ",
": > > y 7 B F ] X.l.V.F.H.H.H.H.H.F.F.Z.F.Z.F.F.H.H.H.H.H.F.F.F.F.Z.F.Z.F.F.F.H.H.J.J.K.K.P.P.U.R.R.R.E.R.R.U.P.P.K.K.J.J.H.F.F.Z.V.V.z.k.k.s.s.s.s.s.s.s.k.k.z.z.V.V.V.V.Z.V.Z.V.V.z.k.s.p...` ` ) S S S Z S S S S S ) ) ) ` ` ` ) S Z b 8 < # X     . O O @ = 5 7 B G { X.l.A.G.F.H.H.H.F.F.Z.Z.V.Z.Z.V.Z.Z.Z.Z.Z.Z.V.V.V.V.V.z.z.z.k.k.k.s.s.p.p.p.....| ` ) S m b 8 < % X       . o + ; ; 5 e B H _  .d.k.V.V.V.Z.V.V.V.V.V.V.Z.Z.F.H.F.H.H.F.F.F.Z.Z.V.V.z.z.k.k.k.s.s.s.s.p.s.s.p.p.p.p...p...p.....................................p.p.p.p.p.s.s.s.s.s.k.s.s.s.s.p.s.s.s.s.s.k.s.s.s.s.p...| ` ` ) ) ) S ) S ) ) ) ) ` | | ..p.s.s.k.s.k.s.s.s.s.p.p.p.....| | ` ` ` ` ) ` ` ` ) ) ) ) ) S S S Z S Z Z Z Z m Z m m m m b b b b 0 0 b b b b 0 0 0 8 2 < % # X     . . . + * ; 5 7 t F ]  .a.x.V.F.F.F.F.F.F.F.F.Z.F.F.F.F.F.F.F.F.Z.Z.V.V.z.z.z.k.z.z.V.V.V.V.V.V.Z.V.V.Z.Z.V.Z.V.V.Z.V.Z.V.V.Z.V.Z.V.Z.Z.Z.V.V.V.z.k.k.k.s.s.s.s.s.s.s.p.s.s.p.p.p.p...p.....................| | | ` ` ` ) ) ) ) ) ) ) ) S m b 8 2 % # X         ",
": > > i e t F ]  .l.C.F.H.H.H.H.F.F.F.Z.Z.F.F.H.H.F.H.H.H.H.H.F.F.F.Z.F.F.F.F.F.H.H.J.J.K.P.P.U.U.T.T.T.T.U.P.P.K.K.J.J.H.H.F.Z.Z.V.V.z.z.k.s.s.p.s.p.p.s.s.k.z.z.V.V.V.Z.Z.V.V.V.z.z.k.s...| ` ) S S Z Z Z Z Z Z Z Z S ) ) ) ) ) ) S m 0 8 < # X     . o O @ ; 5 7 B F { X.d.V.F.F.H.H.F.F.Z.Z.V.Z.V.Z.Z.Z.Z.Z.Z.Z.Z.Z.Z.Z.Z.V.V.V.z.z.k.k.s.p.p.....| | | ` ) S m b 8 < % X X   . . O @ = ; 5 e B F {  .d.l.V.V.Z.V.Z.Z.V.V.Z.Z.Z.F.F.F.H.H.F.F.F.F.Z.Z.V.V.z.z.k.k.k.k.s.s.s.s.p.p.p.p.p.p.p.p...p.................................p.......p.p.s.p.s.s.s.s.s.s.s.p.p.p.p.p.p.p.s.s.s.s.s.p.p...| ` ` ) S S S S S S S ) ) ` ` ..p.p.s.k.k.k.k.k.k.k.s.s.s.p.p.....| | ` ` ` ` ` ` ` ` ` ` ) ) S S S S Z Z Z Z Z m Z Z m m m b b b b b b 0 b b b 0 0 0 8 2 < % # X X     . . @ * ; 5 7 t F ]  .a.x.V.Z.F.F.F.H.H.F.H.F.F.F.H.F.F.F.F.F.Z.V.V.z.z.z.z.z.z.z.z.z.z.V.V.z.V.V.V.z.z.V.V.V.V.V.V.V.V.V.V.Z.V.Z.V.V.V.V.V.z.z.k.k.s.p.p.p.p.p.p.p.p.p.p.p.p.p...p.............p.......| | | ` ` ) ) ) ) S ) ) ) ) ) S Z b 0 2 < # X         ",
": > ; 5 7 B F ] X.d.V.Z.H.H.H.H.H.F.F.F.F.F.F.F.F.H.H.H.H.H.F.F.F.F.F.Z.F.F.F.F.H.H.H.J.J.K.K.L.P.I.T.I.I.P.L.K.K.J.J.H.F.F.F.Z.Z.V.V.z.k.k.s.s.p.p.p.p.s.s.k.k.z.z.V.V.V.V.Z.V.V.V.z.k.p...| ` S Z Z m m m m m Z Z Z S S ) ) ) ) ) Z m 0 2 < # X     . . O @ = 5 7 B F { f.l.A.F.F.H.H.H.F.Z.Z.Z.V.Z.V.Z.Z.Z.F.F.Z.F.Z.Z.Z.Z.Z.V.V.z.k.k.s.s.p.......| | ` ` ) S m b 8 < % X X   . . O @ = ; 7 e C F _ X.a.k.z.V.Z.Z.V.V.V.V.V.V.Z.Z.F.F.H.H.H.H.F.F.F.Z.Z.V.V.z.z.z.k.s.s.s.s.s.s.s.s.s.s.s.p.p.p.p.p.p.p.............................p...p...p.p.p.s.s.s.p.s.p.p.p.p.p...p.p.p.p.s.s.s.p.p...| | ` ) ) S S S S S Z S S ) ` ` | ..p.s.k.k.k.z.k.k.k.k.k.s.s.p.p...| | | | ` ` | ` | ` ` ` ` ) ) ) S S Z S Z Z Z m m m m m m b b b b b b b b b b b b 0 8 8 < % # X       . o O * = 5 7 t G ]  .d.x.Z.F.F.H.H.F.H.H.F.F.H.H.F.F.F.F.Z.Z.Z.Z.V.V.z.z.k.k.k.z.z.z.z.z.z.z.z.z.z.z.z.z.z.z.z.V.V.V.V.V.V.V.Z.V.V.Z.V.V.V.z.k.s.s.p.p.p.p...........p...................................| | ` ) ) S S S S ) ) ) ) S S Z b 8 2 % # X         ",
": > y 5 e t F ] X.l.A.Z.H.H.H.H.F.F.F.Z.F.F.F.F.H.H.H.H.H.H.H.F.F.F.Z.F.F.F.F.H.H.H.H.J.J.J.K.P.L.L.I.I.L.L.K.K.J.H.H.F.F.Z.Z.Z.V.V.V.z.k.k.s.s.p.p.p.p.s.s.s.k.z.z.z.V.V.V.V.V.z.z.z.s.p...` ) S Z m m m m m m m m Z Z Z S ) ) ) S Z m 0 8 < # X   . . O + @ ; 5 7 B G ] f.l.V.A.H.H.H.F.F.Z.Z.V.Z.V.Z.Z.Z.Z.Z.Z.F.Z.F.F.Z.Z.Z.Z.V.z.z.k.s.p.p.....| | | ` ` ) S m 0 8 < % X       . O @ = ; 7 e N F ' ..a.z.V.V.Z.V.V.V.V.V.V.Z.Z.Z.F.F.F.H.F.H.F.F.F.Z.Z.V.V.V.z.k.k.k.s.s.s.s.s.s.s.s.s.s.s.s.p.p.p.....................p.................p.p.p.p.p.p.p.p.p.p.p.p.p...p.p.p.p.p.s.p.p.p.p...| ` ` ) ) S S S Z Z Z S S ) ) | | ..s.s.k.k.z.z.z.z.z.z.k.k.s.s.p.....| | | | | | ` ` | ` ` ` ) ) ) S S S S Z Z Z Z Z m m m m m b b b b b b b b b b b 0 0 8 < < # X     . . . @ * = 5 7 t V ] o.d.x.Z.Z.F.H.H.H.H.F.F.H.F.H.F.F.F.F.Z.Z.Z.V.V.z.z.z.z.z.z.k.z.k.z.k.z.z.z.z.z.z.z.z.z.z.z.V.V.V.V.V.V.V.V.V.V.V.V.V.z.k.k.s.s.p.................................................| | | ` ` ) S ) S S S S S ) ) ) S Z m 0 2 % # X         ",
": > > y e t F ] X.l.C.Z.H.H.H.H.H.F.F.Z.F.Z.F.F.F.H.H.H.H.F.F.H.F.F.F.F.F.F.F.F.F.F.H.H.J.J.K.K.K.L.L.L.K.K.K.J.H.H.F.Z.Z.Z.Z.V.V.V.z.z.k.k.s.p.p.p.p.p.p.s.s.k.k.z.z.z.z.V.z.z.z.k.k.s.p.| ` S Z Z m m m b m b m m m Z S S S ) S S Z b 0 2 % # X     . . + = = 5 7 t F { X.l.V.F.F.H.H.H.F.F.Z.Z.Z.Z.Z.Z.Z.Z.F.F.Z.F.F.Z.F.Z.Z.Z.V.V.z.k.s.p.p.......| | ` ) ) S m b 8 < % X X   . . O + = ; 5 e B F ]  .d.k.z.V.V.V.Z.V.V.V.V.V.Z.Z.F.F.H.H.H.H.H.F.F.Z.Z.Z.V.V.z.z.k.k.s.s.s.s.s.s.k.s.k.s.k.s.s.p.p...p.............................p...p...p...p.p.p.p.p.p.p...............p.p.p.p.p.p.p.....| ` ) ) S S S S Z S Z S S ) ` ..p.p.k.k.z.z.z.z.z.z.k.k.k.s.s.p.p.....| | | ` | | | ` ` ` ` ) ) ) ) S S S Z S Z Z Z Z m m m m m m b b b b b b b m b b 0 8 2 % % X X X   . o O = ; 5 7 t F ]  .a.z.V.F.F.H.H.H.H.H.H.H.H.F.F.F.F.Z.Z.Z.V.V.V.z.z.z.k.z.k.z.k.z.k.z.k.z.k.z.k.k.z.k.k.z.z.z.z.V.V.V.V.V.V.V.z.V.z.z.k.k.s.s.p.p...........| | ..| ..| ..| ..................| | | | ` ` ) ) S S S S S S ) ) ) S S Z b 0 2 < # X         ",
": : > y i B F ] X.l.V.F.H.H.H.H.F.F.F.Z.F.Z.F.F.F.F.H.H.H.H.F.F.F.F.F.F.Z.F.F.F.F.H.F.H.H.J.J.J.K.K.K.K.K.J.J.H.F.F.Z.Z.V.V.V.V.V.z.z.k.k.s.s.s.p...p.p.p.p.s.s.k.k.k.z.z.z.k.z.k.k.s.p...` ` S Z m m m b b m m m m m Z Z S S S ) S Z m 0 2 % # X     . . + @ ; 5 e t F ] +.l.C.F.H.H.H.H.F.F.Z.Z.Z.Z.Z.Z.F.Z.Z.F.Z.F.Z.F.Z.Z.Z.Z.V.z.z.k.s.p.p.....| | | ` ) ) Z m 0 8 < % X X     o O + = ; 5 e B H ] X.a.x.z.V.V.V.V.V.V.V.V.V.V.Z.F.H.F.H.H.H.H.H.F.F.F.Z.Z.V.z.z.k.k.k.s.s.s.k.k.k.k.z.k.k.k.s.s.p.p.......................p.p.......p.p.p.p.p.p.p.p...p.p...............p.p.p.p.p.p.p.p.....| ` ` ) ) S S S Z S S S ) ) | | p.s.s.k.z.z.z.z.z.z.k.z.k.k.s.s.p.......| | | | | | ` ` ` ` ` ` ) ) ) S S S S S Z Z Z Z m Z m m m m b m m m m m m m b b 8 2 < # X X X   . . @ @ ; 5 7 t F ]  .d.x.V.Z.F.H.H.H.H.H.F.H.F.F.F.F.Z.F.Z.Z.V.V.V.V.z.z.z.k.k.z.k.k.k.z.k.k.k.z.k.k.k.z.k.z.z.z.z.V.V.V.V.z.V.z.z.z.z.k.k.s.s.p.p.....| | | | | | | | | | | ................| | | | | ` ` ) ) ) S S Z S S S ) ) ) ) S Z m 0 2 < # X         ",
": : y 5 e B F ] +.l.A.Z.H.H.H.H.F.F.Z.Z.Z.Z.F.F.H.H.H.H.H.H.H.F.F.F.F.Z.F.F.F.Z.F.F.F.H.H.H.J.J.K.K.K.J.J.J.H.F.F.Z.V.V.V.z.z.z.z.k.k.k.k.s.s.p.p.p.p.p.p.p.s.s.s.s.k.k.k.s.k.s.s.s.p...| ` ) S Z m m b m b b m m m m Z Z S S ) S S Z b 0 2 < # X     . O + @ = 5 7 B F { a.l.Z.Z.H.H.H.H.H.F.F.Z.Z.F.F.Z.F.F.F.Z.F.Z.F.Z.Z.Z.Z.V.V.z.k.k.s.s.p.......| ` ` ` ) S m b 2 < # X X   . . O * * 5 5 e B F _ X.d.k.z.V.Z.V.V.z.V.z.V.V.Z.Z.Z.F.H.H.H.H.H.H.F.F.F.Z.Z.Z.V.z.z.k.k.k.k.k.k.k.z.z.z.z.z.k.k.s.s.p...........| ................p...p.p...p...p.p.p.p.p...p...p.............p.p.p.p.p.p.....| | ` ` ) ) ) S S S Z S S ) ` | ..p.k.k.z.z.z.V.z.z.z.z.k.k.s.s.p.p.........| | | | | | | ` ` ` ) ) ) ) S ) S S S S Z Z Z Z m m m m m m m m Z Z Z Z m b 0 8 < % # X     . O O * = 5 7 t V ]  .d.x.V.F.F.H.H.H.H.F.H.F.F.F.F.F.Z.Z.Z.V.V.V.z.z.z.z.k.z.k.z.k.z.k.k.z.z.k.k.k.z.k.z.z.z.z.z.V.z.z.V.V.V.z.z.z.k.k.k.s.s.p.p.......| | | | | ` | ` | | | | | | ......| ..| | | ` ` ` ) ) S S S S S S S S S ) ) ) S Z b 0 2 % # X         ",
": > > i 7 t F ] X.l.V.Z.F.H.H.F.F.F.Z.Z.Z.Z.Z.F.F.H.H.H.H.H.F.H.F.F.F.F.F.Z.F.F.F.F.F.F.H.H.H.J.J.J.J.J.H.H.F.Z.V.V.z.z.z.k.x.k.k.k.k.k.s.s.s.p.p.p.p.p.p.p.s.s.s.s.s.s.s.s.s.p.p.p.p.| | ` ) Z Z m m b b b b m m m m Z S S ) S S S Z b 0 2 % # X X . . . + @ ; 5 7 B G { X.l.C.F.H.H.J.H.H.H.F.F.F.F.F.Z.F.F.F.F.Z.Z.Z.Z.Z.V.V.V.z.z.k.k.s.p.p.p.....| | ` ) ) S m 0 8 < % X X   . . O @ = 5 5 e C F {  .d.l.V.V.V.V.V.V.V.z.V.V.V.Z.Z.F.F.H.H.H.H.H.H.F.F.F.F.Z.V.V.z.k.k.k.k.k.k.z.V.V.V.V.V.z.z.s.s.p.p.......| ..............p.p.p.p.p.p.p.p.....p...p...p...............p.p.p.p.p.p.p.p.......| | ` ` ` ) ) S S S S S ) ` | p.p.k.k.z.z.z.z.z.z.z.z.k.k.s.s.p.p.p.......| | | | | ` ` ` ` ` ) ) ) ) ) ) S S S S S S Z Z Z Z Z Z m Z Z Z Z Z Z Z m b 0 8 2 % X X   . . . + * ; 5 7 t F ]  .d.x.V.F.F.H.F.H.H.F.F.F.F.F.F.Z.Z.Z.Z.V.V.V.z.z.z.z.z.k.k.k.k.k.z.k.k.k.k.k.k.z.z.k.k.z.z.z.V.V.V.V.z.z.z.z.k.k.s.s.p.p.p.......| | | | ` ` ` ` ` | ` | | ..| ......| | | | ` ` ) ) ) ) S S S Z Z S S S ) ) ) ) S Z m 0 2 < # X         ",
": > > 5 e B F ] X.d.C.F.H.H.H.H.F.Z.Z.Z.Z.Z.F.F.F.F.H.H.H.H.H.F.F.F.F.Z.F.F.F.Z.F.F.F.F.F.H.H.H.H.H.H.H.F.F.Z.V.V.z.z.k.k.k.k.k.k.k.s.s.s.s.s.p.p.p.p.p.p.p.p.p.p.p.p.p.p.p.p.p.p...| | ` ) S S m m m m m b m b m m m Z Z S S S ) S Z m 0 2 < X X     . O O * = 5 7 B F { X.l.V.G.H.H.H.H.H.H.H.F.F.F.F.F.F.F.Z.F.F.Z.Z.V.Z.V.V.z.z.z.k.k.s.s.p.p.....| | | ` ) S m b 8 < % X X X . . O + * ; 7 e N F _  .s.k.V.V.V.V.V.z.z.z.z.V.V.Z.F.F.H.H.H.H.H.H.H.H.H.F.F.Z.Z.V.z.z.z.k.k.z.z.V.V.Z.Z.Z.V.V.z.k.s.p.p.................p.......p.p.p.p.p.p.p.p.p.p.p.p.......................p.p.p.s.p.p.p.p.......| | ` ) ) ) S S S S ) | ....s.s.k.z.z.z.z.z.z.z.k.k.k.k.s.s.p.p.p.......| | | | | ` | ` ` ` ` ` ` ` ) ) ) ) ) S S S S Z Z Z Z Z Z Z Z S S S S Z m b 8 < % X X     . O O * = 5 7 t G ]  .d.x.V.Z.F.F.H.H.F.F.F.F.F.F.Z.Z.Z.Z.V.V.V.V.V.z.z.z.k.z.z.k.z.z.k.z.z.k.z.z.k.k.k.k.z.z.z.V.z.V.V.V.V.z.z.z.k.s.s.s.p.p.p.....| | | | ` | ` ` ` ` ` ` | | | ......| ..| ` ` ` ) ) S S S S S S Z S S S ) ) ) ) ) S Z b 0 2 % # X         ",
": > ; i e B F ] X.l.V.Z.H.H.H.F.F.Z.Z.V.Z.Z.Z.Z.F.H.H.H.H.F.H.F.F.F.F.F.Z.F.F.Z.F.F.F.F.F.F.F.H.F.H.F.F.Z.Z.V.V.z.k.k.k.s.s.k.s.s.s.s.s.s.s.p.s.p.s.p.p.p.p.p.p.p.p...p.p.p.........| ` ` ) S Z Z m m m m b m m m m m Z S S ) ) S S Z m 0 2 < # X   . . . O @ ; 5 7 t G { X.l.V.F.H.H.J.H.J.H.H.H.F.F.F.F.F.F.F.F.Z.Z.Z.V.V.V.z.z.z.k.k.k.s.s.p.p.......| | ` S S m 0 8 < # X X   . . O + = ; 5 e B H ] X.a.x.z.V.V.V.V.z.z.z.z.V.V.V.Z.F.F.H.H.H.H.H.H.H.F.H.F.F.Z.V.V.z.z.z.k.z.V.V.Z.Z.F.Z.Z.V.z.z.s.s.p.......| ........p...p.p.p.p.p.p.p.p.p.p.p.p...p.................p...p.p.p.p.p.p.s.p.p.......| | | ` ) ) S S S ) ) ` | p.p.k.k.z.z.z.z.z.z.z.k.z.k.k.k.s.s.p.p.p.......| | | ` | ` ` ` ` ` ` ` ` ` ` ) ) ) ) ) S S S Z Z Z Z S S S S S S S Z m b 0 2 % # X     . . O * = 5 7 t F ] o.d.x.V.F.F.F.H.F.F.F.F.F.Z.Z.Z.Z.Z.V.V.V.V.V.z.z.z.z.k.z.k.z.z.k.z.k.z.k.z.k.k.k.k.k.z.z.z.V.V.z.V.V.V.z.z.k.s.s.p.p.p.......| | | | ` ` ` ` ` ` ` ` ` | | | ..| ....| | ` ` ) ) S S S S S Z S S Z S S S ) ) ) ) S Z m 0 2 % # X         ",
": : > i 7 t F ]  .l.A.Z.F.H.H.F.F.Z.Z.V.Z.Z.Z.F.F.F.H.H.H.H.H.F.F.F.F.F.F.Z.Z.F.F.Z.F.Z.F.F.F.F.F.F.F.Z.Z.V.V.z.k.k.s.s.s.s.s.s.s.s.s.s.s.s.s.s.s.p.s.p.s.p.p.p.p.p.p...........| | | ` ) ) S S Z Z m m m m m m m Z Z Z Z S S ) ) S Z b 0 2 % # X X   . O O @ ; 5 7 B F { X.d.A.F.F.H.J.J.H.H.H.H.H.H.H.F.F.F.F.Z.Z.Z.V.V.V.z.z.z.k.k.k.s.k.s.s.p.p.....| | ` ) S m b 8 < % X X     . O @ = 5 5 e B F _ ..d.k.z.V.V.V.V.V.V.z.z.V.V.Z.Z.F.F.H.H.H.H.H.J.H.H.F.F.F.Z.Z.V.V.z.z.z.z.V.Z.Z.F.F.F.Z.V.V.k.k.p.p.....................p...p.p.p.p.p.p.p.p...........................p.p.p.p.p.p.s.p.p.p.........| | ` ) ) ) S S S ) ` | ..p.s.k.k.k.z.z.z.z.k.k.k.k.k.s.s.s.p.p.p.p.......| | | ` | | | ` ` | ` ` ` ) ) ) ) ) S ) S S S S Z S Z S S S S ) ) S Z m 8 2 < # X   . . O + * = 5 7 t V ]  .a.z.V.F.F.F.H.F.F.F.Z.F.F.Z.Z.Z.Z.V.V.V.V.z.V.z.z.z.z.k.z.k.k.z.k.z.k.z.k.z.z.z.z.z.z.z.z.z.V.V.V.V.z.z.k.k.s.s.p.p.......| | | | ` | ` ` ` ` ) ) ) ` ` ` | | ..| ..| | ` ` ` ) S S S S S Z Z S S S S ) ) ) ) S S Z b 0 2 < # X         ",
": > > 5 e t F ]  .l.C.Z.F.F.H.H.F.Z.Z.Z.Z.Z.Z.F.F.H.H.H.H.F.H.H.F.F.Z.F.F.F.F.Z.Z.F.Z.F.Z.Z.F.Z.Z.Z.Z.V.V.z.z.k.k.s.s.p.s.p.p.s.s.s.s.s.p.s.s.s.s.s.s.s.s.p.p.p.p.................| | ` ` ) S S Z Z Z Z m m m m m m Z Z S S ) S ) S Z m 0 2 < # X     . O + @ ; 5 e t F { a.l.V.F.H.H.J.J.J.H.H.H.H.F.F.F.F.F.F.Z.Z.Z.V.V.V.z.z.k.k.k.k.s.s.s.s.p.p.p.....| ` ) S m b 8 2 % X X   . . O @ = ; 5 e B F '  .d.k.z.V.V.V.V.V.z.z.z.V.V.Z.Z.F.F.H.F.H.H.H.H.H.H.F.F.F.Z.Z.V.V.z.V.V.V.Z.Z.F.F.F.F.F.Z.z.z.s.s.p.p.......................p.p.p.p.p.p.p.............................p.p.p.s.p.s.s.p.p.p...p.....| ` ` ) ) S S S ) ) ` | ..p.s.k.k.z.z.z.z.k.z.z.k.k.k.s.k.s.s.s.p.p.....| | | | | | ` ` | | ` ` ` ` ) ` ) ) ) ) S S S S S Z Z S S S ) ) S S S m b 0 2 % # X     . . + * ; 5 7 t F ]  .d.z.V.Z.F.F.F.F.F.Z.Z.F.Z.Z.Z.Z.V.V.V.V.V.z.z.z.z.k.z.z.z.z.k.k.k.z.z.k.z.k.z.k.z.k.z.z.z.V.z.V.V.z.z.z.z.k.s.p.p.........| | | | | | ` ` ` ) ` ) ` ) ` | | | ....| | | ` ` ) ) S S S S Z S Z S Z S S S S ) ) ) S Z b 0 2 < # X         ",
": > > 5 7 t V ]  .d.z.Z.F.H.F.F.F.Z.Z.Z.Z.Z.Z.F.F.F.F.H.F.H.F.F.F.F.F.Z.Z.F.Z.F.F.Z.Z.Z.Z.Z.Z.Z.Z.V.V.V.z.z.k.s.s.s.p.p.p.s.p.p.p.s.s.s.s.s.s.k.s.s.s.s.s.s.s.p.p.p.p.p...........| | | ` ` ) S S S Z Z Z Z Z Z Z Z Z Z S S ) ) S S Z m 0 2 < # X     . . O @ = 5 7 B F ] X.d.A.G.H.J.H.J.H.H.H.F.H.H.F.F.F.F.Z.Z.Z.V.V.z.z.z.k.k.k.k.s.s.s.s.p.p.p.......| ` ) S Z b 8 < % X   .   . O + = 5 5 e C F ]  .d.k.V.V.V.V.V.V.V.V.V.V.V.V.Z.Z.Z.F.F.F.F.F.H.H.F.H.F.F.Z.Z.V.V.V.V.V.V.Z.Z.Z.F.F.F.Z.Z.V.z.k.s.p.p.....................p.p...p.p.p.p.p.....................p.p...p.p.p.p.p.p.p.p.p.p.p.......| | ` ` ) ) ) S S S ) ` | ..p.s.s.k.k.k.k.z.z.k.k.k.k.k.k.k.k.s.s.p.p.p.....| | | | ` | | ` | | | ` ` ` ` ) ) ) ) S ) S S S S S S S S S ) S S Z m b 8 2 % # X X   . O + @ ; 5 7 t F ]  .d.x.V.Z.F.F.H.F.F.F.F.Z.Z.Z.V.V.V.V.V.z.z.V.z.z.z.z.z.z.z.k.z.z.z.k.z.z.k.z.k.z.k.z.k.z.z.z.V.V.V.V.V.z.k.s.s.p.......| | | | | ` | ` ` ` ) ) ) ) ) ` ` ` ` | | | | | | ` ` ) ) ) S S S S S S S S S S S ) ) ) S S Z b 8 2 % # X         ",
": > > i e t V ]  .d.z.Z.F.F.H.F.F.Z.F.Z.Z.Z.F.F.F.H.F.F.F.H.F.F.F.F.F.Z.F.Z.Z.Z.Z.Z.Z.Z.V.Z.V.V.V.z.z.z.z.k.s.s.p.p.p.p.p.p.p.s.s.s.s.s.s.s.k.k.k.k.k.s.s.s.s.s.p.p.p.p...p.p.........| | ` ` ) ) S S S S Z Z Z Z Z S S S S ) ) ) S Z b 0 2 < # X   . . O O @ ; 5 7 B F { X.l.V.F.F.H.J.J.J.H.H.H.H.H.F.F.F.Z.Z.Z.V.V.V.z.z.k.k.k.s.k.s.s.s.s.s.s.p.p.....| | ` ) Z m 8 < % # X     . O @ = 5 5 e B F _  .d.l.V.V.V.Z.V.V.V.V.V.Z.V.Z.Z.Z.Z.Z.F.F.F.F.F.F.F.F.F.F.Z.Z.Z.Z.V.Z.V.Z.Z.Z.F.F.F.F.Z.V.V.k.k.s.p.p...........................................| ....| ............p.p.p.p.s.s.s.p.p.p.......| | ` ` ` ) ) S S S S ) ` | ....p.s.s.k.k.k.z.z.k.z.k.z.k.k.k.k.s.s.s.p.p.p.....| | | | | | | | ` | ` ` ` ) ) ) S ) S S S S Z S S Z S S S S S Z Z m 0 8 2 % X X     . . O @ = 5 7 t V ]  .d.x.A.Z.F.F.F.F.F.Z.Z.Z.Z.V.V.V.V.V.V.z.z.V.z.z.z.z.z.z.z.z.z.z.z.k.z.z.k.k.z.k.z.k.z.z.z.z.z.V.V.V.z.z.k.k.s.p.......| | | | | | ` ` ` ` ) ` ) ) ) ) ` ` ` | | | | | ` ` ` ` ) ) ) S S S S S Z S S S S S ) ) S S Z b 0 2 % X X         ",
": > 5 5 7 t V H  .a.x.V.Z.F.F.F.F.F.F.F.F.F.F.F.F.F.F.H.H.F.F.F.F.F.F.Z.F.Z.F.Z.Z.Z.Z.Z.V.V.V.z.z.z.k.k.s.s.s.p.p.p...p.p.p.p.p.s.s.k.k.k.k.k.k.k.k.k.k.k.k.s.s.s.s.s.p.p.p.p.p.p.p.....| | ` ` ` ) ) S S S S S Z S S S S ) ) ) ) S Z m 0 2 % # X     . . O * = 5 7 B F { +.l.A.F.H.J.J.H.H.H.H.F.F.F.F.F.Z.Z.Z.Z.Z.V.z.z.z.k.k.s.k.s.s.s.s.s.p.p.p.p.p.....| ` ) Z b 0 2 % # X   . . O + * ; 7 e B H ]  .d.k.z.Z.Z.Z.Z.Z.Z.Z.Z.Z.Z.Z.Z.V.Z.Z.Z.Z.Z.Z.F.Z.F.F.F.F.F.Z.Z.Z.Z.Z.Z.Z.F.F.F.F.F.F.Z.Z.z.z.k.s.p.p.......................................| ..| ..| ......p...p.p.p.p.p.s.s.p.s.p.p.p.....| | ` ` ) ) S S S S S ) ) ` ` ..p.p.s.s.k.k.k.k.k.z.k.z.k.z.z.k.k.k.k.s.s.p.p.........| | | | | | | | ` ` ` ` ) ) ) ) S S S S S S Z S S S Z S Z Z m b 0 8 < % X X   . . O + = ; 5 7 t F ] +.d.x.V.Z.F.H.H.F.F.F.F.Z.Z.Z.Z.V.V.z.z.V.z.z.z.z.z.z.V.z.z.z.z.z.z.z.k.z.z.z.k.z.k.z.z.k.z.z.V.V.z.V.z.z.k.s.s.p.......| | | | | ` | ` ` ` ` ) ) ) ` ) ` ` ` ` | | | | | | ` ` ` ) ) ) ) S ) S S S S S S ) S S S Z Z b 8 2 % # X         ",
": > ; y 7 t V H  .a.l.V.Z.F.F.H.F.F.F.F.F.F.F.F.F.F.F.F.F.F.F.Z.Z.F.Z.F.Z.Z.F.Z.Z.Z.Z.Z.V.V.z.z.z.k.k.s.s.s.p.p.p.....p.p.p.s.s.s.s.k.k.k.z.k.k.z.z.z.k.k.k.k.k.s.s.s.s.s.s.s.s.p.s.p.p.....| | ` ` ` ) ) ) S S S S S S ) ) ) ) ) S Z m 0 8 < # X     . O O @ ; 5 7 t G { X.l.V.Z.H.J.H.J.H.H.F.F.F.F.Z.Z.Z.Z.Z.V.V.V.z.z.k.k.k.s.k.s.s.s.s.s.s.s.p.p.p.p...| | ) S m 0 2 % X X   . . O @ * ; 7 e C F _  .d.k.V.V.Z.Z.Z.Z.Z.Z.Z.Z.Z.Z.V.Z.V.Z.V.Z.V.Z.Z.Z.Z.Z.Z.Z.Z.Z.F.F.Z.F.Z.F.Z.F.F.Z.Z.Z.V.V.z.z.k.s.p.p.p.p...................| ........| | | | | | ..| ........p.p.p.p.s.s.p.s.s.p.p.p.p...| | ` ` ) ) ) S S S S S S ) ) ` | ..p.p.s.s.s.k.k.k.z.k.z.z.k.k.k.k.k.k.s.s.s.p.......| | ..| | | ` ` ` ` ` ) ) ) S S S S S S S S S S S S Z Z Z Z Z m b 0 2 < % X X     . . + * = 5 7 t F ]  .a.z.V.F.F.F.F.F.F.Z.Z.Z.Z.V.V.V.z.z.z.z.z.z.z.V.V.z.V.z.z.z.z.z.z.z.k.k.k.k.z.k.z.k.z.z.z.z.V.z.V.V.z.z.k.k.s.p.p.....| | | ` | ` ` ` ` ) ` ` ) ) ) ) ` ` ` ` ` | | ` | | ` ` ` ` ` ` ) ) S S S S Z S S S S ) S S m b 8 2 % # X         ",
": : y 5 7 t V H ' a.l.V.Z.Z.F.F.F.F.F.F.H.F.F.F.F.F.F.F.F.F.F.F.F.F.F.Z.F.Z.Z.Z.Z.Z.V.V.V.z.z.k.k.s.s.p.p.p...p...p.p...p.p.p.s.s.k.k.k.k.z.z.z.z.z.z.z.z.k.k.k.k.k.s.k.s.k.s.s.s.s.s.p.p.p.....| | ` ` ` ) ) ) S ) S ) ) ) ) ) ) S Z b 0 2 % # X     . . @ = = 5 e B F { X.l.C.F.H.H.J.H.H.H.H.F.F.F.F.Z.Z.Z.Z.V.V.z.z.z.k.k.k.s.s.s.s.s.s.s.p.p.s.p.p.p.....| ` S m 0 2 % # X   . . . @ = ; 5 e N F _ X.d.k.V.V.Z.F.F.F.Z.F.F.Z.Z.Z.Z.V.V.V.V.V.V.V.V.Z.Z.Z.Z.Z.F.Z.F.F.F.F.F.F.F.Z.F.Z.Z.Z.V.V.z.k.k.s.s.p.p...p...............| ..| | | | | | | | | | | | ..| ....p.p.p.s.p.s.p.s.p.s.s.p.....| ` ` ) ) S S S S S Z S S ) ) ` | | ..p.s.s.s.k.k.k.k.z.k.z.z.z.z.k.k.k.k.s.s.p.p.........| | | | | | ` ` ` ` ) ) ) S S S S S Z S Z S Z Z Z Z Z m m b 0 8 2 % % X X     . O + = = 5 7 t F ]  .d.x.V.F.F.F.H.F.F.F.F.Z.Z.Z.V.V.V.z.z.z.z.z.z.z.z.z.V.z.V.z.z.z.z.k.z.z.z.k.k.z.k.z.z.z.z.V.V.V.z.V.z.z.k.k.s.p.......| | | | | | | ` ` ` ) ) ` ) ) ) ` ` ` | | | | | | | | | | | ` ` ) ) ) ) S S S S S S S S S Z m b 8 2 % X X         ",
": > > y 7 t N H ' a.l.z.Z.F.F.F.H.F.H.F.H.H.F.H.F.F.F.F.Z.F.F.F.F.Z.Z.F.Z.Z.Z.Z.Z.Z.V.V.V.z.k.k.s.s.p.p.p.........p...p.p.p.s.s.s.k.k.k.z.z.z.z.V.z.V.z.z.z.z.k.k.k.k.k.k.k.k.k.k.s.k.s.s.p.p.....| | | ` ` ) ) ) ) ) ) ) ) ` ) ) S Z m 0 2 % # X     . . + = ; 5 7 t F ] X.l.A.Z.H.H.J.H.H.H.F.F.Z.F.Z.Z.Z.Z.V.V.V.z.z.z.k.s.s.s.s.p.s.p.s.s.p.p.s.s.p.p.....| ` S m 0 2 < # X   . . O @ = ; y e B F _ X.d.x.V.Z.F.F.F.F.F.F.F.F.Z.Z.V.V.V.V.z.V.z.V.V.V.Z.V.Z.Z.Z.F.F.F.F.H.F.F.F.F.Z.Z.Z.V.V.V.z.k.s.s.s.p.p.p.p.p...............| | | | | | | | | | | | | | ......p.p.p.s.s.p.s.s.s.p.p.p...| | ` ) ) S S S S S S Z S S S ) ` ` | ....p.p.s.s.k.k.k.k.z.z.k.z.k.z.k.k.k.s.s.s.p.p.....| | | | | | | ` ` ` ` ) S S S S S Z S S S Z S Z Z Z Z m m b b 0 8 < % # X X X   . . + = = 5 7 t V ]  .d.x.V.Z.F.F.H.H.F.F.F.Z.Z.Z.V.V.V.z.z.z.z.z.z.V.z.V.z.V.z.z.z.z.z.z.z.k.z.k.k.z.k.z.z.z.z.z.V.V.V.V.z.z.k.k.s.p.p.....| | | | | | ` ` ` ` ) ` ) ) ) ) ` ` ` ` ` | | | | | | | | | | | ` ` ) ) S S Z S S S S S Z Z m 0 8 2 % # X         ",
": > y 5 7 t N H ' a.l.V.V.Z.F.F.F.H.F.H.H.F.H.F.F.F.F.F.F.F.Z.F.F.F.F.Z.Z.Z.Z.Z.V.V.V.V.z.k.k.s.s.p.p...p...p...p...p.p.p.p.s.s.s.k.k.z.z.z.z.V.z.V.V.V.V.z.z.z.z.z.k.z.k.k.z.k.k.k.k.s.s.p.p.p...| | | | ` ` ` ) ) ) ) ) ) ` ) ) S Z b 0 2 < # X X   . O O @ = 5 7 B F { f.l.V.F.H.H.J.H.H.F.F.F.Z.Z.Z.Z.Z.Z.V.V.V.z.z.k.k.s.s.s.p.s.s.s.s.p.s.p.p.p.p.p.p.p.| ` ) Z b 2 < # X   . . O O = ; 5 e B F _ X.a.l.z.V.Z.F.F.F.H.H.H.F.F.Z.Z.V.V.z.V.z.z.z.V.V.V.V.Z.Z.Z.Z.F.F.F.F.H.F.F.F.Z.Z.V.V.V.z.k.k.k.s.s.p.s.p.p...p.p.........| | ..| | | | | | ` | ` | | ........p.p.p.p.p.s.p.p.p.p.p.....| ` ) ) ) S Z S Z Z Z S S S ) ) ` ` | ....p.p.s.s.s.k.k.k.k.k.z.k.z.k.k.k.k.s.s.p.p.p.........| | | ` | ` ` ) ) ) ) S Z S Z S S Z S S Z Z Z Z m m m b 0 0 2 2 % # X X     . O + @ ; 5 7 t F ]  .a.z.V.F.F.F.F.F.F.Z.Z.F.Z.V.V.V.z.z.z.z.z.z.V.z.V.V.V.V.V.V.z.z.k.z.k.z.k.k.z.k.z.z.z.z.V.z.V.V.V.V.z.z.k.k.s.s.p.........| | | | ` | ` ` ` ) ) ) ` ) ` ` ` ` | ` | | ............| | ` ` ) ) S Z S Z S S S S Z Z m 0 8 < % X X         ",
": > > 5 e t N H ' a.k.z.V.F.F.F.F.F.H.F.F.H.F.F.F.F.F.F.Z.F.F.F.Z.F.F.Z.Z.Z.Z.Z.V.V.V.z.z.k.k.s.p.p.p.........p...p.p.p.p.s.s.s.k.k.k.z.z.z.z.z.V.V.V.z.z.V.V.z.z.z.z.k.z.z.z.k.z.k.k.k.s.s.p.p.......| | ` ` ` ` ` ) ) ) ) ) ) ) S Z m 8 2 % # X   . . O + @ ; 5 7 B G ] X.d.C.Z.H.H.H.H.H.F.F.Z.F.Z.Z.Z.Z.Z.V.V.V.V.z.k.k.s.s.p.p.s.p.p.p.p.p.s.p.s.p.p.p.....| S m b 2 % #       . O @ = 5 5 e B F _  .d.k.V.Z.Z.F.F.H.F.H.F.F.F.Z.Z.V.z.z.z.z.z.z.z.z.V.V.V.Z.Z.F.F.F.H.H.F.F.F.Z.Z.Z.V.V.z.z.z.k.s.s.s.s.p.p.p.p.p.p.p.p...............| | | | | | | | | | | ....p.p.p.p.p.p.p.p.p.p.....| | ` ` ) S S S Z Z S Z S S S ) ) ) ` ` | | ..p.p.p.s.s.k.k.k.k.z.z.k.k.k.k.k.s.s.p.p.......| ..| | | ` ` ` ` ) ) ) S S S Z S S Z Z S Z Z Z Z Z m m b b 0 8 2 < % # X X   . . . + * = 5 7 t G ]  .d.x.V.F.F.F.F.H.F.Z.F.Z.Z.Z.V.V.z.V.V.z.V.V.V.V.V.V.V.V.V.z.z.z.z.k.z.k.z.k.z.z.z.z.z.z.V.z.V.V.V.V.V.z.z.k.s.s.p.p.......| | | | | | ` ` ) ` ` ) ` ) ` ` ` | | | | | ........p.....| | ` ) ) S S S S Z S Z Z Z m m 0 8 < % # X         ",
": > y y 7 t V H ' a.l.z.Z.Z.F.F.H.F.F.F.H.F.F.H.F.F.F.F.F.F.F.F.F.F.F.Z.F.Z.Z.V.V.V.z.z.k.k.s.s.p.p...p.p...p.p.p.s.p.s.s.s.s.k.s.k.k.k.k.z.z.V.z.V.V.V.V.V.V.z.z.z.z.z.z.z.z.z.z.z.k.k.k.s.p.p.......| | | | ` ` ` ` ` ` ` ` ) S S Z b 0 2 % # X     . . O @ ; 5 7 B F { a.l.V.F.F.H.H.H.F.F.F.Z.Z.Z.Z.Z.Z.Z.Z.Z.V.z.z.k.k.s.s.s.p.p.p.p.p.p.p.p.p.p.p.p.p.....` ) Z 0 8 % # X   . . O + = 5 5 e C F ] ..a.k.V.Z.F.F.H.H.H.H.H.H.F.Z.Z.V.V.z.z.z.z.z.V.z.V.V.Z.Z.Z.Z.Z.F.F.F.F.F.F.Z.Z.V.V.V.z.z.k.k.k.s.s.s.p.s.p.s.p.p.p.p.p.p.p.p...........| | | ` | ` | | | ........p.p.p.p.p...p.......| | ` ) ) ) S S S S Z Z S Z S S S ) ` ` ` | | ....p.s.s.s.k.k.k.k.k.k.k.k.k.s.s.s.s.p.p.p.......| | | | ` ` ` ) ) ) S S S S Z Z S S S Z S Z Z Z m m b b 0 8 2 < % X X X     . O O * ; 5 7 t F ]  .d.x.V.Z.F.H.F.F.F.F.Z.Z.Z.Z.V.V.V.V.V.V.V.V.V.V.Z.V.V.V.V.z.z.z.z.k.k.k.k.z.k.z.z.z.z.V.V.V.V.V.V.V.V.V.z.k.s.s.p.p.p.......| ..| | ` ` ` ` ) ) ) ) ) ` ` ` | | ........p.p.p.p.p.....| ` ` ) S Z Z S Z Z S Z Z m b 0 2 < % X X         ",
": > > 5 e t V H  .a.l.V.Z.F.F.F.F.F.F.F.F.F.F.F.F.F.F.F.F.F.F.F.F.Z.F.Z.Z.Z.V.V.V.z.z.z.k.s.s.s.s.p.p...p.p.p.s.s.s.k.s.k.s.k.s.s.k.k.k.k.k.z.V.V.V.V.V.V.V.V.z.V.z.z.z.z.z.z.z.z.z.k.k.s.s.p.p.......| | | | ` ` ` ` ` ` ` ) ) ) Z Z b 8 2 % # X   . . . O @ = 5 7 B G { X.l.A.F.H.H.H.F.F.F.Z.Z.Z.Z.Z.Z.Z.Z.Z.Z.V.V.z.z.k.s.p.p.p.p.p.p.p.p.p.p.p.p.p.p.p...| | ) Z 0 8 % # X     . O @ = ; 5 e B H ]  .d.k.V.V.F.F.H.H.H.H.H.H.F.F.Z.V.V.z.z.z.z.V.z.z.V.V.V.V.Z.Z.F.F.F.F.F.F.Z.Z.Z.V.V.z.z.z.k.k.s.s.s.s.s.p.s.s.s.s.s.s.s.s.p.p.p.p.p.......| | | ` | | | | | ....p...............| | | ` ` ` ) ) ) ) S S S S Z S S S S S ) ) ) ` ` | | ....p.p.s.s.s.k.s.k.k.k.s.s.s.s.p.p.p.p.........| | ` | ` ` ) ) ) S S S S S Z S S S Z Z Z Z Z Z m m b 0 0 8 8 < % # X X     . o + * ; 5 7 t V ] o.d.k.Z.Z.F.F.F.F.F.F.F.Z.Z.Z.Z.Z.V.V.V.V.V.Z.V.Z.Z.V.V.V.V.V.z.z.k.k.k.k.k.z.z.z.z.z.V.V.V.V.Z.V.V.Z.V.V.z.k.k.k.s.p.p.........| | | | ` ` ` ` ) ) ` ) ` ` | | ......p.p.p.p.p.p.p.p...| | ` ) S S Z Z Z Z Z Z m m b 8 2 < % X X         ",
": > y 5 7 t V H  .a.x.V.Z.F.F.F.F.F.F.F.F.F.F.F.F.F.H.F.F.F.F.F.F.F.F.Z.Z.Z.V.V.z.z.k.k.k.s.s.p.p.p.p.p.p.p.s.s.k.k.k.k.k.k.k.k.s.s.s.s.k.k.z.z.z.V.V.V.Z.V.V.V.z.V.z.V.z.z.V.z.z.k.k.k.s.s.p.p.....| | | | | | | | | ` ` ` ` ) S S m b 8 2 % # X       O O = = 5 e B F { X.d.V.Z.F.H.H.H.F.F.Z.Z.Z.Z.Z.F.Z.F.Z.Z.Z.V.z.z.s.s.s.p.p...p.p.p.p.p.p.p.p.p.p.p.p...` ) Z b 2 < X X   . . O + * 5 5 e t F _ X.d.l.V.Z.Z.F.F.H.H.H.H.F.F.Z.Z.V.V.V.z.z.z.z.V.V.V.V.V.V.Z.Z.Z.Z.Z.Z.F.Z.Z.Z.V.V.V.z.z.z.k.s.k.s.s.p.p.s.s.s.s.s.s.s.s.k.s.s.s.s.s.p.p.p.....| | ` | ` | | | ..........| ..| | | ` ` ` ` ) ` ) ) ) ) S S S S S S Z S S S S ) ` ` ` | | ..p.p.s.s.s.s.s.s.s.s.s.s.s.s.s.p.p.p.........| | | ` ` ` ) ) ) ) S S S Z S S Z S S S S S Z Z m m b b 0 8 2 < % # X     . . . O @ ; 5 7 t F ]  .d.x.V.Z.F.F.F.F.F.F.Z.Z.Z.Z.Z.Z.Z.Z.Z.Z.Z.Z.Z.Z.Z.Z.Z.Z.V.z.z.k.k.k.k.k.k.k.z.z.V.V.V.V.V.Z.Z.Z.Z.V.Z.V.z.z.k.k.s.s.p.p.p.........| | ` ` ` ) ` ) ) ` ` | | ....p.p.p.p.s.s.s.s.s.p.....| ` ) S S Z Z Z Z Z m m b b 8 2 < # X X         ",
": > > y e t C ]  .a.x.Z.F.F.F.H.F.F.Z.F.F.Z.F.F.F.F.H.F.H.F.H.F.F.F.F.Z.Z.V.V.z.z.k.k.k.s.s.p.s.p.p.p.p.s.s.s.k.k.z.z.z.z.k.k.s.s.s.s.s.k.k.k.z.V.V.V.V.V.V.V.V.V.z.V.z.V.z.z.z.z.k.k.k.s.s.p.......| | | | | | | | | ` ` ` ) ) ) Z m b 8 2 % # X     . O O @ ; 5 7 B F { a.l.A.G.H.H.H.H.F.Z.Z.V.Z.Z.Z.Z.F.F.F.Z.Z.Z.V.z.k.s.p.p.p.p...p.....p...p.p.p.p.p.....` ) Z 0 8 < # X . . . O @ = ; 7 e C F ]  .d.l.V.Z.Z.F.H.H.H.H.H.H.F.F.Z.Z.V.V.z.z.z.V.z.V.V.V.V.Z.Z.Z.Z.Z.Z.Z.Z.Z.V.V.V.V.z.z.z.k.k.s.k.s.s.s.s.s.s.s.k.k.k.k.k.k.k.k.k.k.k.s.s.p.....| | ` ` | | | | | | ..| | | | ` ` ` ` ` ` ` ) ` ) ) ) ) ) ) S S Z S S S S S S ) ) ) ` ` | | ....p.p.s.s.s.s.s.p.s.s.p.p.p.p.p.p.p.....| | | | ` ` ` ) ) ) S S S Z Z S S Z Z Z S Z Z Z Z Z m b b 0 8 2 < % # X X     . . @ * ; 5 7 t F ]  .d.z.V.Z.F.F.F.F.Z.F.Z.F.F.Z.F.Z.Z.F.F.Z.Z.F.F.Z.Z.Z.Z.V.V.V.z.k.k.k.k.s.k.z.z.z.V.V.Z.Z.Z.Z.Z.Z.Z.Z.V.V.V.z.z.k.k.s.s.s.p.p.......| | | ` ` ) ) ` ) ` ` | ....p.s.s.s.k.s.k.k.s.s.s.p...| ` ) S S Z Z Z m Z m m b 0 8 2 % # X X         ",
": > > 5 7 t F ]  .d.z.Z.F.H.F.F.F.F.Z.Z.Z.Z.Z.F.F.H.F.H.H.F.F.H.F.F.F.Z.Z.Z.V.z.z.k.k.s.s.s.s.p.p.p.s.s.s.k.k.z.z.V.V.V.z.z.k.s.s.s.p.s.s.s.k.z.z.V.V.V.V.V.Z.V.V.V.V.V.z.V.z.z.z.z.k.s.s.p.p...| | | | | | | ..| | | | ` ` ` ) S Z m b 8 < % X X   . . . + = = 5 7 t F { +.l.V.F.F.H.H.F.F.Z.Z.Z.Z.Z.Z.Z.F.F.F.F.Z.Z.z.k.k.s.p...p.........p...p.p.p.p.p.p.....| ) m b 2 % # X     . o + = ; 5 e N F _ X.p.k.V.Z.Z.F.H.H.H.H.F.H.F.F.Z.Z.V.V.V.V.V.V.V.V.V.V.V.V.V.V.Z.Z.Z.Z.V.Z.V.V.V.z.z.z.z.k.k.k.s.s.s.s.s.s.k.k.k.z.z.z.z.z.z.z.z.k.k.k.s.s.p.....| | | ` | | | | | | | | | ` ` ) ) ) ) ) ) ` ) ` ) ` ) ) ) S S S Z S Z S S S S S ) ) ` ` | ....p.p.p.p.p.p.p.p.p.p.p.p.p.p...........| | ` ` ` ) ) ) S ) S S S S S Z S S S S S Z Z Z m m m b b 0 8 2 < % # X X     . o O * = 5 7 t V ]  .a.x.V.F.F.F.H.F.F.Z.F.F.Z.F.F.F.F.F.F.F.F.F.F.Z.F.Z.Z.Z.V.z.z.k.s.k.s.k.k.z.z.V.V.V.Z.Z.Z.F.Z.Z.Z.Z.Z.V.V.V.z.k.k.k.s.s.p.p.p.....| | ` ` ` ` ) ) ` ` | | ..p.p.s.s.s.k.k.k.k.k.s.s.p...| ` ` S S Z Z m m m m b b 0 8 < < # X X         ",
": > ; i e t F ]  .l.V.Z.F.H.F.F.F.Z.Z.Z.V.Z.Z.F.F.F.H.F.F.H.H.F.F.F.F.Z.Z.V.z.z.z.k.s.s.s.s.s.p.p.p.s.s.s.k.z.z.V.V.V.V.V.k.k.s.s.p.p.p.s.s.k.k.z.V.V.V.V.Z.V.V.V.V.V.V.z.z.z.z.z.k.k.k.s.p.......| | | | | | | ..| | | | ` ` ) S Z m 0 8 < % #       . o O * ; 5 7 B F { a.d.V.F.F.H.H.F.F.Z.Z.V.Z.Z.Z.F.F.F.H.F.F.V.V.k.k.s.p.p...................p.p.p.....| ` ) Z 0 8 % # X   . . O @ = ; 5 e B H ] X.a.l.V.Z.Z.F.F.H.F.H.H.F.F.F.Z.Z.V.V.V.V.V.V.V.V.V.V.V.V.V.Z.V.Z.V.V.V.V.V.V.z.z.z.z.k.k.k.s.s.s.s.s.s.s.k.k.z.z.z.z.V.V.V.z.V.z.z.z.k.s.s.p...| | | | | ` | | ` | | ` ` ` ) ) ) ) S ) ) ) ) ` ` ` ` ) ) ) S S S S S Z Z S S S S ) ) ` ` | ......p...p.p.p.....p...................| | | ` ` ) ) ) ) S S S S S Z S Z S Z S Z S Z Z Z m m b b 0 8 2 < % # X X     . o @ @ ; 5 7 t V ]  .d.x.Z.Z.F.F.F.F.F.F.Z.F.F.F.F.F.F.F.H.F.H.F.F.F.F.Z.Z.Z.V.V.z.k.k.s.k.s.k.z.z.V.V.Z.Z.Z.F.F.F.Z.Z.Z.Z.Z.V.V.z.z.z.k.k.s.s.s.p.......| | ` ` ) ` ) ` ` | ....p.s.s.k.k.z.k.k.z.k.k.s.s...| | ) ) S S Z m m m m b 0 8 2 2 % # X X         ",
": > y 5 7 t F ] X.l.C.Z.F.H.H.H.F.Z.V.Z.Z.Z.Z.F.F.H.F.H.H.H.H.F.F.F.F.Z.Z.V.V.z.k.s.s.s.s.p.p.s.s.s.p.s.k.k.k.V.V.V.V.V.V.z.k.s.p.p...p.p.s.s.k.z.z.V.V.V.V.V.V.V.V.z.V.V.V.V.z.z.k.k.k.s.p.p...| ..| | | | ..........| ` ` ) ) S Z m b 8 2 % # X     . O O @ = 5 e t G { +.l.A.F.F.H.H.F.F.Z.Z.Z.Z.Z.Z.F.F.F.H.F.Z.Z.V.z.k.p.p...........| ............p.....| ` ) m b 2 % #     . . O + = ; 5 e B V _ | d.k.V.Z.F.F.F.F.H.F.H.H.F.F.F.Z.V.V.V.V.V.z.V.V.V.V.V.V.V.V.V.V.V.V.V.V.z.z.z.z.z.k.k.k.k.s.s.s.s.s.s.s.k.k.z.z.V.V.V.V.V.V.V.V.z.z.k.s.s.p.....| | | | | | | | ` ` ` ) ) ) ) S S S ) ) ` ` ` ` ` ` ` ) ) ) S S S S Z S S Z S S S ) ) ` ` | | | ..............................| | | | ` ` ` ) ) ) ) S S S S Z Z Z S Z Z S Z Z Z Z Z m m m b 0 8 2 < % # X       . O O * ; 5 7 t F ] +.d.x.V.Z.F.F.H.F.F.F.F.F.F.F.F.H.H.H.H.F.H.F.F.F.F.Z.Z.V.V.z.k.k.k.s.s.k.k.z.z.V.Z.Z.Z.F.F.Z.F.Z.F.Z.Z.Z.Z.V.V.z.z.k.k.s.s.s.p.p.p.....| | ` ` ` ` ` ` | ..p.p.s.k.k.k.z.z.z.z.k.k.s.s.p...| ` ) S Z Z Z m m b b 0 0 2 2 % # X X         ",
": : > 5 e t F ] X.l.V.Z.F.H.F.F.F.Z.Z.V.V.Z.Z.Z.F.H.H.H.H.H.F.H.F.F.F.Z.Z.V.z.z.z.k.s.s.s.s.p.p.p.s.p.s.s.k.z.z.V.V.V.V.z.z.k.s.p.p.p...p.p.s.k.k.z.z.V.V.V.V.V.V.V.V.V.V.V.V.z.z.z.k.k.k.s.p.p.....| | ....| ..| | | | | ` ` ) S S m 0 8 < % # X     . . + @ ; 5 7 B F { +.l.V.F.F.H.H.F.F.F.Z.Z.Z.Z.Z.F.F.F.F.F.F.V.V.k.s.p.......| | ..| ..................| ` S Z 0 2 < # X     . O * = ; 5 e B F _  .d.k.z.V.F.F.F.H.F.H.F.F.F.F.Z.Z.V.Z.V.V.V.V.V.V.V.V.V.V.V.V.V.V.V.V.V.z.z.z.z.k.k.k.k.s.s.s.s.s.s.s.s.k.k.k.z.V.V.V.V.V.V.V.V.V.V.V.z.k.s.s.p.....| | | | | | | ` ` ` ) ) S S S S S ) ) ) ` ` ` ` ` ` ` ) ) S S S S S Z S Z S S S S ) ) ` ` | | | | | | | | | | | | | | | | | | | ` ` ` ` ) ) ) ) S S S Z S Z Z Z Z Z Z Z Z Z Z m m m m b b 0 8 2 < % # X X     . . + * = 5 7 t F ]  .d.x.V.F.F.H.F.F.F.F.F.F.F.F.F.H.H.F.H.H.F.H.F.F.Z.Z.Z.V.z.z.k.k.k.s.s.k.k.z.V.V.Z.Z.Z.F.F.F.Z.F.F.Z.Z.Z.Z.V.V.V.z.z.z.k.k.s.s.p.p.p...| | | ` ` ` ` ` | ..p.p.k.k.k.z.z.z.z.z.z.k.k.s.p...| ` ) S S Z Z Z m b b 0 8 2 < % # X X         ",
": > y y 7 B F { X.l.C.F.F.H.H.H.Z.Z.Z.V.V.Z.Z.F.F.F.H.H.H.H.H.H.F.F.Z.Z.V.V.z.z.k.k.s.s.s.p.s.p.s.p.s.s.k.k.k.z.z.z.V.z.z.k.s.p...........p.s.s.k.z.z.z.V.V.V.V.V.V.V.V.V.V.V.z.z.z.z.k.s.s.p.p.........| ..........| | | ` ) ) S Z m b 8 < % # X     . O + @ ; 5 7 B G { X.l.V.A.H.H.H.H.F.F.Z.Z.Z.Z.F.F.F.F.F.F.Z.Z.z.k.s.p...| | | | | | | | | | ........| | ` S m 0 2 % #     . . O @ = 5 5 e C F ]  .d.z.V.Z.Z.F.F.F.F.F.F.F.F.Z.Z.Z.Z.V.V.V.z.V.V.z.V.V.z.V.V.z.V.V.z.V.z.z.z.z.k.k.k.k.s.s.s.s.s.p.s.s.s.k.k.z.z.z.V.V.V.V.Z.Z.Z.V.V.V.z.z.k.s.s.p.......| | | | | ` ` ` ) ) ) ) S S S ) ) ) ` ` | ` ` ` ` ) ) ) S S S S S Z S Z S S S S ) ) ` ` ` | ` | ` | | ` | ` | | ` | | ` | ` ` ` ` ) ` ) S ) S S S Z Z Z Z Z Z Z Z Z m Z Z m m m b b b 0 0 8 < % # X     . . . + * ; 5 7 t F {  .d.x.Z.F.F.H.H.H.F.F.F.F.F.H.F.H.H.H.F.H.F.F.F.Z.Z.Z.V.V.z.z.z.k.k.k.k.k.z.z.V.Z.Z.Z.F.Z.F.F.F.F.F.Z.Z.Z.Z.Z.Z.V.V.z.z.z.k.k.s.s.p.p.....| | | ` ` | | ....p.s.k.k.z.z.z.z.z.z.z.k.k.s.s...| | ` ) S Z Z Z m b b 0 8 2 < % # X           ",
": > > y 7 t G ] X.l.V.F.H.H.F.F.F.Z.Z.Z.V.Z.Z.F.F.H.H.H.H.H.H.F.F.F.Z.Z.Z.V.z.z.z.k.s.s.s.s.s.s.p.p.s.s.s.s.k.k.z.z.z.k.k.s.s.......| ....p.p.s.s.k.z.z.z.V.V.V.V.V.V.V.V.V.z.V.z.z.z.z.k.k.s.s.p.p...............| | | ` ` ` ) S S m b 8 2 % # X   . . O + @ ; 5 7 B F { X.l.A.F.F.H.H.H.F.F.F.Z.Z.F.Z.F.F.F.F.Z.Z.V.z.k.p.p...| | | ` ` | | | | | | | ..| | | ) S m 0 2 % X X     . O @ = ; 7 e B F _  .d.l.V.V.Z.F.F.F.F.Z.F.F.Z.Z.Z.Z.Z.V.V.V.z.V.V.z.V.z.V.z.V.V.z.V.z.z.z.z.z.k.k.k.s.s.s.s.p.p.p.s.p.s.s.s.k.z.z.V.V.V.V.Z.Z.V.Z.V.V.V.z.z.k.k.s.s.p.p.....| ..| | | ` ` ` ) ) S S S ) S ) ` ` ` ` | ` ` ` ` ) ) ) S S S S S S Z S Z S S S ) ) ) ` ` ) ` ` ` ` ` ` ) ` ` ` ` ` ) ` ) ` ` ` ) ) ) ) ) S S Z Z Z m Z m m Z m Z m m m m m m b b b 0 8 2 < % # X X     . . + * ; 5 7 t G ] X.d.z.Z.F.H.H.H.F.H.F.F.H.H.H.F.H.H.H.F.F.F.Z.Z.Z.V.V.z.V.z.z.k.k.k.k.k.z.z.V.V.V.Z.Z.F.F.F.F.F.F.F.F.Z.Z.Z.Z.Z.V.V.V.V.z.z.k.s.s.s.p.p.p...| | | | | | ....p.s.k.k.z.z.z.z.z.z.z.k.k.s.p.p...| ` ) ) S S Z m m b 0 8 2 < % # X X         ",
": : > 5 e B F ] X.d.C.G.H.H.H.H.Z.Z.V.V.V.Z.Z.F.F.H.H.H.H.H.F.H.F.Z.Z.Z.V.V.z.z.z.k.k.k.s.s.s.s.s.s.p.s.s.s.k.k.k.k.k.k.s.s.p...| | | | | ..p.s.s.k.k.z.z.z.V.z.V.V.Z.V.V.V.V.V.V.z.z.z.k.k.s.s.s.p.p.p...........| | | | ` ` ) S Z m b 8 < % # X     . . + @ = 5 7 B F { X.l.V.F.H.J.H.H.H.F.F.F.F.F.F.Z.F.F.F.Z.V.z.k.s.p...| ` ` ` ` ` ` ` ` ` ` | | | | ` ` ) S b 0 2 % # X   . . O + * ; 5 e B H ]  .d.k.z.V.Z.Z.Z.F.Z.Z.Z.Z.Z.Z.Z.V.V.V.V.V.V.V.z.V.V.z.z.z.z.z.z.z.z.z.z.k.k.s.k.s.s.p.p.p.p.p.s.p.s.s.s.k.k.z.z.V.V.V.Z.V.Z.Z.V.V.Z.V.V.z.z.k.k.s.s.s.p.p.....| | ` ` ` ) ) ) ) ) S ) ) ) ) ` ` | ` | ` ` ` ` ) ) ) ) ) S S S S S Z S S S S ) S S ) ) ) ) ) ) S ) ) ) ) ) ) ) ) ) ) ) ) ) ) ) ) ) S S Z Z Z Z m m m m m m m m m m m b m b b b 0 8 2 2 % # X X     . o @ = = 5 7 t F ]  .d.V.Z.F.H.H.H.H.H.H.F.F.F.H.F.H.F.H.F.F.F.Z.Z.V.V.z.z.z.k.z.z.k.z.k.z.z.z.V.V.Z.Z.F.F.F.Z.F.F.F.F.Z.F.Z.Z.Z.Z.V.V.V.V.z.z.z.k.k.s.s.p.p.....| | | | ....p.s.k.k.z.z.z.z.z.z.z.z.z.k.k.s.p...| | ` ) S S Z m m b 0 8 2 < # # X X         ",
": > y 5 7 t F { X.l.V.Z.F.H.F.F.F.Z.Z.V.Z.Z.Z.F.F.F.H.H.H.H.F.F.F.Z.Z.V.V.z.V.z.k.k.k.k.s.s.s.s.s.p.s.s.s.s.s.s.s.k.s.s.s.p.....| | | | | ....p.s.s.k.z.z.z.V.z.V.V.V.V.V.V.V.V.V.z.z.z.z.k.k.s.s.s.s.p.p.p.....| | | ` ` ` ) ) ) S Z b 0 2 % # X     . O + @ ; 5 e B F { +.l.V.F.F.H.J.J.H.H.F.F.F.F.F.F.F.F.Z.V.V.z.k.s.p...| ` ` ` ` ) ` ` ` ` ` ` | ` | ` ) ) Z m 8 2 % X X . . . O @ = ; 7 e C F _  .d.k.V.V.Z.Z.Z.Z.Z.Z.Z.Z.Z.V.Z.V.Z.V.V.V.V.V.z.z.z.z.z.z.z.z.V.z.z.z.z.k.k.s.s.s.p.p.p.p.p.p.p.p.s.s.s.k.k.z.z.V.V.V.V.V.Z.V.V.V.V.V.z.V.z.z.z.k.k.s.s.p.p...| | ` ` ` ` ) ) ) ) ) ) ) ) ` ` | ` | ` | | ` ` ` ` ) ) ) ) S S Z Z S Z S S S S S S S S S S S S S S S S S S S S S S ) S ) ) ) ) ) ) S S S Z m m m b m m b b m m m b m b m b b 0 0 8 8 < % # X X   . . O O * = 5 7 B F ] X.d.C.Z.F.H.J.H.H.H.H.F.H.F.H.H.F.H.F.F.Z.Z.Z.V.V.z.z.k.k.z.k.k.z.z.z.z.z.V.V.Z.Z.F.Z.Z.F.F.F.F.Z.F.Z.F.Z.Z.F.Z.Z.Z.V.V.V.V.z.z.k.k.s.s.p.p.......| ......p.s.s.k.k.z.z.z.z.z.z.z.z.k.k.s.s.p...| ` ` ) S S Z m b 0 8 2 < % # X           ",
": > y y e t F ] X.l.A.Z.H.H.H.H.Z.Z.Z.V.Z.V.Z.F.F.H.H.H.H.H.F.F.F.Z.Z.Z.V.V.V.z.z.z.k.k.k.k.s.s.s.s.s.p.s.p.s.s.s.p.s.p.....| | | ` ` ` | | ..p.p.s.s.k.k.z.z.V.z.V.V.V.V.V.V.V.V.V.V.z.z.z.z.k.k.s.s.s.p.p.....| | | | ` ` ` ` ) S m b 8 2 % # X     . . O * = 5 7 t G { +.l.C.F.H.H.J.H.H.H.H.H.F.F.F.F.Z.Z.Z.V.V.k.k.p...| ` ` ` ) ` ) ` ) ` ` ` ` ` ` ` ` ` S Z b 8 < % # X     . o + = ; 5 e N F _ X.d.k.V.V.Z.Z.Z.Z.V.Z.V.Z.V.Z.V.Z.V.V.V.V.z.V.V.z.z.z.z.z.z.z.z.z.z.k.k.k.k.s.s.p.p.p.p.p.p.p.p.p.p.s.s.s.k.z.z.V.V.V.V.Z.V.V.Z.V.V.V.V.V.V.z.z.z.k.k.k.s.p.p...| | ` ` ` ) ) ) ) ) ) ) ) ` ` ` ` ` | ` ` ` ` ` ` ` ) ) ) S S S S Z S Z Z Z Z S Z Z Z Z Z Z Z S Z Z Z Z S Z Z S Z S S S ) S ) ) ) S S Z Z m m m b b b b b b b b m b b b b b b 0 8 2 < % # X   X   . o O * ; 5 7 t G { X.l.V.A.H.H.H.J.H.H.H.H.H.H.H.F.H.F.F.F.Z.Z.V.z.z.z.k.k.k.k.k.k.k.z.z.z.V.V.V.Z.Z.Z.Z.F.F.Z.F.F.F.Z.F.F.Z.Z.F.Z.Z.Z.Z.V.V.V.z.z.z.k.k.s.s.p.p.............p.s.s.k.k.z.z.z.z.z.z.z.k.k.k.s.p.p.....| ` ` ) S Z m b 0 8 2 < % X X X         ",
": : y 5 e B G ] X.l.V.F.F.H.H.F.F.Z.Z.V.V.Z.Z.F.F.F.H.F.H.F.F.F.Z.Z.V.V.V.V.z.z.z.z.k.k.k.k.s.k.s.s.s.p.s.s.p.p.p.p.p.......| | ` ` ` ` ` | | ..p.s.s.k.k.k.z.z.V.z.V.V.V.V.V.V.V.V.V.z.z.z.z.z.k.k.s.s.s.p.....| | ` ` ` ` ` ) ) S Z b 0 2 % # X   . . . O @ ; 5 7 B F { X.l.V.G.H.H.J.H.J.H.H.H.H.F.F.F.Z.Z.Z.V.z.k.s.p...| ` ) ` ) ) ) ) ` ) ) ` ` ) ` ` ) ) S Z b 8 < % X X   . . O + = 5 5 e N H ]  .s.k.V.V.Z.Z.Z.Z.V.V.V.Z.Z.V.V.V.V.V.V.V.V.V.z.z.z.z.z.z.z.z.z.z.k.z.k.k.k.s.s.p.p.p...p.p.p.p.p.p.s.s.k.k.k.z.z.V.V.V.V.V.V.V.V.V.V.V.V.V.V.V.V.z.z.k.s.p.p...| | ` ` ` ) ) ) ) ) ) ` ` ` ` ` ` | ` | ` ` | ` ` ` ` ) ) ) S S S Z Z Z Z Z Z Z Z Z Z Z Z m Z Z Z Z m Z Z m Z Z Z Z S S S ) ) S ) S S Z Z m b b b b b 0 b b b b b b b b b b 0 0 8 2 < % # X X     . O O * ; 5 7 t F { X.l.V.F.F.H.J.H.J.H.H.H.H.H.F.F.H.F.F.Z.Z.Z.V.z.k.k.k.k.k.s.k.k.z.z.V.V.V.Z.V.Z.Z.Z.F.Z.F.Z.F.F.Z.F.F.F.Z.F.F.Z.Z.Z.Z.Z.Z.V.V.z.z.k.k.s.s.s.p.p.......p...p.s.s.k.k.k.z.z.z.z.z.z.k.k.k.s.s.p.p...| | ` ) S Z m b 0 8 2 < % # X           ",
": > y 5 7 t F ]  .l.C.Z.F.H.H.F.Z.Z.Z.V.Z.V.Z.Z.F.F.F.F.F.F.F.Z.Z.Z.V.V.V.z.z.z.z.k.k.z.k.s.k.s.s.s.s.p.p.p.p.p.p.....| | | ` ` ) ) ) ` ` | | ....p.p.s.s.k.k.z.z.V.V.V.V.V.V.V.V.V.V.z.V.z.z.z.z.k.k.s.p.p.......| ` | | ` ` ` ) S Z m 0 2 % # X X   . O O @ ; 5 7 B F { +.x.V.Z.H.J.J.J.H.J.H.H.F.F.F.F.F.Z.V.V.z.k.s.p...| ` ` ) ) ) ) ` ) ) ` ) ) ` ) ` ) ) S m b 8 < % X X X . . O + = ; 7 e C F ] X.a.k.z.V.Z.V.Z.Z.V.Z.V.V.V.Z.V.V.V.V.V.V.V.z.z.z.z.k.z.k.z.k.z.z.z.k.z.k.s.s.p.s.p.p.p.p.p.p.s.s.s.s.s.k.k.z.z.z.z.V.V.V.V.V.V.V.V.V.V.V.V.V.V.V.z.z.k.s.s.....| ` ` ` ` ) ) ) ) ) ) ) ) ` ` ` | ` | ` | | | ` ` ` ` ` ) ) ) S S S S Z Z Z m m m m m Z m m m m m m m m m m m m m Z Z Z S S S ) S S S Z m m b b b b 0 b b 0 0 b b 0 b b b 0 b 0 8 8 2 % # X       . O + * = 5 7 B F ] f.l.V.G.F.J.J.J.H.J.H.H.H.F.H.H.F.F.F.Z.Z.V.z.z.k.k.s.s.s.k.k.k.z.z.z.V.V.V.Z.Z.Z.Z.Z.F.Z.F.F.Z.F.F.Z.Z.F.F.Z.F.F.Z.Z.Z.Z.V.V.V.z.z.k.k.s.s.p.p.......p.p.p.s.s.k.k.z.k.k.k.z.k.k.k.k.k.s.s.p.p...| | ` ) S S Z b b 8 2 < % # X X         ",
": > > y 7 B F ]  .l.C.Z.F.H.F.F.Z.Z.Z.V.V.Z.Z.Z.Z.F.F.F.F.Z.Z.Z.V.V.V.z.z.z.z.z.k.z.k.k.k.k.k.k.k.s.s.s.s.s.p.p.......| ` ` ` ) ) ) ) ) ) ` | | ....p.p.s.k.k.k.z.z.z.V.V.V.V.V.V.V.V.V.V.z.z.z.z.z.k.s.s.p.p...| | | ` ` ` ` ` ` ) Z m 0 2 < # X     . O + @ ; 5 7 B F { a.d.A.F.H.H.J.J.J.H.H.H.F.H.F.Z.Z.Z.Z.V.z.k.s.p...| | ` ` ` ) ) ) ) ` ` ) ` ) ` ) ) S Z m b 8 < % X X   . . O @ = ; 5 e B F _  .a.l.V.V.Z.Z.Z.Z.V.V.V.V.V.V.V.V.V.V.V.z.V.z.V.z.z.z.z.k.z.k.z.k.k.z.k.k.k.k.s.s.p.s.s.p.s.s.s.s.s.k.s.k.k.k.z.z.z.z.z.V.V.V.V.V.V.V.V.V.V.Z.V.V.V.z.k.s.s.p...| ` ` ` ) ) ) ) ) ) ) ` ) ` ` ` ` | ` | ` | | ` | ` ` ` ) ) S S S S Z Z Z Z m Z Z m m m m m m m m m m b m m m m m m Z Z S S S ) ) S Z Z m m b b 0 b 0 b 0 b b 0 0 b b b b b 0 0 8 2 < % # X X X   . . + * ; 5 e B F { X.l.V.Z.H.J.J.J.H.H.H.F.H.H.H.F.F.F.Z.Z.V.V.z.z.k.s.s.s.s.s.k.k.z.V.V.V.Z.Z.Z.Z.Z.Z.Z.Z.Z.F.Z.Z.F.Z.Z.F.Z.Z.F.F.Z.Z.F.Z.Z.V.V.V.z.z.k.k.k.s.s.p.p...p...p.p.s.s.s.s.k.k.k.k.k.k.k.k.k.s.s.s.p.p.p...| ` ` S S m b b 8 2 < % X X           ",
": : > 5 e t V ] +.d.V.Z.F.H.H.F.F.Z.Z.V.Z.V.V.Z.Z.Z.Z.Z.Z.Z.Z.V.V.V.z.z.z.z.k.z.k.k.z.k.k.k.k.k.k.k.s.k.s.p.p.....| | ` ` ` ) ) ) S ) S ) ` ` ` | ....p.p.s.s.k.k.z.z.z.z.V.z.V.z.V.z.V.V.V.z.V.z.z.k.k.s.p.....| | | ` ` | ` ` ) ) Z m 0 2 < # X     . . O @ = 5 7 t F { +.d.V.F.H.H.J.J.H.H.H.H.H.F.F.F.Z.Z.V.V.z.k.s.p...| | ` ) ` ) ` ) ` ) ) ) ` ) ) ) ) S Z m 0 8 < # X X   . . O @ * ; 5 e B H ]  .d.k.V.V.V.Z.V.V.Z.Z.V.Z.V.Z.V.V.V.V.V.V.z.z.z.z.z.z.k.z.k.z.k.k.z.k.k.k.k.s.k.k.s.s.s.s.s.s.s.k.s.k.k.k.k.k.k.z.z.z.z.z.z.V.V.V.V.V.Z.Z.V.Z.V.Z.V.z.z.k.s...| | ` ) ) ) ) ) ) ) ) ) ) ` ` ` ` | ` | | | | | | ` | ` ` ` ) ) S S S Z S Z Z Z m m m m m m m m b b b m b b b b m m m Z Z Z S S S S S Z Z m m b b b 0 0 0 b 0 0 b b 0 b 0 b b 0 0 8 8 < < # X X     . O + * = 5 7 t G { X.l.A.F.H.H.H.J.J.H.H.H.H.F.F.F.F.F.Z.Z.Z.V.z.k.k.s.s.s.s.s.k.k.z.z.V.V.V.Z.V.Z.Z.Z.Z.Z.F.Z.Z.F.Z.F.F.F.F.F.F.F.F.F.F.Z.Z.Z.V.V.V.z.z.k.k.s.p.p.p.p...p.p.p.s.s.s.s.k.k.k.k.s.k.k.k.s.s.s.s.s.p.......` ) ) Z m m 0 8 2 < % # X           ",
": > > 5 7 t V ]  .l.V.Z.F.H.F.F.Z.Z.Z.V.V.V.V.V.V.V.V.V.V.V.V.V.z.z.z.z.k.k.k.k.k.k.k.k.k.k.k.z.k.k.k.k.s.s.p.....| ` ` ` ) ) S S S S S S ) ) ` | | ....p.p.s.s.k.k.z.z.z.z.z.V.V.V.z.V.z.V.z.V.z.k.k.s.s.s.p...| | | ` | ` ` ` ` ) S m 0 8 < # X     . o O @ ; 5 7 B G ] a.l.A.F.H.H.J.J.J.H.H.F.H.F.F.Z.Z.Z.V.V.z.k.s.s.....| ` ` ` ` ` ` ) ` ` ) ` ) ) ) ) S Z m 0 2 < % X X   . . O * = ; 5 e B F ] X.d.k.z.V.Z.Z.Z.Z.V.V.Z.V.Z.V.V.V.V.V.V.V.V.z.z.z.z.z.k.z.k.k.z.k.k.z.k.k.k.k.k.z.k.k.k.k.k.k.k.k.k.k.k.k.k.k.k.k.k.k.z.z.z.z.V.V.V.V.Z.Z.Z.Z.Z.V.V.z.z.s.p...| | ) ) ) ) ) S ) ) ) ) ) ` ` ` ` | ` ` | | | | | ` | ` ` ` ) ) ) S S S S Z Z Z Z Z m m m m m b m m b b b b b b b b m m Z S S S S S Z Z Z m b b 0 0 0 0 0 0 b 0 0 0 b 0 b b 0 b 0 8 2 < % # X X   . . . + * ; 5 7 t G { a.d.A.Z.H.H.H.J.H.H.H.F.H.F.F.F.F.Z.Z.Z.V.z.z.k.s.s.s.p.s.s.k.k.z.z.V.V.V.V.Z.Z.Z.Z.Z.Z.Z.Z.Z.F.F.F.F.F.F.F.F.F.F.Z.F.Z.Z.Z.V.V.V.z.z.k.k.s.s.p.p.p...p.p.p.p.p.s.s.s.s.s.s.s.s.s.s.s.s.s.p.s.p.......` ) ) Z Z b 0 8 2 < % # X X         ",
": > y i e t V ]  .d.x.Z.F.F.F.F.Z.Z.V.V.V.V.V.V.V.V.V.V.z.z.z.z.z.k.z.k.k.k.k.k.k.k.k.k.s.k.k.k.z.z.k.k.s.s.p...| | ` ` ) S S S Z S Z S S ) ) ) ` ` | | ..p.p.s.s.k.k.k.k.z.z.z.z.z.V.V.V.z.z.z.z.z.z.k.s.p.....| | ` | ` | | ` ` ) S m b 2 < # X   . . O O @ = 5 7 B F { +.d.V.G.H.H.J.H.H.H.H.F.F.F.F.F.Z.Z.V.V.z.z.s.s.p...| | | ` ` ` ` ` ` ` ` ) ` ` ) S S Z m 0 8 < # X X     . O + = ; 7 e B H ] X.d.k.V.V.Z.Z.Z.Z.Z.Z.Z.Z.V.Z.V.V.Z.V.V.z.z.V.V.z.k.z.z.z.k.z.k.z.z.k.k.z.z.z.z.z.z.V.z.z.z.z.z.z.k.z.k.k.k.k.s.k.k.k.k.k.z.z.V.V.V.V.Z.V.Z.Z.V.Z.V.V.k.k.p...| ` ) ) S S S S S S S ) ) ) ) ` ` ` | | | | | | | | ` ` ` ` ) ) ) ) S S S S Z Z Z m Z m m m m b b b b b b b b b b b m m Z Z Z S S S S Z m m m b b 0 b b 0 0 b 0 b b 0 b b b b 0 0 0 2 < % # X       . O O * = 5 7 B G { X.l.V.G.H.J.J.J.H.H.H.F.F.F.F.F.Z.Z.Z.V.V.z.z.k.k.s.s.s.s.s.k.k.z.z.V.V.Z.Z.Z.V.V.Z.Z.Z.Z.Z.Z.Z.F.Z.Z.F.F.F.F.F.F.F.F.F.Z.Z.V.V.V.z.z.k.s.s.s.p.p.p.......p.p.p.p.s.s.s.s.s.s.s.p.p.s.p.p.p.p.p.p...| | ` S S m b b 8 2 < % # X           ",
": : > 5 e t F ]  .d.x.Z.Z.F.F.F.F.Z.V.V.V.z.V.z.z.z.z.k.z.k.k.k.k.k.k.k.k.k.s.k.s.s.s.s.k.k.k.k.z.z.z.k.k.s.s.....| ` ) ) S S Z Z Z Z Z Z S S ) ` ` | | ....p.p.s.s.k.k.k.z.z.z.z.z.z.z.V.z.V.z.z.z.k.k.s.p.....| | ` ` | ` | | ` ) S Z 0 8 < # X     . . + @ ; 5 7 t G { a.l.V.Z.H.H.H.J.H.H.F.F.F.F.F.Z.Z.Z.Z.V.z.z.k.s.p.....| | | ` ` ` ` ` ` ) ` ) ) ) S S m m 0 2 < # X X   . . O * * 5 5 e B H _ X.d.k.V.Z.Z.Z.Z.Z.Z.Z.Z.Z.Z.V.V.V.V.V.V.V.z.z.z.z.z.k.z.z.k.z.k.k.z.k.z.z.z.V.V.V.V.Z.V.V.V.V.z.z.z.z.k.k.k.s.s.s.s.s.s.k.k.z.z.V.V.V.Z.Z.Z.Z.Z.V.V.z.z.s.p.| | ` ) S S S S S S S S S ) ) ` ` ` ` | | | | | | | | ` ` ` ` ) ) ) ) ) S S S S S Z Z Z Z m m b b b b b b b b b b b b m m m Z Z Z S Z S Z Z m m b 0 0 b 0 0 0 0 0 0 0 b b b b b 0 0 8 8 < % # X X     . . + @ ; 5 7 t F { X.l.V.F.H.H.J.H.H.H.F.F.F.F.Z.Z.Z.Z.Z.V.V.z.k.k.s.s.s.s.s.s.k.k.z.V.V.V.V.V.V.V.Z.V.Z.Z.Z.Z.Z.Z.Z.F.F.F.F.F.F.F.F.Z.F.Z.Z.Z.V.V.z.z.z.k.k.s.s.p.p.p.....p...p.p.p.p.p.p.p.p.p.p.p.p.p.p.p.p.p...p...| | ) ) Z m m 0 0 2 < # # X X         ",
": > y 5 7 t V H  .a.x.Z.Z.F.F.F.Z.Z.Z.V.V.V.z.z.z.k.k.k.k.k.s.k.k.s.s.s.s.s.s.s.s.s.s.k.s.k.z.z.z.z.z.z.k.s.s...| ` ` ) ) S S S Z Z Z Z Z S S ) ) ) ` ` | ....p.p.s.s.k.k.k.k.z.z.z.z.z.z.z.z.z.z.k.k.k.s.p.......| | | | | | ` ` ) S m b 8 < # X     . O + @ ; 5 e B G ] X.d.A.F.H.J.J.H.H.H.F.F.F.F.Z.Z.Z.Z.V.V.V.z.k.s.p.p.....| | | | | | ` ` ` ` ) ) ) S S Z b 0 2 < # X   X . . o @ = ; 5 e B F _  .d.l.z.V.Z.Z.F.Z.Z.Z.Z.Z.Z.Z.Z.Z.V.V.V.V.V.z.z.z.z.k.z.z.k.k.z.k.k.z.z.z.V.V.V.Z.Z.Z.Z.Z.Z.Z.V.V.V.z.z.k.k.k.s.s.p.s.s.s.k.k.z.V.V.V.V.V.Z.V.Z.V.V.z.k.s.p.| ` ) ) S S S Z S S S S S ) ) ) ` ` ` | ` | | ` | ` ` | | ` ` ` ) ) ) ) S S S S Z Z Z Z Z m m b b b b b b 0 0 b b b b b m m Z Z Z S Z Z Z m m b b b b 0 0 b b 0 b b 0 b 0 b 0 b 0 0 8 2 < % # X X     . O + * ; 5 7 B G { +.x.V.F.H.H.H.J.H.F.F.F.F.F.Z.Z.Z.Z.V.V.V.V.z.k.k.s.s.s.s.s.k.k.z.z.V.V.V.Z.V.Z.V.V.V.V.Z.Z.Z.Z.F.F.Z.Z.F.F.Z.F.F.F.F.Z.Z.Z.V.V.z.z.k.k.k.s.p.p.p.p...........p...p...p.p.p.p.p.p.p.p.p...p.p.......| ` ` S S Z b 0 8 2 < % # X X         ",
": > > 5 e t V H  .d.z.V.Z.F.F.Z.Z.Z.V.V.V.z.z.k.k.k.k.s.s.s.s.s.s.s.s.s.s.s.s.s.s.s.s.s.s.k.k.k.z.z.z.z.k.s.s.....| ` ) ) S S Z Z Z Z Z Z S S S ) ) ` ` | | ....p.s.s.s.k.k.k.k.k.k.z.z.k.z.z.k.z.k.k.s.s.p.p...| | | | | ` ` | ` ` S Z b 8 < # X     . O O @ ; 5 7 t F { X.l.A.Z.H.H.H.H.H.F.F.Z.F.Z.Z.Z.Z.V.V.z.z.z.k.s.p.p.....| | | | | | ` ` ` ` ` ) ) S S m m 0 2 % # X X   . . O + * 5 7 e B H ] X.p.k.V.V.Z.Z.F.F.Z.Z.Z.F.Z.Z.Z.Z.V.V.V.V.z.z.z.z.z.k.z.k.k.z.k.z.z.z.z.z.V.Z.Z.F.F.F.F.F.F.Z.Z.V.V.z.z.k.s.s.s.p.p.p.p.s.s.k.z.z.z.V.V.V.V.V.V.V.z.z.k.s...| ` ) S S S Z S S Z S S S S ) ) ) ` ` ` | | ` | ` | ` ` ` ` ` ` ) ) ) S ) ) S S S Z Z Z m m m b b b b 0 b b 0 b 0 b b b m m Z Z Z Z Z Z Z Z m b b b b 0 b 0 0 0 b b 0 b b b b 0 0 0 8 2 < % # X X X   . O O @ ; 5 7 B G ] a.d.V.Z.H.J.H.H.H.H.F.F.F.Z.Z.Z.Z.Z.V.V.V.z.k.k.k.s.s.s.s.k.k.z.z.V.V.V.V.V.V.V.V.Z.V.V.Z.V.Z.Z.Z.Z.Z.Z.F.F.F.Z.F.Z.Z.Z.Z.V.V.V.z.z.k.k.k.s.p.p.................p...p...p.p.p...p.......p...p.......| ` ` S Z Z b 0 8 2 < % # X           ",
": > > 5 7 t V ]  .a.x.V.Z.F.F.F.Z.Z.Z.V.V.z.z.k.k.s.s.p.p.p.p.p.p.p.p.p.p.p.p.p.p.p.s.s.s.k.k.k.z.z.z.k.k.s.p.p...` ` ) ) S S Z S Z Z Z Z Z S S ) ) ` | | | ..p.p.p.s.s.s.s.k.k.k.k.k.k.k.k.k.k.k.k.s.s.p.p...| | ` ` ` ` | | | ` ) S m 0 8 < # X X   . . + @ = 5 7 B F { X.l.V.Z.H.H.H.H.H.F.F.F.Z.Z.Z.V.V.V.V.z.z.k.s.s.p.p.....| | | | | | ` ` ` ) ) ) ) S Z m b 0 2 < % # X   . . O @ = ; 5 e N F _  .d.k.V.V.Z.F.Z.Z.Z.F.Z.Z.Z.Z.Z.Z.Z.V.V.V.V.z.z.z.z.z.k.z.k.k.z.k.z.z.V.V.Z.Z.Z.F.F.H.F.F.F.F.Z.Z.V.V.z.k.k.s.p.p.....p.p.s.s.k.z.z.z.V.V.V.V.V.z.z.k.s.p...` ` ) S S Z Z Z Z S S S S S ) ) ` ` ` ` ` ` | ` | ` ` ` ` ` ) ) ) ) ) ) S S S S S S Z Z Z m m m b b b 0 0 0 b 0 0 b b b m m m Z Z Z Z Z m m m m b b b b 0 b b 0 b 0 0 b 0 b b b b 0 0 8 < % # X     X . . + = = 5 7 B F { X.l.A.F.F.H.H.H.H.F.F.F.Z.Z.Z.Z.Z.V.V.V.V.z.z.k.k.s.k.s.k.k.k.z.z.z.V.V.V.V.V.Z.V.V.V.V.V.V.Z.V.Z.Z.Z.Z.Z.Z.Z.Z.Z.Z.Z.Z.Z.V.V.z.z.k.k.s.s.s.p.p.p.p...............................................| | ` ) S S m b b 8 2 < % # X           ",
": > y 5 7 t V ]  .a.x.V.Z.Z.F.Z.Z.Z.V.V.z.z.z.k.s.s.p.p.p.p.p.p...p.p.p.p.p.p.p.p.p.p.s.s.k.k.k.k.k.k.k.k.s.p.p...| | ` ` ) ) S S S Z Z S S S ) ) ) ` ` | ....p.p.s.s.s.s.s.s.s.s.s.s.s.s.k.k.s.s.s.s.p.p...| | | ` ` ` ` | ` ` ` ) S m b 2 < # X   . . O + @ ; 5 e B F { +.l.V.Z.H.H.H.H.F.F.F.Z.Z.Z.V.V.V.z.z.z.k.s.s.p.p.......| | | | | ` | ` ` ` ) ) ) S S m b 8 2 % # X       . O @ * ; 7 e B F _ X.d.k.z.Z.Z.Z.F.Z.F.F.Z.F.Z.Z.Z.Z.Z.Z.V.V.z.z.z.z.k.k.k.k.k.z.k.z.z.V.V.Z.Z.F.F.F.H.H.H.H.H.F.Z.Z.V.V.z.k.k.p.p...........p.s.s.k.k.k.z.z.z.z.z.z.k.k.p.p...| ` ) S S Z Z S Z Z Z S S ) ) ) ) ` ` ` ` ` ` ` ` ` ` ` ) ` ) ) ) ) ) S S S S S Z Z Z Z Z m m m b b 0 b 0 0 b 0 b 0 0 b b m m Z Z Z Z Z Z m m m m b b b b b b b b 0 b b 0 b b 0 0 0 8 2 < % # X X   . . . + * ; 5 7 t F { +.d.A.G.H.H.J.H.H.F.F.Z.Z.Z.Z.Z.Z.Z.V.V.z.V.z.z.z.k.k.k.k.k.z.z.z.V.V.V.V.V.V.V.V.V.V.V.V.V.Z.V.V.V.V.V.Z.Z.V.V.Z.Z.V.V.V.V.z.z.k.k.k.s.s.p.p...............| ................................| | | ` ` ) S Z m b 0 8 2 < % X X X         ",
": > y y 7 t V H  .d.x.V.Z.F.F.F.Z.Z.Z.V.z.z.k.k.s.s.p.p.....................p.p.p.s.p.s.s.s.k.s.k.s.k.s.s.s.p.p.p.....| ` ` ` ) S ) S S S S ) ) ` ` ` ` | ....p.p.s.s.s.s.s.p.p.p.p.p.p.p.p.p.s.p.s.p.p.....| | ` ` ` ) ` ` ` ` ) ) S m 0 2 < # X     . . O * = 5 7 t F {  .l.C.Z.F.H.H.H.F.F.Z.Z.Z.V.V.z.z.k.k.s.s.s.p.p.......| | | | | ` ` ` ` ` ` ) ) S S Z m b 0 2 < # X     . . O * * ; 5 e B F {  .d.l.V.V.Z.Z.Z.F.Z.F.Z.Z.F.Z.F.Z.Z.Z.Z.V.V.z.z.k.k.s.k.k.k.k.z.z.V.V.V.Z.Z.F.H.H.H.J.H.H.F.F.F.Z.Z.z.z.k.s.p.....| | | ....p.p.s.s.k.k.k.k.k.k.s.s.s.p...| ` ) ) S S S S Z Z S S S S S S ) ) ) ) ` ) ` ` ) ) ) ) ) ) ) ) ) ) S S S S S Z S S Z Z Z m m b b b b b 0 b 0 0 0 0 b b b b m m m m Z Z Z Z m m m m b m b b b b 0 b b 0 b b b b b b 0 8 2 2 % # X       . O + = = 5 e B G { a.l.V.F.F.H.H.H.H.F.F.Z.F.Z.Z.Z.V.V.V.V.V.V.z.z.z.z.z.z.z.z.z.z.V.V.V.V.V.V.Z.V.V.V.V.V.V.V.V.V.V.V.V.z.V.V.V.V.V.V.V.V.z.z.k.k.k.s.s.s.p.p.p.......| ..| ....| ..............................| | ` ` ) ) S Z m b 0 8 2 < % # X           ",
": > y 5 7 t V ]  .a.x.V.Z.F.Z.F.Z.Z.V.V.V.z.k.s.s.p.........| | | | ..| ......p.p.p.p.s.s.s.s.p.s.p.p.s.p.p.s.p.p.p.p.....| ` ` ` ) ) ) ) ) ) ) ` ` | | | ..p.p.s.s.s.s.s.p.p.p.p.........p...p...p.....| | | ` ` ) ) ) ) ` ` ) ) S Z m 0 2 < # X X   . . O @ ; 5 7 t G ] X.l.x.A.F.H.H.F.F.F.Z.V.Z.V.z.z.k.k.s.p.p.p.p...| | | | | ` | ` ` ` ` ` ` ) ) ) S S Z Z b 0 2 % # X X   . . O @ * ; 7 e N F _  .d.l.V.Z.Z.Z.F.Z.F.F.F.F.F.F.Z.F.Z.Z.Z.V.V.z.z.k.k.s.s.k.k.k.z.V.V.Z.Z.F.F.H.H.H.H.J.H.H.F.F.F.Z.V.V.z.k.s.p...| | ` ` | | ....p.p.p.s.p.s.s.s.p.p.p...| | ` ) ) S S S S Z S Z Z S S S S ) ) ) ) ) ) ) ) ) ) S ) ) S S S S S S S Z Z S Z Z Z Z Z m m m b b b 0 b 0 0 b 0 0 0 0 b b b m m m m Z Z m Z Z Z m m m m b m b b b b 0 0 b b b b 0 0 0 8 2 < % # X X     . O O @ = 5 7 B F { X.l.V.F.H.H.H.H.H.H.F.Z.Z.Z.Z.Z.V.V.Z.V.V.V.V.z.z.z.V.z.V.V.V.V.V.V.V.V.V.Z.V.V.V.V.Z.V.V.V.z.z.z.z.z.z.z.z.z.z.V.z.z.z.z.k.k.k.s.p.p.p...p.......| ....| ................................| | ` | ` ) ) S Z Z b b 0 8 2 < % # X           ",
": : y 5 7 t V H  .d.k.Z.Z.F.F.F.Z.Z.V.V.z.z.k.s.s.p.....| | | | | | | | | | ....p.p.p.p.p.p.p.p.p.p.p...p.p.p.p.p.s.s.p.p.....| | ` ` ` ) ` ` ` ` | | | ..p.p.s.s.s.k.s.s.p.p...| | | | | | | ....| | | | ` ` ) ) ) ) ) ) ) ) ) ) S Z m 0 2 % # X     . O O * ; 5 7 t F {  .d.V.Z.F.F.F.H.F.Z.Z.V.V.z.z.k.s.p.p.p...| | | | | | ` ` ` ` ` ` ` ` ) ) ` ) ) ) S Z m b 0 2 < # X X X . . O @ = ; 5 e C F '  .d.k.V.V.Z.F.Z.F.Z.Z.F.F.F.F.F.F.F.F.Z.Z.V.z.k.s.s.s.s.s.s.z.z.V.V.Z.F.F.F.H.H.H.J.H.H.H.H.F.F.Z.V.z.z.k.p.....| ` ` ` ` | | | ..p.p.....p.p...p.......| | ` ) ) S S S S S Z S S Z S S S S S ) S ) ) ) S ) ) S S S S S S S S S S Z Z Z Z Z Z m Z m m m m b b 0 0 0 0 0 0 0 b 0 0 b b m m m m Z Z m Z m m Z m m m m m b b b b b b b 0 0 0 b 0 0 8 2 < % # X X     . O O * ; 5 7 B F { +.d.A.Z.H.H.H.H.F.F.F.F.Z.Z.Z.Z.V.V.V.V.V.V.V.V.Z.V.Z.V.Z.V.V.V.V.V.V.V.V.V.V.V.Z.V.V.V.V.z.z.z.z.k.k.k.k.k.k.k.z.k.z.k.k.k.s.s.p.p.p.p.........| | | | | ..| | ............p.........| | | | ` ` ) ) S S Z m m b 0 8 2 < % # X X         ",
": > > y e t C ]  .d.k.V.Z.F.F.F.Z.Z.Z.V.z.z.k.s.p.....| | | ` | ` ` ` | | | ....p.p.s.p.p.p.p.......| ....p.p.p.s.s.s.k.s.p.p...| | | ` | ` | | | | ....p.p.p.s.s.k.k.s.s.p...| | ` ` ` ` | ` | | | ` ` ` ` ) ) ) ) S ) ) ) ) ) S S m b 8 2 % # X     . O O @ = 5 7 t F ] X.d.x.Z.Z.F.H.F.F.Z.Z.V.V.z.k.s.p.p...| | | ` ` ` ` ` ` ` ` ` ` ) ` ` ` ) ) ) S S S Z m b 0 2 < # X X   . . O + = 5 7 e B F ] X.a.z.z.V.Z.Z.F.Z.F.Z.Z.F.F.F.F.F.F.F.Z.Z.V.z.z.s.s.s.s.s.k.k.z.V.Z.F.F.H.H.H.H.H.H.H.H.H.H.F.F.Z.Z.z.z.s.p...| ` ) ) ) ) ) ` | | | | ......| ..| | | | ` ` ` ) ) S ) S S S Z S Z S Z S S S S S S ) S S S S S Z Z Z Z Z Z Z Z Z Z Z Z Z Z Z m Z m m m b b b b b b 0 0 0 0 0 b 0 b 0 b b m m m m Z Z Z m Z Z m Z Z m m m b b b 0 0 b b b b 0 b 0 8 8 < % # X X     . . + @ = 5 e t F { a.l.A.Z.H.H.H.H.H.F.F.F.F.Z.Z.V.Z.V.V.V.V.V.Z.Z.Z.Z.Z.Z.Z.Z.Z.Z.Z.V.V.V.V.V.V.V.V.V.V.z.V.z.z.k.k.s.s.s.s.k.k.s.k.k.k.k.s.s.s.p.p.......| | | | | | | | ..| ..| ....................| ..| | ` ` ) ) ) S Z Z m m b 0 8 2 < % # X           ",
": > > 5 7 t V ]  .a.x.V.Z.F.F.Z.Z.Z.V.V.z.k.k.s.p.p...| | ` ` ` ` ` ` ` ` | ......p.p.p.p.p.....| | | | ....p.s.k.k.k.k.k.s.s.p.....| | | | | | | ......p.p.s.s.k.s.k.s.p.....| ` ` ) ) ) ) ) ` ` ` ` ` ` ) ) ) S S S S S S S ) S Z m b 8 2 % # X   . . O + @ ; 5 7 t F ]  .d.z.V.F.F.F.F.F.Z.Z.V.z.k.k.s.p...| | ` ` ` ` ` ) ` ` ) ) ` ) ` ) ) ) ) ) ) ) ) S Z Z b 8 2 < # X X   . . O @ * ; 5 e B F _  .s.k.V.Z.Z.Z.Z.F.Z.F.F.F.F.F.H.H.H.F.F.Z.V.z.k.s.s.p.p.s.k.z.V.Z.Z.F.F.H.H.H.H.J.H.H.H.F.F.F.Z.Z.V.V.k.k.p...| ` ) ) ) ) ) ) ` ` ` | ` ` | | ` | ` ` ` ` ` ) ) ) ) ) S S S S S S S Z S S S S S S S S S S Z Z Z Z Z Z Z m Z Z m m Z m Z Z m Z m m m m m m b b 0 b 0 b 0 b 0 0 b b b b b b m m m m m Z Z Z Z Z Z Z m m m m b b b b 0 0 b b b 0 0 8 2 2 % # X X   . . . + * ; 5 7 B G ] X.l.V.F.F.J.H.J.H.F.F.Z.Z.Z.Z.Z.V.V.Z.V.V.V.Z.Z.Z.F.F.Z.F.Z.Z.Z.Z.Z.V.Z.V.V.V.V.V.V.V.V.z.z.k.s.s.s.s.p.s.p.s.s.s.s.s.s.s.p.p.........| | | | | | | | | | | ..........................| | ` ` ) ) S S Z Z Z m m b 0 8 2 < % # X           ",
": > ; i 7 t V H  .d.x.V.Z.F.F.F.Z.Z.V.V.z.z.k.s.p.....| ` ` ` ` ` ` ) ` ` | | ....p.p.p.p.....| | | ` | | ..p.s.k.k.z.k.k.k.s.p.p...| ..| | | ..| ......p.p.s.s.k.k.s.s.p...| ` ` ) ) S ) ) ) ) ) ` ) ) ) ) ) S S S S S S S S S S Z m 0 8 2 % # X X   . . + * ; 5 7 t V ]  .d.x.Z.Z.F.F.F.Z.Z.Z.V.z.z.s.s.....` ` ` ` ) ` ` ) ) ` ) ) ) ) ` ) ) ) ) ) ) S S S Z m b 0 2 < # X       o O @ = ; 5 e B F _  .a.k.V.Z.Z.Z.Z.F.Z.Z.F.F.F.H.F.H.H.F.F.Z.V.z.k.k.s.p.s.s.k.z.V.Z.Z.F.H.H.H.H.H.H.H.H.F.F.F.F.Z.Z.V.z.k.s.p...| ` ) S S S ) ) ) ` ) ` ` ` ` ` ` ` ` ` ) ` ) ) ) ) S ) ) S S S S S S Z S Z S S S S Z S Z Z Z Z m m m Z m m m m m Z m m Z m m m Z Z m m m m b b b b b b 0 0 b b b b b b b m m m m Z m Z Z Z Z Z Z Z Z m m b b b b b 0 b b b 0 b 0 8 2 2 % # X X     . O O = ; 5 e B G { +.l.V.Z.H.H.H.H.H.F.F.F.Z.Z.Z.Z.V.Z.V.Z.V.Z.Z.F.F.F.F.F.F.F.Z.Z.Z.V.V.V.V.V.V.V.V.V.V.z.z.z.k.s.s.p.p.p.p.p.p.s.p.p.s.s.p.p.......| | | | | | | ` | | | | | ..| ....................| | | ` ) ) S S Z Z Z m m b b 0 8 2 < % # X X         ",
": > y 5 e t V ]  .a.x.V.Z.Z.F.Z.F.Z.V.V.z.z.k.s.p.....| | ` ` ` ` ` ` ` ` | | ....p.p.......| | ` ` ` ` | ....s.s.k.k.k.k.k.s.p.p...........| | | | ......p.s.s.s.s.s.s.p...| ` ) S ) S S S S ) ) ) ) ) ) ) ) S S S S S S ) S S S Z m b 8 < % # X   . . O O * = 5 7 t G ] X.a.z.V.Z.Z.F.F.Z.Z.V.V.z.z.s.p...| | ` ` ) ) ) ) ) ` ) ) ) ` ) ) ) ` ) ) ) ) ) ) S S Z b 0 2 < # X X   . . O + * 5 5 e C F ] X.d.k.z.V.Z.Z.Z.Z.Z.F.Z.F.F.F.H.F.H.H.F.Z.Z.V.k.s.s.s.s.s.k.z.V.Z.F.F.H.H.H.H.H.F.F.F.F.F.F.Z.Z.Z.V.z.k.s.p.| ` ) S S S S S S ) ) ) ) ) ) ) ) ) ) ) ) ) ) ) ) ` ) ) ) S ) S S S S Z S Z S S Z S S Z Z Z Z Z Z m m m m m m m m m m m m m Z Z m m m m m m m m b b b b b b b b b b b b b m b m m m m m m Z Z Z Z Z Z Z m m m b b b 0 b b b b b b 0 0 2 < % # X     . . . + @ = 5 7 t F { a.l.C.F.H.H.J.H.H.F.F.F.F.Z.Z.Z.Z.Z.V.Z.Z.Z.Z.Z.F.F.F.F.F.F.F.Z.Z.Z.V.V.V.V.V.V.V.z.z.z.z.k.s.s.p.p.....p...p.p.p.p.p.p.p.......| | | ` | | ` | | | | | | | | ......................| | ` ` ) ) S S Z Z m m m m b b 0 2 2 % # # X         ",
": > y y 7 t V H  .a.k.V.Z.Z.F.F.Z.Z.V.V.z.z.k.s.p.....| | ` | ` ` ` ` ` ` | | | ..............| | ` ` | | ....p.s.s.k.k.s.s.s.p.......| | | | | | ........p.p.s.s.s.s.p.....` ` ) S S S S S ) S ) S ) ) ) S ) S S S S S S S S S Z Z m b 8 2 % # X     . O O @ ; 5 7 t F ]  .d.x.V.Z.F.F.F.Z.Z.V.V.z.k.s.p.p...| ` ` ` ) ` ) ) ` ) ` ) ) ) ) ) ) ) ) ) ) ) S S S Z b 0 2 < # X     . . O * * ; 7 e B F '  .d.k.V.V.Z.Z.F.Z.Z.Z.F.F.F.F.H.H.H.H.F.F.V.V.z.k.k.s.s.k.k.V.V.Z.F.F.F.F.F.F.F.F.F.Z.Z.Z.Z.Z.V.V.V.z.k.s.p...` ) S S S Z S S S S ) ) ) ) ) ) ) ) ) ) ) ) ) ) ) ) ) ) ) S S S S S S Z S S Z Z S Z Z Z Z Z m m m m m m b m b m m m m m m m Z Z Z Z Z Z m m m m m m m m m m b b b m m b b b m b m m m m Z m Z Z Z Z Z m m m b b b b 0 b b b b b 0 8 8 2 % # X X     . O + @ ; 5 7 B F { X.l.A.F.F.J.H.H.H.H.F.F.F.F.Z.Z.Z.Z.Z.Z.Z.Z.Z.F.F.F.F.F.F.F.Z.Z.Z.Z.V.V.V.V.V.z.V.z.z.z.k.k.s.p.p.p.............p.p.p...........| | | ` | ` | | | | ` | ..| ....| | ............| | | ` ` ) ) S Z Z m Z m Z m m m b 0 8 2 < # X           ",
": : ; 5 7 t V H  .a.l.V.Z.Z.Z.F.Z.Z.V.V.z.z.k.s.s.p.....| | | | ` | | ` | | | | | ........| | | ` | | | | | ..p.p.s.p.s.s.p.p.......| | | | | | ` | | | | ......p.p.p.....| | ` ` ) ) S S ) S ) ) ) S ) S ) S ) ) ) S ) ) S ) S S Z m b 8 < % X X     . . @ * ; 5 7 t F ]  .d.x.Z.Z.Z.F.F.F.Z.Z.V.z.k.k.s.....| ` ` ` ` ` ) ` ) ) ` ) ` ) ) ) ) S ) ) ) ) S S Z Z b 0 2 < % X X   . . o @ = ; 7 e B F _ X.d.x.z.V.Z.Z.Z.Z.Z.Z.Z.Z.F.F.F.F.H.F.H.F.Z.V.V.z.k.k.z.z.z.V.V.Z.F.F.F.F.F.F.Z.Z.V.Z.Z.V.V.Z.V.V.z.z.k.s...| ` ) S Z S Z S S S S ) ) S S ) ) ) S ) ) ) ) ) ) ) ) ) ) ) ) S S S Z Z S Z Z Z S Z S Z Z Z m m m m m b b b m b b b m b m m m Z Z Z Z Z Z Z Z Z Z Z m m m m m m m m m m m m m m b b b m m m Z Z m Z Z Z m m b b b b b b b b m b b b 0 8 2 < % X X     . O + * = 5 7 B F { X.d.V.F.H.H.J.J.H.H.F.F.F.F.F.F.Z.Z.Z.Z.Z.Z.F.Z.F.F.F.F.F.Z.Z.Z.Z.V.V.V.V.V.z.z.z.z.k.k.s.s.p.p.p.............................| | | | | | | | | | | | | | | | | ......| | | ..| | | ` ` ) ) S Z Z Z m m Z m m m m b 0 8 2 < # X X         ",
": > > y 7 t N ] ' a.k.V.V.Z.F.Z.Z.Z.V.V.V.z.k.k.s.p.........| | | | | | | | | | | ..| | | | | | | | | | | ........p...p.p.....| | | | | | ` ` ` ` ` ` | | | ............| | | ` ` ) ) S ) S ) ) ) ) ) S ) ) ) ) ) S ) ) ) S ) S S Z m b 8 2 % # X     . O + @ = 5 7 t V ]  .d.x.V.Z.Z.F.Z.F.Z.V.V.z.z.k.s.p.p.| | | ` ` ` ` ` ` ` ) ) ) ) ) ) ) ) ) ) ) ) ) ) S Z b 0 8 < % X X   . . o + = ; 5 e B F _  .d.k.V.Z.Z.Z.Z.Z.Z.Z.Z.Z.F.F.F.F.H.F.F.F.Z.Z.V.V.V.z.z.z.V.V.Z.Z.F.Z.F.Z.Z.V.V.V.V.V.z.V.z.V.z.V.z.z.k.s...| ` ) S S Z Z Z S S S ) S ) ) S ) ) S ) ) S ) ) ) ) ) ) ) S ) S S S S Z S Z Z S Z S Z Z Z Z Z m m b b b b b b b b b b m m m Z Z Z S S S S S S S Z S Z Z Z Z Z Z Z m m Z m m b b b m b b m m m m Z Z m Z m m b b b 0 b b b b m m b b b 8 2 < # # X   . . . O * ; 5 7 B F { X.l.V.Z.H.H.J.H.H.H.H.F.F.F.F.F.F.F.F.F.Z.F.Z.F.Z.Z.Z.Z.Z.Z.Z.Z.V.Z.V.V.V.z.z.z.z.k.k.s.s.s.p.p.p...........................| ....| | | | | | | | | | | ..| | | | | | | | | | | | | ` ` ) S S Z m m m m m m m Z m m b 8 2 < % # X         ",
": > y 5 7 t V H ' a.l.z.V.Z.Z.Z.Z.Z.V.V.z.z.k.s.s.s.p.p...................| ..| | | | | | | | | | ..| ..| ....| ..| | | | | | | | ` ` ` ` ` ` ) ` ) ) ` ` ` | | | | ..| | | ` ` ` ) ) ) ) ) ) ) ) ) ) ) ) ) ) ) ) ) ) ) ) ) ) ) S S m b 8 2 % # X     . . + @ ; 5 7 t F ]  .d.z.A.Z.F.F.F.F.Z.V.V.V.z.k.s.s.p.....| | | ` ` ` ` ` ) ` ) ` ) ) ) ) ) ) ) ) ) S S Z m 0 8 < # X X   . . O * = ; 7 e N F { X.s.k.z.V.Z.Z.V.Z.V.V.Z.Z.Z.Z.F.F.F.F.F.F.F.Z.Z.V.V.V.V.V.Z.Z.Z.Z.Z.Z.Z.Z.Z.V.V.z.z.k.k.z.z.z.z.z.z.k.k.p.p.| ` ) S Z S S S S S ) S ) ) ) ) S ) ) ) ) ) ) ) ) ) ) ) ) S S S S Z S Z Z S Z S S Z Z Z Z m m m m b b b b b b 0 b b b m m m Z Z S S ) ) S ) ) S S S S S S S S S Z Z Z Z m m m m b b b b b m m m m Z m m m m b b b b 0 b m m m m m m 0 0 2 < % X X X   . . + * = 5 e t F { +.l.A.Z.H.J.H.J.H.H.H.H.H.H.F.F.H.F.F.F.F.Z.F.Z.Z.Z.Z.Z.Z.Z.V.V.Z.V.V.V.z.z.z.k.k.s.s.s.p.p.p...p...........| | ....| | | | ..| | ..| | ..| ....| ..| | | ..| ..| | | | | | | | ` ` ) ) S S Z m m b m m m Z Z Z Z Z b 0 8 < % X X         ",
": > > 5 7 t N H ' a.l.z.V.Z.Z.Z.V.Z.V.V.V.z.z.k.s.s.p.p...p.p.......p.......| | | | ` | | | | | ..........| | | | ` ` ` ` ` ` ` ` ` ` ` ` ) ) ) ) ) ) ) ) ` ` ` | ` | ` ` | ` ` ` ) ) ` ) ) ) ) ) ) ) ) ) ) ` ) ` ` ) ` ` ` ) ) S S Z b 8 2 % X X   . . O + * = 5 7 t F ]  .d.x.V.Z.F.F.F.Z.Z.Z.V.V.z.k.k.s.p.p.......| | | ` ` ` ` ` ` ) ) ) ) ) ) ) ) ) ) ) S Z m 0 8 < % X   X . . O @ * 5 5 e C F ' X.a.k.z.V.Z.Z.Z.V.Z.V.Z.Z.Z.Z.Z.F.F.F.F.F.F.F.Z.Z.Z.Z.Z.Z.Z.Z.Z.Z.Z.Z.V.V.z.z.k.k.s.k.k.k.k.z.z.z.z.k.k.p.p.| ` ) S S Z Z S S S ) ) ) ) ) ) ) ) ) ) ) ) ) ) ) ) ) ) ) ) S S S S S Z S Z S Z Z S S Z Z Z m m m b b b b b b b b b b b m Z Z Z S ) ) ) ` ) ) ) ) ) ) ) ) ) S S S S Z Z Z m m b b b b m b b m m m m m m b m b b b b b b b m m m m m b 0 2 < % X       . . + * = 5 7 B G { X.l.C.F.H.J.J.J.J.H.H.H.H.H.F.H.F.F.F.F.F.F.Z.Z.Z.Z.V.V.V.V.V.V.V.V.V.V.V.z.k.k.s.s.p.p.p.p.p...........| | ..| ....| | ..| | ..| ..| ......| ......| ..| ..| | | | | | | | ` ` ` ` ) ) S S m m m m m m Z Z Z Z Z Z m b 8 2 % # X         ",
"> > y y 7 t V H ' a.l.z.V.Z.Z.Z.Z.V.V.V.z.z.z.k.s.s.s.p.p.p.p.p.p.p.p.........| ` ` ` ` ` | | ......p.......| | ` ` ` ) ) ) ) ) ) ) ` ) ) ) ) ) S ) S ) ) ) ) ) ` ` ` ` ` ` ` ` ` ` ` ` ` ` ) ) ) ) ) ) ) ` ` ` ` ` ` ` ` ` ` ) ) S Z b 0 2 < # X     . . O = ; 5 7 t V ]  .d.x.V.Z.F.Z.Z.Z.Z.V.V.z.z.k.k.s.s.p.p.......| | | | ` ` ` ) ` ` ` ) ) ) ) ) ) ) ) ) S m 0 8 < % X X   . . O @ = ; 7 e N F ]  .d.x.V.V.V.Z.V.Z.Z.V.V.Z.Z.Z.Z.Z.F.Z.F.F.F.F.F.F.F.F.F.Z.F.Z.Z.Z.Z.V.V.z.z.k.k.s.s.s.p.s.s.k.k.k.k.k.s.s...| ` ) S S S S S S ) S ) ) ) ) ) ) ) ) ) ) ) ) ) ) ) ) ) ) S S ) S S S S Z S Z S S Z S Z Z m m m m b b b b 0 0 0 0 b b b m Z Z S ) ) ) ` ` ` ` ` ` ` ` ) ) ) ) ) ) ) S S Z Z m m m b b b b m m m m m m m m b b b b b b b m m m Z Z m m 0 8 < % X X     . O + * ; 5 7 t G { a.l.V.G.H.H.J.H.H.H.H.H.H.H.H.H.H.H.H.H.F.F.Z.Z.V.V.V.z.V.z.V.V.V.V.V.z.z.z.k.s.s.s.p.p.p.....................| | | | | | ..| | ......| ....| ..| ........| | ..| | | ` ` ` ` ` ` ) ) S S Z Z m m b b m m Z Z S S Z m b 0 2 % # X         ",
": > y y 7 t N H ' X.k.z.V.V.Z.V.Z.V.V.V.z.z.z.k.k.s.s.p.p.s.p.p.p.p.p.p.....| | | ` ` ` ` | | ....p.p.....| | ` ` ) ) ) S ) ) ) ) ) ) ) ) ) S ) S S S S S ) ) ) ) ` ` ` ` ` ` | ` ` ` ` ` ` ` ) ) ` ) ) ` ` ` ` | ` ` ` ` ` ` ` ) S Z m 0 2 < # X o . . . + = = 5 7 t V ]  .d.z.V.Z.Z.F.Z.Z.Z.V.V.z.z.z.k.s.s.p.p.p.p...| | | | ` ` ` ` ` ` ) ) ) ) ` ) ` ) ) ) S m b 8 3 % X X o   . O @ * ; 5 e B H ]  .s.k.z.V.Z.V.Z.V.V.V.Z.V.Z.V.Z.Z.Z.F.Z.F.F.F.F.F.H.F.F.F.F.Z.Z.Z.V.V.V.z.k.k.s.s.p.p.p.p.s.s.k.k.k.s.s.s...| ` ` S S S S S S ) ) ) ) ) ) ` ) ) ) ) ) ) ` ) ) ) ` ) ) ) ) S S S S S S Z S S Z S Z Z Z Z m m m b b 0 b b 0 b 0 b b b m Z Z ) ) ` ` ` | ` | ` ` ` ` ` ` ` ` ) ) ) S S S Z Z m m b b b b m m m m m m m m b m b b b b m m Z Z Z Z Z m b 8 2 % # X   o . . @ @ = y e t F ] +.l.V.F.H.H.J.J.H.H.H.H.H.H.H.H.H.H.H.H.F.F.Z.V.V.z.z.z.z.z.z.V.V.V.V.z.z.z.k.k.s.p.p.p...................| | | | | | | | ..| | ..........................| | | | | | | ` ` ` ` ) ) ) S S Z m m m b m m Z Z S S S S Z m 0 2 % # X         ",
": > ; i 7 t N H ' a.s.z.V.Z.Z.Z.Z.V.V.V.z.z.z.k.k.s.s.s.p.p.p.s.p.s.s.p.p.....| | ` ` ` ` | | ......p...p...| ` ) ) ) S S S ) ) ) ) ` ) ) ) ) S ) S S ) ) S S ) ) ) ) ) ` ` ` ` ` | | ` ` ` ` ` ) ` ` ` ` ` ` ` ` ` | | | | ` ` ` ) Z m 0 2 < & #   . o . @ @ ; 5 7 t F ]  .d.k.C.Z.F.Z.Z.Z.V.V.V.z.z.k.k.k.s.s.p.p.p.......| | | | ` ` ` ` ` ` ` ) ` ` ` ` ) _ S Z b 8 2 % #     . O @ * = 5 5 e B F { X.a.k.V.V.Z.Z.V.V.Z.V.V.V.V.Z.Z.Z.Z.Z.Z.F.Z.F.F.H.F.H.F.F.F.F.Z.Z.V.V.z.z.k.s.s.p.p...p.p.p.s.s.k.k.k.s.p...| ` ) ) ) S ) S ) ) ) ) ) ` ) ) ` ) ) ` ` ) ) ) ` ) ) ) ) ) ) ) ) S S S S S S S S S S S Z Z m m m b b b b b 0 b b b b m m Z S ) ) ` ` | | | | | | | | ` ` ` ` ` ` ` ) ) S S Z Z m m m b m m m m m m m m m m b b b b b m m Z Z Z Z Z m b 8 2 < # X X . o O O = ; 5 7 B G { a.l.V.G.H.H.J.J.H.H.H.H.H.H.H.H.H.H.H.F.F.Z.Z.V.V.z.z.z.k.k.z.z.z.z.V.V.z.z.k.s.s.p.p.p.p.p...p...........| ..| | | | | | | ....| ....................| ....| | | | ` | ` ` ` ` ` ) ) S S Z Z m m m m m Z S S ) ) S Z m 0 8 < # X         ",
": : > 5 7 t V H ' X.d.z.V.V.Z.V.V.V.V.z.V.z.k.k.s.s.s.p.p.s.p.p.s.p.p.p.p.....| ` ` ` ` ` | | ..p.p.p.p.....| | ` ) ) ) ) ) S ) ) ) ` ) ) ) ) S S S S S S S ) ) ) ) ) ` ) ` ` ` | ` ` ` | ` ` ` ` ` ` ` ` ` | ` | | | | | | ` ` ` ) S M n 8 < & # o o o O @ * ; 5 7 t V ]  .d.l.V.Z.Z.Z.Z.Z.V.V.z.z.z.k.k.s.s.s.s.p.......| | | | ` | ` ` ` ` ` ` ` ` ` ` ` ` ) S Z m 0 2 1 & o o o O O = = ; 5 e B F ]  .d.k.V.V.Z.V.Z.V.V.V.V.V.V.V.Z.Z.V.Z.Z.Z.F.F.F.H.F.F.H.F.F.Z.Z.Z.V.V.z.k.k.s.p.p.....p.p.p.p.s.s.s.s.p.p...| ` ` ) ) ) ) ) ) ) ) ` ` ` ` ` ` ` ` ` ` ` ` ` ` ` ` ` ) ) ) ) ) S S S S S S S S S S S Z Z Z m m m b b b b b b b b b m Z Z S ) ` ` | | | | | | | | | | | | ` ` ` ` ` ) S S Z Z Z m m Z m m m m m Z m m m b m b b m m m Z Z S S S Z m b 0 2 1 & # o o o + @ = = 5 e t F { X.l.V.Z.H.J.H.H.J.H.F.F.H.F.H.F.H.F.H.F.F.Z.Z.V.z.z.k.k.k.k.z.z.z.z.V.z.z.z.k.k.s.s.p.p.p.p...p.........| ..| ..| | | | | | ..| ........................| ..| | | | ` | ` ` ` ` ) ) ) S S Z Z Z m m Z Z Z S ) ) ) ) Z m 0 2 < # X         ",
": > ; y 7 t N D ' X.k.z.V.V.V.Z.Z.V.V.z.z.z.k.k.s.s.s.p.p.p.p.p.p.p.p.p.......| | | ` ` | | | ....p...p.....| | ` ) ) ) ) ) ) ) ` ) ) ) ) ) ) ) ) S ) ) ) ) ) ) ) ) ) ` ` ` ` ` ` | | | ` ` ` ` ` ` ` ` ` | | | | | | | | | | | ` ) S Z b 8 2 & $ $ o o @ @ = ; 5 7 t V ]  .a.x.V.Z.Z.Z.Z.V.V.z.z.k.k.k.k.s.s.p.p.p.p...........| | | | ` ` ` ` ` ` ` | ` | ` ` ) Z m q 3 < & $ $ o + @ @ = 5 5 e B A _ X.d.l.z.V.V.Z.V.Z.V.V.V.V.V.V.V.V.Z.Z.Z.Z.Z.Z.F.F.F.F.F.F.F.Z.Z.V.V.z.z.k.s.s.p.p.........p.p.s.s.s.s.p.p...| | ` ` ) ) ) ) ` ` ` ` ` ` ` ` ` ` ` ` ` ` ` ` ` ` ` ` ` ` ` ) ) ) ) ) S ) S ) S S S Z S Z Z Z m m m m b b b b b m m m Z S S ) ` ` | | ..| ..| ..| | | | | | | | ` ` ` ) ) ) S S Z Z Z Z Z Z m Z m m m m m b m m m m m Z Z S S S D Z m n 8 < & $ o o O + @ = ; 5 7 t F { X.l.A.F.F.H.J.H.H.H.H.F.F.F.H.H.F.F.F.F.Z.Z.V.z.z.k.k.s.k.k.k.k.z.z.V.z.V.z.k.k.k.s.s.s.p.p.p...p.p.......| ..| | | | | | | ................p...............| ..| | | | ` | ` ` ` ` ) ) S S Z Z Z Z Z S S ) ) ` ` ) S m b 8 < # X         ",
": > > 5 5 t N H ' a.d.x.V.V.V.Z.V.V.z.z.z.k.k.k.s.p.p.p.p.p...p.p.p.p...p.....| | | | | | | ......p.p.........| | ` ) ` ` ) ) ` ) ` ) ` ) ) ) ) ) ) ) ) ) ) ) ) ` ) ) ` ` ` ` | ` | ` | | ` | ` ` | | | | | | | | ..| | | | ..| ` ` _ Z m 0 3 1 & * + * @ = = ; 5 7 t F ]  .a.k.z.Z.Z.Z.V.V.V.z.k.k.k.s.s.s.p.s.p.p.p.........| | | | | | | ` | | ` | | | | | ` ) S m n 8 1 & - * + * @ = = 5 7 w B H ]  .s.k.z.V.Z.V.Z.V.V.V.V.V.V.V.V.V.V.V.V.Z.Z.Z.Z.F.F.F.Z.Z.Z.Z.V.V.z.z.z.k.k.s.p.p.........p.p.p.s.p.p.p.......| ` ` ` ` ` ` ` ` | ` | ` ` | ` | | ` | ` | | ` | | ` ` ` ` ` ) ) ) ) ) ) ) ) S S S S S Z Z Z m m m m b m b m m m m m Z S S ) ` | | | | ....| ..| ..| | ..| | | | | ` ` ` ) ) ) S S S S Z Z Z m Z Z m Z m m m m m m Z Z S S ) S S Z m b 9 3 1 & $ * * @ * = > 5 7 B F { X.l.V.F.F.H.J.H.H.F.F.F.F.F.F.F.F.F.F.Z.Z.V.V.z.k.k.s.s.s.s.k.k.z.z.z.z.z.z.k.z.k.k.s.k.s.s.p.p.p.p.....| ....| | | | | | | ................p...............| ..| | | | | | ` ` ` ` ) ) ) ) S S S S S S ) ) ` ` ` ` S Z b 8 < % X         ",
": > > 5 e t N H ` X.k.z.V.V.Z.V.V.V.V.z.z.z.k.s.s.s.p.p.p.p...p.p.p...p.........| | | | | | ........p.p.....| | | ` ` ` ` ` ` ` ` ` ` ` ` ` ) ` ) ) ) ` ) ` ` ) ` ` ` ` ` ` ` ` | ` | ` | | | | | | | | | | ..| ..| ..........| | ` ) D M q 9 4 1 * * * @ = : ; 5 7 t V D  .a.l.V.V.V.V.V.z.z.k.k.k.s.s.s.p.p.p.p.p...............| ..| | | | | | | | | ..| | ` _ S Z n 9 9 1 - * = * = = > ; 5 e t F _ X.a.k.V.V.V.Z.V.V.V.V.z.V.V.z.V.z.V.V.V.V.V.Z.Z.Z.Z.Z.Z.Z.Z.Z.V.V.V.z.k.k.s.s.p.p.............p.p.p.p.p.p.....| | | ` | | ` | | | | | | | | | | | | | | | | | | | | | | ` ` ` ` ` ) ) ) ) ) ) ) ) S S S Z Z Z Z Z m m m m m m m Z Z S S ) ` | | | ............| | ....| | | | | | | ` ` ` ` ` ) ) ) S S S S Z Z Z m Z m Z m m m Z Z S S ) ) ) ) D Z n q 3 1 - * * * = = = ; 5 7 t F ] a.l.C.F.H.H.H.H.H.F.F.F.Z.Z.F.Z.F.F.Z.Z.Z.V.z.z.k.s.s.s.s.s.s.k.k.k.z.z.z.z.z.z.z.z.k.k.s.s.s.p.p...........| ......| ......| ..................................| ..| | | | ` ` ` ` ` ) ) ) S ) S S ) ) ` ` | | | ` ) Z b 8 < % X         ",
"> ; y 5 5 t V D ' X.d.z.V.V.V.Z.V.V.z.z.k.k.k.s.s.p.p.....p...p.p...p.........| ..| | ..| ......................| | | | ` | ` ` ` ` ` ` ` ` ` ` ` ` ` ` ` ` ` ` ` ` ` ` ` | ` | ` | | | | | | | | ....| ....| ..| ....| ........| | _ S A n w 6 4 ; = = : = = > 5 7 t N H  .a.k.z.V.V.V.V.z.k.k.s.s.s.s.p.p.p.p...............| ..| | ....| | ..| | ......| ..| | _ Z M q 6 4 ; ; = = = : > 5 5 e B V _  .d.k.V.V.Z.Z.Z.Z.V.V.V.V.V.V.z.z.V.z.V.V.V.V.V.V.Z.Z.Z.Z.V.V.V.V.z.z.k.k.s.s.p.p.............p.p...p.........| | | | | | | | | | | | | | ..| | | | | ..| | | | | | | | | | ` ` ` ` ` ) ) ) ) ) ) S S S S Z Z Z Z Z Z m Z m Z m Z Z S S ) ` | | ..................| ..| | ....| | | | | | | ` ` ` ) ) ) S S S Z Z Z Z m Z m Z Z Z S S ) ) ) ) ) S A M q w 6 4 ; = = = : ; > 5 7 B F ] X.l.C.Z.H.H.H.H.F.F.Z.Z.Z.Z.Z.Z.Z.Z.Z.Z.V.V.z.k.s.s.p.p.p.s.s.s.k.z.z.z.z.z.z.z.z.z.z.z.k.s.s.s.p.p.........| | ..| ....| ..........p.....p.......................| ..| | | | | ` ` ` ` ` ) ) ) ) ) ` ` | | | | | ` ) Z b 8 < # X         ",
": > > 5 e t N H ' a.d.z.V.V.V.V.V.z.z.z.k.k.s.s.s.p.p.p...............p...............| ............................| | | | | | | | ` | ` ` ` ` ` ` ` ` ` ` | ` ` ` | ` ` | ` ` | ` | | | | | | | ..| ..| ......................| | ` S A n r 6 5 5 > = : : > > 5 7 r V H  .a.l.z.V.V.V.z.z.k.k.s.s.s.p.p.p.p...p.....................| ....| ................| ` ) D M N w 6 5 ; ; : : : > y 5 e B H _ X.d.l.z.V.Z.V.V.Z.V.V.V.V.V.z.V.V.z.z.z.z.z.V.V.V.Z.V.V.V.V.V.V.z.z.z.k.k.s.s.p.p...p.......p.....p...p.............| ....| ..| ........| ..........| ..............| | | | | | ` ` ` ` ) ` ) ) ) ) ) S S S S Z Z Z Z Z Z Z Z Z S S S ) ` ` | | | ............................| ......| | ..| | | ` ` ) ) S S S Z Z Z Z Z Z Z Z S S _ ) ` ) ` ` S D M n w 6 5 ; ; : = : > > 5 e t F { +.l.V.F.F.H.H.H.F.Z.Z.Z.V.Z.V.V.Z.V.Z.V.z.z.k.k.s.s.p.p.p.p.s.s.k.k.k.z.z.z.V.V.z.z.z.z.k.k.s.s.p.p...................................................................| ..| | | ` | ` ` ` ` ` ` ` ` ` ` | | | | | | ) S b 8 < % X         ",
": > > y 7 t N H ' X.d.z.V.V.V.V.V.z.z.z.k.k.s.s.p.p.p...............p...................................p.............| ..| | | | ` | ` ` | ` ` | ` ` | ` | ` | | ` | ` ` | | ` | ` | | | ..| | ..........................p.......| _ _ A V t w 5 y > > > > : > y i t V H  .X.s.z.z.V.z.z.k.k.s.s.p.p.p.p.p.p...........................................p.....| | _ D V N w 7 5 y ; > : > > y 5 e B F _ X.d.k.z.V.Z.Z.Z.V.V.V.V.V.V.z.z.z.z.z.z.z.z.z.V.V.V.V.V.V.V.z.z.z.k.k.k.k.s.p.p.p...p.........p.......................................................................| | | | | | ` ` ` ` ` ) ) ) ) ) ) S S S S S S Z S Z Z S S S S ) ) ` ` | | ..............................................| | | ` ` ) ) S S S S Z S Z S S S S S ) ) ` ` ` _ ) D M n r 6 5 5 > > : : : ; i e t G { a.l.A.Z.F.F.H.F.F.Z.V.V.V.V.V.V.V.V.V.z.V.z.k.s.s.p.p...p.p.p.s.k.k.k.k.z.z.z.V.z.V.z.z.k.k.k.s.p.p.....................................................................| | | | | | ` | ` ` ` | ` ` | | | ......| | ) S b 0 < % X X       ",
", , y i f t C H ' a.s.x.z.V.V.z.z.z.k.k.k.s.s.s.s.p.p...p.................................................................| | ..| | | | | | | | | | | | | | ` | | | | | | | | | | | | | | | ..................p.........p...p.....| | _ A V t e 7 i y , , : , y y e t C H ' a.d.z.z.z.z.z.k.k.s.s.s.p.p.p.........................p.......................p.....| _ _ A N t e i y , : , , > y i e C F {  .d.k.V.V.Z.Z.Z.Z.Z.Z.Z.V.V.V.z.z.z.z.k.k.z.z.z.z.z.z.V.z.z.z.z.z.z.k.k.k.s.s.s.p.p.p...p.........p.p.....p.................................................................| | | | | | ` ` ` ` ) ) ` _ ) ) ) S S S S S S S S S S ) ) ` ` | | ..........................................p.........| | ` ` ) ) ) S S S S S S S S ) ) ` ` ` ` ` ` _ _ A V t e i i y y , , , , y f C F { X.l.V.F.H.H.H.F.F.Z.V.V.V.V.z.V.V.V.V.z.z.k.s.s.s.p.p.p...p.p.p.s.s.k.k.k.k.z.z.z.z.z.z.z.k.s.s.p.p...........................p.....................p...........p.........| ..| | | | | | | | | | | | | ..........| ` S m 0 3 & #         ",
", y y i f h C H { X.s.k.z.V.z.z.z.z.k.k.k.s.s.s.s.p.p.....................................................p...p...............| ..| | | | | | | | | | | | | | | | | | | | | | | | | | | | ..........................p...p...p.......| _ D V B t i i y u , , u y i f B C H  .X.d.k.z.z.z.z.k.k.s.s.p.p.p.p...p.p.......p.....................p.......p.p.p.......| ' D H N t f i y u u , , u y i f C H ] X.d.k.V.Z.Z.Z.F.F.Z.Z.Z.Z.Z.V.z.z.z.k.z.k.z.k.z.z.z.z.z.z.z.z.z.k.k.k.k.s.s.s.p.p.....p.....p.......p...p.....p.....p.....p...........p.....................................| ..| | | | | ` ` ` ` ` ` ` ) ) ) ) ) ) ) ) ) ) ) ) ) ) ` ` ` | | ..........p...............p...........p.............| | | ` ` ) ) ) ) S _ ) ) ) ) ) ` ` ` | | | ` ` D H N t f i i u y , , u y i f P G { f.l.A.F.F.H.F.F.Z.Z.V.z.z.z.z.z.z.z.z.z.z.k.k.s.p.p.p...p.p.p.p.s.s.k.k.k.k.z.z.z.z.z.k.k.k.s.s.p...p.......................................................................| | | | | | | | | | | | ..............| ` S m 0 2 & #   o .   ",
"u u u p f h C H { X.a.k.z.z.z.z.z.k.k.k.k.s.s.s.p.p.p.p.p.p...p...p.....p.......p.....p.p...p.....p.............p...p.............| ..| | ..| | | | ..| ..| | ..| | ..| | | | | ..| | ..| ......p.........p...p.......p...p.p.....|  ._ H V C f f p u u , u u u p f K C H ' X.s.l.k.z.z.k.k.s.s.p.s.p.p.p.....................p...p.....p.........p...p.p.p.....| _ _ F C B f g p u u u u u p f h C J {  .d.x.V.Z.Z.F.F.F.F.F.F.Z.Z.V.V.z.z.k.k.k.k.k.k.z.k.z.z.z.k.z.k.k.k.k.k.k.s.s.p.p.p.p.p.p.p...p.p.p...p.p...p...p...............p.........p...p...p.......p...p.p.............| | | | | | | | | | ` ` ` ` ` ` ` ) ` ) ) ) ` ) ) ` ` ` ` | | ......p...p.......p.....p.......p...p.....p.p...p.p.......| | ` ` ` ) ` ) ) ) ) ` ) ` ` ` | | | | | _ _ A V C h f p u u u , u u i h K J { a.l.V.G.H.H.H.F.Z.V.V.z.z.z.z.z.z.z.z.k.k.k.s.s.p...p.....p.p.p.p.s.s.s.k.k.k.k.k.k.z.k.k.k.s.p.p.p.p...............p.........p.........p...p.........p...p...p.................| | ..| | | | ..| | | ....p...p...| ` D M q 3 1 & $ . . . ",
"u a p g f K G J { X.a.s.k.z.k.z.k.k.k.k.k.s.s.p.s.p.p.p.p.p.p...p...p.........p...........p.......................p.p...........| ....| ..| | ....| | ......| ..| ..| | | ....| | ..| ..................p...............p.p...p.....| _ H C P h f g p u a u p p p f K C J { X.a.s.k.z.k.k.k.s.s.s.p.p.p.p.p.p...p.........p.....p.........p.p...p.....p.p.........' ] H C B f g p p u u a u p g j C J { +.l.x.V.Z.F.F.H.H.H.F.H.F.Z.Z.V.z.k.k.k.k.k.k.k.k.k.k.k.k.k.k.k.k.k.k.s.s.s.s.p.s.p.p.p.p.p.p.p.p.p.p.p.p.....p.....p...p...p.....p.......p...p.p.p.....p.......................| ..| ..| | | | | | | ` ` | ` ` ` ` ` ` ` ` ` ` ` ` | | | ................p.......p.p.....p...p.....p...p.............| | | ` ` ` ` ` ` ` ` ` ` ` | | ..| | | | ` _ H V B h g p u a a a u p g h P J O.f.x.A.F.H.H.F.F.Z.V.z.z.k.k.k.k.k.k.z.k.k.s.s.s.p.p.....p...p.p.p.s.s.s.s.s.s.s.k.k.k.s.s.s.s.p.p.p.................p...p.........p.....p.....p.............p...................| ......| ....| ..........p.........` _ M n 9 1 & $ + o o ",
"a s p g j K P J {  .a.s.k.k.k.k.k.k.s.k.s.s.s.s.s.s.p.p.p.p...p.p.......p.......p...p.p.....p...p.....p.p...p.X.......................| ......| ......| | ................| ....| ............X.p...p...p.....p.p...p.p...p.p...X...' ' H G C K g g s p s s s s g j K E J {  .a.d.k.k.k.k.k.s.s.p.s.s.p.p.p...................p.....p...............p.p...p.p.X.| ' _ F P P j g p s s a s s g g L P J { +.d.x.V.Z.F.F.H.H.H.H.H.F.F.Z.V.z.k.k.k.s.s.k.s.s.k.k.k.k.k.k.s.k.s.k.s.s.s.s.s.p.s.s.p.p.s.p.p.p.p.p.p.p.p.p.p...p...p.............p.................p.....p...p.p...................| | ..| | | | | | | | | | | | | | | | | | | | | | | ..........p.......p...................p.....p...p.p...........| | | | | | | | | | | | | | | | ......|  ._ H G P K g g s a a a s s g j P Q O.f.c.Z.F.H.H.F.Z.Z.V.z.k.k.k.k.k.k.k.k.k.s.s.s.p.p.p.p...p...p.p.p.p.p.s.p.s.s.s.s.s.s.s.s.p.p.p.p...p...p.....p...........p...p...........p.........p...p.....p.....................| | ....| ..........p...p.p...| ` S Z n 9 3 4 - * * @ ",
"s s s k j K E J { o.a.s.s.k.k.k.s.k.s.s.s.s.s.s.p.s.p.s.p.p.p.p.p...p...............................................p...................................| ..| ................| ....................................p.....p...p...|  ._ ] G P L z k k s s s s s k j K P J { o.a.s.s.k.s.k.s.s.s.s.p.p.p.p.....p.p.................p.........p.......p...p....... .' _ F C I j z l s s s s s k j L P [ } a.d.z.V.Z.F.H.H.H.J.H.H.H.F.Z.V.z.z.k.s.s.s.s.s.s.s.k.s.s.s.k.s.s.s.s.s.s.s.s.p.p.s.p.p.p.p.s.p.p.p.p.p.p.p.p.p.p.........p.......p.......p.p.............p.....................| ........| ........| | | ....| | | | | | | ..| | ..| ....| ........p.....p.........p.....p.....p.......p.............| ..| | | | | | | | | ..| | | ....X.....| ' ' H G P j j k s s d a s k g j W #.O.g.x.V.F.F.H.F.Z.V.z.k.k.s.k.s.s.k.s.s.s.s.s.s.p.p...p.........p.p.p.p.p.p.p.p.p.p.p.p.p.p.p.p...p.p.....................p.............p...............................................| ......| ..........p.p.....| ' S A n r 6 4 ; ; = = ",
"d l k z z L P Q ] o.X.a.s.s.s.s.s.s.s.s.s.s.s.s.s.p.p.p.p.p.p.X...................................................................| ......| ......| ............| ....| ............| ..| ........................................|  .{ ] E P L j z l l l d l l z z I E J { o.a.a.s.s.s.s.s.s.p.d.p.p.p.p...p...................................................| ' ] J E I j z k l l l d l k z L W Q } @.d.x.V.Z.Z.F.H.H.H.J.H.F.F.Z.V.z.k.s.s.s.p.s.s.s.s.s.s.s.s.s.s.s.s.s.p.p.s.s.p.s.p.p.s.d.p.p.p.s.p.p.p.p.............X.....................................................| ......| ........| ..| ......| | ..| ..| ..| ..| | | ....| ........X.........................................X.............| ........| ..| | | | ................| ' _ [ G P L j z l l d d d l z U W Q @.g.c.A.G.F.F.Z.Z.z.z.k.s.s.s.p.s.s.s.s.s.s.p.p.p.p...............X.......p.p...p.a...p.a.p.........................................................................................................................| ` _ A N r 6 5 5 ; = : ",
"l l l z U I I Q [ O. .a.a.a.d.s.a.a.d.a.p.a.a.a.a.a.a.a.a.a.p.a...X.X.....X.| ..X.....X.| X.......X...X...| ....X... ...X... ...X... ...X.| X...X.| ..X.| ..X....... ... .....X.X.| X.......| ..X.......X.....X...X.....X...X...X. .' { [ E W L U x x l l l l x z z I W Q } o. .X.a.d.d.p.a.d.a.a.a.a.a...X.X...X... .....X.| ..X...X...X.......X.........X..... .{ [ J E I U z l l d c l l z z T W Q } +.h.l.x.A.Z.F.F.G.H.H.G.G.F.V.x.k.l.d.p.a.a.a.a.a.a.d.a.a.a.d.a.a.a.d.a.a.a.a.a.p.a.p.a.a.p.a.a.a.a.a.p.a.a.p.X...X...X. ...X...X.....X.X.| ..X.....X.| ..X...X.| ....X.X.....X.X....... ...X... ... ... ...X.| .... ..... ... ...| ..X... ...X...X.| .. ...X...X.| X...X.| ..X.....X.| X.......X..... ..... ... ... ...X.| X...X...........|  .{ ] [ E I L U z x l c d l x x T W ! :.g.c.C.A.Z.Z.Z.V.x.l.d.a.a.p.a.a.d.a.d.a.a.p.a.a.X.X...X... ...X...X.....X.X...X.....X.X...X.....X...X...X.| ....X.X...X...X... ...X.| X...X... ...X.....X.....X.| .... ...X.| X...X... ...X.| X...X.........a.X.|  .' D H N t 7 5 5 > > > ",
"v x x Y Y T W ! #.} O.+.a.a.a.a.a.a.X.a.a.a.X.f.a.a.a.X.X.X. . . . . . . .o.o. . .o. . .o. . .o. . .o. .o.o. . . . . . . . . . . . . . . . . . . .o.o. .o. . .o. . . . . .o.o. . . . . .o.+.o. . .o.o. . . . .o. . . . . . .X. . .o.{ [ #.E I T Y x v v c v v x Y Y T W E #.} O. .a.a.a.a.a.a.a.a.X.X.X.X.X. . . . . . . . .o. . . . .o. .o.o. . . . . .o. . .o.{ { [ Q W T T Y x c v v v v x Y T ~ ! %.@.g.h.x.x.C.A.A.G.G.G.G.A.C.S.x.h.d.f.a.a.X.a. .a.a.X.a.a.a.X.X.a.X.a.a.a.a.X.f.a.f.a.X.+.a.a.a.a.a.f.X.X.X. . . . . .o. . . .o. .o. . . .o. . .o. . .o. . .o. .o.o. . . . . .o. .o.o. . . . . . . . . . .o. . .o.o.o. . . . . .+.o. . . . . . . . .o. . . . . . . . . . .o. . .o. . .o. .o.o. . .o. . .o. . . . . . . . . . . . . . . . .o. .o.{ } #.W W T Y x x v c v v x x T ~ $.:.m.j.b.S.S.S.S.x.l.d.a.f.a.a.X.a.X.X.X.a.X.a. .X. . . . . . . . .o. . . . . . . . . . .o. . . . . . . . . .o.o. . . . . .o. . . . . . . . . . . . . .o. . .o. . .o. . . . . .o.o. . . . . . . . . . . .o. . . . . .' { ] G C t h i p y y , ",
"v v Y 4.Y R T ! #.%.} @.@.+.@.@.+.@.@.+.@.@.@.@.+.@.@.@.+.@.@.O.+.O.O.O.O.O.O.O.O.} O.O.O.O.O.O.O.O.O.{ @.} O.O.O.{ O.O.} O.O.O.O.O.O.O.O.O.O.O.@.O.O.O.O.O.O.O.O.O.O.O.O.O.O.O.O.O.O.O.O.} O.O.{ O.} O.O.O.{ O.} O.O.O.O.O.O.O.} } #.#.! ! T T Y Y v v v v v v Y Y R ~ ! $.%.} @.@.@.@.@.@.@.@.@.@.@.+.@.@.O.O.O.O.} O.O.O.O.O.} O.O.O.{ O.O.O.O.O.O.@.@.O.O.} } #.#.! ~ R R Y 4.v v v v v 4.Y R ~ / &.>.,.g.j.v.v.n.n.D.D.D.D.n.n.v.j.g.@.@.@.+.@.@.@.+.@.@.@.+.@.@.@.+.@.@.@.@.@.@.@.@.@.@.@.@.@.+.+.@.@.@.@.@.@.@.O.@.O.{ O.O.O.O.O.{ O.{ O.O.O.O.O.O.O.O.O.O.O.O.{ O.O.O.O.O.O.O.{ O.O.O.O.O.O.O.O.O.O.O.O.O.@.O.O.O.@.O.O.@.O.O.O.O.O.O.O.O.O.O.O.O.O.O.O.O.O.} O.O.O.O.O.O.O.O.O.O.O.O.O.{ O.O.O.O.O.O.O.O.O.O.O.O.O.O.O.O.O.O.O.O.O.@.O.@.O.O.} #.#.Q W T T Y 4.v v v v v v 4.R ~ / &.:.m.v.v.n.b.v.h.h.g.g.+.@.@.@.@.@.@.@.@.+.@.@.@.O.O.O.} O.O.O.{ O.O.} { } } O.{ O.O.} } { O.{ O.O.O.} O.O.O.O.O.O.} O.O.O.O.{ O.O.O.O.O.O.O.} O.O.O.O.O.O.O.O.O.O.O.O.O.O.O.O.O.O.O.O.O.O.O.O.O.O.O.O.O.@.@.O.O.O.} [ J G C h f f p y y u ",
"4.5.4.4.6.R ^ ( / $.&.%.:.:.:.:.:.:.:.:.:.:.:.:.:.:.:.:.:.:.:.:.%.%.%.%.%.%.%.%.%.%.%.%.%.%.%.%.%.%.%.%.%.%.%.%.%.%.%.%.%.%.%.%.%.%.%.%.%.%.%.%.%.%.%.%.%.%.%.%.%.%.%.%.%.%.%.%.%.%.%.%.%.%.%.%.%.%.%.%.%.%.%.%.%.%.%.%.%.%.} %.%.%.#.$.! ~ ^ 6.6.4.4.4.5.4.4.4.4.6.R ^ / ! $.#.%.:.:.:.:.:.:.:.:.:.%.:.%.%.%.%.%.%.%.%.%.%.%.%.%.%.%.%.%.%.%.%.%.%.%.%.%.%.%.%.$.#./ ~ ~ R R 4.4.4.4.4.4.4.4.6.R ^ / $.&.>.<.m.m.N.B.B.B.B.B.B.B.N.N.m.m.,.,.:.:.%.:.:.:.%.:.:.:.:.:.:.:.:.:.:.:.:.:.:.:.:.:.:.:.:.:.:.:.:.:.:.:.%.%.%.%.%.%.%.%.%.%.%.%.%.%.%.%.%.%.%.%.%.%.%.%.%.%.%.%.%.%.%.%.%.%.%.%.%.%.%.%.%.%.%.%.%.%.%.%.%.%.%.%.%.%.%.%.%.%.%.%.%.%.%.%.%.%.%.%.%.%.%.%.%.%.%.%.%.%.%.%.%.%.%.%.%.%.%.%.%.%.%.%.%.%.%.%.%.:.%.%.%.%.%.%.%.%.%.%.%.%.} %.%.%.%.$.#./ ( ^ R 6.4.4.5.4.4.4.4.6.6.^ ( ;.1.<.M.N.N.N.m.m.m.,.:.:.:.%.:.:.%.:.:.:.:.%.%.%.%.%.%.%.%.%.%.%.%.%.%.%.%.%.%.%.%.%.%.%.%.%.%.%.%.%.%.%.%.%.%.%.%.%.%.%.%.%.%.%.%.%.%.%.%.%.%.%.%.%.%.%.%.%.%.%.%.%.%.%.%.%.%.%.%.%.%.%.%.%.%.%.%.%.%.%.:.%.%.%.%.#.#.E W K L g g p p p p ",
"5.5.5.5.6.6.^ ( ( =.-.-.-.&.&.&.&.&.&.&.&.&.&.&.-.&.&.&.-.&.&.&.-.&.$.$.-.$.$.$.$.$.$.$.$.$.$.$.$.$.$.$.$.$.$.$.-.$.$.$.$.$.$.$.$.$.$.$.$.$.$.$.$.$.$.$.$.$.$.$.-.$.$.$.$.$.$.$.$.$.-.$.$.$.-.$.-.$.$.$.$.$.$.-.$.$.$.$.&.$.$.$.-.*.*./ ( ^ 0.6.6.6.5.5.5.5.5.5.5.6.6.^ ( ( =.;.&.&.&.&.>.&.&.&.&.&.&.&.&.&.$.$.$.$.$.$.$.$.$.$.$.$.$.$.$.$.$.$.$.$.$.$.$.$.$.$.-./ ( ( ^ 0.0.5.7.5.5.5.5.5.5.6.0.0.( ( ;.-.1.<.M.M.M.M.M.M.M.M.M.M.3.3.>.>.>.-.&.&.&.&.&.&.&.&.&.&.-.&.&.&.&.&.&.&.&.&.-.&.&.&.&.&.&.&.&.&.&.$.&.&.&.$.$.$.$.$.$.$.$.$.-.$.$.$.$.$.$.$.-.$.$.$.$.$.$.$.$.$.$.$.$.$.$.$.$.-.$.$.$.$.$.&.$.$.&.$.$.$.&.$.$.$.&.$.$.$.$.$.$.$.$.$.-.$.$.$.$.$.$.$.$.$.$.$.$.$.$.$.$.$.$.$.-.$.$.$.$.$.$.$.$.$.$.$.-.$.$.$.$.-.$.$.&.$.$.$.$.$.&.$.$.&.*.-.*./ ( ^ 0.6.6.6.5.4.5.5.5.5.5.6.0.( =.;.1.3.3.3.3.<.<.>.>.>.&.&.&.&.&.&.&.&.&.&.&.&.&.$.&.$.$.$.$.$.$.$.$.$.$.$.-.$.$.$.$.$.$.$.-.$.$.$.$.$.$.$.$.$.$.$.$.$.$.$.$.$.$.$.$.$.$.$.$.$.$.$.$.$.$.$.-.$.$.$.$.$.$.$.$.$.$.$.$.$.$.$.$.$.$.$.-.$.$.&.&.$.$.$.*.! ~ I T z j g p p p p ",
"7.7.7.7.7.q.0.0.( ( ( =.=.=.=.;.=.=.=.;.=.;.=.=.=.;.=.=.=.=.=.=.=.=.=.=./ ( ( =.=.=.( ( ( =.=.=.=.( =.=.( =.=.( =.=.=.( =.=.=.=.( =.=.=.=.( =.=.=.( =.=.=.=.=.=.=./ ( =.=.=.=.( =.=.=.( =.=.( =.=.( =.=.=.( =./ =.( =.=.=.=.=.=.=.( ( ( 0.0.0.0.7.7.7.7.7.7.7.7.7.q.q.0.0.w.( =.=.=.;.=.;.=.=.;.=.=.=.=.=.=.=.( ( =.=.=.=.( ( =.=.( =.=.=.( =.( =.=.=./ =.=.=.( ( ( ( 0.0.0.7.7.7.7.7.7.7.7.7.7.q.q.w.w.u.;.=.;.2.i.M.i.2.2.i.M.2.2.;.;.;.;.=.=.=.=.=.=.=.=.=.=.=.=.=.=.=.=.=.=.=.;.=.=.=.;.;.=.=.;.;.=.=.;.=.;.=.=.=.=.=.( =.=.( =.( =.=./ ( =.=.=.( ( ( =.=.=.=.( =.=.( =.=.( ( =.=.=.=.=.( =.=.=.=.=.=.( =.=.=.=.=.( =.=.=.=.=.=.=.=.=.=.=.( ( =.=.=.( ( =.=.=.( =.=.( / =.=.=.=.( ( ( =.=.=.( ( =.=.=.=.=.=.=.=.=.=.=.=.=.=.=.=.=.=.=.=.=.=.=.=.( =.( ( w.0.0.6.7.7.8.7.7.7.7.7.7.q.e.e.w.i.;.;.2.2.2.2.;.;.=.=.;.=.=.=.=.=.=.=.=.=.=.=.=.=.=.=.=.( ( =.=.=.( =.=.( =./ ( ( =.( =.( ( ( =.=.=.=.( =./ =.=.( =.( =.=.( =.=.=.=.( =.=.( / =.=.=.=.( ( ( =.=.=.=.( ( =.=.=.=.( ( =.=.=.=.=.=.=.( =.=.=.=.=.=.=.( ( ~ T T z z k k k k s ",
"8.7.q.8.7.q.q.e.e.w.w.w.w.w.w.u.w.u.w.u.u.w.u.w.w.w.u.u.u.w.w.w.w.w.w.w.w.w.w.w.w.w.w.w.w.w.w.w.w.w.w.w.w.w.w.w.w.w.w.w.w.w.w.w.w.w.w.w.w.w.w.w.w.w.w.w.w.w.w.w.w.w.w.w.w.w.w.w.w.w.w.w.w.w.w.w.w.w.w.w.w.w.w.w.w.w.w.w.w.w.( w.w.w.w.e.0.e.q.7.q.7.7.8.7.8.r.y.7.7.q.q.e.0.e.w.w.w.w.w.u.w.w.w.u.w.w.w.w.w.w.w.w.w.w.w.w.w.w.w.w.w.w.w.w.w.w.w.w.w.w.w.w.w.w.w.w.e.0.q.q.q.q.7.8.7.8.7.7.8.y.y.q.q.e.0.u.e.u.u.u.u.i.i.i.i.i.i.i.i.i.i.u.w.u.w.w.w.w.u.u.w.w.w.w.w.u.u.w.u.w.u.u.w.u.w.w.w.w.u.u.w.w.u.w.w.u.w.w.w.w.w.w.w.w.w.w.w.w.w.w.w.w.w.w.w.w.w.w.w.w.w.w.w.w.w.w.w.w.w.w.w.w.w.w.w.w.w.w.w.w.w.w.w.w.w.w.w.w.w.w.w.w.w.w.w.w.w.w.w.w.w.w.w.w.w.w.w.w.w.w.w.w.w.w.w.w.w.w.w.w.w.w.w.w.w.w.w.w.w.w.w.w.w.w.w.w.w.w.w.w.w.w.w.w.w.w.w.w.w.w.w.w.w.w.e.0.e.q.q.7.7.8.8.8.8.7.7.q.q.q.e.u.i.u.u.u.i.u.u.u.i.u.u.u.w.w.w.u.w.u.w.w.w.w.w.w.w.w.w.w.w.w.w.w.w.w.w.w.w.0.w.w.w.w.w.w.0.w.w.w.w.w.w.w.w.w.w.w.w.w.w.w.w.w.w.w.w.w.w.w.w.w.w.w.w.w.w.w.w.w.w.w.w.w.w.w.w.w.w.w.w.w.w.w.w.w.w.w.w.w.w.w.w.w.w.w.w.w.^ 0.R Y x z z k k k k ",
"r.8.r.r.8.r.q.y.q.q.e.e.e.e.e.e.e.e.e.e.e.e.e.e.e.e.e.e.e.e.e.q.e.e.e.e.e.e.e.e.e.e.e.e.e.e.e.e.e.e.e.e.e.e.e.e.e.e.e.e.e.q.e.q.e.e.e.e.e.e.e.e.e.e.e.e.e.e.e.q.e.e.e.e.e.e.e.e.e.e.e.e.e.e.q.q.e.q.e.e.e.e.e.e.e.e.e.e.e.e.e.e.e.q.e.q.q.q.q.r.r.8.r.r.r.8.r.t.r.r.r.q.y.q.e.e.e.e.e.e.e.w.e.e.e.e.e.e.e.e.e.e.e.e.e.e.e.e.e.e.e.e.e.e.e.e.e.e.e.e.e.e.e.e.e.e.e.q.q.q.q.r.7.r.r.r.8.r.r.8.r.t.r.y.y.q.y.e.y.y.u.e.i.y.y.i.y.i.u.e.e.e.e.e.e.e.e.e.e.e.e.e.e.e.e.e.e.e.e.e.e.e.e.e.e.e.e.e.e.e.e.e.e.e.e.e.e.e.e.e.e.e.e.e.e.e.e.e.e.e.e.e.e.e.e.e.e.e.e.e.e.e.e.e.e.e.e.e.e.e.e.e.e.e.e.e.q.q.e.e.e.e.e.e.e.e.e.e.e.e.e.e.e.e.e.e.e.e.e.e.e.e.e.e.e.e.e.e.e.e.e.e.e.e.e.e.e.e.e.e.e.e.e.e.e.e.e.e.e.e.e.e.e.e.e.e.q.e.e.e.e.q.e.e.e.e.e.e.e.e.e.e.q.e.e.q.q.q.r.q.r.r.r.8.8.8.r.r.8.r.y.y.t.y.y.y.u.e.u.e.e.e.e.e.e.e.e.e.e.e.e.e.e.e.e.e.e.e.e.e.e.e.e.e.q.q.e.e.e.e.e.e.e.e.e.e.e.e.e.e.e.e.e.e.q.e.e.e.e.e.e.e.e.e.e.e.e.q.e.e.e.e.e.e.e.e.e.e.e.e.e.e.e.e.e.e.e.e.e.e.e.e.e.e.e.e.q.e.e.q.e.e.e.e.e.e.e.e.e.q.6.6.R Y x x k k k k ",
"r.r.t.y.y.r.r.r.r.r.y.y.y.y.y.y.y.r.t.y.y.y.r.y.y.r.r.r.y.r.y.y.y.r.q.y.y.e.y.y.e.y.y.r.r.y.r.y.r.r.q.y.y.y.r.y.y.r.r.r.y.r.y.r.q.y.y.y.y.r.r.q.q.y.y.e.y.y.y.y.r.y.r.y.r.r.r.r.y.y.r.r.r.y.r.y.y.y.t.y.y.r.y.r.y.y.y.r.y.r.y.y.r.r.e.y.r.r.r.r.r.t.y.r.r.t.r.r.r.r.y.y.r.r.r.y.y.r.y.r.r.y.r.y.r.y.t.y.y.y.r.r.y.y.r.r.y.r.t.y.q.y.y.y.r.r.r.y.y.y.y.r.r.q.y.r.y.r.y.y.r.r.r.r.r.r.t.r.t.y.r.r.r.r.r.r.y.r.y.r.y.y.y.y.y.y.y.y.y.y.y.r.y.q.y.y.r.y.r.r.r.y.t.y.y.y.r.y.r.r.y.r.y.y.y.r.r.y.t.y.y.y.y.r.y.r.r.y.r.y.r.r.r.y.y.r.q.y.y.r.y.r.r.r.y.y.r.r.r.r.y.y.r.r.y.r.y.r.r.r.q.y.y.y.r.q.y.y.r.q.e.y.y.r.r.y.t.y.y.r.r.q.y.y.r.r.y.r.y.r.r.r.q.y.y.y.r.q.y.y.q.y.y.y.r.r.r.y.t.y.y.r.r.q.y.y.r.r.y.r.y.r.r.r.y.y.y.r.y.r.y.y.y.y.r.y.r.r.r.y.y.y.y.r.r.r.y.y.r.r.r.t.y.y.r.r.r.r.r.r.r.r.r.r.r.r.y.y.y.y.y.y.t.y.y.r.y.r.t.y.y.y.y.r.y.r.r.r.r.y.r.r.r.y.r.y.q.r.q.y.y.y.r.y.y.r.r.r.y.r.y.r.r.y.r.y.r.r.r.r.y.y.y.r.r.q.y.r.q.y.y.y.r.r.r.y.y.r.r.r.r.y.r.y.r.r.y.r.y.r.r.q.y.y.y.r.y.r.y.y.y.y.y.y.y.y.y.q.r.q.5.6.4.Y x x z x k l ",
"r.r.r.r.t.y.r.r.r.r.t.r.t.t.t.r.r.r.r.r.r.r.r.r.r.r.r.r.r.r.t.r.r.r.t.t.t.t.r.r.t.t.r.r.r.r.r.r.r.r.t.t.t.y.r.r.r.r.r.r.r.r.r.r.r.r.t.t.r.r.r.r.t.t.t.t.r.r.t.r.r.r.r.r.r.r.r.r.t.r.r.r.r.r.r.r.r.r.r.r.r.r.r.r.t.t.r.r.r.r.t.r.r.r.t.t.r.r.r.r.r.r.t.y.r.r.r.y.r.r.y.t.r.r.r.r.r.r.r.r.r.r.r.r.r.r.r.r.r.r.r.r.t.r.r.r.r.r.r.r.r.r.t.r.r.r.r.r.t.t.r.r.r.r.r.t.r.r.y.t.r.r.r.r.r.y.r.r.y.t.y.y.r.r.r.r.r.r.r.r.r.r.r.t.r.r.r.9.r.9.r.r.r.9.r.r.r.r.r.r.r.r.r.r.r.r.r.r.r.r.r.r.t.r.r.r.r.r.r.r.r.r.r.r.r.r.r.r.r.r.r.r.r.r.y.t.r.r.t.r.r.r.r.r.t.r.r.r.r.r.t.r.r.r.r.r.r.r.r.r.t.t.t.y.r.r.t.r.r.r.t.t.r.r.r.r.r.r.r.r.r.r.t.r.r.r.r.r.r.r.r.r.t.t.t.y.r.r.t.t.r.r.t.r.r.r.r.r.r.r.r.r.r.r.t.r.r.r.r.r.r.r.r.r.t.t.r.r.r.r.t.r.r.r.r.r.r.r.r.r.t.t.r.r.r.r.y.t.r.r.r.r.t.y.r.r.y.t.r.r.r.r.r.r.r.t.r.r.r.9.r.r.r.r.r.r.r.r.r.r.r.r.r.r.r.r.r.r.r.r.r.r.r.r.r.r.r.r.t.t.t.y.r.r.r.r.r.r.r.r.r.r.r.r.r.r.r.r.r.r.t.t.r.r.r.r.t.r.r.r.t.r.r.r.r.r.r.r.r.r.r.r.r.r.r.r.y.t.r.r.r.r.t.t.r.r.r.r.t.r.r.r.t.t.t.t.t.t.8.r.7.5.4.4.4.x x k z k ",
"r.t.y.r.r.r.r.t.r.t.t.t.t.t.r.t.9.t.t.t.t.t.9.9.t.t.t.t.9.t.r.t.r.t.t.t.t.t.t.t.t.t.t.t.9.t.t.t.t.t.t.t.t.t.9.t.t.t.t.t.9.t.t.t.t.t.t.t.t.t.t.t.t.t.t.t.9.t.t.t.9.t.t.t.t.t.t.r.t.t.t.t.9.t.t.t.t.t.t.t.t.t.9.r.t.t.t.t.9.r.9.t.t.t.r.t.r.t.r.t.r.r.y.r.r.r.r.t.r.y.t.r.t.r.9.t.t.t.t.t.9.t.t.t.9.t.t.t.t.t.9.r.t.t.t.t.9.t.t.t.9.t.t.t.t.t.9.r.t.t.t.t.t.t.t.t.9.t.r.t.t.t.r.t.r.t.r.r.r.r.t.t.r.r.t.t.r.t.9.9.9.9.9.9.9.9.9.9.9.9.9.r.t.t.9.t.t.t.t.t.9.t.t.t.t.t.t.t.t.t.9.r.t.t.t.t.9.t.t.t.9.t.t.t.t.t.9.9.t.t.t.t.9.t.t.t.t.t.t.t.t.t.t.r.t.t.t.t.t.t.r.t.t.t.t.t.t.t.9.t.t.t.t.t.t.t.t.t.t.t.t.t.t.t.9.t.t.t.t.t.t.t.t.t.t.t.t.t.t.t.9.t.t.t.t.t.t.t.t.t.9.t.t.t.t.t.9.t.t.t.t.t.t.t.t.t.t.t.t.t.t.t.9.r.t.t.t.t.9.t.r.t.9.t.t.t.t.t.9.r.t.t.t.t.r.t.r.t.r.t.t.r.r.r.r.t.t.y.t.r.t.r.t.r.t.t.t.t.t.9.9.9.t.t.t.t.9.r.t.t.9.t.t.t.t.t.9.t.t.t.t.t.9.t.t.t.t.t.t.t.t.t.9.t.t.t.t.t.9.t.t.t.9.t.t.t.t.t.t.r.t.t.t.t.t.t.t.t.9.t.t.t.t.t.9.t.t.t.t.t.9.t.t.t.t.t.t.t.t.t.t.t.t.t.t.t.9.t.r.t.9.t.t.t.t.r.t.t.8.8.8.7.4.4.x x x x z l ",
"r.t.t.r.r.t.t.t.t.t.t.t.t.r.t.9.9.t.t.9.t.9.t.t.t.t.9.t.t.9.t.9.9.9.t.t.t.t.t.9.t.t.t.t.t.t.t.t.9.t.t.t.t.t.t.t.t.t.t.t.t.t.t.t.9.t.t.t.t.t.t.t.t.t.t.t.t.t.t.t.t.t.t.t.t.t.t.9.t.t.t.t.t.t.t.t.9.t.t.t.t.t.t.9.t.t.t.t.t.t.t.t.9.t.t.t.t.t.t.t.t.y.t.r.y.t.r.r.t.t.t.r.t.t.t.t.t.t.t.t.9.9.t.t.9.t.t.9.t.t.t.9.t.t.t.t.t.t.t.t.t.t.t.t.t.t.t.9.t.t.t.t.t.t.t.t.t.t.t.t.r.t.t.r.r.r.r.r.r.r.y.t.r.t.t.r.t.t.9.9.9.9.9.9.9.9.9.9.9.9.9.9.9.9.t.9.t.t.t.t.9.t.t.9.9.t.t.t.t.t.9.9.9.t.t.9.9.t.9.t.9.t.9.t.t.9.t.t.t.t.t.t.t.9.t.t.t.t.t.t.t.t.t.9.t.t.t.t.t.9.t.t.9.t.t.t.t.t.t.t.t.t.t.t.t.t.t.t.t.9.t.t.t.t.t.t.t.t.t.t.t.t.t.t.9.t.t.t.t.t.t.t.t.t.t.t.t.t.t.t.t.t.t.t.t.t.t.t.t.t.t.t.t.t.t.t.9.t.t.t.t.t.t.9.t.t.t.t.t.t.9.t.t.t.t.t.t.t.t.9.t.t.t.t.9.t.t.t.t.t.r.r.r.r.r.t.y.t.r.r.t.t.t.t.t.t.9.9.9.9.9.9.t.9.t.9.9.t.9.t.9.t.9.t.t.t.t.t.t.t.t.t.t.t.t.t.9.t.t.t.t.t.t.t.t.t.t.t.t.t.t.t.t.t.t.t.t.t.t.9.t.t.t.t.t.t.t.t.t.t.t.t.t.t.t.t.t.t.t.t.t.t.t.t.9.t.t.t.t.t.t.9.t.t.t.t.t.t.9.t.t.t.t.t.t.t.t.t.9.9.8.7.4.4.v x x x l z "
};
