/* XPM */
static char *ditto[] = {
/* columns rows colors chars-per-pixel */
"56 56 4 1 ",
"  c white",
". c #BD63E6",
"X c #6B3A84",
"o c black",
/* pixels */
"                                                        ",
"                                                        ",
"                                                        ",
"                                                        ",
"                                                        ",
"                                                        ",
"                                                        ",
"                                                        ",
"                                                        ",
"                                                        ",
"                                                        ",
"                                                        ",
"                                                        ",
"                                                        ",
"                              oooo                      ",
"                             o  .Xo                     ",
"                  ooo       o   .XXo                    ",
"                 o ..oo   oo.  ..XXXo                   ",
"                o   XXXoooXX......XXXoo                 ",
"                o  ...XXXX........XXXXXoooo             ",
"               o...................XXX.....o            ",
"               o...........................Xo           ",
"              o............o...............Xo           ",
"              o...........................XXo           ",
"              o.....o...................XXXo            ",
"             o.............oooX.......XXXXXo            ",
"             o ........oooX...........XXXXo             ",
"            o  .....ooX..............XXXXo              ",
"           o  .......................XXXoo              ",
"          o   .......................XXoXo              ",
"          o ..........................XoXXo             ",
"          o...........................XXXXXo            ",
"           oX..........................XX..Xo           ",
"            oX........................X.X...o           ",
"            oX.........................X.X..Xo          ",
"           oX........................XX.X.X.Xo          ",
"           o.........................XXX.XXXXo          ",
"          o.........XXXX.............XXXXXXXXo          ",
"          o......XXXXXXXXX..........XXXXXXXoo           ",
"          oXX...XXXoooXXXXX.......XXXXXoooo             ",
"           oXXXXXoo   ooXXXX.....XXXXoo                 ",
"            ooooo       ooXXXXXXXXXXo                   ",
"                          oXXXXXXXXo                    ",
"                           ooXXXXoo                     ",
"                             oooo                       ",
"                                                        ",
"                                                        ",
"                                                        ",
"                                                        ",
"                                                        ",
"                                                        ",
"                                                        ",
"                                                        ",
"                                                        ",
"                                                        ",
"                                                        "
};
