/* XPM */
static char *mossy[] = {
/* columns rows colors chars-per-pixel */
"500 500 254 2 ",
"   c #1E1E1E",
".  c #393808",
"X  c #28281A",
"o  c #373616",
"O  c #2D2D0E",
"+  c #1E1E21",
"@  c #242424",
"#  c #25252A",
"$  c #2C2C2C",
"%  c #2A2A25",
"&  c #373729",
"*  c #2E2E32",
"=  c #272833",
"-  c #343434",
";  c #3B3B34",
":  c #363639",
">  c #3A3A3B",
",  c #37383A",
"<  c #2F3033",
"1  c #1F2021",
"2  c #403F1F",
"3  c #464506",
"4  c #595607",
"5  c #484718",
"6  c #595718",
"7  c #514E0B",
"8  c #615E06",
"9  c #615E18",
"0  c #6A6706",
"q  c #716E02",
"w  c #716E0B",
"e  c #757202",
"r  c #7D7B01",
"t  c #797608",
"y  c #6A6818",
"u  c #716E17",
"i  c #797717",
"p  c #484828",
"a  c #585728",
"s  c #474636",
"d  c #575739",
"f  c #504F2F",
"g  c #615F2E",
"h  c #696728",
"j  c #716E27",
"k  c #787728",
"l  c #696738",
"z  c #787638",
"x  c #706E37",
"c  c #5F601F",
"v  c #3D3D41",
"b  c #373840",
"n  c #434344",
"m  c #4B4B44",
"M  c #464649",
"N  c #4B4B4B",
"B  c #474849",
"V  c #53534C",
"C  c #585846",
"Z  c #4D4E51",
"A  c #4D4E5A",
"S  c #535353",
"D  c #565659",
"F  c #5B5B5C",
"G  c #5B5B54",
"H  c #504F4D",
"J  c #696848",
"K  c #787748",
"L  c #63635C",
"P  c #696957",
"I  c #777658",
"U  c #706F4E",
"Y  c #5D5E62",
"T  c #5B5C67",
"R  c #636364",
"E  c #6B6B64",
"W  c #65656A",
"Q  c #6B6B6C",
"!  c #676869",
"~  c #73736C",
"^  c #787866",
"/  c #6D6D72",
"(  c #6C6C76",
")  c #737374",
"_  c #7C7B74",
"`  c #75757A",
"'  c #7C7C7C",
"]  c #777878",
"[  c #706F6A",
"{  c #605F57",
"}  c #3F403F",
"|  c #817E03",
" . c #817E18",
".. c #817E30",
"X. c #807F50",
"o. c #807F6F",
"O. c #7F802D",
"+. c #848302",
"@. c #8C8B01",
"#. c #888709",
"$. c #918E04",
"%. c #949301",
"&. c #9A9601",
"*. c #9C9B01",
"=. c #99970B",
"-. c #888717",
";. c #989717",
":. c #918E16",
">. c #A29E01",
",. c #A29D0B",
"<. c #A29D17",
"1. c #A5A201",
"2. c #ABA501",
"3. c #AEA901",
"4. c #AAA50B",
"5. c #B3AC01",
"6. c #B3AC0B",
"7. c #BBB401",
"8. c #BAB405",
"9. c #A9A417",
"0. c #B3AC16",
"q. c #BBB417",
"w. c #888727",
"e. c #989628",
"r. c #888738",
"t. c #989637",
"y. c #928E2E",
"u. c #A29D26",
"i. c #A29E37",
"p. c #A9A528",
"a. c #B2AD27",
"s. c #BAB527",
"d. c #A9A537",
"f. c #B2AD38",
"g. c #BAB538",
"h. c #9FA02D",
"j. c #C3BC01",
"k. c #C4BC0A",
"l. c #C3BC17",
"z. c #C2BC28",
"x. c #C2BC37",
"c. c #CBC301",
"v. c #C9C108",
"b. c #D3CA01",
"n. c #D5CB05",
"m. c #DCD204",
"M. c #CAC318",
"N. c #D4CA17",
"B. c #DCD217",
"V. c #E3D803",
"C. c #E3DA18",
"Z. c #CBC328",
"A. c #D0C932",
"S. c #EBE324",
"D. c #888748",
"F. c #989648",
"G. c #888758",
"H. c #979658",
"J. c #918E51",
"K. c #A19E47",
"L. c #A19E58",
"P. c #A9A547",
"I. c #B2AD47",
"U. c #B9B547",
"Y. c #A9A657",
"T. c #B2AE57",
"R. c #B8B458",
"E. c #AFB04C",
"W. c #888768",
"Q. c #979668",
"!. c #848373",
"~. c #8B8B74",
"^. c #83837C",
"/. c #8C8B7C",
"(. c #888778",
"). c #979678",
"_. c #908F6E",
"`. c #A19E6F",
"'. c #A8A668",
"]. c #B8B567",
"[. c #A7A678",
"{. c #B7B577",
"}. c #B1AE6F",
"|. c #9FA062",
" X c #C2BD4C",
".X c #C1BE6E",
"XX c #CDC74F",
"oX c #CECA6F",
"OX c #E5DF59",
"+X c #7D7D82",
"@X c #7A7B86",
"#X c #7F8085",
"$X c #838384",
"%X c #8B8B84",
"&X c #85858A",
"*X c #8C8C8C",
"=X c #87888B",
"-X c #939384",
";X c #9B9B84",
":X c #93938C",
">X c #9B9B8C",
",X c #989787",
"<X c #8D8D92",
"1X c #8B8B96",
"2X c #939394",
"3X c #9B9B94",
"4X c #95959A",
"5X c #9B9B9C",
"6X c #97989A",
"7X c #908F8D",
"8X c #A09F8B",
"9X c #A7A688",
"0X c #B7B587",
"qX c #A3A394",
"wX c #A3A39C",
"eX c #ABAA98",
"rX c #B7B698",
"tX c #B0AF8D",
"yX c #9D9DA2",
"uX c #9999A4",
"iX c #A3A3A3",
"pX c #A5A5AA",
"aX c #ABABAC",
"sX c #AAAAA4",
"dX c #B6B6A8",
"fX c #ADADB2",
"gX c #A7A7B3",
"hX c #B3B3B4",
"jX c #B5B5BA",
"kX c #BBBBBC",
"lX c #BABAB5",
"zX c #B0B0AE",
"xX c #9FA0A4",
"cX c #C0BF9B",
"vX c #CDCB90",
"bX c #C8C7A7",
"nX c #C6C5B9",
"mX c #D6D5B2",
"MX c #E7E4A1",
"NX c #BDBDC2",
"BX c #C3C3C4",
"VX c #CBCBCB",
"CX c #C7C7C8",
"ZX c #D5D5C9",
"AX c #CCCCD2",
"SX c #D3D3D4",
"DX c #DBDBDC",
"FX c #D6D6D9",
"GX c #D0CFCE",
"HX c #E5E4D3",
"JX c #DCDCE2",
"KX c #E3E3E5",
"LX c #E0DFD6",
"PX c #BFC0C3",
/* pixels */
"$ # % $ % $ $ $ # $ $ $ # $ # $ % % $ $ # $ $ # % $ # $ # % $ # $ # % $ # $ $ # $ % $ # $ # % $ $ $ $ # % % % $ # $ $ # $ # $ % $ % $ % $ $ $ $ # % $ # % $ $ % $ $ $ % # # @ @ @ 1 @ @ 1 # 1 # # # = + # = # # = + # # # # = + # # = = = # = # = # = # # # = # = # # # 1 1 # + 1 1 @ 1 1 @ 1 @ 1 1 @ 1 1 1 1 1 @ 1 1 1 1 @ 1 1 1 1 1 1 1 1 1 1 1 @ 1 1 @ 1 1 1 @ @ @ @ # # # = # = # = # = # = # = # = = # = # # # # 1 @ + + @ @ @ % % # $ $ $ * & $ $ * $ $ $ $ # % # % @ @ @ @ @ @ @ @ @ @ @ @ @ 1 @ + 1 1 1 @ 1 1 1 1 @ 1 1 1 @ 1 1 @ 1 1 @ 1 1 @   1 1 1 1 1 @ 1 @ 1 @ 1 @ @ @ # # # = # # = + = = # # = # # = # = # # = # # # # # % # % % @ % % @ @ # # @ @ # # # @ # % # $ $ # $ # $ $ $ $ $ $ $ $ $ $ $ $ $ % $ $ $ $ % $ % $ $ $ % $ $ $ % $ $ % $ $ % $ # $ $ $ % $ # $ $ % % $ % $ $ $ % $ $ $ $ % $ $ % % $ # $ $ % $ $ % $ $ % % $ $ % $ = $ $ $ % % $ % $ $ % $ # $ % $ % % $ $ # % # % $ $ % % % $ $ % % $ # % $ % % % $ # $ $ $ # # $ % # $ % # % $ $ % $ % $ # % $ % $ % # $ $ # $ # % % # $ % $ $ $ % $ % # $ % $ $ # ",
"$ $ $ $ $ $ $ % $ % $ $ $ % $ % $ % $ $ % $ $ % $ $ $ $ $ $ $ $ $ % $ % $ % $ % % % $ $ $ % $ % # % $ % $ $ $ $ $ $ $ $ $ % $ $ % $ $ $ % $ $ $ $ $ % $ $ $ $ $ $ $ $ % % # @ % @ @ @ @ # # # # # = = = # = # = = = # = # = = = = $ = # # # # # # = # = # = # = # # # # # # 1 # @ @ @ @ @ @ @ @ @ @ @ @ @ @ @ @ @ @ @ @ @ @ @ @ @ @ @ @ @ @ @ @ @ @ @ @ @ @ @ @ @ @ # @ # # # # # # = # = # # $ = # = # $ # # # # # # @ # # @ @ @ @ # $ $ $ $ $ $ $ $ $ $ $ $ $ $ $ $ % # $ % $ @ $ $ @ @ $ % @ @ # @ @ @ @ @ @ @ @ @ @ @ @ % @ @ @ @ @ @ @ @ @ @ @ % @ @ @ @ @ @ @ @ @ @ @ @ # # @ # # # # # # # = = + # = # = = # # # = # # # # # $ # % $ $ $ # # # # % $ % % # % % % % % # % % % $ % % $ $ $ $ $ $ $ $ * $ $ $ $ $ $ $ % $ $ $ $ $ $ $ $ % $ $ $ $ $ $ $ $ $ $ $ % $ $ $ $ $ $ $ $ $ $ $ % $ $ $ $ $ $ $ $ $ $ $ $ $ $ $ $ $ $ $ $ $ $ $ $ $ $ % $ $ $ $ $ $ $ $ $ $ $ % $ $ $ $ $ % $ % $ % $ $ $ $ $ $ $ % % $ $ % $ $ # $ $ $ $ $ $ $ % $ $ $ $ $ $ % $ $ # $ $ % # $ $ $ $ $ $ $ $ $ % $ % $ $ $ $ $ $ # $ # % $ $ $ # $ $ $ % $ ",
"$ $ $ $ $ $ $ $ $ $ $ $ $ $ $ $ $ $ $ $ $ % $ % $ % $ $ % $ $ $ $ % $ $ % % $ $ $ $ $ % $ % $ $ % % $ $ $ $ $ $ $ % $ % $ % $ $ $ $ $ $ $ $ $ $ $ $ $ $ $ $ $ $ $ $ $ $ $ $ $ $ % $ % % # % $ $ $ $ = # $ $ $ $ = = # $ $ $ # = $ $ * & = $ $ $ $ $ # = $ $ $ = = $ $ % $ $ = $ % $ % % % % $ % % $ % $ % $ % % $ % $ $ % $ % % % $ $ $ $ % $ % $ % % $ # % $ % $ % $ % # $ = # $ $ $ $ # $ $ $ $ % # # $ $ $ $ = $ $ $ % $ $ $ $ $ $ $ $ $ $ $ $ $ $ $ $ $ $ $ $ $ $ $ $ $ $ $ $ $ $ $ $ $ $ $ $ $ $ $ $ % $ # $ % $ @ $ $ $ $ $ % $ % % $ % $ $ $ % $ $ $ $ $ % $ % % $ $ $ $ $ # $ $ = $ # $ $ # = = % $ $ $ # = # # $ % = # $ $ $ $ $ $ $ $ $ $ $ $ $ $ # $ $ $ $ $ $ $ $ $ $ $ $ % $ $ $ $ $ $ $ $ $ $ $ $ $ $ $ $ $ $ $ $ $ $ $ $ $ $ $ $ $ $ $ $ $ $ $ $ $ $ $ $ $ $ $ $ $ $ $ $ $ $ $ $ $ $ $ $ % $ $ $ $ $ $ $ $ $ $ $ $ $ $ $ $ $ $ $ $ $ $ $ $ $ $ $ $ $ $ $ $ $ $ $ $ $ $ $ $ $ $ % $ $ $ $ $ $ $ $ $ $ $ $ $ $ * % $ $ $ $ $ % $ % $ $ $ $ $ $ $ $ % % * $ $ % $ $ $ $ $ $ $ % $ $ $ $ $ $ $ $ $ $ $ $ $ $ $ $ $ $ $ $ $ $ ",
"$ $ $ $ $ * $ $ $ $ $ $ $ $ $ $ * $ $ $ $ * * * * * * % & $ $ * * * * $ * * * * $ * * $ * * * $ * * * * $ * $ $ % * * * * * $ $ $ * $ $ $ $ $ $ * $ $ $ $ $ $ $ $ $ $ * $ $ * * - < < - < - $ & < $ * $ $ & $ & = $ & $ < $ $ $ & $ & & $ $ & $ $ * $ $ $ & $ & = $ * * $ & < - < - < - - < - < < - < - - - < - - < - < < - - - < - < - - - - < < - - - - - < < * - * - < & $ * $ & * $ $ $ $ * * * $ * $ $ & $ $ * $ - * - - * $ - * $ $ $ $ $ $ $ $ $ $ $ $ $ $ $ $ * * & * $ $ - $ * - $ - $ * * & - - * - < - - - - - * < & < - < < - - < < < & * < & * * < - < - < < & * * & < * & = $ < & $ & * = $ & < & = $ * & & $ * = & $ < $ $ < $ $ $ $ - $ $ - $ * $ < $ < $ - $ $ $ < $ $ $ $ $ $ * $ * $ $ $ * $ $ $ < $ < $ $ $ & $ $ $ $ $ $ < $ $ $ $ $ $ * $ $ $ * $ $ * $ $ < $ $ $ $ $ $ < * $ $ $ - $ $ $ $ $ $ * * $ $ $ $ $ $ $ $ * $ $ $ * $ $ $ $ $ $ $ $ * $ $ $ $ * $ < $ $ * $ * * * $ * $ $ $ < $ = * $ * $ $ * * $ * $ $ % * * * * % * $ * $ & $ * * $ * * * $ $ $ * $ $ $ * * $ $ $ * $ $ & $ $ $ $ * $ $ $ * $ $ $ $ $ ",
"- $ * - * - - * * * - < - - $ - * & * * * < * * * * * * & * * * * & * * * * * & * < & * < * & * < < * * < < * < & < < * < < < & * & * * * < * * < * * * & $ $ - * * < - ; - , > > } > } s ; ; & & 2 2 & 2 & 2 & & p ; 2 & p & 2 2 ; 2 2 2 2 ; 2 2 & & 2 & 2 & 2 ; 2 ; & ; ; > > v v v v v } v v v } v v v v } v v } v v v } } v } } } } } } } } } } } } } } } } } } ; ; ; ; & & & & & 2 & & & - 2 & & & 2 & & & & & ; ; ; ; } > > : - - - $ $ $ $ $ $ $ $ $ $ & & * - - - - : - - : - ; : > , b > > b b > v b v v > b : > > n > v } } } } } v v } } > } } } v } v v v b } } > > } ; p & & p & 2 2 & 2 & p & 2 & 2 & ; 2 & & 2 ; & - - & - - - - ; - - : : - , ; : : : ; ; - - - - - - < < $ $ $ $ $ $ $ $ $ $ $ $ $ $ $ < $ $ - $ < $ $ $ < < & * * * * < $ * * < < $ * - $ < & < < $ $ & $ $ < $ < * < $ < $ $ - % < $ * < $ < $ $ - * $ * * * * $ $ $ < $ $ * $ * < $ < $ < $ * $ - $ $ - < < * < < $ < & < $ $ - $ < < < $ - * < & < & < < * < < * < < & < < & < < * < * < < < < & * < < < < < < * < < & * * & < < * - < * < - * * * ",
"- - - - - - - - - - - - - - - - - - - - - - & - - - - - - - - - - - - - , - - - - - - - - - < - - - - - - & - - < - - - - - - < - * - - - - & - - - - < - - * - & < - - > } n B m N H m m m f f f p p 5 p p p 5 5 p p p p 5 p p p f p p p p p p p p p 2 p p p 2 p p p f f m m V H Z H H H Z Z Z Z H Z Z H H Z Z H Z H A Z Z Z H Z Z Z N Z H N H H H Z Z Z H H H m m m d p p p p p 2 2 p 5 p p 2 2 p 2 2 p p p p p f s s m V H H M n n > - - $ $ $ $ $ $ $ $ * * < - - ; , > > n n v n n n n n v M m M M N H M M S Z Z M Z H H S Z Z Z Z Z Z S Z Z H A Z Z H Z Z Z Z S Z H H H m s s s f p p p p p p p p p p p p p 6 p p p p p p s s ; ; > > > > > v } } } } } } } } } } } > } > > > : - - - - < $ $ $ $ $ $ $ $ & < - < < - $ - < < - - < & < - - - * < - < < < < < < < < < < * < < < - < < < < < - < * $ - - - - < - - - $ & < < - & * < & < - - - - - - - - - < & - - - - & - - - - - - - - - - - - - - - - < ; - - - - - - - - - < - < - - - - - - - - < - < < - - - - & - - - - < - - - & < - & - - - < - - - - - - & - - - - - ; - ",
"> > > , - , , , ; , , , > > , ; , , , > ; > > , ; , , ; , > , ; , , , ; , , , , , , ; , ; , , , ; , , ; > ; , > ; , ; : , , ; , > > > , ; , > > ; > - > - - - - - - , } n N H D F Y { P J C l d c c c c 9 c c c y 6 c 6 a c c c 9 9 9 g 9 9 9 9 9 6 a 5 9 6 6 2 9 g p d C V X.D T W R W R R R R R R R R R T W R R W T W R R R W T R R W R R ! R R ! R R R R R R L { G d d a c a 7 6 7 5 6 6 6 6 6 p 6 5 6 5 6 p g d m C G D { F D Z N n > - $ $ # $ # $ $ $ & - - > > } n B B H N H H Z S Z M A S A A A Y T T o.o.D T o.o.T o.D T W R R R W W T R W W W R W W W W W W W R L L { G J l g h 9 6 c 9 c c 9 9 9 c c 9 c a 9 9 a a f f s s s n n v M M M N N N B N N N N N N B M M n } } } > ; - - $ < $ $ % # $ $ $ < < - - ; - ; - - - - < - - - - - < < - - - - - - - - - - - < - < - : < - : : : - - - - - < - < - - < - - - < - - - - - - - - - - - - - - - - - - - - - - - - , - , , , ; , , - , ; - , , , , ; , , , , ; , ; , > , , > ; , , ; ; , , ; ; : > > > ; : > ; > ; > , , - > ; > , > > - > : ; : , , , , , > > , ; ; > ; , , ",
"> > > s > s v > > > s > > v > > } } > > } } > } } } > } } > } > } } } ; } } > } } > } } > } } } } } > } } > } > } } } } > } > } } > } > } } > } } } } > > > , > , } } n N D Y ! ~ ) ^ ^ I K z k j u u w t u w u u u u u i i u u j u u u u u u u  . . . . . . . . . .....X.X.X.o.o.o.@Xo.+X+X@Xo.o.@Xo.@X+Xo.@X@Xo.@Xo.@X@X@X@X' #X` #X` ' ' ' ' ] ] ] ' ' #X] ] ^ ^ I U x j c y 6  .9  .9 9 y y  .6  .6  .6  .a g ..X.X.X.o.o.o.T o.D Z } - $ % % @ % # $ * - - > v n B H S S D F F F D Z o.o.T o.o.o.o.o.o.o.@X` o.@X( o.` @Xo.o.@X@X@Xo.@Xo.@X@Xo.@Xo.o.@Xo.@Xo.+X@X@Xo.) o.o.I K x j k u i u i w u u  .u u u u  .y  .u u h h g d C m N Z Z Z S A S D G G D F G D D D G S S H N B } } } ; : - & $ $ $ % $ $ $ < - - , , , ; , , ; ; , , ; , , : : ; , , , : : : : : b : : , , b : : : : : , , , - : b > , , , - - , ; - - , ; , - ; - , - ; - - - ; - - ; - - - ; , , > > > } } ; } } } } } } } } } } } } } } } } > } } } } } > } } > } } } } } } > } } } } > > } } > } } > } } } } > } } } } } } } } } } } } } > > } } > } } > } > } ",
"n n n n n n n n n n n n n s n n n n n n n n n n n n n n n n n n n n n n n n n n n n n n n n n n n } n n n } n n } } } } n } n n n n n n n n n n n n n } } } } > > } n N S R ( #X#X#X-X).Q.G.F.r.:. . .|  .| |  .-.-. .-.#. . .:. . . . .$. . . .$. . . . . .$. . . ...X.X.X.`.-X:X2X2X4XuXuX1X4X2X2X2X2X4X4X4X4X4X1X2X4X4X2X4X4X#XyX#X#XxX#X#X5X5X#XyX#XxX#X3X#X#X~._.D.r.O.k i t t t i |  . . .u  .w  .|  . . .....X.X.o.o.8X7X+Xo.T A M : * % @ @ % # $ * - > > n H S A T T T T o.T o.o.o.o.@Xo.$X&X%X7X<X2X:X4X4X2X2X2X2X2X2X2X4X2X4X4X4X4X2X2X4X4X2X4X2X4X4X4XuX4X4X2X2X-X_._.J.D.y.w.-.:.-.#.|  . . .-.#.-. . . . . . . ...x l C G G D D T Y Y R Y R R R E ! ! ! R W Y F F S V N n n } > - < * % % % $ $ $ - & : > ; } > } } } > > > > b b b } } b } v } } b b b } b b b b b b v b b b } b b b b b } b > b > > > > > > ; > > > > > > > > > > > > > , , ; } > > > } } } } } } } n n } n n n n n n n n n n n } n n n n n n n n n n n n n n n n n n n n n n n n n n } n n n } n n n n } n n } n n n n n n n n n n n n n n n n n n n n ",
"B B B N B N n N N N B B B B B N B B B B m B B B B B B B B B B B B B B m N B B B B B B m B B B B N B N N N B N N N N N B N N N N B N B B B B B N m B B B n n } } n n N S Y ( #X#X5XwXeX9X[.Y.K.h.u.,.,.&.>.>.,.,.,.,.,.=.,.,.,.,.,.,.,.,.,.,.,.,.,.,.,.,.>.&.,.,. .<.p.g.Y.`.tXtXsXsXaXfXgXgXgXfXaXaXaXaXaXaXpXaXfXgXfXgXgXgXgXgXfXaXjXhXhXjXaXsXzXaXhXfXhXzXzXsXeX9X`.|.F.t.:.-.#.@.+.@.|  .| | $.$.| | | |  . .....L.`.0XtXqXwX2X&Xo.T N , * # @ @ @ # $ - - > n B Z F A o.o.o.o.( @X` o.$X@X@X1X2X6XyXiXsXaXaXaXaXaXzXzXaXaXzXfXfXaXaXgXpXgXsXaXaXaXfXaXaXaXaXgXgXgXgXaXsXwX9X'.L.K.u.<.;.*.=.,.,.>.,.,.,.,.,.,.2.,.=.4.<. ...O.K J P { Y R T W Q / / ) ) ] ] ) ) ) ~ / Q ! L F D S H M } > : - % $ # # % $ < - > } } } n } } } } } } } } } } } v v } v } } n } v v v } } } v } v v } } } v v } v } b v v } } } } } } } } } } } } } } } } } } } } } } } } } } } } } } } } n B m M B B m N B N B m N B m B N B m N m B B B N B N N B B m B B B N B N B B B N N N M N N N N N B N B B B N N N N N B B N B B B B m B N B B B B N B B N B ",
"N N N N N N N N N N N N N N N N N H H N N H N H N N H H N N H H H Z N N N Z H Z Z N N H Z H N H N N N N N N N N N N N N H N N N Z Z H N H Z Z Z Z N N N B n n n n N N F Q #X#XyXaXhXdXcXvX].E.g.z.0.4.4.j.2.5.5.6.6.6.6.4.4.2.6.6.5.5.6.6.6.5.6.6.6.5.5.5.5.5.5.6.0.s.U.].{.0XcXlXPXPXPXPXPXNXNXPXkXnXPXPXkXnXPXPXPXPXNXPXBXNXPXkXkXkXnXBXBXkXBXBXBXPXPXBXPXPXlXlXrX0X'.E.h.<.;.&.,.>.&.&.&.,.&.,.&.&.&.,.&.,.<.a.f.T..X0XcXdXzXxX1X@XT Z v * % @ 1 @ % $ - > > n H G o.o.T o.+X$X&X&X&X7X2X2X6XyXpXaXzXjXkXNXPXNXNXPXNXPXnXPXNXnXkXkXkXPXkXkXBXNXBXnXkXBXkXkXBXPXBXBXPXkXlXcX0X.X.XI.a.0.6.6.3.5.5.2.6.5.6.5.6.5.5.5.6.6.9.9...r.r.K P E ! ! / ( ` ` ' ' ' ^.^.^.' ^.' ] ) / Q W F S S N n } : * $ $ # # % $ < - ; } } n n n n } B n n n n n n n n } } n n B n } } } M } n n } n } n n } n n n n n n n } n } } n n n } n n n n } n B } } } B } } n } n } n } } n n n n B B B N N N Z N N Z N Z N H N H N Z N H N N H H N N N H H N H H N Z H H N N H H N H H N N N N N N N Z N N N H N N H N N N N N H H N N S H N N N N N N H N N N N ",
"S S S V S S S S S S S S S S S S S S Z S S H S Z S V Z S S V Z S Z V Z V S V Z S Z S V H V Z S S S S S H S S H S S S S S S N S S H S H V H V V H H V H Z N B n n n N S Y ` #XyXgXjXBXmXbXvXvXXX Xz.l.k.j.j.j.j.j.7.j.7.j.j.j.j.j.k.7.7.7.7.j.7.k.j.7.7.j.7.j.7.7.k.l.z. X XvXvXnXmXVXAXAXAXAXAXAXGXGXVXGXVXVXZXZXVXGXVXmXZXnXZXVXZXVXZXZXGXGXGXGXGXAXAXAXFXSXGXVXmXbX0X.XR.E.a.9.4.2.2.>.2.2.2.,.2.2.2.2.2.2.2.0.s.U.R.0XvXbXnXkXgXuX@Xo.D v $ # @ 1 1 % $ - ; } N A D D o.' #X%X7X1X2X4X5X5XiXsXaXjXkXnXBXCXGXGXGXGXGXGXGXVXVXVXVXVXGXZXVXZXZXVXVXVXVXVXVXGXVXGXAXAXGXAXZXmXbXvX.X X Xz.l.k.7.j.j.j.j.7.j.j.7.j.j.j.j.j.7.6.0.0.t.r.X.I I [ / ) ` ` ' ^.^.#X#X,X&X=X#X#X^.' ) ~ ! R F S H n } ; - $ % @ # % % < : , } n B M B B m B B B B n m m n B m m m B m m B m m m m m N B m m m B m m n m m N m m m m m m B B m B B B B B m B B m M N B B B N B N B B B B m B B N N N Z Z H S S S Z S S S Z S Z S H S Z H H S S Z S S H S Z S Z Z V Z S Z H S H Z S H Z S S S S S H S S N S S S V N S S S S S H S H S N S S S S H S S S H S S S H ",
"S S S S S S S S S S S S S S S S V S S S S S S S S V S S S S S S S S S S S S S S S S S S S S S S S S S S S S S S S S S S S S S S S S S S S S S S S S S H N m N m N N G Y ] #XyXhXPXVXmXmXMXvXoXOXx.z.N.k.j.k.j.k.j.j.b.j.j.j.j.j.j.c.j.c.j.j.c.j.j.j.j.c.j.j.c.j.k.M.Z.XXXXvXvXmXVXGXFXFXFXFXFXFXSXSXSXZXZXZXZXZXmXZXmXmXmXZXmXZXHXZXZXZXZXZXSXFXDXDXFXDXJXFXFXSXZXbXcXoX]. Xs.s.0.6.4.5.5.5.2.5.5.5.5.5.5.5.5.6.s.x. XvXvXmXnXNXfX5X&XT S } * # 1 1 @ @ $ - > n N S Y o.o.( &X<X2X6X5XyXiXsXaXhXlXkXPXCXVXAXSXSXFXSXSXSXGXGXGXGXVXZXZXZXZXZXmXmXZXGXZXGXGXGXGXZXSXZXZXZXZXmXmXvXoXoXXXZ.k.v.j.j.j.j.j.j.j.j.j.c.j.j.j.j.k.6.0.u.e.D.D.I I E / ) ] ] ^.^.#X#X#X#X=X%X=X^.#X' ` / ! L F S N n } > - $ % # # # % * - > } n B B m N m B Z N N N m m V m C m C d d d d V C m d m C d d m d C m d d C m C m d C V m V H H H Z N Z H Z Z N N Z H N Z N N Z N N N Z N N N N N N Z S S S S S S S D S S S S S Z S S S S S S S S Z S H S S Z V S Z S V S Z V S Z S Z S S Z S S S Z S S S S S S H S S Z S S S S H S S S S S S S S S S S S H S S H S ",
"S S S S S D G S S G S D S S S S D S S D D S D S S D S S V D S D V D S V S D S V D S S S V D S V S S S S S S G S S S S S S S D S S G S D S G D S D D S S Z N B B N N D R #X#XiXjXCXZXZXHXMXMXoXOXXXA.A.B.N.N.n.v.n.b.j.j.j.j.j.b.c.c.c.c.c.c.c.c.j.c.c.c.c.c.c.c.c.M.Z.XXoXoXvXmXZXGXAXFXFXAXAXFXSXSXZXZXZXmXmXmXMXmXmXmXmXMXmXmXmXmXmXHXLXLXLXLXDXDXJXJXJXDXDXSXZXmXvXvXoXR.U.g.a.q.l.6.k.k.j.6.7.7.7.7.7.7.j.q.s. XXXoXvXbXnXkXfXuX#Xo.S > * % @ 1 1 % $ - > n H D A o.` @X%X2X6X5XyXiXaXaXzXhXkXnXCXVXGXSXSXFXFXSXSXGXGXGXGXZXZXmXmXmXmXmXmXmXmXmXmXVXVXVXVXVXVXZXZXmXmXMXMXoXOXXXA.Z.M.j.j.j.j.j.j.j.j.j.j.c.j.j.j.j.j.k.0.9.h.y.r.X.I I ^ ~ / _ ' ' ^.#X#X#X#X#X#X^.' ] ) ~ ! Y F S H n ; : * % # @ @ % % - - > } n n B N H Z Z H S S V C V d d d d d d d d d d d d d d d d d d d C d d d d g d d d d d C C C V S S S S S S S S S S S S S S S S S S S S S S S S S A S S D D S F D D S D S S S S S Z Z S Z S S H S S S S S Z S S S S S Z S Z S S A S S Z Z S Z Z S Z S Z H S S H S S H S N S H S N S N S S N S N S S H S S S S H S Z ",
"S D S S S S S S S S S S S S S S D S S D V S D V S D D V D V S D S D S D S D V D V D V D S D S D S D S S S D D S S S G S S S D D D D S S D D D G S G S S H N B B N H D R +X2XpXjXCXSXLXmXmXMXMXoXOXXXXXA.A.z.l.N.k.k.b.j.j.b.b.j.c.j.c.c.c.c.c.c.c.c.c.j.c.c.c.j.v.M.Z.x.XXoXbXbXnXVXAXAXAXAXAXAXGXGXZXmXmXmXMXMXMXMXMXMXMXMXMXMXMXmXmXmXmXHXLXLXDXJXJXJXJXJXDXSXZXmXbXvXoX.X.X Xx.x.z.0.l.k.j.j.j.j.j.j.j.j.k.k.z.x.XXoXvXbXbXlXgX4X` o.S v $ @ @ 1 @ % $ - > } N D o.T ` &X*X2X6XyXiXsXaXzXhXkXPXBXCXVXGXSXGXSXGXAXAXAXCXCXCXnXmXmXmXMXMXMXMXMXbXmXnXnXnXBXnXnXnXmXmXvXMXvXvXoXXXXXA.M.v.v.j.j.j.j.j.j.j.j.j.j.j.j.j.j.j.k.6.9.e.e.r.K K I U I ^ ~ ~ _ ] _ ' ' ' ' ' ' _ ) / E R F D V B n } : < % @ @ @ @ % $ - > v n M M N Z S A D D G G C J d l l h c l l c h c l h h g l c l c l c l c l c h g l l l C l G G G D F F D D F D F D D G F F D F G F G D D D D D D D D D D D D F D D D D D A S Z A Z Z Z Z S Z N S S S Z S H S Z V Z Z S A Z Z Z A Z Z A Z A A Z Z Z Z Z Z Z S N S N S H S S S N S S N S S H S N H S N N S N S S S H H ",
"S S S S S S S S S S D S S S S S S S V S S S S S S S S S S S S S S S S S S S S S S S S S S S S S S S S S S S S S S S S S D S S G D S F G D G D D S D S S Z N m B B N D ! ' #XpXjXCXZXLXHXmXMXMXvXoXOXXXXXA.A.N.l.n.j.j.j.j.j.j.j.c.j.j.j.j.j.j.j.j.j.c.j.j.c.j.j.v.M.Z.x.XX.XcXcXnXnXBXCXAXAXAXPXVXCXnXmXbXMXvXoXvXoXoXOXoXoXOXoXOXvXMXMXmXmXZXLXDXDXJXJXDXDXFXSXZXnXmXbXcX.X.X X X Xx.z.z.l.k.j.j.j.j.c.j.j.j.k.Z.x. X.XvXcXdXaXuX1X( R Z > $ % 1 1 1 @ $ - > n H S D o.` &X*X2X5XwXsXaXzXhXjXkXPXPXCXCXVXVXGXVXAXCXBXPXnXkXnXbXbXvXvXvXoXoXvXoXvXvXcXdXdXlXlXdXbXcXvXvXoXOXOXOXXXA.Z.M.8.8.7.7.7.7.5.j.7.j.j.j.j.j.j.j.5.5.4.9.;.:.O.O.z z U I P I [ ~ / ) ` ` ] ] ] ) / [ ! ! F D V N n } > - < % % @ # # % $ < : > } n M Z Z S D D G G { J J l l l k h k h k k h k h k k j j k k k j k k k k k k k k x x J J P L L L R Y R R R L Y R R L L Y Y Y Y R Y Y Y F F T D T F T T D F T D T D D A A A Z Z Z Z Z N H Z N N H H H H N Z H H Z Z N Z Z Z A B Z A B Z M Z Z Z Z N Z N Z N Z N H N N N N N N S N N H N N Z N N S N N N N N H N N ",
"S S S S S S S S S S S S S S S S S S S S S S S S S S S S S S S S S S S H V S S S S S S S S S S S S S S S S S S V S S S S S S D D G S D S D D S D D S S H H N B B m Z D R ^.#XiXhXCXSXLXHXHXmXmXmXvXvXoXoXXXXXz.l.l.j.j.j.7.j.7.j.j.7.j.j.7.j.j.j.7.7.j.j.j.j.j.j.j.l.z.x.R.].0XrXlXjXNXNXNXNXNXPXnXnXbXbXvXvXoXOXoXOXOXXXOXOXXXOXOXoXoXMXmXmXZXZXFXDXDXFXJXAXFXGXVXnXbXbXcXvXvX.X.XR. Xx.z.l.v.v.c.c.c.j.c.j.c.k.M.x. X.X{.0XrXiX4X&Xo.T M b $ # 1 @ @ @ $ - > n N S T o.o.$X*X2X6XiXsXaXzXjXkXkXkXPXBXCXBXCXCXBXPXNXkXjXjXdXdXrX0XvX.XoXoXOXXXoXoX0X0XtXeXiXeXeXrX0X.XoXXXOXXXA.A.Z.l.l.8.5.8.5.5.5.5.5.5.5.8.8.8.8.8.3.3.3.4.=.;.-.-.O.k l x J J P P E E Q Q ( / Q Q Q ! R L F G V N B n > ; - $ % # @ @ @ % $ < : > } n M N S D D Y Y L P J z l O.k k i i O.i i i O.i i i O.i  .i  .i  . . . .i i O.O.k O.K J P P E ! ! ! ! ! ! ! ! R ! ! ! R E R ! R R R R R R T Y Y T Y Y Y T T T F D D S A Z B Z M N N N N Z N N N H N N H N N Z N Z N N B Z Z M A B Z M A M Z Z N N N N N N N N N N N N N N N N N N N N N N N N N N N N N N N N N ",
"S S S S S S S S S S S S S S S V S S S S S S S S V V S S S S S V S S S S S S S S S S S S S S S S S S S S S S S S S S S S S D S G D D D G S G G D S G S S Z N B m B Z G R ' #XxXhXBXZXSXLXHXHXmXmXmXvXvX.XXX Xx.z.l.k.7.7.7.7.7.7.7.7.7.7.7.7.7.7.5.5.7.7.7.7.7.7.8.q.q.g.E.].{.tXsXgXgXgXjXjXjXjXhXdXcXcX.XoXXXXXA.A.A.A.A.A.A.A.XXXXoXoXvXmXmXZXZXFXFXAXAXAXAXCXVXBXnXnXlXcXcX0XvX.X X Xx.Z.l.v.c.c.c.c.c.c.k.k.l.x.U.].}.tX8X3X=X' Q D v : $ @ @ 1 @ % $ - ; n N A T T o.$X*X2X5XyXpXzXhXlXlXkXnXNXPXnXnXNXNXkXjXjXhXgXpXiXwXtXtX.X X XXXXXXX X X].}.9X8X3X3X9X}.].].XXXXA.A.Z.l.l.q.6.3.3.2.3.3.2.2.3.3.3.3.3.3.3.3.3.3.1.*.=.=.#.t i y k j l J J P L L R R R R W R R R F F D Z N B n } ; - $ % # # @ @ @ % $ $ - : } } M Z A D Y T E P P I z O.O.-.-.-.w.@.-.-.-.#.-.-.-.#.-.-.-.-.-.-.#.-.-.-.-.-.-.O.O.K K I ^ ~ Q / ( / Q ) Q ~ Q Q ~ ~ Q / / / Q Q Q Q ! W W W R W T W R Y Y F F D A S Z N Z Z B N B N N N N N N N N N N Z M N N N M N Z B N M M N N Z M Z B M B B B N N N N B N N N B N N N N N B N B N B N m N N B B N N N m N ",
"G S S S S S S D G S G S S S S S S S S S S S S S S D S D S D S S S S S G S D S D V S S G G V S S S S G S S S S S S S S S S S S S S S S S S S S S S S S H H N B n B Z D R ] #XyXhXBXGXSXLXHXLXFXGXmXmXbXvX.X X Xz.q.6.7.7.5.7.5.7.7.7.7.7.7.7.5.5.5.5.5.5.5.7.7.5.5.0.a.f.E.'.[.9XqXiXgXgXgXgXfXzXzXdX0X.X.X Xx.A.Z.Z.N.N.N.B.l.A.Z.XXXXoXoXmXmXZXSXAXAXAXAXCXCXCXnXBXnXkXnXlXlXcX0X.X.XXXx.Z.l.v.j.c.c.c.c.c.c.k.z.s.U.T.}.[.,X7X#X( T A n - $ @ @ 1 % # * - > n N D A o.( &X%X2X5XwXsXfXhXlXkXkXNXNXNXNXkXkXjXhXfXgXpXxX5X5X8X9X}.T.I.x.z.x.z.x.U.T.|.).)./.).).|.Y.E.x.Z.Z.M.l.k.8.6.3.4.1.1.1.1.>.1.1.1.1.1.1.1.1.1.1.1.*.%.%.#.+.i i i y h h l C J { F L F Y Y Y F F F G S S N B n } , - - $ % # @ @ @ @ # # $ - - > } M N S D T R E I I K r.O.w.-.@.%.%.%.*.%.%.%.-.%.=.=.#.=.#.#.=.$.=.%.$.%.=.-.-.w.O.r.D.I ^ _ ) ] ` ` ) ` ) ) ] ) ] ` ) ) ) _ ] ) / / / [ Q ! E ! ! R R L Y Y Y F D H H N N B N B B B B B B N N N N N B N m m N N N N N m N N N m N B B M N H N N N N N B N N N N m B N N N N N B N B N N N N N N N N N B N N N ",
"S G D D D G S G D D S D D G D D D G D G D G D D D G D G D D G D D D D D G D D S F D D D D D D D F D S G F S F D F S F S D S S S H S S S S S S S S S S S Z m B B m N G ! ^.#XyXzXBXGXDXDXDXDXJXFXLXmXbXvXvX.X Xz.q.6.5.5.5.5.5.7.5.5.5.5.5.5.7.5.5.5.5.5.5.5.5.5.3.6.9.d.P.Y.`.;X3XwXuXuXgXgXsXsXeXtX{.}. X Xx.M.l.n.n.j.j.k.k.n.M.Z.XXoXoXvXmXmXGXAXAXAXCXCXCXBXBXPXPXPXkXnXnXlXcXvX.X X XZ.l.v.c.j.c.c.c.c.c.k.l.s.f.T.'.)./.$Xo.( T A v - $ @ @ 1 @ # $ - > n N S T o.o.@X7X2X5XiXaXzXjXkXNXPXnXnXkXkXlXjXhXzXaXpXxX5X6X>X9Xo.L.Y.I.x.z.l.z.z.f.i.L.Q._._._.Q.|.E.d.g.l.l.l.k.8.8.3.1.1.1.*.*.*.*.*.*.*.*.*.*.1.*.1.*.*.*.%.@.@.+.r t w y h c g l C C G D F F F D D G D Z Z N B n } > , - - $ % @ @ @ @ @ @ $ $ - - ; } n Z S F L L I I I D.O.e.-.;.%.*.*.*.*.*.*.*.*.=.%.*.*.%.*.*.=.%.%.*.%.*.%.%.;.;.O.D.D.G.^ _ ] ' @X] @X] ' ' +X' +X+X' ^.' ' )._ ] _ ~ ~ ~ ^ [ [ E E E E L P { { G G H C V N N V m m m B N N B B B N N N N N N N m m m m H m N m m C C m H m m H N H N N N N N N N N N N N N N N H N N N N N N N N N N N N N N ",
"F D F D F D F F F F F F F F F F F F F Y Y F F F F F F F F F F F F F F F F F F F F F F F F F F F F F F F F F F F F F F F G S S S H Z Z Z H Z H S S S S Z Z N B m B Z G R ] #XiXhXBXGXDXDXJXJXJXFXGXZXmXvX.X.X Xx.0.6.5.5.5.5.5.5.5.5.7.5.5.5.5.5.5.5.5.5.5.2.2.2.4.9.9.i.K.|.|.;X>X3X5XyXyXwXwX9XtX{.}.R. Xx.z.M.k.b.j.j.j.n.j.j.v.z.x.XXoXvXbXnXVXVXAXAXCXPXPXPXPXPXPXPXPXPXPXNXlXcX.X]. Xz.l.k.7.c.j.c.c.c.j.k.l.s.f.P.`.`.o.o.o.o.D B v - # @ @ 1 @ % $ - > n N D o.Y o.&X1X4XiXsXaXhXkXkXBXnXNXPXkXlXkXhXzXaXpXxX5X4X2X:Xo.o.Q.K.I.a.a.l.l.a.p.i.K.J._.W.G.H.F.P.d.a.q.q.q.8.6.4.1.1.*.=.%.&.%.%.*.%.*.*.*.*.*.*.%.%.%.%.@.@.+.r t t w y c h g d J G G D F D D D D D S H N B n } } > ; < * $ $ # @ @ @ @ # % $ * - > } n H G G L P I I D.r.w.e.;.*.*.1.1.1.1.1.1.1.1.1.1.1.1.*.1.*.*.*.*.%.*.*.%.%.=.;.e.r.G.W.o._ ^.#X#X#X#X#X#X#X#X#X#X#X#X#X#X#X#X^.^.!.o.o.o.X.X.X.o.I I I I U P J L J J C C C C m m m V H N N N N N N N N N H m C C C C C d d C d d d C C d C C C V V H S S S Z S S Z S S S Z S V S V S S H S S H H S S N S Z S ",
"R L R R R R L R R Y R Y Y R Y R R R Y R R R R Y R Y L Y R Y L Y L R R L L R R Y L Y R R R R L Y R R R Y L R R R R L Y F F F S S N m N m N N Z V H S S S Z N B B B N S R !.#XwXhXBXGXFXJXJXJXJXJXFXGXCXbXvX.X Xf.q.6.5.5.5.5.5.5.5.5.5.5.5.5.7.5.5.5.2.5.2.2.2.2.1.,.;.t.F.H.Q.-X>X3X3X3XqXqX9XtX}.}.].U.x.z.l.M.b.j.b.j.j.j.j.j.k.z. XXX.XvXbXnXCXVXAXCXCXCXCXPXPXPXBXBXPXPXPXPXbXrX.X.XE.s.l.8.7.j.7.c.j.j.j.k.q.a.d.K.L.o.o.o.T T D M > < $ @ @ 1 @ % * - > n H D T o.+X&X2X6XiXaXhXkXkXPXBXBXBXPXNXkXjXhXzXaXpXxXuX4X2X7X,X[.Q.K.K.f.a.a.a.a.a.i.i.F.F.J.J.F.F.i.h.a.a.0.0.4.9.*.*.=.%.%.%.@.%.%.%.%.%.%.%.%.%.%.%.%.@.@.#.+.t t w w y c c h d J G G F F F F F D S S S H N B n n > , - - * $ # @ @ 1 @ @ # % $ * - ; } s m V J P I I D.r.r.h.h.;.9.1.3.3.3.3.3.3.3.8.3.3.1.1.1.1.1.*.*.*.*.%.%.%.%.=.w.w.r.G.G.!.^.$X#X#X#X#X>X#X>X#X#X:X#X3X#X#XqX#X/./.W.W.X.W.o.X.X.X.X.X.X.K K K K K x l l l l g g C C H H H Z Z Z N Z S V H V C C C d g l l l g l x l h l l l C J C C F G D D F D F D F S G D G D D D G D G D S D D D G D D G G ",
"! ! ! ! ! ! ! ! ! ! ! ! ! ! ! ! W W Q ! ! ! ! ! ! ! ! ! ! ! ! ! ! ! ! ! ! ! ! ! ! ! ! ! ! ! W Q ! ! ! W ! [ ! ! ! ! W ! Y F S N N B n n n B N N S S H H Z N m B B N D R ] #X5XhXBXGXDXJXJXJXJXFXFXGXnXbX0X.X Xf.s.6.5.5.5.5.5.5.5.5.5.5.5.7.5.5.5.2.2.2.2.,.,.&.&.;.;.t.F.H.Q.-X:X>X3X8X9X[.[.}.}.R.R.x.x.z.M.v.j.j.j.j.j.j.j.j.q.s.x..X.XvXbXnXCXVXCXCXPXPXPXPXCXPXBXPXAXPXPXnXbXcX0X].E.s.s.8.5.7.7.7.7.c.7.k.q.a.f.K.X.o.o.! W T A M > * # @ @ @ @ $ $ - > n Z D Y o.o.*X2X5XsXzXjXkXPXCXCXCXCXBXnXkXhXhXaXaXiX5X6X4X2X7X-Xo.Q.H.K.K.i.d.u.u.i.i.i.i.K.F.F.K.t.i.h.d.p.p.<.<.<.=.=.%.@.@.@.@.@.%.@.%.%.%.@.%.@.@.@.@.@.+.+.t t i u y c h h l J C { L Y Y F F F D D S Z H N B n } } ; - - & $ % # X @ 1 @ # # % - - , } n d C J J z D.D.t.h.;.*.9.1.1.8.8.8.8.8.8.8.8.8.3.3.3.3.1.1.*.*.*.&.&.%.%.%.-.-.r.r.G.G.~.#X3X6X#X#X6X#XwX#X5X#X6XwX5X#XwXqX#X).).Q.Q.J.F.F.F.D.r.D.r.D...r.r.........O.k x x l J C J C S S S S S S S V S G C l l x x x k ............O.z z x J U P L R T T R T R R R Y R Y L L Y F Y L Y Y F Y Y F Y Y Y Y Y ",
"Q Q [ / Q ~ Q Q [ Q ) [ Q ) ) / / ( ( ) ( / / ) / / ) / [ [ / / / [ / [ / / [ ~ / [ / [ / ) ( ( [ / / o./ / o.( o./ [ ! R L S N n n } > } n n N Z H S S N N N B B N G R ' #X5XzXBXZXFXJXJXJXJXJXSXGXnXbXvX.X Xx.0.6.5.5.5.5.5.5.5.5.5.5.5.5.5.7.5.2.2.2.2.&.&.$.$.:.:.y.D.Q._.).,X,X>X9X[.[.].R.U.U.x.x.z.l.M.v.k.b.j.j.j.j.5.j.8.s.g.E..X0XbXnXnXVXCXCXPXAXPXPXPXPXPXPXPXCXBXBXlXcX0XE.E.a.h.1.2.5.5.7.7.7.7.6.0.a.i.K.L.X.o.o.T T Z n , * % @ @ @ @ % $ - > n N A T o.$X7X5XiXaXhXkXPXCXCXGXVXCXBXPXkXhXzXaXsXpX5X6X2X7X:X8Xo.~.Q.H.F.K.i.i.i.i.u.i.i.i.u.i.u.d.d.d.h.t.h.h.e.e.;.-.-.+.@.+.+.+.@.@.@.@.@.@.@.@.@.+.+.+.+.t t t y y c h g l C J J P R P R W L F F G S H H N n n } } , - - * $ % # @ 1 @ @ @ # $ * - ; ; s d l l K O.r.O.e.h.h.9.3.8.8.3.8.8.8.j.j.j.j.j.j.8.3.3.3.1.*.*.&.%.@.@.@.@.-.-.O.r.G.W.).#X#X#X5X5X#X6X5X5XxXsX5XxXiXwXwXwX9X;X).|.|.K.F.i.t.i.i.u.i.i.i.t.y.e.y.y.w.w.w.O.O.z z J C G G D A D A D A D G C J J l z ....:...:. .:. ...w.w.O.K K I I E [ Q Q / W Q Q [ ! Q Q Q ! Q ! ! ! ! ! ! E E ! ! ! ! E ! ",
"] ` ] ] ] ` ` ] ] ] ] ] ] ] ` ] ' ] ` @X@X` ` ` ` @X` ` ` ` ` o.o.` o.@X` ` ` o.` o.@X@X` ` ` o.` o.` o.o.@Xo.o.o.` ` ( W F S N } v ; ; , } } B N Z S H Z N m B B N D R ) #XsXhXBXGXFXJXJXJXJXFXSXGXnXbXvX.X Xs.q.6.5.5.5.5.5.5.5.5.5.5.7.5.5.5.5.5.2.2.2.&.$.$.$.-...y.X.H.~.-X,X>X8X[.[.'.E.U.g.x.z.Z.M.M.v.v.b.j.j.j.7.5.5.5.q.a.E.E..XcXcXnXPXCXCXCXBXPXBXNXPXPXBXCXCXPXPXPXdXrX0X].E.h.h.*.2.2.2.5.5.5.5.7.0.0.i...X.X.o.! T D Z v : $ # @ @ 1 @ # $ - > n Z Y T ( &X2X5XpXhXjXNXBXVXVXGXGXVXCXPXkXjXfXaXsXyX6X6X2X2X7X%Xo.~._._.J.H.J.K.K.i.i.p.p.p.p.p.p.h.d.i.F.F.F.t.r.w.w.-.#.| | | | +.+.+.@.@.@.+.@.+.+.+.+.r r t w y h h g g g J J { P R ! ! ! ! R Y F D D H H N B n } } > : - $ $ $ # @ 1 1 @ # # $ * - ; s s d g k O.O.w.;.h.h.1.4.8.8.8.j.j.j.c.c.c.c.c.j.j.8.8.2.2.2.>.&.&.$.@.@.+.+.-.-.O.D.G.W.~./.#X6X6XuX6X5XxXxXiXgXgXgXgXgXpXsXeX9X}.|.E.P.f.u.p.p.u.p.9.p.p.p.u.9.e.<.<.;.;.;.w.r.z K J P G F F D D D D F { J J x r.w.y.e.;.;.<.<.;.,.;.;.e.e.r.D.X.^ ^ _ ) ` ( ` ( !.] o.( ` ) ) ) ) ( ) ) ( ) ) ~ / / o.( ( ( ",
"' o.' +X#Xo.' o.+X' o.' #Xo.+X+X+X#X+X+Xo.$X#X+X+Xo.#Xo.o.+X+X+Xo.+X#Xo.o.@X@X@Xo.+X@Xo.@Xo.o.+X@X#X#X^.#X#X#X$X#X@Xo.) Q Y S N } ; * < - , } n N Z S S Z N B B N N S R ) #XwXhXBXGXDXDXJXJXJXJXSXGXmXbX.X.XR.g.a.6.5.5.5.5.5.5.5.7.5.7.5.5.7.5.5.5.2.>.&.$.$.| |  . ...D.G.~.).,X;X[.[.'.E.E.g.z.z.M.M.v.n.v.v.b.j.j.7.7.5.3.3.4.9.a.E.].0XcXnXPXPXCXCXBXBXBXnXPXBXPXPXPXCXPXPXdXrX[.|.E.h.;.=.&.&.>.2.5.5.5.6.0.u.i.K.X.X.E R Y A M v : $ # @ @ @ % $ * - > B Z F o.( &X2XyXaXdXkXBXCXGXGXSXGXVXCXPXkXhXzXpXiXiXyX6X2X<X7X7X-X/.(.~.W._.J.J.F.t.d.d.p.s.0.s.p.d.K.F.F.F.G.D.D.r.w.k i t r r r r +.+.+.+.+.+.+.+.+.r r r t u y y c l g C J C L L E Q ~ / / Q ! R R F D S H N B n } > > - - * $ % @ @ @ @ @ # $ * * - , ; f a h h k O.-.;.*.9.4.8.8.8.j.j.j.b.b.b.b.b.b.c.c.8.8.5.2.>.&.%.$.@.@.+.+.r i k O.z G.^ !.#X#X#X6X6XxXiXiXsXaXgXgXgXgXgXfXsXrX0X}.E.E.f.z.l.0.l.0.l.0.0.0.0.6.0.6.6.0.9.9.9.e.y.O.K U P L F Y T T T T F L P K z r.y.;.9.4.0.3.8.6.6.9.9.9.h.h.F.H.W.W.!.^.#X#X#X#X#X#X@Xo.@Xo.+Xo.o.@Xo.` @Xo.@Xo.o.@Xo.o.@Xo.",
"$X&X=X$X=X$X=X$X&X$X=X=X%X$X$X&X$X$X$X%X$X$X%X$X$X%X&X$X$X%X$X$X&X$X&X$X%X$X$X$X%X$X$X&X&X$X$X%X#X&X$X$X#X=X=X=X&X$X^.@X[ L S N > - * $ * - > n m Z S Z V N N B m N D R ^.#XwXzXBXGXDXDXJXJXJXFXZXVXnXbXvX.X Xa.0.6.5.5.2.5.5.5.5.5.5.5.5.5.5.5.5.5.2.&.$.$.$.| |  . ...X.J.~.-X>X8X[.}.].E.x.z.M.M.v.v.v.v.c.c.j.j.j.7.5.3.3.1.9.h.E.E.].0XrXlXPXPXCXPXBXPXPXPXBXBXPXBXPXPXPXkXdXtX9X|.F.h.-.=.$.&.&.2.2.2.5.6.0.<.y...X.X.X.L F A M v - $ # @ @ @ @ # $ - > n S F o.( %X2XiXaXhXNXnXVXGXSXSXGXGXCXnXkXhXaXpXiX5X5X6X4X2X7X%X%X$X/.&Xo.~.~.W.J.F.d.p.a.s.q.q.s.f.d.F.H.W.G.G.I K z k i w t r r r r +.+.+.+.+.+.r r r e e w 0 y c h d d C C { Y R ! ~ ~ ) ~ ~ Q ! R F D S H N B B } > > ; - * $ # @ @ 1 @ @ # # $ < - ; s f a h h -.-.;.*.9.3.3.8.8.j.c.c.b.b.b.b.m.b.b.b.c.j.8.5.2.>.&.%.$.| | r r t i i z K I W.~.>X6X5XxXuXiXpXsXaXzXgXjXjXjXjXlXdXrX0X{.R. Xz.l.l.k.k.k.k.k.8.k.q.k.k.j.k.8.8.q.0.u.e.r.r.U P L Y Y T T T T R P U K r.y.u.9.0.8.8.k.8.j.j.8.q.q.9.h.K.H.Q._./.#X#X#X#X#X#X#X$X$X#X$X$X$X$X$X$X$X#X$X$X$X$X$X$X$X#X$X",
"7X:X*X7X*X7X*X*X*X*X<X*X*X*X*X%X%X%X%X%X%X%X%X%X*X*X*X*X*X<X*X*X1X*X*X*X*X*X*X*X*X*X*X*X*X*X*X=X*X=X=X*X*X*X*X<X*X=X$Xo.( ! S n ; * $ $ $ - > n m Z V S Z N m B B Z G R ] #X5XzXBXGXDXJXKXJXJXFXSXVXmXbX0X.X Xx.0.k.5.5.5.5.5.5.5.5.5.5.5.5.5.5.2.2.2.&.$.$.| | e t j ..X.o.~./.8X#X[.'.E.E.z.z.k.v.c.c.c.b.c.c.j.j.j.7.5.2.4.4.*.h.E.E.{.0XrXlXNXPXPXPXPXPXNXkXNXNXNXPXPXNXNXlXdXeX[.|.F.h.w.@.$.$.&.&.2.2.2.2.9.u.y.t.X.X.R { D A M b - $ % @ 1 @ @ % & - > n S F o.o.*X4XiXaXhXNXCXVXGXSXSXGXVXCXPXlXhXaXsXiX5X5X4X:X<X<X*X&X&X&X$X#Xo.o.W.Q.H.K.f.s.s.q.s.s.f.K.L.Q.W.W.o.^ I z x i u t q e r r r +.+.+.+.+.r r r e q q y y c g d C G G F R ! / ) ) ) ) ) Q ! R F G S H m B n } } > - - $ $ $ @ @ @ @ @ # # = * - ; p f a h i -.@.=.*.1.8.8.8.j.j.j.b.b.b.b.b.m.m.b.b.c.j.8.5.2.>.&.$.@.| | t t t y k O.K G.o./.,X#X#X6XxXiXpXfXfXhXjXjXNXjXkXlXnXcXvX.XXXx.z.l.k.k.j.j.j.j.c.c.c.c.c.c.c.c.j.k.8.0.h.e.D.K U L L T T T T Y R P U D.D.e.p.0.8.j.c.c.c.c.c.c.j.q.q.f.d.K.H._.).#X#X#X#X#X#X#X=X=X=X=X*X*X*X*X7X*X<X*X7X*X7X*X7X*X*X<X",
"6X6X6X2X6X2X6X2X6X2X2X7X:X:X-X-X)./.)./.).-X-X-X-X:X7X2X2X2X2X2X2X2X2X7X2X7X2X7X2X7X7X7X7X<X7X7X*X*X*X7X*X<X7X7X7X*X$X+X/ R D n > * % # $ * ; } B N S V Z Z m B B N S R ] #XsXhXBXGXFXDXJXJXJXFXSXZXnXbXvX.XU.f.a.6.5.2.5.2.5.5.5.5.5.2.5.5.5.5.2.2.>.&.$.| | e q  .j ..X.X.~.-X9X9X[.'.E.g.z.l.v.c.c.b.c.c.j.j.j.8.8.8.6.4.9.9.h.h.E.|.[.0XrXdXkXPXNXNXPXNXkXkXkXkXkXNXNXkXjXhXsX9X[.|.H.t.h.-.:.$.,.>.>.2.2.,.,.<.y...X.X.P { D B M b < $ @ @ @ @ @ # * - > n Z Y o.@X&X4XiXaXjXkXBXVXGXSXSXGXVXCXNXlXfXaXiXiX5X4X2X2X<X7X*X&X&X@X&X@X$Xo.!._.H.P.f.a.s.z.s.g.I.Y.H._._.(.o.^ I K x j u u w t t r r +.+.+.+.r r r e e q 0 y y g g d V G G Y R Q / ) ) ] ) ) / ! R F D S H N B n n > , ; - $ $ % % @ @ @ @ # # = * - ; ; f c y i #.@.*.1.1.8.8.j.j.c.b.b.b.m.m.m.m.m.b.c.c.8.8.5.>.| >.| | | | e t i y z z K I W.!.#X>X5X5XxXpXfXzXfXjXNXNXNXAXBXBXnXbXvX.XXXXXZ.k.k.b.j.j.n.b.b.b.b.b.b.b.b.b.b.v.k.0.<.e.D.K P P F T T T T T R P I K r.h.9.q.l.c.c.b.b.b.c.c.v.k.l.s.f.K.H.Q.~.~.(./.#X#X#X#X*X*X<X7X2X2X2X6X6X6X6X6X3X2X6X6X6X6X6X6X",
"xXwXyXwXwXwXiX5X5X5X5X3X3X:X,X;X).).Q.).Q.).).;X,X3X3X3X6X6XuX6X6X5X5X3X6X5X5X6X2X3X5X2X2X2X2X7X7X7X7X7X<X2X7X2X7X7X=X+Xo.Y S n , $ % @ $ * : } B N Z S V N N B B N G R ] #XwXhXBXGXFXDXJXJXJXFXSXVXmXcX.X.X Xg.0.6.5.5.2.2.2.5.5.2.2.2.2.2.2.2.2.>.&.&.$.| | e q u u x X.X.~.-X#X8X[.'.R.U.z.l.v.c.c.c.c.c.j.j.8.8.8.6.4.9.p.h.h.F.|.}.0XtXdXhXlXjXNXjXjXjXjXjXjXjXjXjXjXjXhXdXsXqX9X|.H.D.r.w. .:.| ,.,.2.2.>.<.:.i.....X.{ { D B v : < $ @ @ @ @ @ % * - > B Z F T ( %X2X5XaXhXkXBXVXVXGXGXAXCXBXkXhXgXpXyX6X6X4X2X2X2X*X*X&X1X@X@X&X#X$X!._.Q.L.I.I.g.g.g.g.E.Y.`.).-X^.^._ ^ I J x j y u u t t t +.r +.r +.r r e q 0 0 0 c g g C C S D Y T R / ) ) ] ) ~ / ! R Y G S Z N B n } } , - - * $ # @ @ @ 1 @ # # * * - ; s p a y y -.@.*.1.3.8.8.j.j.c.b.b.m.m.m.m.m.b.b.c.j.8.3.5.5.2.| | | |  .i y y k x l K ^ ^ ^.#X3X#X5XxXpXfXfXjXNXNXPXNXNXCXCXCXbXvXoXXXA.N.N.m.j.n.b.n.n.b.b.b.b.n.m.m.m.b.n.v.q.p.t.r.K U L F T T T T T E P I D.t.h.a.q.k.c.b.b.m.b.b.b.c.v.l.s.a.P.K.H.Q._.~.(.).-X8X#X%X7X7X2X4X6X5XwXxXwXiXxXwXxXiXiXiXxXiXwX",
"aXaXaXaXpXpXpXpXiXiXyXwX3X8X;X).`.|.Q.L.|.|.`.).;X8X5XxXxXxXxXxXxXxXxXxXwXiXyX5X5X5X5X5X5X4X2X2X2X2X7X<X7X2X2X2X2X7X%X^.o.! D n , $ # @ % * ; v B N S V Z N m B N N G R ^.#X5XzXBXGXDXDXJXJXJXFXSXZXnXbX0X.XI.f.a.4.2.2.2.2.2.2.2.2.2.2.2.2.2.>.>.>.&.$.| | | e q w k ..X.o.o.,X9X9X[.'.E. Xz.M.v.c.c.c.c.j.8.8.8.8.6.9.p.p.h.K.E.E.|.[.9XrXdXzXjXjXjXjXjXhXhXzXfXzXzXzXzXfXaXsXwXqX;X).W.G.D.r.y.y.<.:.,.,.,.,.<.<.....J J { G Z B v b * $ @ @ @ @ @ $ $ - > m Z F T o.$X2X5XaXzXlXNXCXCXAXGXVXBXPXjXfXpXxXuX4X4X2X2X1X<X1X*X*X&X&X&X#X#X#X(.~.Q.L.Y.E.I.U.U.T.T.'.`.;X:X%X$X^._ I U l x h y u u t t +.+.+.r r r r e e e 0 y c g a C C G D Y W ! / / ] ) ) ) Q ! R F D D H N B n n } > ; < * $ $ @ @ 1 @ @ # # $ * - ; s f g y i #.%.*.1.3.8.8.c.c.b.b.m.b.m.m.b.b.b.c.c.j.8.3.2.| | | | |  .8 y i c l l K U I _ !.#X#X5XxXxXpXaXhXjXjXNXPXAXAXAXAXVXbXvXvXOXXXA.N.n.b.b.b.m.m.m.m.m.m.V.m.V.m.m.n.v.q.9.h.r.K P { F T T T T T R E I D.r.h.0.q.v.c.b.m.b.m.m.b.b.v.l.q.a.d.i.F.J.G.W.W.~.~./.#X*X7X2X4X5XxXiXpXaXaXaXzXaXaXaXaXaXaXaXaX",
"hXhXhXhXhXhXzXaXaXaXpXiXwXqX[.`.|.Y.L.K.L.L.`.`.8X8XwXpXpXpXgXpXpXpXsXpXiXiXiXiXiXiX5X5X5X5X4X2X2X7X2X7X7X2X7X2X7X<X=X+X( W S n , $ % % % * ; } B Z S Z Z N N B N N D R ] #X5XhXBXGXDXJXKXJXJXFXSXVXmXcXvX.XI.a.9.4.2.>.>.2.>.2.2.2.>.2.>.>.&.>.&.$.$.| | | e e q u u ..X.X.~.-X#X8X[.].E.U.z.M.v.c.c.j.j.8.8.8.8.4.0.p.p.h.P.Y.|.|.[.9XeXsXzXfXhXfXjXjXhXfXaXaXaXsXpXaXaXsXpXiXwX>X;X/.Q.Q.G.D.X.y.y.<.<.,.,.,.,. . .....{ G V Z M v b < $ # @ 1 @ % # $ - > n Z F o.o.$X7X6XiXaXjXlXPXCXCXCXCXPXkXhXaXpX5XuX4X4X4X2X1X1X*X1X1X1X&X&X&X&X&X%X/.).`.'.'.].R.].].}.[.9X>X>X7X*X^._ ^ I U l x j h y i i +.+.r +.r r e e e 0 w y c g d d C S D F R ! / / ) ) ) / Q R L F G S H N B n } } > - - * $ $ @ @ @ @ @ # $ = * - ; p f a y i -.%.*.1.8.8.j.c.c.b.b.b.m.m.b.m.b.b.j.j.8.3.1.2.| | | |  . .h y l l l J U I [ ^ ' $X#X#XiXxXiXgXfXjXNXNXAXAXAXAXAXZXmXbXoXoXA.A.N.n.b.b.m.b.m.m.m.m.V.V.V.V.V.V.m.v.l.p.e.r.z J G A T A D T Y R P I X.t.h.a.q.v.b.b.b.m.m.b.b.b.v.k.q.0.p.t.t.F.D.G.G.W.!.~.#X%X7X2X6XxXiXaXzXhXhXlXhXlXhXjXhXhXhXhXhX",
"kXNXkXNXjXjXjXjXhXfXaXsXsX9X[.'.Y.K.P.i.P.K.Y.'.[.qXsXsXgXgXfXfXfXaXaXaXaXsXpXsXiXiXiXwX5X5X6X2X2X2X7X7X7X7X2X7X2X<X=X^.o.R D n > $ % % $ * ; } B N S S H N B B B H S R ] #XsXhXBXGXFXDXKXJXJXFXGXVXbXbX0X.XE.g.h.4.1.1.1.1.1.1.1.1.1.1.>.>.*.%.&.$.@.@.| | | e | u  ...X.W._.-X,X;X[.'. Xx.z.l.v.c.v.j.7.7.8.3.3.4.p.h.h.E.|.|.[.[.9XeXeXsXzXzXfXfXfXaXfXaXpXpXiXiXiXwXiXwXyX3X3X3X-X-X~.~.W.G.D.D.t.e.h.*.*.*.%.;.O.O.z J G V N M b : * $ @ @ @ @ @ = * - > n H F T o.@X*X4XyXpXzXkXNXnXBXCXPXNXjXfXpXxX6X4X2X4X1X<X<X<X<X*X=X=X=X#X#X1X&X%X%X).).[.}.}.}.}.{.9X9XqXqX3X6X7X*X^._ ^ U U l x j j i i t | +.+.| r r r q q 0 0 h g d C C S D F R W Q / ~ ) / ~ / ! R F G S Z N B n } > > : - $ $ # % @ 1 @ @ # $ = * - , p p a y i +.#.*.1.3.8.j.c.c.b.m.m.b.m.b.b.c.j.j.7.5.2.| 2.| | | | 9  . .h l l J U P E Q o.+Xo.=X*X4XuXiXaXfXjXNXNXPXAXAXSXSXZXmXMXvXOXA.N.N.v.b.n.m.m.m.V.m.V.V.V.V.V.V.V.m.n.l.0.e.r.U J V D A T A T T R P I X.r.h.p.l.v.c.b.b.b.m.b.b.c.v.k.8.0.9.h.e.y.r.D.D.G.^ W./.=X*X2XyXpXsXfXlXkXkXkXnXBXkXkXkXkXkXkXNX",
"CXBXBXPXPXNXNXNXjXhXhXaXeXtX[.'.I.d.f.p.f.d.T.'.[.tXeXsXfXfXfXfXfXfXzXaXaXaXaXpXaXpXiXiXiX5X5X6X2X7X7X*X<X7X7X2X7X*X=X+X( R D n ; $ # % # < , } n H S H S N N B B N G R ) #XwXhXBXGXFXDXJXJXJXDXGXVXnXbX0X.XE.h.9.1.*.1.*.1.*.*.*.>.*.*.*.%.%.%.$.$.| | | | q e 0 w j x X.X.~.,X;X;X[.}.T. Xz.l.v.c.j.7.7.8.3.3.4.9.p.h.P.|.|.[.9X9XeXeXsXsXsXzXfXaXaXpXpXiXiXiXwXyXyXyX5X6X3X6X6X:X:X%X-X/.~.Q.H.H.r.t.h.;.h.=.;.-.-.O.z J G V N M v : * $ @ @ @ @ @ % * - > n H D A o.` &X2X6XiXaXhXlXNXNXPXkXlXhXaXsXyX6X2X<X<X<X<X<X*X<X*X*X*X=X<X=X=X=X%X7X,X>X8X9X9XtXtXtXeXtXeXwX5X5X3X*X&X!.~ E P J J x x i  .#.+.+.| | r r e e q 0 y 6 c g d C G D F T R W / / / / [ ! R R F G S H N N n n } > : - - $ % @ @ @ @ @ # # $ * - ; s f c h i -.%.*.1.8.j.j.c.b.b.m.m.m.b.b.b.j.j.7.5.2.2.>.| | | |  .9 a g l J J P P E E Q o.o.#X&X*X2X6XiXpXgXjXkXPXAXAXAXSXSXZXmXvXoXoXXXZ.N.b.b.b.n.n.m.m.m.V.V.V.V.V.V.V.V.v.l.9.e...x C C H A A A T T L P I D.r.h.9.q.j.v.b.b.b.b.b.b.c.c.8.8.3.;.;.;.w.w.O.D.X.I ^ !.o.*X<X5XiXgXlXkXBXBXCXBXCXBXCXBXCXBXCXBX",
"CXCXCXCXBXBXPXNXNXjXhXdXrXtX}.T.I.f.p.a.a.a.I.T.}.tXrXzXzXzXhXfXzXzXfXzXaXaXaXaXsXiXiXiX5X5X5X2X2X7X*X*X*X7X7X7X<X*X$X#X~ R D n , $ % # $ < ; } B H S H H N N m N H D R ^.#X5XhXBXGXDXJXKXJXJXFXSXGXnXcX0X.XE.g.9.1.1.*.*.*.*.*.*.*.*.%.%.%.%.@.@.| | | e e e e q w  ...X.X.o.%X,X;X[.'.T.I.z.l.v.j.v.7.8.5.3.1.*.9.h.d.P.|.[.9XqXwXsXsXsXsXsXsXsXsXsXiXiXwXwX5X3X5X6X6X4X6X2X2X2X7X*X*X*X%X/.~.~.H.F.t.;.;.;.%.#.-.O.O.l J G V N M b : * # @ @ @ @ % % * - > n B G o.Y o.&X7X2X5XsXzXhXkXkXkXkXhXzXpXwX6X2X:X:X7X7X*X7X*X%X*X*X7X*X*X*X*X*X7X:X:X3X8XqXeXeXeXeXeXsXsXeXwXwX6X2X%X#X] ~ E U J x x i i i t +.| r r e e q w 0 9 y g g d C S G F R W W Q / [ [ [ R R Y F D S H N B n } } , ; - $ $ # # @ @ @ @ # # $ < - ; p p c h y #.-.*.1.3.8.v.c.b.b.m.m.m.b.c.j.j.7.5.2.2.| 2.| | |  .9  ...g J J P L E Q ( o.( o.$X=X*X2X3XyXsXfXhXlXPXAXAXAXSXSXZXmXMXoXOX XA.M.b.b.b.b.n.m.m.V.V.V.V.V.V.V.V.n.v.q.9.w.O.x J V N Z A A A Y L E I D.t.h.h.q.v.c.c.b.b.b.b.c.c.c.8.8.1.1.%.#.-. .O.z D.I ^ !.$X*X<X6XpXfXjXPXBXVXVXVXVXCXCXCXCXCXCXCX",
"VXVXVXCXCXCXCXPXNXjXhXhXeXtX}.T.I.a.a.0.0.a.f.T.}.{.tXeXdXzXzXzXzXaXaXaXaXsXaXiXiXiXiXiXwX5X6X2X2X7X7X*X*X*X*X*X*X=X$Xo./ R S n , * # % $ - , } B N Z S S N B B B N S R ] #X5XzXBXGXDXDXDXJXJXFXZXVXnXbX.X].E.h.9.;.*.*.*.*.*.*.*.*.*.%.%.@.@.@.@.+.| e | e e e w u ..J X.o.~.-X,X;X[.`.T.I.z.z.l.k.8.8.5.3.4.4.9.h.h.K.|.[.[.qXeXsXiXsXsXwXsXwXwXwXwXwXwX5X3X6X2X6X2X2X<X<X%X*X%X*X*X<X*X*X*X/.~.W.H.h.h.;.;.%.=.-.i k l J C H Z v b : * % @ @ @ @ % $ $ - > } B S A o.o.o.&X7X6XiXpXzXhXlXkXlXhXdXiXqX>X,X,X,Xo.,Xo.,X%X%X-X%X%X%X%X%X*X7X7X2X6X3XqXyXwXwXiXsXsXsXiXpXiXyX6X2X*X#X' / [ E P J x k i i #.t r r r e q q w y y y h d C C S F F T R W Q ! Q ! ! R R Y F S S H N B n n } ; - - - $ % @ @ @ @ @ # # = < - ; s s c y i -.%.*.1.8.8.j.b.b.b.m.m.b.b.c.j.7.5.2.| 2.| | | |  .|  .g g l J P L ! W o.( o.` @Xo.=X7X:X3XwXwXdXdXlXkXPXmXZXZXZXmXmXvXvXXXXXZ.M.k.v.c.b.b.b.b.m.m.V.V.V.V.V.m.n.v.8.9.w.O.l d V H Z A A T Y L L I K r.h.9.q.8.j.c.c.c.c.c.c.j.8.8.3.1.*.%.@.+.-. .O.z K I ^ o.$X<X4XxXfXlXNXBXCXVXVXVXVXVXVXVXCXVXCX",
"VXVXCXCXBXBXBXPXNXNXjXzXsXtX}.T.f.a.0.0.q.a.s.I.R.}.0XtXtXsXsXsXsXiXiXiXiXiXiXxXxXxX5X5X5X5X2X2X<X*X*X%X=X*X*X*X*X=X#Xo.[ R S n , $ % # % < > } B N S H Z N B B N N S R ] #XsXlXBXGXFXDXJXJXJXFXGXVXbXcX0X].E.h.h.*.*.*.%.*.*.*.*.%.%.%.@.@.+.+.| | r r e e w u u  ...x X.o.o.-X-X-X[.'.Y. Xf.z.q.l.q.q.0.9.9.<.h.h.t.|.|.[.8XwXwXiXsXwXeXwXqX9X9X8X9X8X3X3X6X6X2X2X<X<X*X%X=X%X&X%X=X1X*X*X*X%X).W.H.t.e.e.#.;.#.-.-.k l J C H B v b : * % @ @ @ @ % * - - ; } N Z Z o.o.( @X&X<XyXiXaXzXhXlXhXdXsXeX8Xo.9Xo.[.`.o.o.`.o.o.`.o././.-X7X7X7X4X4X4X6X5XiXiXiXiXpXpXpXsXpXiXwX6X2X<X#X#X) [ E P U l j k i t t r r e e q w 0 y c h g d J G G F L Y R W W W ! ! ! R L F F D H H N B n v } > - - $ $ $ @ @ @ @ @ # # $ < - ; s p a h i i %.*.1.8.j.v.b.b.m.m.m.b.b.j.j.2.2.>.,.$.@.+.| | 9  .a g l J P L ! Q o.( ` @X@X#X&X*X7X>X8X9XtXrXrXcXbXbXmXmXmXmXmXMXvXoXXX Xx.z.l.k.k.j.c.n.b.b.m.b.m.m.m.m.m.c.v.q.;.w.k l d N B A A A A T R P I D.r.e.h.0.8.8.j.j.c.c.j.j.8.8.8.3.1.*.%.@.+.#.i k z K U ^ o.@X&X4XyXaXhXkXBXBXCXVXCXCXCXCXCXCXCXCX",
"CXCXCXCXPXNXPXPXNXjXjXzXrXtX}.R.I.a.0.0.6.0.s.g.U.].}.{.tXtXtX9XqXqX3X3X6X6X4X3X6X6X3X6X2X2X7X7X*X=X=X=X=X$X=X=X&X$X@X( Q F S } ; * # % $ < > } B H H S S N m B B H D R ) #X5XhXBXGXFXJXJXJXFXFXGXCXnXcX0X].E.h.9.*.*.*.*.*.%.%.%.%.%.%.@.@.+.+.| r t t q  .u u j x l X.X.o.o.%X%X-X;X`.'.Y.I.f.g.s.s.a.a.a.p.i.h.K.L.|.`.9X8XwXiXwXwXwX9X9X9X[.[.[.;X;X;X,X>X#X2X7X*X*X&X&X$X#X&X#X&X=X=X1X<X%X/.Q.G.F.h.;.;.@.-.-.i x l J C H B M b : * # @ @ 1 @ @ $ $ - ; } M N Z F T W o.&X=X2XyXpXfXhXdXdXdXrXtX9X[.'.T.o.`.L.L.o.o.'.o.`.)./.-X:X:X2X4X4X5XuXuXuXuXxXxXxXiXxXiXiXiX5X4X2X<X#X@X) / E P U x x j t t e e q q w 0 y y h h d l C J G F F Y R R W ! R ! R R R Y F F D S Z N N B } } > : - * $ # @ @ @ @ @ # # * * - ; s f c y i #.-.*.1.3.8.c.b.m.m.m.m.b.c.j.j.5.>.&.$.$.|  . .9  .9 g ..J J P o./ o.@X@X@X@X&X&X*X:X>X8X9XtX0X.X0XvXvXvXvXvXvXvXvXvXoXoX.X Xg.s.s.q.q.k.k.k.v.c.b.b.b.m.b.b.b.c.8.0.<.w.x l C H B M A A A Y R P U K D.h.9.0.8.8.j.j.8.j.8.8.8.3.3.1.*.*.@.+.+.i i k x J U P [ o.@X1X4XxXgXjXkXPXPXPXPXPXPXBXBXBXBXBX",
"BXBXBXPXNXNXNXNXjXjXhXdXrXtX}.T.I.a.q.6.q.q.q.s.g.U.R.].}.}.[.8X;X-X:X*X*X*X*X<X7X7X7X7X*X*X*X=X=X%X$X$X$X%X$X$X$X^.@Xo.! F N } - $ # # $ - > } B H S S H N B B B H S R ^.#XwXhXBXGXFXFXJXFXFXFXVXnXnXcX0X].E.h.h.;.*.*.*.%.%.%.%.%.@.@.+.+.+.r r t t w w u u j h ..U U X.o.o.$X%X/.;X).`.L.Y.I.I.I.f.f.f.P.P.K.L.|.|.`.).8XqXwXwXwXqX9X;X[.[.|.|.|.).).;X,X>X#X7X*X%X&X&X#X^.+X+X#X#X&X&X1X=X*X/.Q.H.t.e.w.-.#.@.i k k l C V V B M b : * % @ @ @ @ % $ $ - - } n B Z F Y T o.( &X*X4XyXpXzXzXdXrXtXtX}.}.Y.Y.K.K.K.K.F.Y.X.Y.`.Q.).).,X2X5X6XyXyXuXuXuX5XyXyXuX5XxXxX5X5X6X4X2X1X#X#X` ) [ P U J h y i w 0 0 0 0 y y y h h h l d J G { L Y T R R R R R R R R F Y F G S S H H B n } > > - - & $ % @ @ 1 @ @ # # = * - ; s f c c i #.#.*.1.3.j.c.b.b.m.V.m.b.c.8.5.>.>.$.|  .t i 9  .g g J J X.{ o.Q o.( @X@X#X1X<X<X2X3X8X9X.X.X.X.X.X.XoXoXoXvXvXoXoXoX.X.X XI.I.d.f.p.a.q.q.k.v.v.c.c.c.b.c.c.j.j.8.4.;.-.k l d V N Z A A D T R P I K r.e.;.9.q.8.8.8.8.8.8.8.3.3.*.*.%.%.@.+.r t u k h x J P R o.o.@X<XuXpXgXjXjXkXNXNXNXkXkXkXkXlXkX",
"lXkXkXlXkXkXjXjXjXjXhXsXeXtX}.T.g.s.0.q.6.6.q.s.g.g.U.I.T.Y.L.`._.o.$Xo.+X+X#X$X&X$X=X=X%X=X&X&X$X$X$X$X$X$X$X^.#Xo.o./ W F N } , $ % % % < > } B H H S S N N B B N G R ] #X5XzXBXGXFXJXJXFXFXSXVXBXbXcX{.].E.h.4.*.*.*.%.%.%.%.@.@.@.+.+.+.r r r t t w u j j x x U U X.[ o.o.o.o.%Xo.).`.`.'.Y.Y.T.Y.Y.Y.Y.Y.L.|.|.[.[.9XqX5XwXwXqX>X;X|.|.|.L.|.|.|.|.Q.).;X>X<X*X&X&X#X^.' ' ' +X#X&X&X1X=X*X/.~.H.D.t.-.;.#.#.-.k h l J C V B n b < * $ @ @ @ @ # $ < - , } n B N D D T T o.o.&X<X6XiXaXsXdXtX0X}.].I.I.I.d.d.i.i.i.i.i.P.X.H.).).;X3X5X5XyXyXuXuX6X6XuX4X6X5X6X6X6X6X6X2X<X*X#X#X' ) [ E U x l y y y 0 0 0 0 9 y a g g d C J { { L L R R R R R R R Y L F F F F D G S S N N n n } ; : - * $ # # @ @ @ @ # $ $ * - ; p p a y i +.@.*.3.8.8.c.b.m.m.m.b.b.j.8.5.&.$.$. .| i j ..g g X.X.C { o.! o.@X@X@X&X1X1X4X6X6XwXqX9X{..X.XXXXXXXXXXXOXXXOXOXoXXX X.XT.T.P.P.K.i.p.p.0.0.8.8.8.8.j.j.j.j.8.8.4.=.:.O.x g d m N A A A A Y R L K K D.w.e.4.4.3.3.8.8.3.1.1.1.*.*.%.%.+.+.+.t t u y g l J P Y W ( @X&X<XuXpXpXfXfXhXhXhXhXhXhXhXhXhX",
"jXlXjXhXhXhXhXjXhXfXfXsXeXtX}.T.I.a.0.6.6.6.6.l.q.s.g.f.f.K.K.X.X.o.o.[ o.( @X` @X@X+X+X+X+X^.$X$X#X+X#X+X#X+X+X+Xo.o./ Y S N } - $ # % $ < , } B H H S H H N m N N G R _ #XiXhXBXGXFXDXJXFXFXAXCXnXlXrX{.E.E.h.9.*.*.%.%.%.%.@.@.@.+.+.+.r r r | 0 w u j j x K U P P o.( o.+Xo.$X%X/.).).).`.`.'.'.[.'.'.[.[.[.[.[.9X8X3XqX3XwXwX>X;X).|.|.|.h.h.F.F.H.Q.).-X%X*X*X&X#X+X' ' ] ' ' +X#X&X=X=X%X/.W.H.D.e.-.-.@.#.i k j l C V V N n b : * # @ @ @ # % $ * - , } > n B H S F F o.o.@X@X1XyXsXsXrXrX{.].R.E.g.g.a.a.p.u.u.u.u.t.F.H.|.).,X3XwXyXxXyXuXuX6X6X6X4X4X4X6X6X2X2X2X<X*X=X&X#X#X) ~ [ P J h y y 8 0 8 9 9 c c g d C C J G P L R E R ! R R R Y Y F F F F G F G S S S N N B } > > : - * $ # % @ @ @ @ # # $ < - ; s f c y i i =.*.1.8.8.c.b.m.m.m.b.c.j.3.1.%.@.+.t i u j x l l J U P E ~ o.o.o.&X1X1X1XuXuXyXiXeXtX.X.X.X XXXA.A.A.XXA.OXA.XXXXXX X XP.Y.L.J.F.F.t.p.p.9.4.6.5.8.8.8.8.8.3.6.1.=.-.i j d d N N Z A A T Y R P P K D.w.;.;.1.3.3.3.3.1.1.*.*.%.%.%.@.+.+.r r w u c h d C C F Y Q o.@X&X4XuXyXiXpXaXaXaXaXaXaXaXzXaX",
"zXzXzXzXzXhXfXfXfXfXaXaXtXtX}.T.I.a.0.6.6.7.7.6.6.0.0.a.u.i.i.K.X.o.E P ! W W ( ) o.` o.@X@Xo.@X+X#Xo.@Xo.@Xo.@X` @X/ ! Y D N > - $ % # % - > } B H Z S H N B B B H S R ^.#XwXhXBXGXFXDXFXFXAXAXCXBXbXrX{.].E.h.h.*.*.%.%.%.@.@.@.@.+.+.r r r e q | u u j x x U U X.E / ) o.o.@Xo.%X7Xo.-X-X).).).[.[.8X[.9X9X9X8XqX8XqXqXwX5X5X3X;X).|.H.h.h.h.h.h.F.F.H.~.).%X*X=X&X#X+X' ] ] ` ' +X#X&X&X*X%X~.Q.G.t.w.w.-.#.+.i i h l J C V Z v b - * % @ @ @ % # * < - , > } n n n B S F Y T o.&X1X6XiXeXeX0X.X]. Xx.s.q.q.0.6.9.4.<.<.u.t.F.H.'.[.8XwXyXxXyXyX6X4X2X2X7X7X2X<X2X7X2X<X7X*X=X#X#X' ' ~ I U K l c y 9 8 8 6 6 a a d l C G { L L ! R ! ! ! R R R F F F F G D D D S D S H N B n n } > : - & $ % @ @ @ 1 @ # # = $ - ; s p g c i -.@.*.1.3.j.c.b.b.m.m.b.c.8.3.1.@.+.t i u h h l J J P E E ~ _ o.` $X=X<X2XuXuXpXiXsXeXtX0X.XXX XS.A.B.S.B.B.B.B.A.z.x.x.I.Y.L.H.Q.J.J.F.t.e.u.9.1.3.3.3.3.3.3.3.1.=.;.w.k l l C m N Z A A A T Y P U K r.w.e.=.=.1.*.*.*.*.*.%.%.%.@.+.+.r r e e 0 y y c d d C S F Y Q ( @X=X<X6X5XyXwXyXxXwXwXiXiXiXiX",
"aXaXaXaXaXaXgXaXgXaXpXsXeXtX'.T.f.a.a.6.5.5.5.5.5.6.0.0.u.u...X.X.U P L R W W ( / ) ( o.( o.o.@Xo.@X@Xo.#X+X@Xo.o.o.( W F S n } < $ # # $ - , } n H S H Z N B B B H S R ] #X5XfXBXGXFXDXJXFXSXAXCXkXdXrX{.'.E.h.<.*.*.%.%.%.@.@.+.+.+.+.r r e e q w u u j x U U E o.( o.o.` @Xo.#X$X%X%X%X-X>X>X>X8X8XqXqXqXqXqXqXqXwXwXyXyX5X6X>X;X|.|.F.h.h.*.e.h.h.F.H._.~.%X*X&X&X#X+X' ] ) ` ] +X+X#X&X&X%X/.W.G.D.r.-.-.-.i i k j l C C V B M b : * % % @ @ @ % $ & - - > > n n n n H S F T o.@X1X4XwXwXtX{.}. XU.z.z.k.8.j.5.2.,.4.,.;.u.i.L.|.[.9XqXyXiXyXyX6X2X2X<X7X*X7X<X7X7X7X*X*X*X=X=X#X#X' ] ~ I J x c c 9 4 4 6 6 f d C C G G { Y R Q Q Q Q E R R F F G G D S D S S S S S Z N B n } } > ; - $ = % # @ @ @ @ # # * * - ; p p c h i +.@.=.1.8.8.c.b.b.b.m.b.j.8.3.%.@.r t w y h l J J P E E Q ) ] @X#X$X*X<X6XuXyXiXsXsXcX0X.X.XXXA.A.B.B.m.m.m.N.N.l.l.z.f.f.K.J.J.W.W.W.G.D.y.;.;.*.1.1.1.1.1.1.1.*.=.#.-.k h d d m N Z A A D Y R P P K K r.e.;.;.*.*.*.*.%.%.@.@.#.+.+.r t e e e 0 y c a a d C V G Y ! o.+X$X=X:X2X2X6X5X5X5XwX5X5X5X5X",
"aXaXaXaXaXaXaXgXaXpXsXsXqX[.'.Y.d.a.<.6.2.2.5.5.5.2.,.0.<. .....x J P { Y T W W ! ( ( ` @Xo.` o.@Xo.o.@X@Xo.` o.( ( / W F S n > - % % % $ < ; } B H Z S H N N N B N D R ' #X5XhXBXZXFXFXJXFXSXAXCXnXbXrX{.].E.h.h.*.*.%.%.@.@.@.+.+.+.r e r e q q q u j j x U E E Q ( o.` ` o.+X#X$X$X=X7X:X:X2X6X3X5XqX5XwXiXwXsXiXiXwXyXyX5X3X>X).|.H.F.h.h.;.;.;.e.t.F.H.).%X%X&X&X#X' ' ] ] ] ] ' #X#X&X%X/.~.W.G.D.r.O.-.-.i i k l C C C V N v b : * # @ @ @ @ # $ * - , ; > > > } n M H S T o.@X&X<X6XqXtX{.].E.x.z.l.k.j.j.5.2.2.*.1.;.e.i.K.L.`.9X9XqXqX3X5X3X2X7X<X7X*X*X7X7X<X7X<X7X7X*X=X=X$X^._ ^ I U l h c 6 6 c 6 a a d C S D F L R R Q E Q Q E ! R F D D S S H S S S S H H N N m n n } ; - - - $ % @ @ 1 @ @ # # = * - ; s f a y i t @.*.1.3.8.c.c.b.b.b.c.j.3.1.%.+.r w w y h l J J P R Q ~ ( ' @X#X=X7X2X5X5XwXiXrXrX0X.X.XXXA.S.B.V.m.m.m.m.n.n.n.k.l.a.d.K.Q.W.W.o.W.G.D.r.y.;.=.*.*.*.1.1.*.*.*.=.-.i u h d C m H Z A A T Y R E P K z r.w.-.;.=.=.=.@.@.#.+.+.r r t t e e e 0 y 8 c a d f m V S F E ! o.o.o.%X-X,X,X>X2X2X2X3X3X6X6X",
"aXsXsXaXpXaXaXaXaXpXpXwX8X9X'.L.i.u.9.,.2.2.>.>.5.,.| 6. .......J U { L Y R W W / / ) ) o.@X@X@X+Xo.#X+X+Xo.@X@X) o.Q ! F S n > - $ # # % < - } n N H Z H N B n N N G R ` #XwXhXBXGXFXDXDXFXFXAXBXnXbXcX{.|.E.h.9.*.*.%.%.@.@.+.+.r r r r e e q q w u y j J U I o.( o.@X@X+X+X^.$X&X=X*X7X<X2X4X6X5X5XyXyXxXxXpXxXiXxXxXyXyXuX3X>X-X|.H.t.h.h.;.;.;.h.t.J.Q.~./.=X=X&X#X+X' ' ] ] ' ' +X#X#X$X$X!.W.G.D.r.r.O.w.O.k z x l C G V N n b : * # @ @ @ @ $ * - - - > > > n > n n H S A o.( @X1X4X8X9X[.].E.g.s.k.8.8.8.5.3.1.*.*.;.<.u.i.L.'.[.[.9X9X8X>X3X,X7X*X*X7X7X<X7X<X2X7X<X7X7X*X*X=X=X^._ ^ K U l g c c a a a d C S S F Y Y W ! Q Q Q Q Q R R F D S H H H N Z H H Z N N N n n } > > - - * $ # # @ @ @ @ # # $ * - > p p a c i #.@.%.*.3.8.j.c.c.c.c.c.8.3.*.@.+.e e y y h d C { P R ( ( ( ` +X$X%X7X,X2XqXeXeX0X0X0X.XoXXXA.B.B.m.m.m.m.m.n.b.j.k.l.a.d.L.J.W.!.o.o.X.D.r.w.-.=.%.%.%.*.*.*.*.%.=.-. .j g g C m Z Z D D T Y R E P K K O.O.w.-.#.-.@.#.#.i t t i t w q w 0 y y 9 c a a f d m C V G { E o.o.o.).).).-X-X-X:X:X7X2X2X2X",
"aXaXaXaXaXpXaXpXpXpXiXwX8X[.`.L.K.u.<.,.&.&.&.&.6.| <. . .....l U U P R W ! W T ) ) ` ` @Xo.o.+X+X+X+X+X+X#Xo.` o./ Q R F S B > < % @ % $ * , } B N H H N N n N B N S R ^.#X5XhXBXGXFXDXDXDXFXAXCXnXlXrX0X].E.h.h.*.*.%.@.@.+.+.+.r e r e q q q q w u j x U U E E o.( @X+X#X$X&X%X=X7X<X<X2X4X4X4XuXuXuXyXxXxXxXxXpXxXxXyXyX5X6X>X).|.H.F.h.;.=.;.;.e.t.F.W.~.%X%X=X&X#X#X+X+X+X' ^.+X+X#X#X^.^.!.o.W.G.D.r.O.O.O.O.x J J G V H N n b - * % @ @ @ # % $ < - , , > > > > n n B S A T o.@X&X1X,X9X[.Y.E.g.s.8.8.8.5.3.1.1.*.*.=.;.e.i.K.P.Y.'.[.[.9X).;X7X7X%X*X*X7X<X<X2X2X2X2X2X2X2X<X<X%X%X^.^ I U l g g c a a d C C C G F Y T W W Q / ~ Q ! R F G S H N N N N B N N N N B B n } } } , ; < $ $ % @ @ @ 1 @ # # * * - ; s f a y u i #.%.*.1.3.8.j.j.c.j.8.8.3.*.@.+.e w y c l l J { L ! W ( ( #X+X$X$X7X,X>X9X9X[.tX.X.XXXXXA.A.N.n.m.m.m.m.m.n.n.b.k.l.a.d.F.Q.W.!.o.^ I I r.w.-.@.@.%.%.%.*.*.*.%.@.-. .j h d d H B Z A D Y Y L E P I I K r.O.w.w.-.w.-.i i i y y y y y c 8 c c c c a f d m C H C { { X.X.X.X.X.Q.Q.).).-X-X:X7X*X<X*X",
"aXaXaXaXaXpXpXpXpXpXwXwX8X;XL.J.i.y.:.:.$.$.$.$. . . .........X.U P P E Q ( ( @X) o.@X` ` o.#X^.^.$X$Xo.+Xo.@X` ` ( Q ! F S B ; < $ # # $ * , } n N N H N N B B B N G R ] #XsXhXBXGXFXDXJXFXFXAXCXBXbXrX0X].E.h.h.*.%.%.@.@.+.r r r r q e q q q q 0 u j x K I [ ( o.` @X#X&X=X*X7X<X7X2X4X4X4X4XuX4XuXuXyXxXxXxXyXxXxXyXyXuX6X6X>X-X|.H.h.h.;.h.=.;.e.r.F.G.~./.%X=X=X=X&X$X#X^.^.#X#X+X^.+X+X^._ !.W.G.G.D.D.D.K K K U P G V H N } b - * $ @ @ @ % % $ $ - > > > > > n n n B S T W o.@X#X%X:X9X|.Y.E.a.0.q.8.3.3.3.1.*.%.%.=.;.;.u.i.d.I.Y.'.'.`.`.)./.-X*X*X<X<X<X2X4X6X6X6X3X4X6X6X2X<X*X/.!.o.I U J l d d d d C V G F F Y R W ! Q ~ Q Q ! R F D S N N n n B n m B n B n n } } } > > : - - % $ # @ @ @ @ # # $ < - ; ; p 6 y y t #.@.*.1.3.3.8.8.j.8.8.3.1.@.@.r t e 0 c h l J { L ! ( ( ( #Xo.@X*X%X-X[.`.}..X.X.X XXXA.x.B.B.N.m.m.m.n.n.n.b.j.l.l.z.i.H.J.W.!.o.^ I D.z k  .#.@.@.%.%.%.%.*.%.%.-. .j h d C m N S A D Y Y ! E P I I K K O.O.O.O.k k j y j c c c c c c 6 c c a a d d d m V G G C X.X.X.X.L.J.L.H.Q._.).-X%X*X=X*X1X",
"zXzXzXaXzXaXgXaXpXiXyX5X8X).Q.J.y.y.:.$.| | |  . . . .......J X.U o.[ ) o.( o.o.o.@Xo.@X@X+X#X&X&X$X&X&X$X$X+X` o.) [ ! F S n > - % % % % * - } n B N N N N n m B H S R ] #XwXhXBXGXFXDXDXJXFXFXVXCXnXcX{.].E.a.9.*.%.%.@.@.+.r r e e e q q q q q 0 u j x x U I o.o.@X#X&X=X<X7X2X2X6X4X4X4X4X4X4X6X6X5XuXuXuXyXyXyXyXuXyXuX5X3X>X-X|.H.h.h.;.*.;.;.h.t.F.Q.~.-X*X=X1X=X=X=X%X&X#X$X#X^.+X+X_ _ _ _ o.^ G.G.G.G.X.X.U P J { G S B n , - * % @ @ @ @ % $ - - - , > } n > n n B H D T T ` +X$X%Xo.Q.L.P.p.a.4.3.3.1.1.*.%.%.%.@.=.=.u.p.u.d.I.I.Y.L.L.).).%X-X*X<X2X2X4X6X6X5X5X5X5X5X5X5X6X:X7X/._ ^ I P U C J J C G G F F F Y W W Q / Q Q Q R R F S H N n n } n n } n n n } n } } > ; : ; - * $ # @ @ 1 @ @ # # * $ - ; s p a c y i #.@.%.*.1.3.3.8.8.5.3.1.*.%.+.r e w y y c d J P L R W ( ( ( @X#Xo.-Xo.).`.Y. X X XA.x.A.N.N.N.n.n.n.n.m.n.b.n.j.k.l.a.d.K.H.W.o._ ^ ^ K z w. .t +.+.@.%.%.%.*.%.@.-. .j h d d B N Z A T T R ! E Q E I K K K z z x x h l h g c c g g c a a a a a f d m C V S C { X.X.X.X...K.K.F.K.H.Q._./.o.%X=X&X&X",
"hXzXhXaXaXaXaXaXpXiXyX3X8X)._.J..... . .| | | y  ...g ..X.J X.L [ ) o.o.@Xo.#X^.#X^.^.$X$X$X%X$X=X%X$X$X$X^.#X@Xo.` / ! F Z n > < % # # % * - > } n N N N n n n n H S R ^.#XyXhXBXGXFXJXJXJXDXSXVXnXnXcX0X].E.f.9.*.%.%.@.@.+.r e e e q q q q 0 q w u j x z I [ ( @X+X&X=X<X2X4X5X5X5X5X5X5X6X6X6X6X6X6X5XuX5X5X5XyX5XuXuX6X5X6X>X).).H.h.h.;.=.;.;.h.h.G.G.~.-X%X<X1X1X<X<X*X*X=X%X$X^.+X' _ ] _ _ _ W.W.W.W.W.^ I I E L { G H N n > - * # # % 1 % % * - - ; ; > } } } n n B V F T W ) ] #X/.~.Q.F.K.h.h.3.1.1.1.*.*.%.@.@.%.%.=.=.<.9.p.a.d.d.K.L.Q._.-X-X*X<X2X4X6X5X5XiXyXyXwXyXxXwX5X3X3X%X(._ ^ I U P { { { { F Y Y Y R W ! Q / Q / ! ! L G Z N n n } } } } } v } } } } } > > > ; - - * $ % @ @ @ @ @ @ # * * - ; ; p a c u t +.#.%.%.*.1.3.3.3.3.1.1.%.@.+.+.e e c y h l J { { R ! ( ( #Xo.@Xo.$Xo.'.Y.T.I.x.x.z.N.l.N.n.n.n.k.b.b.b.b.b.b.j.k.l.a.d.L.Q.W.o.o.^ I K z k i t r | +.@.%.%.%.%.=.-.-.k g d d N N Z D D T R ! ! E [ I I U U U K J x l d g g d f f f f f f f f f d m V V D G { { J X.X.i.u.u.u.i.i.K.X.`.o.-X$X$X&X#X",
"hXhXhXhXhXaXfXgXpXxXyX3X,X_.J.J... . .| |  .y  .g g J C J P L o.o.o.@X^.$X&X$X$X&X&X&X%X=X=X=X*X=X=X=X=X&X$X+Xo.o.( [ W F S n > - $ @ % % $ - > } m B B N n B n B H D R _ #X5XzXBXGXDXDXJXJXFXFXAXVXbXbX0X].E.h.h.*.%.%.@.+.r r | e e q q q q q q 0 w j x U I ^ o.o.$X&X1X2X6X6X5XxX5X5XxX5X5X5X6X6X6X6X6X5X5X6X5X5X5X5XuX5X6X3X3X).|.F.F.h.;.;.%.;.h.r.G.|.~.%X*X<X<X<X7X2X7X<X*X*X&X#X+X' ] ] _ _ _ _ !.~.!.!.W._ ^ E E F G H N } > - * % @ @ @ @ # $ $ - - > > } } } n n N Z F T W / ] ' !.W.W.H.t.h.;.4.1.*.*.*.%.%.@.@.@.@.=.=.,.9.9.9.a.d.P.L.L.)./.%X7X2X4X6XuX5XiXxXeXpXpXpXiXiXwX5X6X:X%X^._ ~ E E P L L P L L L R R ! ! Q / [ [ ! R Y D H N n } > > > > > > > } > > > > > > , - - * & # # @ @ @ @ # $ $ < - ; s p p c y t t +.@.%.*.*.*.1.1.*.*.*.@.@.+.r t 0 w c h l J { P ! ! ( ( ` ` ` o.o.Q.L.L.I.f.z.z.l.N.N.k.n.n.b.b.b.b.b.b.b.j.b.k.l.z.d.F.J.W.o.o.^ I K z k i t r r +.@.%.%.*.%.@.-.i j h d C m Z S D Y T ! Q Q [ [ E E I P P P { J J C C C m d d d m d s d m C m V V S G F { X.X.X.....u.u.p.u.i.K.L.X.o.o.+X@X#X#X",
"hXhXhXhXzXzXaXaXpXiXyX3X:X_.o.J.X... . .y y y h g l C { L ! W ( ` @X$X%X=X*X*X*X*X=X%X=X*X*X=X*X*X*X*X%X&X$X@X@X` ( ( R F S B > < % @ # $ $ - , } n m n B n n n n H S R ] #XwXzXBXGXFXDXJXJXJXFXSXnXnXbX0X.XE.h.h.;.*.%.@.+.r r e q q w q q q q w w u j x K U o.o.o.&X<X7X6X5XyXiXiXiXiX5XwX5X5X5X6X5X3X6X5X5X5X5X6X6XuX4X4X5X2X>X).|.H.h.h.;.;.%.h.h.t.F.Q.~./.*X<X2X<X2X2X2X2X:X*X=X$X^.] ] ] ] _ _ ^.$X/.$X/.^._ _ ~ E Y D H N } > - * @ @ @ @ @ $ $ < - - > > } } } n M N H S Y W / ) ] !.!.G.J.t.t.;.;.=.*.*.%.@.@.@.@.#.=.%.=.,.4.0.9.9.d.K.K.Q.Q.).:X7X2X4X6X5XxXiXiXiXsXsXpXpXiXxXwX3X2X*X%X^.] ~ [ E ! E ! R ! R ! ! E / [ / [ / ! R F S H B n } , ; , > > > > > > > > > , > > : - < $ $ @ @ @ @ @ # = = < - ; p p a c y i t +.@.@.%.%.*.*.*.*.%.%.@.+.r t 0 w i h l l J P L ! ! ( ( ( o.+X$Xo.o.L.K.P.a.z.l.l.k.n.n.k.j.n.j.b.j.b.b.b.b.j.k.l.a.d.F.H.W.o.^ ^ I U x j u t r r +.@.@.%.*.%.%.-.i k h d d V N Z D Y R W Q Q Q ~ [ [ E E E P L { G G C V C m m m m m m m m V H S D D F L R P J ..i.u.<.<.<.9.u.d.Y.X.o.o.@Xo.@X@X",
"hXhXhXhXhXzXfXgXaXpXyX3X>X)._.X.....j u y y 9 g l C G { T T o.o.+X^.=X*X*X<X7X<X7X*X*X*X*X*X*X*X%X=X=X$X#Xo.@Xo.o.( Q R F H n > < $ % % # $ - , } n n n n n n n n N G ! ^.#XyXhXBXGXFXJXKXJXJXFXSXVXnXbXrX{.E.E.h.*.;.%.#.#.t t i w w w 0 0 w w w w k x x I X.o.@X+X&X1X2X6XyXxXiXiXiXiXiX5X5X5X6X6X6X5X5X5XyX5X5XyXyX5XuX5X4X6X:X).Q.H.t.h.;.;.;.;.w.r.F.W.~.-X:X7X4X4X4X6X6X6X2X2X*X&X^.@X] ] ] ' ' $X$X$X%X=X$X' ] ~ ! L D S N } > - $ % @ @ @ @ % * - - , > > > } } n n N Z S Y T Q ) ) ^ o.W.D.D.t.e.;.;.=.=.=.;.#.-.;.-.-.:.=.,.9.9.9.p.p.i.K.`.Q./.:X2X4X4XuXxX5XiXiXiXpXpXsXsXpXxXxX5X2X<X=X^.' ] ) ~ [ [ Q [ Q Q Q Q ~ / [ ) / [ ! R F S H n } , , , ; - , : ; : ; : > ; > : - - - < $ $ % @ @ @ @ # # * < - ; ; f a c y w r +.@.@.%.%.%.%.%.%.%.%.@.+.r t t y c c h J J P E ! ( / ) ` ` &Xo.o.o.H.K.f.f.l.q.k.k.k.k.n.b.j.b.n.b.j.j.k.k.l.l.a.p.P.H.H.W.o.o.o.U U x j u w q r r +.@.@.@.@.@.-.i k h d m m H S D D R ! Q ~ Q ~ ~ Q Q Q R R L L F D G S S H V N H H Z N H H S D D F Y R L P X..... .;.<.4.<.u...X.L.X.o.o.` ` ` ",
"jXlXhXhXhXhXaXfXaXpXiX5X3X-X_.X.X...j j j h l g C J F R W o.o.@X#X=X7X7X7X2X2X2X7X7X*X*X*X*X%X=X=X%X&X$X^.+X@Xo.) [ W R S N n > * % # @ % $ * : } } n n n n n n B N S R _ #XsXzXBXGXFXDXJXKXDXFXSXGXnXbXcX{.E.E.h.h.e.-.-.#.i i k u u u u u u u k j j ..U X.o.o.o.$X*X1X4X5XyXiXpXpXpXiXiX5X5X5X3X5XyX5X5X5XiXiXiXiXyXyX5XuX6X2X-X).Q.F.t.h.-.;.%.h.w.h.F.G.~.-X7X2X4X6X6X6X5X6X3X2X7X=X$X+X' ] ] ' +X$X$X=X=X=X$X' ] / ! Y G H N } > - $ $ @ @ @ # @ * - - , > } > } n n n N Z S T Y ! / ) _ o.W.G.D.t.t.e.e.;.e.-.-.e.w.w.e.-.;.;.<.<.<.9.p.d.K.L.|.).;X:X7X6X6X5XxXwXxXiXiXiXiXsXpXiXxXxX5X6X7X*X#X^.' ' ' ` ` ) ) ) ) ) ] ) ` ) ) ~ [ Q R F S N n n , , , - ; : ; : : : ; : > : ; ; : - < * # % # @ @ # # $ $ < - ; ; p a c c t t +.+.@.@.@.@.@.@.@.@.#.+.t t w i y k l l J P ^ E [ / ) ' #X@X@Xo.o.).H.K.P.p.a.9.l.k.k.k.j.k.n.j.k.j.k.k.l.l.l.s.a.i.K.H.W.~.o.o.o.I U x u u w q e r +.+.@.@.@.@.-.i c c d d V Z Z D F T ! Q / ~ / / Q / Q ! ! W R Y Y F F F D S S S S S Z S S D D T T Y R X.! X.......<.,.,.<.0...i.X.o.o.) ` ` @X",
"jXhXhXhXhXzXhXaXaXpXsXwX3X-X_._.X.X...l x l l J J L W T ( ( @X#X&X<X2X6X6X6X3X7X2X7X7X*X*X*X=X%X=X$X$X#X#Xo.o./ ) ! ! F S N } > * $ @ @ # $ $ ; > } } n n n } n n H S R ^.#XxXhXBXGXDXDXDXKXJXFXGXGXnXbXrX0X[.E.F.t.e.w.O.O.O.O.k j j j j j j j ..j x U X.o.o.o.$X=X<X2X4XyXxXpXpXpXpXsXiXxX5X5X5X5X5X5XiXsXsXaXsXpXpXiXuX5X2X7X%X~.W.H.r.e.e.%.-.;.h.r.G.Q.).-X7X4X4X5XuXuX5X5X6X6X7X*X&X^.' ' ' ' #X$X=X*X=X=X=X#X] / ! Y D S N } > - * $ @ @ @ @ $ $ < - - > > } } } n M N H S F T ! Q ) ~ o.^ G.G.D.t.r.t.r.h.h.t.r.t.t.t.t.t.t.i.u.i.d.i.K.L.L.`.).;X3X5X5XuXuXuXxXwXiXiXiXiXiXiXiXwXxX5X6X2X<X*X#X#X#X' ' ' ' ^.' #X' ' ' ' _ ) ) [ ! R F S H n v , ; - , - - - : : ; , ; , , , : : - & $ $ $ # @ % # $ $ * < - ; ; p a c y y t +.+.@.@.@.@.@.@.@.+.+.i t i k y h h l J U P E ~ ~ ) ] @X#X@X+X$Xo.Q.o.X.K.i.d.p.l.l.l.k.j.j.b.j.n.k.k.l.l.0.a.d.i.K.H.H.W.o.o.o.I U K x j u q q e e r +.+.@.#.+.i i h g d m m N S A Y T ! Q Q / / ) / / Q Q Q ! ! W R W T Y F Y F D D D D D D D Y T W W Q W X.X.X...<.<.,.,.,.u.u...X.X.X.o.) ( ` ",
"lXlXhXlXhXhXhXhXzXaXpXiX5X>X-X_.X.X.X.K x U U J P Y W ( o.@X@X&X<X2X6X5X5X5X5X2X2X2X7X<X*X=X$X&X$X$X^.@Xo.o.( ) ! ! R F S N } , * % @ @ @ $ $ - , > } } } } } n n N S ! ] #XxXzXBXGXFXLXDXKXDXFXSXGXnXnXcX0X[.'.|.F.t.r.r.r.O.z z z x x x z x z x K K X.X.o.o.o.%X7X2X4XuXyXxXpXgXpXpXiXxXxX5X5X5X5XyXwXpXaXzXzXfXzXaXpXyX5X2X7X/.~.G.D.r.e.-.-.-.;.h.t.H.Q./.:X2X6X6XuX5XxXxX5X5X6X2X*X=X$X^.+X+X+X$X$X=X=X=X=X$X#X] ) ! Y G S N } ; - $ @ % @ @ # $ $ - - ; > > } } n n m N Z Z F R W Q ~ ~ _ W.W.G.G.J.D.F.F.F.F.F.F.H.H.F.F.F.K.F.i.K.K.P.Y.Y.`.`.;X>X5X5XyXxXuX5XwX5XxX5XwXyXyXyXwXwX5X3X6X2X*X*X=X#X#X#X#X#X=X=X=X=X&X#X$X#X' ' ) ) ! R F S N n } , , - - - - : ; - ; : ; , ; > : : - & < < % % % % # = $ < < , ; p p a 6 y t t +.+.+.+.+.+.+.+.+.+.i i i y j k l l J U I E ^ _ ] ' #X#X#X+Xo.$Xo.o.o.L.L.K.K.i.p.p.0.l.l.k.k.j.k.k.l.l.p.f.i.i.K.J.H.W._.o.o.^ ^ I J x j u w q e r r r +.+.+.r i u h c d d m N A D F R ! Q Q / ~ / / / / ( / / / Q / ! ! W W T R Y T Y F F Y T Y W W ! Q Q P X.......<.=. .,.......X.o.o.[ ( ( ( ",
"jXhXjXhXhXhXhXhXhXzXaXsXwX3X,X(.o.o.X.U X.U E P o.o.o.o.` @X&X1X2X5X5X5X5X5X5X5X2X7X*X*X*X*X$X&X^.+X+Xo.@X( ( / ! R F G H n } - * % % @ # % $ - , > } } } } } } n H S R _ #XyXzXBXSXDXDXKXDXJXDXSXVXVXbXdXtX9X|.|.G.G.G.X.X.K K K I K K U K K I I X.X.I o.o.o.%X*X7X2X6XuXyXpXpXpXpXpXpXiX5X5X5X5XyXxXsXzXzXhXjXlXhXfXgXxX6X2X=X/.~.G.D.r.w.-.%.;.-.O.r.F.W.).:X2X6X5XxXxXxXxXxXwX5X6X2X*X%X$X#X$X$X$X=X=X*X*X=X$X+X] / ! Y D S N } > - * $ @ @ @ % % * $ - ; > } } } } n n N Z S F F W Q ) ~ ~ ^ W.W.G.G.H.H.H.H.H.Q.Q.|.Q.|.|.|.H.L.L.H.L.H.|.`.).8X8X3XwXwXyX5XwXuX5X5X5X5X5XqX5X5X5X5X6X6X2X2X<X*X=X=X=X%X*X*X7X7X7X7X7X7X%X#X^.' ` ) Q R F S N n } > ; - - - : : - > : , , > ; : ; ; : - < < $ $ # # = $ $ < < - ; ; p a 6 c t t +.+.+.+.+.+.+.+.r r i i y k h l l J P I E ^ _ ] ' ' #X#X#X#X$X$X$Xo.).o.L.H.J.K.i.d.p.l.l.k.k.k.k.l.l.z.p.i.K.K.H.H.W.o.o.o.o.) I I K j j u q q q e e r | +.r t i y c g d m m N Z D D R ! Q ~ / / ) ) ( ) ( ) ( ( ( ( ( ) / / / / ! W Y W Y Y W W W W / ~ o.o.X.X...u.:.=.,. . .....X.X.X.Q Q Q ( ",
"hXhXhXhXhXhXhXhXhXaXzXaXiX5X8X-X/.o.o.o.X.[ [ o.o.o.o.^.$X=X<X2X6X5X5XiXiXyX5X5X2X2X7X*X=X$X$X^.#X` ` o.) ~ Q E R L F S N n } - $ % @ # @ % $ - - , , } } > } } n N D R ] #XsXlXBXGXDXDXDXDXLXFXGXVXBXkXdXrXtX;X)._.W.G.W.I G.^ I I I I I I I I I ^ ^ o.!.!./.*X7X2X6X6XyXxXiXpXpXpXpXiXxX5XyX5X5XxXiXsXzXjXlXPXlXkXhXaXxXuX7X%X^.W.G.K O.w.-.-.-.;.w.t.G.|./.:X3X5XuXxXxXxXpXiXwX5X6X2X7X*X=X%X$X%X=X=X*X*X%X=X$X+X] ~ W L D H N } } - $ @ @ @ @ # $ $ - - , > > } } n n M m Z S D L R ! / ) _ _ _ !.W.W._._.Q.~.).).`.;X;X[.).`.).`.Q.Q.Q.Q.).).;X>XqXwXwXxXiXxX5X6X6X3X6X2X6X6X2X6X6X2X6X2X2X7X*X*X=X*X=X*X7X<X2X6X3X2X2X2X7X#X#X^.' ~ ! R F S N n } > , , - : - ; , : ; , , > , > : - - - < & $ $ $ $ $ $ * < - : ; ; p a c y w r r +.+.+.+.r r r t t y i k l l J J P E [ ^ ) _ ^.#X#X#X#X#X&X&X%X$X-Xo.o.o.o.J.H.K.K.f.a.l.k.k.k.k.l.a.p.d.K.J.H._.~.o.o.o.+Xo.~ o.U U x u u w e q e e e r r t t w h c a f m m N S D F T ! Q Q ) / ) ) ) ) ) ) ` _ ` ' ] ' ` ` ` ) ) Q Q W W W Q Q / ( ( ) ^ ^ X.D.r.w.-.:.|  . .....X.U E ! ! ! ( ",
"hXlXhXhXhXhXhXhXhXhXzXzXaXiX3X:X:Xo.o.o.o.o.o.o.` ^.#X$X=X<X7X4X5XyX5XiXwX5X5X3X2X2X*X*X%X$X+X+X@Xo.( ) Q Q W ! R F S S N n > < $ # @ @ @ % $ * - ; > } > } > } n N S R ) #XwXhXBXGXFXDXDXKXDXDXSXVXCXnXlXsXeX8X;X/.~.!.!.W.W._ _ ^ o.^ ^ _ ^ ^ _ ^ !.!.^.%X*X*X2X6X6X5XxXiXiXiXsXpXiXiXwX5X5X5X3X5XiXaXfXkXNXBXBXkXkXaXpX6X2X&X!.o.I r.O.w.-.@.-.-.w.D.G.|.).:X6X6XuXxXxXiXiXiXiXxX5X6X2X7X*X=X=X=X=X*X*X*X*X=X$X' ] / ! Y F H N } > - * $ @ @ @ % % $ < - - > , } } } n M N N S D F R ! [ ~ ) _ _ !.!.~.~./.-X).-X;X>X9X8X8X8X>X;X).-X;X).).-X;X>X3XqXyXwXyXiX5X5X6X6X2X2X7X7X2X7X7X7X7X7X7X*X*X*X*X=X=X*X*X<X2X6X6X5X5X6X2X7X-X#X#X_ ) Q Y F S N n } > ; - - ; - : , , > : ; : ; ; : ; : - - $ $ $ $ $ $ * * < < - ; s p a c y t t +.+.+.r +.r t t e t y h h l J J P P [ ^ ] ' ^.#X#X#X3X3X#X=X=X%X%X*X%X-Xo.~.o.o.H.J.i.p.a.0.l.k.l.l.a.d.K.J.H.o.o.o.o.$X+X@Xo.] ^ X.K x j u w q q q e e e e e 0 y c c a m d m N S D F R ! Q ~ ) ) ) ` ` ] ` ' ' ' ' ' #X#X^.#X' ' ` ~ ) Q Q Q Q / ) ( ) ` ) o.I K O.w.-.#. .=. .....U U P E ! ! W ",
"hXhXhXhXhXhXhXhXjXhXzXzXaXsXyX3X7X%X&Xo.o.o.o.#X#X#X$X=X*X7X2X3X5X5XwXiXiX5X5X6X6X7X7X=X=X$Xo.@Xo.( ) Q Q W R Y F F S N B } > < $ # @ @ @ % $ * - - , , > > } } n N S R ^.#XyXzXBXGXDXDXDXDXDXFXGXAXBXBXjXzXwX5X:X-X%X/./.^.' _ _ _ ' _ _ _ _ _ _ !.' ^.$X%X7X:X2X6X3X5XwXwXwXeXwXeXwXwX5X5X5X5XyX5XsXaXhXlXNXBXBXNXjXaXpX6X*X%X_ W.G.K O.O.-.-.-.w.h.D.H.~.-X>X3X5XyXxXxXiXiXiXiXxX5X3X2X2X7X*X%X*X%X<X<X*X*X=X$X' ] / ! Y D H N } > - $ $ @ @ @ @ $ $ $ - - > > } } n n n m Z S D F R ! Q ~ ) _ _ ^.^.^.%X%X-X:X>X3X3XqX5XqX3X3X>X:X7X%X%X%X-X:X2X3X5XwXwX5X5X5X6X7X<X7X%X=X%X%X=X=X%X=X*X=X=X=X=X=X%X=X=X%X7X2X2X3X6X5X3X6X7X*X#X' ) / R R G H N n } > , ; , : : : ; ; - : > ; : : : - - & - & < * $ $ < * < < - : ; s p f c c i t +.+.+.+.r r r e 0 y i h l J J P R [ ~ ) ] #X#X#X#X#X#X#X3X*X*X*X=X*X=X&X&X%Xo.o.Q.X.K.i.a.l.l.l.l.0.f.i.L.H.o.o.$X$X#X@X#X@X+Xo.o.I K z k u w q q q q q q 0 0 y 0 c c a d m V Z S D Y R ! Q / ) ) ] ] ] ' ' ' ^.#X#X#X#X%X#X#X#X^.' ' ` ) ) ~ ) ) ` ` ` ' _ o.^ D.r.O.w.-. . . .....J P P R ! W W ",
"hXzXzXhXzXhXhXhXhXhXhXzXaXpXiX3X2X7X=X$X+X+X#X#X$X&X=X=X*X7X2X6X5X5X5XyX5X5X5X2X2X7X*X*X$X$X#Xo.) ) Q E ! R L F F S S N n } ; < $ @ @ @ @ # $ $ < - ; , , > > } n N S R _ #XyXhXBXGXFXDXDXKXDXFXGXVXBXPXlXzXsXxX3X2X*X*X$X$X$X$X$X+X^.' ' ' ' ' ' ' ^.$X=X*X*X2X3X3X5XqXqXqXqXeXeXeXeXqXqXqX3X3X5XxXiXaXhXlXPXBXBXNXjXfXiX6X<X&X!._ I D.r.O.O.w.w.w.r.D.G.Q.-X:X3X5X5XyXxXiXiXwXwXwX5X5X6X2X2X7X<X2X2X*X2X*X%X=X$X' ] ~ ! L D S N } > - $ % @ 1 @ @ % % $ - - ; , > > } n M B N Z S F L R ! Q ) ) ] ^.^.#X#X%X*X2X2X6X5X5XwX5X5X3X2X7X*X*X%X=X*X*X2X2X6X6X6X3X6X2X2X*X%X&X#X#X#X#X^.#X#X#X^.^.#X^.' #X^.#X^.=X*X*X2X2X6X2X2X<X*X#X' ] ) ! L F D H B n } , ; - , ; - ; : : ; : , - - ; - - - < < $ < $ < $ * * < < : - ; ; p a c y y i i t -.t r t r y y i c l z J P E E / ) ] ' #X#X,X#X3X#X3X#X7X:X<X7X*X*X&X&X$X$X-Xo.Q.L.K.f.p.z.0.l.p.d.K.J._.~.o.+X@X#X&X@X$Xo.o.o.X.X.X.j j u u w q 0 q 0 0 0 y c c c f d m V S D F R W Q ~ ) ` ` _ ' ' ' ^.#X#X#X%X%X*X%X*X*X%X#X' ' _ ` ) ` ` ` ` #X#X^.^.W.W.X.D.r.O. . . . ...x U P P R W T W ",
"aXaXzXzXzXzXzXzXzXhXhXzXzXpXiXyX4X2X*X*X&X&X$X$X&X&X$X=X*X*X7X7X2X6X5X5X5X5X6X2X2X7X<X=X&X@X` o.) Q ! ! R F F F S S H N n } ; < $ @ @ @ @ @ # $ $ - ; , , , ; } } N D R ] #XsXlXBXGXDXDXDXDXFXSXGXVXBXNXjXhXsXxX6X6X1X*X*X*X=X=X&X$X$X+X+X' +X' #X' $X$X=X*X2X2X6X3XqXqX8X9XtX9XtX[.9X9XqX8X3X5X5X5XpXgXfXjXkXNXkXlXhXaXpX4X7X=X^._ W.I D.O.r.w.h.r.D.G.|.~.-X:X2X6XuXuXyXyXxXxXxXxX5X5X3X6X3X2X2X2X:X2X7X*X*X=X$X' ] Q E Y G H N } > - * @ @ 1 @ @ @ % $ < - - : ; b } n M N H V S F F R R Q Q ) ) ' +X#X#X#X<X<X2X4X6X5X6X6X6X2X<X<X*X#X#X#X#X=X%X7X<X2X2X7X7X%X=X#X^.' ] ] ) ) ] ] ] ] ] ] ' ] ] ] ] ] ' ' #X#X=X=X*X*X*X=X^.' ` Q ! R F G S N n n } > ; , - - > : , : ; ; - - - & < - < < < < < $ < < < < < < : - > ; f a g h k k k i -.i i y y y y h h l J P P E Q ` ) ] ' #X#X#X>X#X5X#X5X2X<X2X2X<X1X<X1X<X=X:Xo.Q.Q.K.P.d.z.p.f.d.K.F.H.W.o.=X&X@X&X&X@X&X&Xo.o.o.X.X.x k j y u y w y y y y c c c d d C V S D D Y R W / ~ ` ] ' ' ^.^.#X#X#X%X*X%X*X*X*X*X*X*X%X#X^.' ' ' _ ' ' #X#X#X#X#X(.W.G.D.X.O.O. .....x K J P L R R R R ",
"aXaXaXsXaXaXzXzXzXzXzXzXaXaXsXiXyX6X2X<X*X*X*X&X$X$X$X$X$X=X*X*X7X2X7X2X2X2X2X2X2X7X*X*X&X@Xo.) Q W R F F D F S S S N B n > , * $ @ @ @ @ @ % $ $ - - - ; , , } n B G R ] #XxXhXBXGXSXDXDXFXFXSXGXCXBXNXjXfXaXxXuX4X6X4X<X<X1X*X*X&X&X$X$X$X#X+X+X$X#X&X=X*X<X4X6X3X8X8XtX[.[.}.}..X}.[.9X8X8X3X5XxXxXpXfXhXjXkXkXjXzXpXxX4X7X$X^.!.^ G.G.D.D.r.D.D.H.G.Q.~.-X2X2X6X6X6X5XwX5X5X5X5X5X5X5X5X6X6X2X6X2X2X2X7X*X=X$X' ] / W Y F H N } > - * $ @ % @ @ @ # $ $ $ - - , > } } n m N Z S D F Y R ! Q / ) ` ' #X#X#X<X*X1X2X6X4X4X4X2X1X=X#X#X#X@X' @X#X#X&X&X=X=X=X$X#X' ] ) [ ~ [ / ~ ! Q Q Q ~ ! ! / [ Q [ ~ / ) ) _ ' ' ^.#X' ' ) ) [ ! L F D Z N N n n > > > , , ; : ; , > - - - - - - < & < * $ & < $ & < & - - - : ; > s s d d l k O.O.O.O.k k k k k c l l J J P [ ~ ) ) @X@X#X-X#X#X#X3X#X6X5X2X4X4X4X4X2X4X1X1X<X7X%X).Q.L.K.P.d.d.i.K.F.H.Q.~.o.$X#X&X&X1X1X*X*X:X(.o.o.X.X.z z x j h y c c c c c c c d d V G G F R W ! ( ) ` ' ' ^.^.#X#X#X#X%X=X*X*X*X<X*X*X*X*X#X%X#X^.#X^.^.#X#X#X%X*X*X%X%X/.W.G.D.D...z z z x J J P P L R Y W ",
"pXsXpXsXpXaXpXaXzXaXzXzXzXaXpXiXyX5X4X4X2X<X*X&X&X$X$X$X$X+X$X&X=X=X*X*X*X7X7X7X7X7X*X=X$Xo.` ( ! R Y F G D S D S H N B } > - < $ @ @ @ @ @ % $ $ $ - - - , : } } H S R ^.#XwXzXBXGXSXDXDXFXSXGXGXBXBXkXjXhXaXpXxXuX6X6X4X4X<X<X1X*X1X=X$X$X+X+X+X+X$X$X=X1X2X2X3X3X8X9X[.}..XY.T.Y.'.}.}.[.8X3X5XyXxXpXgXfXhXhXhXzXaXiX5X4X7X%X$X!.!.W.G.G.G.G.G.G.|.Q.~./.-X:X2X4X2X6X3X4X6X6X6X3X5X5X5X5X5X6X3X6X2X6X2X2X*X=X$X' ) ~ ! Y D H N } > - $ % 1 1 1 1 @ @ % % $ < - - ; } } n M N Z V S G F Y R ! ! / ) ` ' #X#X#X#X1X<X<X1X2X1X#X=X#X#X` ` ) ` ` ` ' ' ' ^.' ' ] ) [ ! Q R R Y Y Y Y Y R R Y Y R R Y R R W R ! ! Q ~ ~ / / ~ Q ! R R F D G Z H N n n } > > , , , , ; , ; , ; - - < < $ $ # $ $ & $ < < < - - - - - : - ; } s d d l z z z z z z z h l l l l J J P I ~ ) ] ] #X' ' /.$X#X#X#X#X3X#X4X6XuX5XuXuXuX4X4X4X2X,X,X).Q.L.K.K.K.F.K.J.Q.o.o.$X&X&X=X1X1X<X2X:X7X%X/.~.X.X.X.K z x h h h c c a a f d C C G G G L R ! Q ) ] ' ^.^.#X#X%X%X=X*X*X*X*X<X*X<X:X*X*X*X*X%X%X#X#X#X#X#X#X<X<X2X2X7X:X/.~.W.G.G.K K K K J U P L R R Y R Y ",
"yXyXiXiXiXsXpXaXaXaXaXaXaXaXpXpXiXiX5X6X4X2X<X=X$X$X#Xo.@Xo.+X$Xo.$X$X%X$X*X*X*X*X*X*X=X&X@Xo.[ ! L F S S S H N S N N N } ; ; $ $ @ @ @ @ @ % % $ $ < - - - , } } B S ! _ #XxXhXBXGXFXDXDXFXSXZXCXBXNXkXjXfXaXaXiXxXuX4X6X6X2X2X<X<X*X=X=X$X$X#X#X#X@X$X&X1X<X2X2X>X9X[.}.T.T. X X X XY.'.[.;X>X3X5XyXpXpXpXaXaXaXpXiXwX5X2X<X=X%X/./.!.~.W.Q.W.|.W.~.~.-X-X-X7X2X7X2X2X2X2X2X3X6X6X5X5X5X5XwXxXyX5X3X6X2X2X7X%X$X' ] Q ! L D S N } > - * % % 1 1 X @ @ % % $ $ < - ; } } n M N Z S S D G F Y R ! Q / ) ] ' #X#X#X#X#X=X#X*X#X#X#X` ` ) ( Q Q Q / [ / / / ) / [ Q ! R F F D S G S G S S S G D G S D G S S G F F F Y Y R Y L Y F F S D Z H N n n n } } > , , ; ; > : > : : - - < * $ % $ # $ $ $ $ < - - - - - - < : , > } s m J G J K I K K K K J l l J J J I [ ~ ] ] ' #X' #X#X#X#X/.#X#X5X6X6X6XuXyXyXyXyXuXuXuXuX6X2X,X).).Q.Q.J.H.H.H._._.~.%X=X=X=X1X<X2X4X4X6X4X-X-X~.o.o.I K U J J l g d d a d d d C C G { R ! Q / ) ] ] ^.#X#X#X*X*X*X*X*X7X<X7X7X7X*X*X<X*X*X*X#X#X%X#X#X%X*X*X2X7X2X2X3X:X:X).~.W.G.G.X.K I I P P P L L W Y R ",
"wX5XyXyXiXyXiXsXpXaXaXaXaXaXaXpXsXiXiXyX5X2X7X=X$X$X` ` ` o.` ` ( @X' ` #X&X$X=X*X*X%X&X@X@Xo.o.T A S S Z H H H H N B n } > - $ % % @ 1 @ @ @ % $ $ * - - - ; > n N S o.( 1XxXhXPXGXFXLXFXFXSXGXVXBXkXkXjXhXaXaXpXiXxX5X5X5X6X6X2X2X<X*X=X$X$X+X' $X#X$X=X<X<X4X2X>X9X[.'.R.U.g.x.g.U.E.T.'.[.>X3X6XuXyXxXiXpXiXiXiXyX5X6X<X:X*X,X#X#X;X/.).).).).).;X;X#X;X3X#X#X5X#X6XwX#XwX#X6X:X6X5XwXyXwXxXxX5X5X6X6X:X*X=X$X' ) / ! Y D H N } > - * @ @ @ @ 1   1 X @ # % * < , ; } n B B N S S S S F F Y R ! Q [ ) ` ] ' ' #X' #X' ' ' ' ] / / Q R R R R R R ! ! ! ! ! L Y G D V H H N N N m N N N N N N N N N N N H Z Z V Z H S S V Z H N N m B n n } } } } > > , , , , > , > , ; - - * $ $ % % # % $ $ $ < - - - - - - : ; ; > } m V C J I I ^ ^ I I U U P J P U P E ~ _ ^.#X#X#X#X#X#X^.#X/.#X#XwXwX#X6XyXwXpXxXiXpXxXxXxX5X3X#X8X).).Q.W.Q.W.W.W.~.(.#X#X#X3X#X#XxXyX5X3X3X6X-X-X/.!.o.^ I U J J C d d d d d V C G { L ! ! / ) ) ] $X$X$X=X=X*X*X<X7X7X2X7X7X2X7X7X<X*X*X*X*X*X=X=X%X=X=X*X7X4X6X5X5X5X3X3X-X%Xo.o.o.X.o.P E E E P R R R R Y ",
"5X5X5X3X5XwXyXyXiXiXsXpXpXsXsXpXsXiXiXyX5X3X2X=X&Xo.o.` ` ` ) ) o.@Xo.@Xo.' #X&X=X=X%X$X@X( W T Y D Z H H B N B N B B n } > - * # % @ @ 1 @ @ % $ $ * & - - > > } B Z D o.&XyXhXBXGXFXFXDXSXSXVXBXBXnXkXjXhXhXaXsXpXiXiXyX5X5X6X2X2X2X*X*X$X$X$X^.+X#X$X&X1X1X2X3X,X[.'.T.U.g.z.z.z.z.g.E.|.[.;X3X3X6XyXyXyXyX5X5X5X5X6X2X:X<X*X#X;X#X#X#X;X#X;X;X#X;X#X>X3X#X3X3X#X3X3X#X5X#X>X#X6X6X5X5XxXxXwXxXwX5X5X2X2X:X=X$X' ) ~ ! L D H N n } - * % @ 1 1 1     1 1 @ % $ < - ; } n B N H Z H S S S F F Y R ! Q [ / ) ) ) ) ] ` ] ] ) ) Q Q ! R Y F F F F Y Y F Y Y G D D Z N B M n n } n n n } n n n n n n n n } n n n M M M n M M n M n n n } } } } > > > ; , ; ; ; , ; : ; , ; - < & $ # # @ @ # % $ * * - - : ; , : - - , > } m N G L P [ ^ ^ ^ ^ ^ E E P P P E ~ _ !./.#X#X#X,X#X#X#X^.#X#X#X#X#X3X5X5XiXiXiXpXpXiXiXiXxXwX3XqX8X;X/.~.~.W.~./.^./.,X#X#X6XyXwX5XyXyXyXyX3X2X:X-X^.o._ ^ E P { G C C N V H H G F L E Q ) ) @Xo.+X$X$X=X*X<X:X:X7X2X2X2X2X2X7X2X7X*X7X*X*X*X=X=X=X=X*X%X7X2X2X5X5XyXwX5X6X,X-X-X%Xo.o.o.^ ^ [ ! ! E R R R R ",
"6X6X6X5X6X5XwXwXyXiXiXsXsXpXsXpXpXsXiXiXyX6X7X=X&X+X@X) ) ) / / ( ( ( ` ` @X' #X$X$X&X$X( o.T o.F S Z N m B B B B m n n } > - * # @ @ 1 1 @ @ @ % $ * * * - - > } M S o.o.&XyXhXBXGXFXDXLXFXSXVXVXBXBXkXjXhXhXaXaXpXiXiXyX5X3X6X6X2X:X*X%X$X$X^.+X+X$X$X&X=X1X2X:X>X[.'.E.U.s.l.l.l.z.g.E.T.'.[.;X3X2X6X6X6X6X6X6X3X2X2X<X:X7X*X3X#X#X3X3X#X#XwX>X#X#XwX>X#X3X#X#X3X3X#X6X#X#X5X5X3X6X5X5XwXxXiXxXwXwX6X6X2X*X%X$X' ) Q W L F H N } } - * % @ 1 1         1 @ # $ * - , } n n N N H H S S S S F { Y R R ! [ [ [ / [ / [ [ Q Q Q ! R Y { F D S D D D D D D S S H N M m n } > > > ; > } > > > } > } > > > > } > } > > } } > } > } } > > > > > ; , , ; , , , - , , - : ; - - - < $ $ % % # @ % % $ $ & - - , ; : - - : , > } m S G R E ~ ) _ _ ~ ~ ~ E E E ~ ) !.^.^.#X3X#X,X#X#X#X#X^.-X/.#X>X#XqX3X3XwXwXwXsXsXiXiXiXiXiX5XwX#X#X/./.^.!././.6X#X#X#X#X3X5X#X3XyXwXxXwX5X5X2X:X%X$X+X] ~ E L { S V V H V S G Y R ! Q ) ` ` +X$X$X=X*X*X7X7X2X2X2X2X2X2X2X2X7X7X<X7X*X%X=X*X%X*X*X%X*X7X2X5X5XwXyXwX5X5X6X2X7X%Xo.+Xo.~ ~ [ Q ! ! ! E W R ",
"2X3X2X6X6X6X5X5XwXyXiXiXiXiXsXpXiXsXiXyX5X5X2X*X&Xo.o.` ) / ) / T o.o.( o.( @Xo.#X#X#Xo.o.o.o.Y D S H B n B B B N m n n } > - $ $ % 1 @ 1 @ @ # % $ $ * - - - > } M A D o.*XyXhXPXGXFXLXDXDXSXGXVXBXBXnXkXlXhXfXaXsXiXiXwX5X5X6X2X2X2X*X*X=X$X$X$X$X$X&X&X1X1X7X:X,X`.|.E.g.z.l.v.l.l.s.g.E.'.|.).;X>X>X:X:X2X:X<X:X<X:X<X<X*X*X#X3X3X3X#XwX3XiX6XwX3X5X#X3X5X#X3X#X#X3X#X5X6X#X#X3X6X5X5XxXwXiXxXxX5X5X6X2X*X=X$X' _ / W L D S N } } - < % @ @ 1       1 1 @ @ % * - , } } B m N N N Z S S S S D { Y Y R R ! Q Q Q Q Q ! ! ! R L Y F D S S V H H H H V V Z N N M m } > > > > , : : : ; > : : ; , ; : > ; : ; : ; > : ; ; , , ; , , > ; , , , , , - - - - - - - - - - - - < < $ $ # @ @ # # $ $ * - - , - : ; , : ; ; > } B H F R Q ~ ] ' ] ' ] ] ~ / ) ] ] #X#X#X#X#X3X#X3X5X#X#X#X#X#X#X#X;X#X8X8XqX9XeXqXeXwXwXwXwXwX5X#XwX#X#X#X#X#X#X#X#X#X#X>X3X#X6X3X6X5X5XxX5X5X6X2X7X*X=Xo.] ) [ R Y D S H Z S D F Y E [ / ) ` o.#X#X*X*X*X:X7X2X2X2X6X3X2X6X2X2X2X2X<X7X7X*X<X*X*X*X*X<X7X2X6X6X5XyXwXiX5X5X6X2X7X=X$X#X#X` o.o./ / / Q ! ! ! ",
"2X2X2X4X3X6X6X5X5XyXwXyXiXyXiXiXiXiXiXyX5X6X2X*X=X+X+X` o.) / ) T ( ( T T ( o.@Xo.' @Xo.o.T D D D Z H B m B B m B B n n > > - $ % % @ @ @ @ @ @ # $ * * - - > > n B S o.o.@XyXhXBXGXFXDXDXLXFXSXGXVXCXBXNXkXhXhXaXaXpXwXwX5X5X6X2X2X7X*X*X&X$X=X$X$X$X&X&X1X1X<X:X-X`.|.E.g.q.l.l.l.M.z.s.E.E.|.|.[.).;X-X-X-X*X7X<X*X*X*X*X*X*X3X#X6X3XxX5X#X#X#X6X#X5X6X#X3X3X#X3X#X6X3X#XwX6X5X6X3X5X5XwXxXyXwX5X5X6X3X2X:X=X$X' _ / W F D H N } } - < $ % @ X 1         X @ % $ - ; } n n N N H N H N S Z S S D F { F Y R Y Y R Y R R F Y { D D S V H N N N N N N N N m M n n } } > > : - ; : - ; - : ; : ; : - - : - ; - ; - ; : - - , - : , - - - - - - - - - - - $ - - - - - * < < * $ $ $ # % % % $ $ $ * - - ; : : ; - - ; : b } B Z D R Q ) ` #X#X^.' ' ' ' ' #X#X#X#X3X#XwX6X6X#X6X#X#X#X#X,X/././.).).[.[.9X9X8XqXqXqXwX5XiXuXpX#XxX#X#X#X#X#X#X#X#X#X5X#XyX#X6X6X5X6X5X5X5X6X4X2X*X*X$X@X] / ! R F D S S D G Y L ! ! ) ) +Xo.$X$X*X*X7X7X2X2X2X2X2X2X2X6X2X2X2X7X2X7X2X7X<X<X*X*X7X7X7X2X2X6X5XyXwXwXxX5X5X4X2X<X1X&X&X#X+Xo.` ( ( / / Q / ",
"2X2X2X2X2X2X2X3X5X3X5X5XwXyXwXyXiXyXwX5X6X3X2X7X=X$X' o.` ) ) ) o.o.o.o.( o.o.( ( o.( W o.W o.F S H B m M n B M m n B n } > - & # @ 1 1 1 @ @ % @ $ $ & * - - > n B S Y o.&XxXfXBXGXDXDXDXDXDXFXSXGXVXVXBXkXkXhXzXaXiXiXyX5X6X2X2X7X*X*X*X*X=X%X=X&X*X=X&X=X=X*X%X).Q.|.P.f.s.l.v.v.k.l.s.g.E.P.|.|.|.Q.).~./.%X%X$X=X=X=X=X*X*X#X3X6X#X#XwXxX5XxX6XwX#X3X#X#X#X3X#X5X#X#X6X6X6X5X5X5X5X5X5X5X5X5X6X6X6X2X:X*X=X$X' ) Q ! L D S N n } - - * # @ @ 1 1     1 @ @ # $ - , b n n N N N N Z H N H H S S S D D D D D G F G D D F D S S S H N N m M M B M M M M M m n } } > ; : : : - - - - : - - - - - : ; : - : : - - - - ; - - - : - , ; , ; - - - - * - * $ $ $ $ $ * < $ $ $ $ $ $ % $ # $ % $ * < - - ; ; : : - - , ; > } B S F R / ( #X#X#X#X#X#X#X#X#X#X#XxX3X5XwX5X5XpX#X6X#X#X#X#X#X/./.).).Q.`.`.'.'.[.[.;X9XqX3X#X#X#XxX#X#X#XuX#X#X#XuX#X#X#X#X#X#X5X5X#X4X6X2X6X2X2X2X1X*X=X$X' ` ( W Y F D D D F Y R ! [ ) ) o.+X$X*X*X7X2X2X2X2X5X2X2X2X2X2X2X2X2X2X2X7X2X7X2X7X7X7X*X7X7X2X2X2X3X5X5X5X5X5X5X6X4X2X2X<X*X=X#X+X@Xo.@Xo.) ) ` ",
"2X7X2X7X2X2X2X4X2X6X5X3X6X3X5X5X5X5X5X5X6X2X2X7X*X$X$X$X@Xo.o.` o.( ( T o.o.o.T o.T o.o.T T Y D S H N B m n B B B B B n } > - $ $ @ 1 @ @ 1 @ @ # $ $ $ - - - > } B S D o.@XuXhXBXGXDXDXKXJXDXDXDXSXSXVXVXBXNXhXzXaXpXiX5X6X2X7X*X*X*X*X*X$X*X*X*X*X*X=X1X&X1X&X%X/.).L.P.f.s.l.k.v.k.l.q.s.f.d.E.|.|.H.Q.~.~.^.^.#X#X$X=X=X=X*X#X3X#X5X6X#X#XuXxX#X#X5X#X3X#X#X5X#X>X#X#XwX6X6X5X5X5X5X3X5X3X6X6X6X2X2X2X2X%X=X$X' ) / W L D S N n } > - $ % @ @ 1 1   X 1 1 @ % * - , } n B N N N N N N N H H H H H Z V S H S S S Z S S H S N N N B M M n n n n m n n n n } } } > > : : : - - : - ; - : - - : - : - - - : - - : : - - ; - - ; - ; , , , - - - - - $ $ $ $ $ # # $ % $ $ $ $ $ $ $ $ $ % < * < - - ; : , ; : - - - , > } B H D R Q ) ` #X#X#X#X5X#X#X#X#XxX#X5XyXwXiXxXyX5XpX#XwX#X#X>X/.~.Q.Q.|.L.Y.L.L.|.`.`.;X#X3XiXyX#XxX#XyX#X#X#X#X#X#X#X#X#X#X#X#X3X#X6X2X7X7X2X7X2X7X2X<X=X&X$X' ) ! W Y F D F Y Y R ! / ) ) ' +X$X*X*X2X2X2X2X3X2X2X2X2X2X2X2X2X2X2X2X2X2X2X7X2X7X2X7X2X<X2X2X2X6X2X5X5X6X6X5X6X5X6X6X2X4X<X*X&X$X+Xo.o.@Xo.` ",
"7X7X2X7X7X7X2X2X2X4X2X2X4X6X3X4X3X6X3X4X2X2X7X7X*X*X$X+X@X@Xo.` ` ( ( o.( T T o.W o.T T T T D S Z H B B B B B m B B B n > > - * $ @ @ @ 1 @ @ @ % $ & * * - - > } B D o.o.@XuXjXBXGXDXLXKXKXKXKXDXDXFXSXVXBXnXhXzXaXiXwX5X6X:X*X*X*X$X&X%X*X*X*X*X*X<X=X1X&X&X&X%X~._.L.P.f.s.l.k.v.v.k.l.q.s.p.h.h.F.H.G.W.W.!.^.^.#X#X$X$X=X%X3X#X5X#X5X#X5X5X#X6X5X#X5X#X5X3X#X5X#XwX6X3X5XwX5X5X5X5X6X6X6X6X2X2X2X:X<X*X*X=X$X' _ Q ! L D S N n } ; - $ * @ @ @ 1 1 1 1 1 @ % * - , } } B m N N N N N N N N N N N N N N N N N N N N N B N N n m n n n n n } } } } } } } } } } > > > ; ; : ; ; - : : : ; : ; ; : ; : ; : ; : ; - : - : - : : - , - ; - - - - $ $ $ % $ % % % % % % % % # % $ $ $ * $ < * - - - - : ; , : ; ; , ; , > n B H F R Q ( #X#X#X5X#X6X#XxXaXwXpXaXiXpXpXsXpXpXiXpXpX#X#X3X#X/.~.G.H.F.K.i.K.K.L.H._.).,X#X#X#X5X#X#X#X5XuX#XxX#X#X#X#X#X#X#X#X#X#X#X=X*X*X*X<X2X<X2X7X<X=X&X' ` / W Y Y Y F Y R R Q Q ) ) ] $X$X*X7X2X2X5X2X2X2X2X2X2X7X7X2X2X2X2X2X6X2X2X2X2X7X<X<X7X<X7X7X7X2X2X2X6X6X6X6X5X5X5X5X6X6X2X<X*X=X%X$X#X` #Xo.",
"7X<X7X7X7X7X<X<X7X7X2X2X2X2X2X2X2X7X2X2X<X7X7X7X*X=X*X$X$Xo.+Xo.` o.( ( o.T o.D D o.Y L F D S Z H H B B B B m m B B n n } > - $ % @ @ 1 1 @ @ @ # $ $ * * - - > n m S R ` *X5XzXBXGXDXDXKXKXKXKXKXKXKXDXGXVXkXkXfXaXiX5X6X2X*X*X$X$X$X$X*X*X%X*X2X*X<X*X=X&X&X$X^.~.Q.F.P.p.s.l.v.k.j.v.k.8.q.a.h.h.h.F.F.G.W._ _ ' @X+X#X$X=X=X#X3X#X5X>X#X3X#X3X#X3X#X3X#X3X#X3X3X#XwX5X5XwXxXwXyX5X5X3X6XwX6X:X2X<X2X2X*X%X=X$X' _ / ! L D H N m } > - - $ % @ 1 % 1 1 @ @ @ % $ - ; } } B B N N N m N N B B n N B n n n n } n n } n n n } n n } } } } } } } > } } > > } > , > > , > : ; : : : : - ; ; : : - : ; ; : : , - ; : ; : : : - ; ; , , - , , - - - $ $ # % % @ @ @ @ @ # @ @ % # $ $ * < - - - - : - , - , , ; : - ; : , v } n V D T Q ) ' #X#X#XwX#XpXsXiXpXsXaXfXzXaXsXaXiXxXyX#X4X#X:X#X).Q.H.F.t.d.h.e.t.t.H.H.W.~.#X#X#XyX#X5X<X*X2X<X*X*X&X&X#X#X#X#X#X#X#X#X$X=X=X=X*X%X2X<X2X7X*X=X$X] / Q W R R Y R R ! ! / ~ ] o.#X&X=X<X7X2X5X2X2X2X2X7X7X2X<X7X2X2X2X2X6X6X2X2X2X7X7X:X*X7X7X<X7X7X7X2X2X4X4X5X5X5X5XxX5X5X6X2X2X*X*X$X&X$X#X^.",
"<X7X7X7X7X7X7X7X7X7X7X<X7X7X7X7X7X7X7X7X7X7X*X7X*X%X%X$X$X$X+X@X` o.o.T T o.D o.Y L F F D S S H H B m B B B B B B B n n > > - * # % @ 1 1 @ @ % % $ $ & & - > > n B S R ) *XwXhXBXGXDXKXKXKXKXKXKXKXLXDXGXVXBXlXaXsXiX5X2X2X*X&X$X$X$X$X$X%X<X2X2X2X2X<X<X&X&X$X^.!.W.H.F.f.q.q.v.v.j.j.j.j.8.8.8.9.h.t.D.D.G.^ _ ] ] +X#X$X=X=X#X#X3X#X#X6X#X3X#X3X#X6X#X6X#X3X3X#X6X6XwXxXwXxXxXwXyX5XiX#X#X>X<X<X7X7X*X2X*X=X$X+X) / ! F D S N n } > - < * $ $ % 1 1 1 1 1 @ # * - , } n n N N N N B B B B m B n n } } } } } } } } } } } } } } > > } > , > > > > , > > > > > > > ; : , ; : ; ; : ; : : : ; : : : : : : ; : : : : ; : ; : : , , ; ; ; , - - $ $ $ % % @ @ 1 @ 1 1 @ 1 @ % # $ $ * & - - - - ; ; , : ; ; : , - - : ; , } B Z D Y Q ) ' #X#X#XwX5XxXpXsXfXzXzXzXzXzXzXzXaXiXpXpX4X2X#X;X_.G.J.t.t.e.<.e.e.t.D.J.W.!./.#X#XyX5X#X2X2X2X:X:X*X*X$X6X#X^.^.] ^.^.^.+X$X$X%X=X*X7X2X2X2X7X*X$X' ] [ ! R R R R R ! ! / ) ) +Xo.$X*X7X2X2X2X2X2X2X7X2X<X7X7X7X2X2X2X2X2X2X2X2X2X7X7X*X*X*X*X*X*X*X7X7X7X2X2X6X5X5X5XiXiX5X5X6X2X7X7X=X=X%X$X&X",
"=X%X=X=X%X*X=X7X*X%X=X=X*X=X7X7X*X*X%X*X*X*X*X%X*X%X=X=X$X$X$Xo.( ` o.T T T T Y D D D S S H H H B m M B m B B B m B n n > > - * $ @ @ 1 1 @ @ @ $ % * * - - - > s M S R ` %X5XhXBXGXDXKXKXKXKXKXKXKXDXDXSXVXkXjXhXpXiX5X2X*X=X$X$X$X$X$X=X*X<X2X2X2X2X<X1X1X&X#X^.~.W.H.K.f.s.q.v.j.j.c.j.8.8.3.4.9.h.e.r.D.I ^ ~ ] ] @X#X$X=X*X5X3X#X5X5X#X3X#X3X#X3X#X3X#X3X#X#X#XiX6X5XwXxXxXxXxXwX6X5X#X5X5X7X*X*X7X7X*X*X=X$X' _ ~ W L D S N B } > - - * % @ @ @ 1 @ 1 1 @ % * - , } } n B B B B N B m B B n n } } } } ; > , , , , , , , , ; , > , > > - ; > > > ; > > , > : - : : - - : ; - - : : - ; - : - ; - ; - ; - ; - - ; - ; - : : , , ; - - - - - $ $ % @ @ 1 1 1 1 1 @ @ @ @ % $ $ < - - ; , ; , , , , , : ; ; - : - , > } B Z D L Q ) ] #X3XwX5XxXsXfXzXzXhXhXhXhXzXzXaXaXiXxX5X2X,X#X~.Q.H.D.t.e.;.;.;.e.y.D.D.o.W.^.^.#X#X#XxX2X6X2X2X2X*X-X%X#X/.(.(._ ^.' _ #X+X+X$X=X*X*X7X2X7X7X*X$X+X] ) Q ! R R ! E Q Q / ) ` ' $X$X*X*X2X2X2X2X2X7X<X<X7X*X2X<X2X7X2X2X2X2X2X7X<X*X*X*X*X*X*X%X*X*X<X*X7X7X2X6X6X5X5X5X5X5X5X6X2X7X<X*X=X=X=X$X",
"=X=X=X=X=X=X=X=X=X=X=X=X=X=X$X=X=X&X=X=X=X&X=X*X=X=X=X$X$X+X+X` ( o.T o.o.T Y Y D D S Z H H N N B B B n n B n B n n n n } - - $ % @ @ @ @ @ @ # % $ * * * - > > n M S R ` *X5XhXBXGXDXKXKXKXKXKXKXKXLXDXSXCXBXhXaXiX5X6X2X%X=X$X' +X^.$X=X*X*X2X2X6X4X2X1X1X&X$X$X~.Q.H.K.d.q.l.v.c.c.j.j.j.8.8.3.9.;.e.r.D.I ^ ~ ` ] @X#X&X*X<X3X#X5X#X#X5X#X6X#X6X#X3X#X5X#XwXwX5X5XwX5XyXwXiXwXyX5X5X3X6X6X#X2X2X2X*X2X7X%X=X$X' ) / W L D S N B } > ; - * $ $ % 1 % 1 @ % @ % % - , b } n B n B B m B B m n n } } } > > , : - : ; - - ; - - - : : - - : - - - - - - - * - & - - - - - - - - - - - - - - - - - - < - - - - - - - - - - - - - - - - - - - $ $ $ # @ @ @ 1 1 1 1 @ @ @ @ # $ $ * - - - ; : : , , ; ; : , , : - - ; ; > } B N G R Q ) ' #X#X#XwXwXpXfXhXhXhXhXzXzXzXaXpXiXwXqX>X>X).)._.G.J.t.r.y.:.-.w.w.O.r.D.G.W.^.#X#X#XyX#X2X6X6X3X>X,X-X).`._.W.W.W.W.!.o.o.o.+X$X$X*X*X7X2X2X7X%X=X$X] ~ [ Q ! ! Q Q Q / ) ` @Xo.$X$X$X*X7X7X7X2X2X7X7X2X7X<X:X<X7X7X<X7X7X7X7X*X*X*X=X=X*X=X$X=X=X*X*X*X<X7X7X2X3X2X5X5X5X5X6X2X7X<X*X=X%X$X%X$X",
"$X$X$X$X=X$X$X$X$X$X$X$X&X$X$X$X$X&X&X$X&X$X&X$X=X$X&X$X$X+X@X) o.T T T D o.{ F D S S H H B B B m n n n n n n n n n n > > - * $ # @ 1 @ 1 @ @ @ # $ $ * - - > > v B S R ) *XwXhXBXSXKXKXKXKXKXKXKXKXKXDXGXBXkXhXsXiX5X2X7X*X$X$X^.' ^.$X$X*X7X2X6X6X4X2X1X1X1X$X%X/.Q.H.P.f.s.q.v.j.c.c.j.8.8.3.4.4.;.e.r.D.I I ~ ) ] +X#X=X<X:X5X#XwX#XwX6X#X3X3X#X5X#X6X#X5X#X#X3X5X5X5XxX5XxXxXyXwX5X6X6XwX#X2X2X2X2X*X:X*X=X$X+X) Q ! L D H N B } > - * & $ # @ 1 1 1 1 @ 1 # $ - - ; } } n m B B B n B m n n n } } ; , , ; - - - - - - & - - - - & - & - - * & < * < * * * $ $ * $ $ < < $ $ - $ < $ - $ < $ $ < $ $ < $ < * * * < $ $ < < - < - - - $ $ $ # @ @ @ 1 1 1 1 1 1 @ # % # $ $ * - - : ; , , , , , , : ; , ; - : - , > } B H D R Q ) ' #X#XwXwXiXaXzXzXhXhXhXaXaXsXsXsXwX>X>X;X)._.Q.H.J.F.r.w.w. .-.-.O.O.D.X.^ !.).#X#X3X#XxX6X5X3X3X>X;X).Q.Q.Q.Q.H.Q.Q.W.o.o.+Xo.$X&X=X<X2X2X7X2X=X=X^.' ) / Q Q Q Q ) / ) ) ] +Xo.#X#X*X*X*X<X7X7X2X7X2X7X7X7X<X7X<X*X%X*X%X*X*X=X&X$X=X$X%X$X=X=X=X%X%X*X*X7X7X7X2X2X6X2X6X2X7X7X*X=X=X=X#X^.+X+X",
"$Xo.+X#X$X$X+X+X+Xo.+X+X$X$X+X' $Xo.$X+X+X#X$X$X$X$X$X+X+Xo.o.) o.W o.T Y F F G S S Z H H m B n n n n n n n n n n n n } > - & $ % @ @ @ 1 @ @ % % $ $ * - - - > n N S R ` *X5XhXCXDXKXKXKXKXKXKXKXKXKXDXGXBXkXfXsX5X6X2X*X$X$Xo.o.+X+X^.$X*X7X2X6X2X2X4X4X1X1X1X*X/._.Q.P.d.s.k.v.j.j.j.j.8.8.3.3.;.;.e.r.D.X.^ ~ ` ' +X&X=X<X2X5X6X5XwX>X#X3X#X#X5X#XwX3X3X5X3XwX5X5X5X5XwXyX5X5X5X5X5X3X5X5X6X2X2X2X2X2X2X*X=X$X' ] ~ ! F D S N n } } ; - * $ $ % @ @ 1 X 1 % % $ $ - ; b } n n n m B B m B n n } } > , - - - - - & - - < < * < & * * < - * < $ * $ $ $ $ % $ $ $ $ $ $ % $ $ $ % # $ $ % $ $ $ % $ $ $ * % $ % $ % $ $ $ $ % $ $ $ $ $ $ $ # % @ @ 1 1 1 @ 1 @ @ # # = $ $ * < - , ; : ; > ; , : ; ; : - , - - ; , > } B Z D L [ ) ' #XqX#XxXsXaXzXhXhXhXzXaXaXpXxXeX3X;X).).Q.H.H.D.D.r.w.O.O.i k i O.z X.I ^ o.#X#X5X#XxX#X5X5XwXqX9X[.}.'.Y.Y.P.F.H.G.W.W.!.o.$X#X$X=X=X7X2X2X7X<X=X+X' ] ) ) Q Q Q ) ) @X+Xo.+Xo.$X&X$X=X=X*X*X*X<X7X7X7X2X2X7X:X*X*X=X&X$X$X$X$X$X#X$X$X$X$X$X&X$X=X=X*X*X7X*X7X7X7X7X<X7X*X*X$X&X#X+Xo.+X+X+X+X",
"+X' ' +Xo.o.+X@X$X+X' @Xo.@X+X@X@Xo.o.@Xo.+X$X+Xo.+X@X+X` o.) / o.D D o.D D D S S Z H H N B B n n n } n } n } n n } } > > - * $ # @ 1 1 @ @ @ @ # $ $ & * - - > s B S ! ` %XwXhXBXZXKXKXKXKXKXKXKXLXDXSXVXBXhXaXyX5X2X*X%X$X$X+X+X' $X$X=X*X:X2X2X3X6X4X1X4X1X1X%X-X).H.Y.f.s.l.v.v.j.j.j.8.8.3.1.;.;.w.r.D.I ^ ~ ` ' #X=X<X2X2X5X5X6X#XwX#X#X5X3X#X3X5X#XwX5X5XxXwX5X5X5XwX5X5X5X3X5X5X5X5X5X5X3X6X2X6X2X2X:X=X$X' ) / ! L D S N B } } - - * $ % $ @ 1 1 @ 1 @ @ $ * - , > } } n n n n n B n n n } } > , ; - - - < - $ $ - $ $ * * & $ $ < $ $ $ $ $ % % @ # % % % @ @ @ @ @ @ @ % @ @ % @ @ @ @ @ @ % @ @ @ @ @ @ @ % @ # % % $ # $ $ $ % # % @ @ 1 1 1 @ 1 @ # # = $ $ * < < - - : ; , , , > > ; , , : ; - , - : , > } m H G Y Q ' ' #X#XwXiXpXaXzXhXhXfXfXaXxXyXwX#X#X).Q.|.H.F.F.t.y.w.O. .k j j x x K K I o.!.#X#X#XxXuXyX5XxXwXqX9X}.}.T.E.I.f.E.P.F.H.Q.W.^.o.$X&X=X*X<X2X7X7X<X=X^.' ] ) / [ / ) ] ] o.+X+X$X$X$X$X$X#X$X#X=X=X*X*X7X2X2X2X7X<X*X=X$X$X+Xo.] o.o.+X@Xo.o.+X#X&X$X*X*X*X*X*X*X7X=X=X=X$X$X#X$Xo.+Xo.@Xo.o.o.` o.",
"o.@Xo.` @X` o.` o.` o.` o.` o.` o.@X` o.@X` o.' ' ' ` o.` ) / Q T o.D F F D D S Z H H N B B n n n n > } > } > } > } > > ; - * $ % @ @ 1 1 @ @ % $ $ $ * & - : > v N S R ` *XyXhXBXSXKXKXKXKXKXKXKXDXDXSXBXkXhXsX5X6X:X*X=X$X+X^.+X+X+X$X$X*X7X2X6X6X6X4XuX1X4X1X<X-X).'.P.f.s.l.v.j.j.j.8.8.3.3.1.,.;.w.r.z I ^ ~ ` ' #X<X<X6X5XwX5X5X5X5X3X3X#X#X3X#X#XuXwX5XyXxX5XyX5X5XiX#X3X6X6X3X5X5XyXxX5X5X5X5X6X2X2X*X=X$X^.) Q ! Y G S N B } > - - * $ # @ @ @ @ 1 @ @ # $ $ - , ; > } } n n B B n B n n } } > , , ; - - < - $ - $ < $ $ < $ * * $ $ $ $ $ $ % @ @ @ @ @ @ @ @ @ @ @ @ @ @ @ @ 1 @ @ @ @ @ @ @ @ @ @ @ @ @ @ @ @ @ @ @ @ # % % # $ # % % @ @ @ @ @ @ @ # % $ * * < - - - : - , , ; , , ; , ; , : : ; - - ; ; > } B Z D Y Q !.#X#X3X#XxXiXaXfXzXzXfXaXpXaX#X8X#X;X~.H.H.F.t.t.e.w.w.O.k k h h l J J P ^ o.!.#X#XwX#XyXuXxXwXqXeXtX}.R.R.A.g.g.g.f.P.L.G.~.^.#X#X#X&X=X<X<X7X7X=X=X+X_ ] ) [ ) ) ) ] o.+X$X$X$X$X$X+Xo.#Xo.$X$X$X*X*X2X2X2X2X2X=X*X$Xo.+X] ` ` ` ` ` ] ] ' +Xo.$X$X$X*X*X*X*X*X$X$X$X#X@Xo.@X` o.( ) ( o.( ) ( ( ",
"( o.o.( ( ( o.( ( o.o.( o.( o.o.` o.` ` o.) ` o.` ` o.( ) / Q ! o.D D D D S S Z H H N B B n n n } } } > > > } > > > > - - & $ $ @ @ @ 1 @ @ @ % % $ $ * - - , > n B S ! ) *X5XhXBXGXDXKXKXKXKXKXLXJXFXGXBXkXzXpX5X6X*X%X$X$X$X' o.' $X$X=X*X*X2X2X6X6X6X4X4X4X2X2X,X).'.Y.g.z.l.k.j.j.7.7.7.3.1.*.;.;.w.r.D.I I ~ ' +X$X<X<X6X5XyXyX5X3X3X#X3X#X3X3X3X5X5X5XwXxXwXyXwX5X6X6X6X#XwX6X6X3X5XxXwXwXxXwX5X5X2X2X7X%X#X+X) / R L D S V m } } ; ; & $ % @ @ @ 1 1 @ @ % % $ < - , > > } n n n n B m n n n } } > > ; - < - & * * $ $ & & $ $ $ $ * $ $ $ % # # @ @ @ @ 1 1 @ @ @ @ 1 @ @ @ @ @ @ @ @ X @ @ @ @ @ @ @ @ @ @ 1 @ @ @ @ @ % # $ $ $ % $ % $ % # % % % $ $ $ * * & - - - - - > - ; , ; , , : , ; ; : - ; - : : : > } m Z D L ! ) ' #XqX3XiXpXzXzXzXzXaXiXyX4X<X7X%Xo.o.X.P.i.u.u. .w.-.O.j h l d J G P E ~ _ /.#X#X#X4XuX5XxXwXeXqX0X]. X XZ.z.z.z.x.d.K.H.W.W.o.$X#X&X&X=X<X*X%X%X$X+X' ] ) ) ) ) ] ] ' ^.$X%X$X$X$X$X' _ +Xo.+X#X$X*X<X7X2X2X*X*X$X+Xo.) ) ) / Q ) ) ) ) ` ] ' +X$X$X*X=X*X*X$X&X#Xo.` ) ) ) / / Q Q ~ Q Q [ [ ! ",
"o.( ( o.( o.W o.( ( ( o.o.( W ( ( / / / ) ) / ) ) / ) / / ! ! R Y F D S S S H H H B B B n n } } > > > > > > > > > > > - - * $ # @ @ @ @ 1 @ @ @ $ % * & < - , > v N S R ` *X5XhXBXGXDXDXKXKXKXKXDXDXSXVXBXlXaXiX3X2X*X&X$X$X^.+X#X+X^.$X=X*X*X2X2X2X6X6X4X6X4X6X>X;X[.Y.T.g.s.l.k.j.j.j.7.5.3.1.*.=.;.O.O.K I ^ ~ ' +X&X1X4X5XyXiXwXwX5X5XwX#X5X5X#X5X#X5X5XwXiXiXyX5X6XiX#X2X:X2X6X6X6X5XwXxXiXxXwX5X5X6X2X*X=X^.' _ Q ! Y D S N m } } ; ; < $ $ # @ @ @ @ 1 @ @ % $ $ - - ; v } } } B n n B B n n } } > > , ; - - < - $ * * $ $ * * * & $ $ $ $ $ # % # @ @ @ @ % @ @ @ @ % @ @ # @ @ @ # @ # @ @ @ @ @ @ @ @ @ @ @ @ @ % $ % $ * < $ < < - < < < < < $ < - < - - - ; - - ; , , , , , , , - , ; , : , > , , - - ; , > } n H G R Q ) ' #X#X#XsXiXaXaXzXfXpXzX#X4X*X$Xo.o.X.L.....u.e.<.-. .i j l d d V G { ! [ ' #X:X:XuX4X4XuXxXiXeXtX{.]. XXXA.N.N.l.z.f.K.H.W.o.+X+X+X#X&X=X=X=X=X=X$X' ' ) ) Q ) ) ] ] $X$X$X$X$X$X' ' ] ` ) ` ' o.$X%X*X7X7X:X*X*X$X+X` ) / ! E ! ! ! E ) ) ) ` o.+X$X$X=X=X$X$Xo.@Xo.o.Q ! ! W E W E W ! W ! W ! ",
"W ( o.W o.W o.W ( Q o.W ( W o.W / [ / Q [ / / [ / [ / [ ! ! R L { F D S S H H N B B n n n } > > > > > - - - - - - - - - * $ $ % # @ + + @ @ @ % $ $ $ - < - - > s N S R ) %X5XaXNXVXSXDXKXKXLXKXDXDXSXVXBXkXaXiX5X:X*X*X$X$X^.$X$X#X$X$X%X*X<X2X2X2X3X6X6X6X2X>X,X[.`.Y.I.g.s.l.k.j.j.j.8.5.3.1.*.;.;.w.r.K I ^ ~ ] +X&X<X2X6XwXxXwXxX5X5X#X#XqX#X#XwX3X5XyXxXxXiXwXwX5X3X6X#X3X#X6X#XiX5XyXxXwXxXxX5X3X2X2X*X$X#X' ) / ! Y F S H B n } ; - < & # @ @ @ 1 @ 1 @ @ # $ * * ; : > > } n n B n n n n n } } > > , , - - < * - $ * * $ $ * $ * * $ $ $ $ % $ $ $ # $ $ $ # $ * $ $ * $ $ * $ $ $ $ $ $ * $ * $ * $ $ * $ $ $ $ * < - - ; : > > } > > } > > > > > ; ; ; ; ; ; ; ; ; ; ; ; - , - , ; > ; : ; , ; , ; - - , ; b } B H D Y Q ) ' #X3X#XwXiXaXzXaXfXaXpXyX<X*X%X$Xo.o.X.K.y.e.:.:.-. .k j g d C V G { ! / ' +X#X3X2X4XuXuXyXwXwXtX{.]. XA.Z.N.N.M.z.a.K.J.W.o.] ` @X@X@X#X&X=X$X$Xo.@X) ) ) Q ) ) ] ] ' $X$X$X$X$X' ' ` ) ( ) ) ) ' #X&X*X*X=X&X$Xo.` / Q ! R ! R ! ! ! Q Q ) ) ] ' +Xo.&X#X+X@Xo.( ) ! ! R R Y R L R R R R R R R ",
"( W W ( ( W ! R o.W ( W ( W Y o.! Q ! ! ! ! ! ! ! ! ! R R R Y F G D S S H N B B B n n } } > > > - - - - - - - - - - - - * $ $ # @ @ X @   @ @ # # $ $ $ < - ; > v n S R ) $X5XaXkXCXZXDXDXJXLXDXDXDXZXVXBXhXaXiX5X6X*X*X&X$X$X$X$X$X$X$X$X=X*X<X2X:X2X:X>X,X>X[.[.'.'.T.f.g.q.l.k.j.j.7.5.3.2.>.*.;.;.w.r.K I ^ ) ] +X&X<X2X5XxXxXiXyX5X5X5X5X#X3X6X6X6X3X5XyXwXyX5X5X5X#X3X6X#X6X3X#X3X3XyXyXxX5X5X5X6X2X7X%X$X^._ ) Q R L F S H N n } ; - < $ $ % # @ @ 1 @ @ % # $ * * - ; > } } } n n m B n M n } } } > > , , ; - - - - $ - - * * < * * & < < $ * $ $ < $ $ - - - : , ; ; ; > ; , ; > > > : > > ; , ; > ; > : ; ; : } > > } } M m B N N N V N H N H N H m m s s s s p ; p ; ; ; ; ; ; , , , , , : : : - : - - - , > } B Z D Y ! ~ ] #X#X5X5XiXsXfXzXaXfXfX#X2X*X$Xo.o.L.K...y.e.:.y.-.O.j l l C V S D Y ! ( ) ^.#X#X4X#X4XuX5X5XqX9X}.R. XA.N.N.v.l.l.p.t.F.G.^ ~ ) ` ` ] +X+Xo.+X' ' ] ) ) ~ Q ~ ~ ` ] ' ^.$X$X$X' _ ` ) ~ Q ! [ ) ] ] #X#X=X$X$X+X` ) ! ! R L Y Y L R R ! ! Q Q ) ) ] @Xo.+X` ` o.( Q R R L Y Y F Y Y F { Y F L F ",
"W W ! ! ! ! ! o.T ! ! ! ! R ! R R R R R R R R R R R R L R Y Y G D S S Z N N B n } } > > > : - - - & * - & * * - - & * $ $ # % @ @ @   @ 1 @ @ # % % $ - - - - > v B S L / $X2XpXlXBXVXSXFXDXDXDXDXSXGXVXBXlXzXiX5X6X:X*X*X&X$X=X$X$X&X%X=X*X*X*X:X:X:X,X;X).[.[.'.'.T.I.g.s.l.l.j.8.8.8.5.3.3.1.*.;.;.w.O.K I ^ ^ ] +X&X<X2X6XxXwXxXyX5X3X#X#X5X#X5X#X5X6XiXwXyXyX5X6X3X3X#X3X#X#X:X3X6X6X5XyXyXuX5X4X2X<X*X$X$X_ ] ) Q ! L F D Z H B } > , - $ $ % @ @ @ 1 1 @ @ % $ $ - - ; > > } } n n B n B n n n } } } , , , ; - - - - * - < < < < < < < < - < : : : : b b > } v n n B B B B B B B B B B N M M M M M M m M M M M M m H H H S G F Y Y R R R R R R R L F G C V f d s p p 2 ; ; ; - ; , , , , , , ; ; > , ; : ; ; ; b } B N S Y E / _ #X#XwXxXiXpXaXzXzXsXiX#X2X*X$Xo.o.o.L.X.y.y.y.y.w...x l C V S S D R W ! / +X+X#X#X4X4X4X4X6X8X9X[.R.U.Z.z.k.l.k.0.u.t...I I ! Q / ( ( ) ] ] ] ) ) ) [ / Q ! Q / ) ) ] ' ' ^.' ' ` ) ! ! ! ! ! ! [ ) ] o.o.+X` ` / Q R L Y F F F F Y Y L R R ! [ ) ) ) ` o.) ( Q Q R Y F F F G D D F F F F G F F ",
"T R R R R R R R T R R R R R R R R R L Y L Y L Y Y Y L Y { F F S S S H H N B n n > > > - - - & * * * $ $ $ $ $ $ $ $ $ $ % % @ @ @   @   @ 1 @ # # $ $ $ $ - , > n N S R [ +X:XiXhXkXBXVXSXSXDXDXDXDXSXVXBXkXhXpX5X6X6X*X*X*X*X*X*X*X*X=X&X*X=X*X*X%X-X).).`.'.Y.T.I.g.g.s.l.q.l.j.j.8.8.5.3.3.1.*.=.w.w.r.K I ^ ~ ] +X$X1X<X6X5XwXyX5X3X5X5X5X#X3X#X3XiX#XiX5X3X3X6X2X#X#X:X#X#X#X#X#X6X#X6X5X5X6X4X2X2X*X$X#X+X' ) / Q ! R Y D S H B n } , - < * % % @ @ @ @ 1 @ # $ * < - - > } } } } n m B m B n n n } } } } > > , ; ; - - - : - - : : : : : : v b b v b n M N Z A S D D G F G F F G F D G D G F G F F D F G G F G F F Y Y R ! / ~ ) ] ] ] +X+X+X' ] ] ~ [ U J C f a p p p p p ; ; , , - , : : , : : ; - : - - - > > } n N G F ! / ] #X#X#XwXiXaXzXzXfXpXaXgX2X*X=X$Xo.o.X.X.D.J.r.r.r.z z J J G D D D T T ( / ] _ +X#X#X#X4X7X2X;X;X[.T.U.g.l.l.k.6.9.e.y.X.U P L R T W / / ) / ) ) ) Q ! ! ! ! ! Q Q ) ` ] ] ' ` ` ~ Q ! R L R L R ! Q Q ) ) ) ) Q ! R L Y G F G F G F F F L Y L R R E Q Q Q Q ! R R Y F G D G D D D G S D D D D D ",
"R Y R R Y R R Y R Y Y R Y L Y { F { F F D F F F F F F D F S S S S Z H N B n } > > - - & $ $ $ $ $ $ $ % $ # # $ # $ # $ % @ @ @ X @   @ X @ @ @ % $ $ - - - > > v N S F Q ' *X5XaXhXkXVXGXZXSXDXDXSXFXVXBXkXhXaXiX5X3X6X6X:X<X:X*X*X*X*X&X=X=X*X%X%X/.).Q.Y.Y.E.f.g.s.s.s.q.k.k.8.8.8.3.3.3.1.1.*.;.;.w.O.D.I I ~ ] ' #X=X<X6X5X5X5X5X6X3X3X#X3X#X3X3X#X#X5X#XiX6X:X6X:X>X#X#X#X#X#X6X3X5X5XuXuX2X2X7X=X=X$X' ' _ / / Q ! R L F S H B n } ; ; < $ $ @ @ @ @ X 1 @ # $ $ - - ; > } } n n n B B n n n n n } } } } > > > , > > , , - : : : b b b b b v M M M M A A D T R R ! Q Q [ / E / [ Q Q Q / Q Q E Q Q Q ! Q [ ! Q Q / [ ^.+X+X#X#X2X#X2X2X2X6X2X2X:X7X/.!.^ U l l c 6 5 5 p 2 ; ; ; , : : : , , , , : - ; - - - , > } B N S F ! [ ] #X#XwXwXiXsXfXzXfXaXpX5X6X7X%X%Xo.`.o.L.J.J.D.G.X.K K J J { F F Y T T Q / ) ] _ #X#X#X#X<X*X-X).|.Y.d.s.z.k.k.4.<.:.....J J G D Y T T ! ! E Q Q R R R E R ! R ! ! Q ~ ` ) ) ) [ ! ! R R F Y Y F Y R R E ! E R R L Y F D S D S S S G D F F F Y Y Y L R R R R R Y F D G D S S S S S D S D S S S S ",
"F Y { F F Y { Y { Y { F F F F F D D S S S S S S S S S S S S S S Z H H m B n } > - - $ $ $ % # # @ % # @ @ # % @ % @ % @ @ @ @ @ +   @   @ @ @ # $ $ $ * - - > > n n N F Q ] *X6XiXhXkXBXVXGXSXSXSXDXSXGXBXBXlXaXpXwX5X5X6X2X2X2X2X<X<X*X1X=X=X$X$X/._.Q.H.Y.E.f.g.z.s.l.l.k.8.8.8.8.8.3.3.3.1.*.*.;.-.w.r.K I I ) ] +X#X=X<X2X6X5X5X6X6X#X5X6X#X3X#X#X3X3XyX#X3X6X3X#X3X#X#X#X^.#X,X#X#X#X5X#X5X2X1X*X=X#X+X] _ ) ) Q Q ! R L F D S H B } } - - * $ $ % @ @ @ @ % % % * * - - , v } } n n n B m N n N n n n } n n } } } } > } > b b v b v b v n M M M A A T T T W Q ) ) ' ' ' ^.#X#X#X' ' ^.^.^.+X+X+X^.+X^.+X+X' ' +X^.#X#X#X#X2X3XwXsXaXaXaXzXfXfXaXaXwX3X-X_.G.K l c c 6 5 p 2 p ; ; , : : : : - ; , , , , - , ; , > } n N S F R [ ) /.#X#XwXxXaXaXzXzXfXiXwX4X:X*X*X,Xo.o.o.o.X.G.X.I I I P L L Y Y Y R R ! ! [ / ) ` #X#X#X&X=X/.).Q.L.P.p.9.0.4.,.;. ...j d V V Z Z D D F Y R R R R R R Y F F L R W ! Q [ Q ) Q ! ! R F D D S S D D G Y F Y Y F Y F S S S Z Z V Z Z Z S S S S S F D G F Y F F G D G S S S H H Z H N H H H S H S V ",
"F D F F G F F D F F D F D D D S S H H H H H H H H H H H H H H H H N B m n } > - - $ $ # @ @ @ @ @ @ @ @ @ @ @ @ @ @ @ X @ 1 @   + + @   @ @ @ # $ $ $ $ - ; > , n n V F ! ` $X6X5XaXhXkXBXVXVXFXSXDXSXSXVXBXkXhXaXpXiX5X5X3X6X6X6X2X<X<X*X=X&X$X^.(.~.Q.H.P.f.s.s.l.l.k.k.j.8.8.5.5.5.3.3.1.1.*.*.;.-.w.r.K I ^ ~ _ #X#X#X5X#XyX5XpX3X5XyX#X#X3X#X5X#X5X3X#X5X#X3X#X6X:X#X#X^.#X#X#X#X#X6X#X3X#X<X=X=X$X+X' ] ) ) ) Q Q Q R L Y F S H B } } ; - < $ $ % @ @ @ 1 @ % % * < - , ; } } } n B B B B m n B n B n n n n n n n n n } n } n } } n n n B N Z S D F R ! Q / ' #X#XqX#X#XwX#X3X#X#X5X#X#X6X:X#X2X2X#X3X2X#X2X#X3X2X2X2X5XwXiXaXhXlXkXNXNXBXBXBXPXkXlXdX9X).J.X...y y 6 6 5 5 p ; ; ; , - , : : ; ; : ; - : ; - > > } n B S F R ! ) #X#X#X5XwXpXaXzXfXaXiXxX6X2X7X*X%Xo.o.o.o.o.o.o.X.E o.E R L R L Y Y R R ! E Q / / ] #X` +X#X(.~.Q.H.h.h.<.<.=.*.:.i j c d s m N B Z A D F F F F F F F F D F F L R R ! ! ! ! ! R R F G S S V Z Z S S S V S S S S Z Z H H H N N H H N H H Z Z Z Z S S S S S S V S H S H N N N N N N N N N N N N N ",
"S S S D S S S S S D S S S V H H H Z H N N B B B B B N B B B B N N B B n n > ; - $ $ % @ @ @ @ 1 1 @ @ @ 1 @ @ @ 1 @ @   @ 1 1 1 + @   @ @ @ # % % $ < < - - , , n B S F ! ) ^.*X5XpXaXlXBXVXVXSXSXSXSXZXVXBXkXhXaXsXpXwX5X5X5X5X6X2X2X*X*X&X=X@X#X!.W.H.H.d.p.s.q.l.k.k.j.8.8.8.8.5.3.3.3.1.1.*.*.;.e.w.O.D.I ^ _ ^.#X#X#X#X5XwX5X#X3XiX3X3X5X#X3X#X3X#X#X3X#X3X#X:X#X#X#X#X+X+X-X#X#X#X#X>X#X#X%X%X^.#X_ ' ) ) ) Q Q Q ! R R Y F S H N n } , - - $ $ % @ @ @ @ @ # $ $ < ; ; > > } } n B } B B B N B B m B N B m B B B N B B m B m m B m m V C V G { L E [ _ ] /.#X#X#XwXwXxXsXxXwXzXiXwXaXwX5XwXyXxXwXyXwXwXyXwXyXyXwXwXiXaXaXjXkXNXCXVXGXGXSXSXSXSXAXnXnXrX[.|.J...i w 8 8 6 5 p p ; ; , , , : ; : , : : ; , - , , > } n N S G Y ! ) /.#X#X5XwXiXaXzXaXsXiXwX6X2X*X%X&X%X$X^.o.o.o.o.o.o.E Q ! R R R R R R R R ! ! Q Q / / ` ' _ _ W.G.D.t.e.;.,.=.:.#.i y a s s n n M M Z Z S G D S D G D S S G D D D Y R L R R R F F G S S H N N N N N H H Z Z N H N H N N N B N N B N B N N H N H N N N N N N N N N B B N N N N m N N N N N N m B ",
"H H H H H H H H H H H H H N N N B B B n n n n n n n n n n n M n n n n n } > - - $ # X 1 @ 1 1 @ 1 1 1 1   @ 1 @ 1 @ @ @ 1 1 1 1 @ @   @ @ @ @ % $ $ $ < - - > v n N Z D R ) ' *X2XwXaXhXkXBXVXGXSXDXDXZXVXBXBXkXhXaXaXpXiXyX5X5X6X2X2X<X1X&X$X@X^.!.W.G.F.i.f.s.l.l.k.k.8.8.8.3.3.3.3.4.1.1.1.=.;.-.w.r.D.K I ^ ~ ] #X#X#X5XwX#X#XiX5X#X#XyX#X3X#X3X#X3X#X3X3X#X,X#X#X-X-X^.#X#X/.^.^.^.)././././././.^._ ' _ ) ) Q Q Q ! ! L Y F S H B n } , , < * $ % @ @ @ 1 @ % $ * < - ; , } } } n n n B m N N N N N N N N H N Z Z H S S S V V V C C C C C J P P I ^ ^ !.~.#X#XeXwXiXaXaXzXzXfXaXfXzXzXaXzXaXaXaXaXaXaXaXaXaXsXsXpXaXzXhXlXNXCXVXSXFXFXJXJXJXJXDXFXGXnXcX0X'.K.r. .w w 8 8 6 p 5 p ; ; ; ; > , , > ; ; : - - , , ; } n N H D Y ! [ ^.^.#XqX5XpXzXaXsXpXiX5X6X2X*X*X$X$X^.o.+X+X` ` ( o.W W Q E R R R L R R R R R ! ! ( / ( ) ) _ ^ X.D.r.e.:.:.$.#.t u h a p s } > v v M M Z Z S S S S S S S S S S D F D Y F R Y D D S S N N N n M n B M m N m n m m M m B n n B n n B n m n n B n n N m n B B B n n B n n n B B n n B B n n B n B ",
"B B B B N B B N B B N B B B n n n } } } } v } } } } n } } v } n n } } > > - - * $ % @ @ @ 1 1 1 @ @ @ @ @ 1 @ 1 @ 1 @ @ @ @ @ @ @ 1 @ @ % @ # $ % $ - - - ; > s n B S G ! Q ' %X2X5XpXzXkXBXVXGXSXSXDXSXGXVXBXkXlXhXaXsXpXiXwX5X3X2X2X*X=X&X$X$X^.^.W.H.H.P.d.a.q.q.q.q.8.8.8.8.3.3.1.1.,.,.=.;.;.e.w.O.D.I ^ o._ ' #X#X#X#X#X5X#X3XiX#X3X3X3XiXwX#X5X#X3X#X3X#X#X-X#X#X/.#X^.^.^././.~.~.~._.~.~.W.!.!.!._ ) ) ) ) Q Q ! R R T D S Z H n } } - < $ $ % @ @ @ @ @ # # * - - , > } } } n n B B B N N H N N S Z S S D D F F F G { { P J J J K K K K X.X.G.G.Q.Q.`.9X9XeXdXdXhXhXlXjXlXjXjXlXjXhXjXlXhXlXjXhXlXhXhXhXhXhXhXjXlXkXBXCXGXZXFXDXJXJXKXKXKXKXJXLXmXbX0X}.K.u.:. .e q 0 8 6 f p p p ; ; ; ; ; ; : , - : - , , > > n B H S F R Q ] ' #X6X#XaXiXsXsXpXxX5X2X7X*X=X$X$X#X+X@Xo.( o.( ( o.Q Q ! R R R R R Y Y L R R R ! W Q / [ E ^ X.K O.w.-.#.#.| t w 9 p p s ; > v v M M N N N Z V N N N N Z V S S S S G G D G S S N N N n n n n n n n n n n n n } n } n } n n } n } n } } n } n } } } n } n } n n } n n n } } n n } } } n } n } ",
"n n } } } n } n n n v } } v v v v } ; > , ; , , ; > > > > > > > > > > ; - - * $ $ @ @ @ 1 1 @ @ @ @ @ @ @ @ @ @ @ @ @ @ @ @ @ @ @ @ @ @ # # % $ $ < - - - > > > n N S F R Q ] $X*X6XiXaXhXNXCXVXSXDXDXSXSXVXVXBXkXjXhXaXsXpXwX5X3X2X<X*X=X&X$X+X^._ !.W.H.F.P.d.f.a.s.q.0.6.6.3.4.4.1.,.=.;.;.w.w.w.r.D.X.G.^ o._ ' #X#X#XyX#X#XwX3X5X#XiX5X#X#X#X3X3X5X#X#X3X#X#X#X#X#X$X#X#X^.^.!.~.W._.G.Q.W.G.W.W.W.!._ _ ] ) ) ( Q ! R L F D S Z B n } } - - * $ % # @ @ @ @ # % * < - ; > } } } n n m B N N N S Z S S S G F Y Y T W W ! E P I K K r.D.r.D.D.F.F.F.Y.|.|.[.0X0XrXdXlXkXBXBXPXPXBXPXBXkXBXNXNXNXNXNXNXkXkXkXkXkXkXkXkXNXBXBXVXGXSXDXDXKXKXKXKXKXKXKXJXFXbXvX.XI.i.;.:.| | w 0 9 6 p p p p ; ; ; ; ; ; > - > , ; ; > } } B N S F R ! ~ ] #X#X6XsXwXpXiXxX5X#X2X*X=X$X+X+X@X@X@X( ( ` ( ( W Q Q Q ! ! R R Y L Y Y L Y R R R ! ! E E P K z O.O. .t t t w 8 6 p p ; ; > v v v n n B N B N N N N N N N N V Z S S S S S S N N M B n n n } } } n } } } } } } } v v v v v } v > } v } > } > } v v > > > > } > } > } } } } > } > } } } } } } ",
"; > > v v ; > > > ; > > > , ; ; - - - - - - - - - - - - - - - - - - - - - & $ $ # % # @ @ @ @ @ @ @ @ @ X @ @ @ @ @ @ @ @ @ @ @ # @ % # % $ $ $ $ < - - > > n n B N S F ! / ] $X*X6XwXaXhXnXCXGXSXSXSXDXFXGXVXBXnXkXjXzXaXpXiX5X6X6X<X*X&X@X+X+X' _ W.W.Q.H.K.P.d.f.p.a.0.0.4.4.3.1.,.=.;.;.:.y.r.r.D.G.X.^ o._ ' #X#X#X#X#X5X3X#XiX3XiX#X5XiXwXiXiX#X#X3X#X#X#X#X#X#X#X#X#X#X/.^.!.W.W.G.G.F.F.F.H.H.W.W.!._ ' ] ) ) Q ! R L F D V H B } } , ; - $ $ # @ @ @ @ % % $ * < - ; > > } } n n B B N N H S S D G F Y T W Q ( ( ) _ ^ o.G.G.F.F.F.d.h.d.f.E.E.E.E.R..X{.0XbXnXnXBXCXCXCXVXCXCXCXVXBXCXVXBXCXCXCXCXCXCXBXBXBXBXBXCXCXVXGXSXSXDXDXDXKXKXKXKXKXKXKXFXmXvX.XU.f.<.,.@.| | t 0 9 6 a 5 p p p ; ; ; : : > - - , - > } } B B V D Y R Q ] ^.#X#X#X5XiXwX5X5XwX7X=X$X^.o.@X` ` o.o.` ( o.( ( Q ! Q R R R R Y Y { Y F F Y F T T Y R L P J l x u i t t w y 6 6 p p ; , - , , v } n n n n n n n n n n N N N N N N N N N N N B B v n } } } } } v } } } } v v > > > > > > ; > > > ; > > > > > > > ; , , > ; > > > ; > > > > > > > > , > > > ",
"- - - - - - - - ; - - - - - - $ < < * $ * * * * $ * $ $ & $ & < * $ * $ $ $ $ $ # % % @ @ % % @ % @ @ # @ % % @ # # % # # % % @ @ % # $ $ $ $ $ * - - - > > n n N N S F R Q ` $X*X2X5XaXhXkXBXVXSXDXSXDXFXSXVXVXBXnXkXhXaXaXiX5X6X:X*X*X$X$X+X' ' !.o.!.W.Q.H.|.L.P.d.d.p.9.9.4.,.*.,.;.;.w.r.r.r.X.X.G.^ o.!.^.#X#X#X#X#X3X3X#XwX#X#XiX3X5X5X5XiX3X#X5X#X>X#X#X#X/.#X#X#X#X#X-X~.~.Q.G.F.F.t.t.t.D.F.G.W.W.~.^.' ] ) Q ! R Y D G Z B n n } , - - < % % @ @ @ @ @ % $ $ * - , > } } n } n B N N H H S D D Y R R ! ( #X#X#X#X^./._.|.|.E.d.E.s.x.x.z.x.x.XXXXXXoXoXvXvXmXnXGXGXGXAXAXAXGXGXGXGXVXGXGXGXGXGXVXVXVXVXCXCXCXCXBXVXVXGXSXSXDXDXDXDXKXKXKXKXKXLXZXmXvXoX Xx.0.4.*.%.+.r w y 9 6 6 p p p ; ; ; > - : : : : > > } } n N N S G R Q ~ #X#X#XwXiXwX5X3X#X5X*X$X@X@X+Xo.o.( o.( ( o.Q Q Q Q ! ! E R W L L Y F F F F D F F Y F F F J J l h y w w 0 0 8 6 6 p ; ; , , , , v v v v n n n n n n n n n n M n B B n N n n n n n s } } } } } } v v v > > > ; > > ; , - - > - , - - - ; - , - - - - - ; - ; , , - , ; - , , ; - , - - , ; : ",
"$ $ $ $ $ $ * $ $ $ $ $ $ $ $ $ $ % $ $ % $ % % % $ $ $ $ $ $ $ $ $ $ $ # $ $ # % $ # $ $ # # % $ # % $ # # $ # % # % # % # # % # $ % $ $ $ $ - - - ; > > n n n N S G F ! Q ] o.$X2X3XpXaXkXBXVXSXSXDXDXDXFXSXAXVXBXkXkXfXsXiX5X6X<X*X&X$X$X$X+X' ' !.!.(.W._.Q.Q.|.K.K.h.h.<.<.,.,.=.;.w.r.O.D.X.I ^ ^ o.o././.;X#X#X#X#X3X#XyX#XwX#XwX5X5XwXyXyX5X3X3X3X#X>X#X#X/.#X#X#X#X#X#X/.~.G.H.F.r.t.h.t.t.D.H.W.~./.' +X' ) ( ! R F D S H B m } } } - - $ $ % % @ @ @ @ # % * - ; , > > } } n n B B N S S D G F R ! / ( ` #X#X#X#X#X).`.'.E.U.x.Z.A.Z.A.A.S.A.A.A.OXOXoXvXvXmXZXGXSXSXSXSXSXSXSXSXSXSXZXSXSXGXSXGXGXGXGXVXVXVXVXVXGXGXGXSXSXSXDXDXDXJXKXKXKXJXLXZXMXvXoX Xx.0.6.1.*.%.+.r w 0 6 6 6 p p p ; , > > : > - - : > > } n B N S G Y ! ~ (.#X#X#X#XwX#X6X5X#X$X+X@X` o.` ( ( ( ( ( W Q Q ! Q Q R R R Y L Y Y F F D F D D D D D S V C C g c 9 y y 0 8 9 7 5 p 2 ; ; , , b , v > v s > n > v v v s > n v n n s n n n n n } } } v > > > > > > > > > > > > - - - - - - - - - - - - - - - - - - - - - < < - - - - < - - - - - - - - - - - ",
"% % # % % # % # % # % % @ # % @ % @ @ @ % # % @ @ @ % @ @ % @ @ @ @ % @ # % # # % $ $ # $ % $ $ $ $ % $ $ % $ % $ # $ % $ $ % $ % $ $ $ $ - $ & - - > > > } n B H Z D Y R Q ) +X$X<X2XiXaXjXPXCXGXFXDXDXDXSXSXSXVXCXnXNXzXaXiXyX2X7X#X7X#X#X#X^.^.' ^.^.#X)./.)._.Q.H.F.i.h.;.<.*.=.;.;.w.r.D.I I ^ ^ _ /./.#X#X#X>X3X#X#X3X#X5X2X2X2X6X5XxXxXxX5X5X3X2X7X#X#X#X^.#X#X#X*X#X7X%X/._.H.F.F.e.e.e.e.t.t.J.G.~.(.$X@X@X` / ! Y F D V N B n n > > - * * $ % @ @ 1 @ @ # $ * < - ; ; } } } n n B N N V S F F R R / ) ] #X#X#XyX3X8X9X{.].XXXXA.S.S.S.S.V.S.S.S.S.OXOXOXoXvXMXmXZXSXFXFXFXFXFXAXFXFXSXSXDXSXSXFXSXSXAXGXGXAXVXVXVXVXVXGXGXGXSXSXFXFXFXDXJXDXDXLXmXmXvXoXXXz.l.q.2.>.>.>.| | | 7 6 5 6 p p ; > ; : : : : - , ; > > n B N N S F R R o.o.@X&X*X7X<X<X&X&X#Xo.o.( o.( ( Q Q E Q R ! ! R R R R W R Y Y Y F F D F S S S S S S H V C d a 6 6 6 9 8 4 4 6 5 p & ; ; > , , > > > > > > } } > > > > > > } > } > n > } > > > > > ; > > > ; > > ; > , ; - , - - $ * & * * & * * * & * * * * & * * & * < * * < * & * * * & * * * & < < & * ",
"# @ @ @ @ @ @ @ @ @ @ @ @ @ @ @ @ @ @ @ 1 @ 1 @ @ @ @ @ @ @ @ @ @ @ @ @ @ # % # % $ $ $ $ $ $ $ $ $ $ $ $ $ $ $ $ $ $ $ % $ $ $ $ $ $ $ $ $ - - - - > > } n n N H Z G Y R ! ) o.$X=X2XyXsXhXNXCXGXSXSXDXDXSXDXZXGXVXBXkXhXaXiX5X2X7X7X#X#X#X^.#X#X^.^.#X#X7X*X%X/.)._.H.F.t.h.;.;.;.;.w.O.D.D.I ^ _ _ _ #X#X#X#X>X#X#X#XwX#X#X#X7X7X2X6X3XxXxXiXwXxX3X2X7X7X*X#X^.#X#X#X#X7X#X%X~._.G.F.t.e.e.;.;.y.t.J.Q._./.%X+Xo.) / ! Y F S H N n n } } > ; & * $ # @ @ @ @ @ % % * < - ; > > > } } n n N H S D F R E Q ) ' ^.#X6X#XwXqX9X0X.XoXXXXXS.S.S.S.S.S.S.S.S.S.OXOXOXOXMXmXZXZXSXFXFXFXFXFXFXFXFXSXSXSXFXDXSXFXSXFXAXGXVXVXVXVXVXAXVXVXVXGXGXGXGXSXSXFXSXZXZXmXvXvXXXXXx.l.k.3.>.>.| | | |  .4 6 6 p 2 ; ; , : - : : , , , > } } n B N S S Y R W Q ( @X$X&X&X#X$Xo.` o.( o.W W Q W ! R R R R R R R R R L Y L F F G D D S S S A Z Z N m N m f f a 6 4 4 4 7 7 5 p 2 ; ; , , , , , , > > > > > : > ; > ; > > > > > > > > > > > > > > , , , , ; , , , , , - - - - & < * * $ * * % * % $ * & $ $ * * $ $ $ * $ $ * $ * * $ * * $ * * $ $ * $ $ ",
"@ 1 @ @ @ 1 @ @ @ @ 1 @ @ @ @ 1 1 @ 1 @ @ 1 @ @ 1 @ 1 @ @ 1 @ 1 @ 1 @ @ @ @ @ % # % $ $ $ $ $ $ $ $ $ $ $ $ $ $ $ $ $ $ $ $ $ $ $ $ $ $ * < - - - , ; > } n n N H S G Y R ! ) ] o.*X:X5XiXzXlXBXVXGXSXDXDXDXSXSXGXVXCXNXlXaXiX5X2X7X7X#X%X#X#X#X#X#X#X#X#X#X#X#X%X/._.Q.J.t.h.e.e.;.e.e.r.D.I ^ ~ ] ] #X#X#X#X3X#X5X#XqX3X#XwX#X7X7X7X3X5XxXxXwX5XxX6X2X7X#X-X#X#X#X%X#X#X7X:X%X/._.G.F.r.e.e.;.e.y.t.J.G._.o.&X+Xo.) / W Y D V Z B B n v } > - < * $ % % 1 @ @ @ % # $ * - - , > > v } n n B N H F Y R Q ) ' ^.#X#XqXqXqXtX0X0XoXXXOXS.OXS.S.V.S.V.V.S.S.S.S.OXOXOXMXmXmXZXSXSXAXFXFXAXAXSXSXSXSXSXFXSXSXSXFXAXGXGXVXVXCXCXAXCXVXVXVXVXVXVXGXGXGXSXZXZXmXmXvXoXoXXXx.z.l.6.>.>.| | | | 4 8 7 6 p p 2 ; - - : < - : , > > } } n B m N S G Y R o.( o.o.@X@Xo.o.o.( o.W W ! R R R R Y Y L Y Y Y Y Y F Y F { F G D G V H H N Z N N B B n m s f p 6 6 4 7 7 5 5 p 2 & ; ; : , , , ; , ; , ; ; ; : : ; : - ; > : ; - ; : > - - - - - & - - - - - - - - - - - * * $ $ * % $ $ % % $ $ $ % $ $ $ # $ $ $ $ % $ % $ $ % % $ $ $ # $ % $ $ $ $ $ ",
"1 @ @ @ 1 @ 1 1 @ 1 @ 1 1 1 @ 1 @ 1 @ 1 1 @ 1 @ @ 1 @ 1 1 @ 1 @ 1 1 @ 1 @ @ @ # $ $ # $ $ $ $ $ $ $ $ $ $ $ $ $ $ $ $ $ $ $ $ $ $ $ $ $ * $ - - - > > > } n n N H S S F R E Q ] +X$X*X2XwXaXhXNXBXVXGXSXSXSXDXSXSXVXCXNXhXzXiX5X2X7X7X7X#X-X#X-X-X#X7X#X2X#X4X4X*X%X/.Q.G.F.t.t.e.e.r.r.D.G.^ ^ _ ] #X#X#X5X#X#XwX#XwX#X#X3X#X5X<X7X2X6X6X5X5XwXwX5X6X6X2X:X#X#X#X#X#X7X<X#X*X%X/._.W.F.r.t.w.-.w.y.r.J.G.W.o.+Xo.@X/ Q W F D S H N B n } > > - & * $ $ @ @ 1 @ @ # $ $ * - - , > , > } } n B N S F R Q / _ ^.-X,X>X9X9XtX{.vXoXoXXXOXOXS.S.S.S.V.S.V.V.C.S.S.OXoXMXvXmXnXCXVXVXAXCXVXVXVXVXVXAXGXGXAXAXSXAXAXAXVXVXCXPXCXPXPXPXBXBXBXCXCXBXCXnXnXnXmXbXbXvXvXoXXX Xx.z.0.9.,.=.| | | 8 8 8 4 5 5 2 & & - : < - - : - > > > > n n B H N S D { ! W ( o.o.( ( ( o.( W T R R Y Y F F F F Y G F G F F F F G D D S S H Z Z N N B B M M M s s s p 5 p 5 5 5 5 5 p 2 2 ; ; ; , , , , : , : : : : - : - - - - - - - - - - - - - - - - - - - - - - - - - - * $ - $ $ $ $ # @ % $ # $ # $ # # # % % $ # # $ % % % $ % # # % % # % $ % $ # # % # % ",
"@ @ @ 1 @ @ @ 1 @ 1 @ 1 @ 1 @ @ @ @ 1 @ @ @ 1 @ @ 1 1 @ @ @ @ 1 @ @ @ @ @ @ # % # $ $ $ $ $ $ $ $ $ $ * $ * $ $ $ $ $ $ $ $ $ $ $ * $ $ - $ $ & - , > > } n n N Z S G F L ! [ ) ' +X*X7X5XiXzXjXBXBXVXGXGXSXSXSXGXVXCXNXlXaXiXyX2X7X#X#X7X#X7X#X7X7X#X2X#X4X4X#X#X,X/._.Q.H.F.F.t.D.t.D.G.G.o.!.' #X#X#XuX#X#XiXwX#X#X5XwX3X#X5X#X6X2X2X6X3X5X5X5X5X3X2X7X*X#X7X#X*X<X#X#X#X7X7X/.~.W.G.D.r.w.w.w.r.D.X.X.o.o.o.@X( / ! R F D S H B B n v } - , - * $ % @ @ @ @ @ % % $ $ < - ; ; , , > } n n Z S Y W / ] +X#X8X;X;XtX0X{.oXoXoXoXOXS.A.S.S.S.C.V.V.V.C.C.C.C.A.XXoXvXcXbXnXBXPXPXPXCXPXPXBXBXCXCXCXVXAXAXAXCXPXPXPXNXNXjXNXjXjXNXNXNXBXBXnXnXnXbXbXvXcXvX0X.X.X X Xx.f.p.u.<.:. .| | | 8 8 7 3 5 2 & & $ * < < - - : ; > > } } } n m N H S G Y T W E Q Q R E R R { F F F D G D S S S S S S S S S S S S V S Z N N N N B B M n M n } } s s ; p p 5 5 5 5 2 2 p ; ; ; , , : : , : : : ; - : - - - - - - - - - < - - - - - $ - $ - * * * $ - $ * * * $ * $ $ $ # % % @ @ # % @ @ % % # @ % @ % % @ # @ @ % @ # % @ % @ % @ @ % @ # % # @ % ",
"@ @ @ @ @ @ @ @ @ @ @ @ @ @ @ @ @ @ @ @ @ @ @ @ @ @ @ @ @ @ @ @ @ @ @ @ # @ % # $ $ $ $ * $ $ $ & $ $ $ $ $ $ $ $ $ $ $ $ $ $ $ $ $ $ - $ - < - - > > } } n B N V S D Y Y R [ / ] +X&X*X2XiXsXzXlXBXBXCXVXGXSXGXSXVXCXnXhXzXiX5X5X#X2X7X#X7X2X:X7X2X7X2X4X1X1X1X3X#X#X~._.G.G.J.F.J.G.G.G.W.!.(.#X#X#X#X#XxXxX#X5XwXsXwX3X#X5X#X7X*X2X2X2X6X5X6X6X3X6X2X2X7X2X#X:X#X*X<X2X7X*X*X/.~.W.G.G.D.r.r.r.K X.X.o.o.o.` ( / Q W Y F G V H N B n } } > - < * $ % @ @ 1 @ @ @ # $ $ < < < - - ; , v } n N S Y ! ) ^.#X#X>X9X0X{.{.oXoXoXOXOXS.S.S.S.S.V.V.V.V.m.m.m.m.Z.A.A..X.X0XdXlXhXjXjXjXjXjXjXjXkXkXkXPXPXPXPXPXNXNXNXjXjXgXfXjXjXjXjXjXjXkXlXlXdXbXcXcX0X.X.X{.].E.Y.P.K.d.i.y.e. . .| 8 8 8 4 7 5 o 2 2 % $ * * * < - - : > > > } v n n B N N H S D D Y Y Y R Y F F D S S S H S H S N S N H N S N Z H Z N N N N N N B n n n n n } } } } } ; s 2 5 p p 5 p 2 p 2 & ; ; ; , , ; , ; ; ; : : - - - - < < $ - $ $ < - < $ $ - $ $ $ $ $ % $ $ % $ $ $ % $ $ # % % % @ @ @ @ @ @ @ @ @ @ @ @ @ @ @ @ @ @ @ @ @ @ @ @ @ @ @ @ @ @ @ @ @ @ @ @ @ ",
"@ @ @ % @ @ % @ @ % % @ @ @ @ % % @ @ % @ # % @ % @ % % @ @ % @ @ % @ % % % # % $ % $ $ $ & $ $ $ $ $ $ $ $ $ $ $ $ $ * $ $ $ $ $ $ * $ & * < - , , > > s n B N Z Z S F L W ! ) ) o.$X=X7X5XiXaXzXjXBXBXCXVXGXGXGXVXCXNXlXaXiX3X2X7X7X:X3X2X2X2X6X6X6X2X4X2X#X#X#X#X,X/.~._.Q.G.G.H.H.W.W.!.~.#X#X#X#X5XxX#XpX5XxX5XyX#X5XwX#XqX<X7X7X7X2X2X4X6X6X6X2X2X2X7X7X<X7X7X#X2X<X7X*X%X#X).!.G.I X.K K K K K I X.~ o./ [ Q ! W Y F D Z H B B n } > > : < * $ # % @ @ @ 1 @ % # $ $ & - - - - ; ; v n N S Y / ` #X#XqX8XtX{..XoXoXOXOXS.OXS.S.S.V.V.C.m.V.V.b.b.v.M.l.z.U.E.{.0XeXsXsXaXgXpXaXgXsXzXfXfXjXjXjXjXjXNXjXjXjXgXgXgXpXpXgXgXfXhXhXjXhXdXrXrX0X0X].].E.E.E.E.L.K.K.F.J....... .y w 0 8 7 7 5 2 o % % % $ = * < - , ; > > > } v n n n n B N H A S S S S S S H S N H N N N N B m B B B N N m B m N B B N B n n n n } n } } } } } } } ; s ; p ; 2 p 2 & ; p ; ; ; : ; , , ; , : : : : - - - - - & * $ < < $ - $ $ < $ $ $ $ $ $ % # $ # % # % # % # # % @ @ @ @ @ @ @ @ 1 @ @ @ @ @ @ @ @ @ @ @ @ @ @ @ @ @ @ @ 1 @ @ @ @ @ @ @ @ 1 @ 1 ",
"% % # # % # # % % # # $ # % # % # % # # % $ # % % # # # # $ % # % # $ # # $ $ $ $ $ $ $ $ $ $ $ $ $ $ $ $ $ $ $ * $ $ $ $ $ $ $ $ $ $ $ $ - - - - , , > v n n N V Z D F Y R ! Q ) ) +X$X*X6XyXiXaXhXlXNXBXCXVXVXVXVXCXBXjXaXiX5X2X2X7X#X2X2X6X3X5X5X5X6X4X4X4X2X#X3X#X/././.~._._.~.~.~.~.^.-X#X#X#XqX#X5X5XiXwXxXwXiXsX#X#XwX#X7X*X<X7X7X7X2X2X2X2X2X2X2X7X2X2X7X2X2X7X7X7X:X#X#X^.o.o.^ I I I U U I E E E Q Q Q ! W Y F D G S H m B n } } > - & * $ % @ @ 1 1 @ @ % % $ $ * * < * - - - , } N D T / #X#X>XqX9X0X.XoXXXOXOXS.OXS.S.C.C.C.V.m.b.V.V.c.j.8.8.q.f.E.E.|.[.qXqXxXxXxXxXxXxXwXiXiXsXgXfXfXjXfXjXjXgXgXpXpXpXwXxXxXpXgXgXaXfXzXrXeX0X{.E.E.E.h.E.t.t.K.F.J.J.X.X.......y 9 8 4 7 3 3 . o & % % $ $ $ < - - - > > > > ; > v } v n n B N N N N H N N B N B B n B n n n n n } n n n n n n n n n n } n } } } } } } v v v > } ; ; ; ; ; ; ; & ; p & ; ; ; ; ; : ; > : , , : ; : & - - - * - $ < * $ & $ & * $ $ $ $ % % % @ @ @ @ @ % @ @ @ @ @ @ @ @ @ 1 @ @ 1 1 @ 1 1 @ 1 @ 1 @ 1 1 1 @ 1 @ 1 @ @ 1 1 @ @ 1 @ 1 1 @ 1 @ @ 1 1 @ ",
"$ $ $ % $ $ $ % $ # % $ $ $ $ % $ $ $ $ $ % $ $ % $ $ $ # $ $ $ $ $ $ $ $ $ $ $ $ $ $ $ $ $ $ $ $ $ $ $ $ $ $ $ $ $ $ $ $ $ $ $ $ $ $ $ $ * & < - , > > n n B N V Z D F F L R ! Q ) ] $X*X*X3XyXpXzXhXjXnXPXCXVXVXVXCXNXhXaXiXyX2X7X7X7X2X2X3XxX5XxX5X5X5X2X2X2X3X3X#X,X,X#X;X-X/./././.#X,X#X#X#X#XyX#XiX#XyXwXxXwXwX#XiXiX#XwX7X*X7X7X7X7X7X7X2X7X7X2X2X2X2X2X4X2X2X2X7X2X*X*X#X/.!._ ^ [ P P E P P E E E E ! W R L Y F G D S Z N B n n } , - - * % $ @ @ @ @ @ @ @ # # $ * $ < * < < ; , } B D W ` #X#XwXqX0X0XoXoXOXOXOXS.S.S.C.V.m.B.b.c.c.j.8.8.8.3.4.4.h.h.Y.|.).;X3X6X5XuX5XuX6X5X5X5XyXwXiXaXaXzXaXaXpXiXxX5X5X3X2X5XyXxXxXpXsXsXeXtX[.|.E.E.h.h.h.h.t.D.F.X.X.I K K x h y 9 4 4 3 3 3 o X X % @ # % = * * - > , , > > > > ; > v v } } } n n n n n n } v } } } v v v v v v ; n v ; v v } } > > > > } } } , ; > > > > > > ; > > ; ; ; ; ; ; ; ; ; ; ; ; : ; : ; ; : : ; ; : ; : - - - $ & * $ $ $ $ $ $ * $ $ $ $ % # % @ @ @ @ @ @ @ @ @ @ @ 1 @ @ @ 1 @ 1 @ 1 @ 1 @ 1 1 1 1 1 1 1 1 1 1 1 1 @ @ 1 1 1 1 @ 1 1 @ @ 1 @ 1 @ 1 X ",
"$ $ $ $ $ $ $ $ $ $ $ $ $ $ $ $ $ $ $ $ $ $ $ $ $ $ $ $ $ $ $ $ $ $ $ $ $ $ $ $ $ $ * $ $ $ $ * * $ $ $ * $ * $ $ $ $ $ $ $ & $ * $ & $ - * * - - ; > > } n n N Z Z S F F L R R ! ) ) o.$X*X7X5XiXsXaXhXjXNXCXVXVXVXCXnXlXaXiX5X6X2X2X2X2X5X5X5XwXiXwXyX5X6X2X2X6X#X3X#X#X3X#X;X#X;X,X#X3X#X#X>XqX5X#XsXyXwXyXxXiXxXiXiXwX#XwX#X7X2X#X7X2X#X7X7X#X7X7X2X2X2X2X2X2X2X2X2X2X7X7X*X*X#X^._ ^ [ E P P P P L L R R R R R Y F F D D V H N m n } > > - < * $ % @ @ 1 @ @ @ @ % % $ $ * & * & < - > n N D W ` #X#X#XeX0X0XoXXXOXS.S.S.S.C.C.V.B.b.c.j.j.8.8.3.3.4.*.h.h.F.F.H.).;X>X#X5X#X6X6X#X5X#X3X3X5XwXwXeXeXeXeXwX9X3X3X;X:X>X>X5X5XxXiXsXsXqX9X'.E.K.h.h.;.=.e.e.r.X.X.X.[ U U J l c 9 4 4 7 3 3 . o o % % # # $ * - - , , ; , ; > > > > > ; > > > > > > > > > , > > > > > > ; > ; > > > , > > > > > > > , > > , , , > > , > > > : ; ; , ; : : ; ; - ; ; ; ; - - - : ; : : ; : : : : - - - - * - $ < < $ $ - - $ $ $ $ $ $ % @ @ @ @ 1 @ 1 @ 1 1 @ @ @ @ @ 1 1 @ 1 1 1 @ 1 @ 1 @ @ @ @ @ @ @ @ @ @ @ @ 1 1 @ @ @ 1 @ @ 1 @ 1 @ 1 @ 1 @ @ ",
"$ $ * * $ * $ * * $ $ * $ $ $ * $ * * $ $ * $ $ * $ * $ * $ $ * $ $ $ $ & $ $ $ $ * $ $ & $ & $ * $ * $ & $ $ $ & $ * * * * $ $ * $ $ * $ - - - - , > > v n B N H S S G F Y Y R R Q / ] ' $X*X2X5XiXsXzXjXBXnXCXVXCXCXBXkXzXsXwX2X2X2X2X6X5X5XxXiXxXwXxXyX3X2X2XwX#X#X3X5X#X#XuX5X#X#X>XuX#X#X#X#X#X3X#X#XsX5XiXiXxXwXaXyXsX#X5X*X#X*X7X#X:X#X:X7X7X7X2X7X2X2X3X6X2X4X2X2X2X7X*X-X%X^._ ~ ^ E P L P P P L L R R Y Y F F F G V Z H H B n } > > - & * $ # @ @ 1 1 @ @ @ % # $ $ & * $ * < - , n N D W #X#XpXsXeXrXvXoXOXOXS.S.S.S.C.V.m.b.v.v.8.8.8.3.1.*.=.;.e.t.D.H.Q.~.,X#X5X#XyX#X#X6X3X3X#X>X>X8XqXeXtXtXtX9X9X9X9X).).;X;X8X3X3XiXiXwXqX[.|.E.t.h.;.=.;.;.w...X.I E E P J J l c 9 4 4 7 7 o o o X % @ % # * * - - - - , , , : - : - - - - : , ; - - ; - - ; - - - ; - - : - ; - - - - ; - - - ; - > > - , - > - > - - > - - : : ; - : - : ; - & - : - : : > ; : ; : : : : ; - ; : - - - & * $ $ $ $ $ $ $ $ $ * $ $ # % # @ @ @ @ 1 @ @ @ @ @ @ @ 1 @ @ @ @ @ @ @ @ @ @ @ @ @ @ @ @ @ @ @ @ @ @ @ @ @ @ 1 @ @ @ 1 @ @ 1 @ @ 1 @ @ @ ",
"* & * $ & $ * * * & * * * * & * $ & * * * * & * * & * $ * & & * - * & * * * * * * * & * $ * * * * & $ $ * * & * $ - * $ & $ * $ $ * * * & - - - - ; > > } s B N Z S S D D F F L L ! ! ) ] +X&X<X2XyXsXaXhXkXBXCXCXVXCXPXkXzXpXiX5X3X6X2X6X3X5XyXxXwX5XyX5X5X3X2X6XwX#X6X#X6XyX#X#XyX#X#X#X#XuXuX#X5X#XiX#XiXwXiXiXwXxX#X5X#XwX#X7X:X#X#X7X#X7X#X7X#X2X#X7X7X2X2X2X6X2X6X6X6X2X:X*X#X!.o.^ I I U P P { { { L Y { F F F F D D S S Z B B n n } ; , < * $ % % @ @ 1 1 1 @ # % $ $ $ $ * & - ; > n N T W #X#X#XwXeXrX0XoXOXA.S.S.S.V.C.m.b.c.j.8.8.3.3.*.<.=.;.h.w.t.F.H.Q.~.;X#X6X5X#XyX#X#X#X#X3X,X;X9X9X[.tX[.{.{.}.'.'.|.'.`.`.).9X8X3XqXqX3X[.|.P.h.h.;.=.;.-.w...K I E R L J C g c 9 6 4 7 3 3 o o X % # $ $ $ * - - - ; ; , - : - - - - - - - - * - - < - - - - - - - - - - - - - - - - - - - - < - - - - - - - - - - - - - - - - - - < : - - - : - : - - < - - - - - - - - - - - - - - * - * - $ - $ $ - - $ * * % $ $ $ # $ # % % @ @ @ @ @ @ @ @ % @ @ % @ % @ @ @ % @ @ @ % @ @ @ % @ @ @ % @ @ @ % @ % % @ % @ % @ % @ @ # @ @ # ",
"* & * * * * - * * * & - - * * * * - & * * & - - * - * & - * & * * * - * * & * * * & - - - & * * * * - * - $ & * - $ - * * * - * - $ - - - - - - - , > } } n B N H Z S G S F F F Y L ! ! ) ' $X<X2X5XiXsXhXkXBXCXVXVXVXBXNXhXaXiX5X5X3X6X6X6X5X5X5X5X5X5X5X5X5X6X6X6X#XxX6X#X#XxXxX#X#X#XuX#X#X#X#X#XqX#XxXyXyXyXxXwXwXiX#X#XwX#X#X7X#X-X-X%X%X#X#X#X7X7X2X2X2X2X2X3X4X6X6X6X6X2X:X%X~.W.^ I K J U J J { { { { { F F D G D S S H H B m n v > > - * * % $ @ @ @ @ @ @ @ @ # $ $ < < & < - ; v n Z F W #X#XiXsXeX0XoXoXXXOXS.S.C.V.m.b.c.j.8.3.3.4.;.;.=.e.e.y.r.F.G.Q.Q.).#X3X6X#XyX#X#XuX#XuX;X;X).[.[.].].].].R.R.R.E.E.].E.|.'.[.;X>XqX>X;X).|.L.h.h.;.=.;.#.O.z K U R P Y G l g c 9 8 8 4 7 3 3 o % % $ $ $ * * - - - - , - , - - - & - - - * * - & * - $ - - - $ - * < & - & < - - * & * - - * & < < < & < & < & < - - - < - - - $ - - - < - - - - < - < - - - - - - - - * - - < - - $ * * - < $ < < - $ < $ $ $ $ $ $ $ % $ # % # % % % # % # % % % % # % # % % # $ # % # $ # $ # % $ % # % # # % # % $ # # % # % % # % # % % % # % ",
"- * * - & - & < - - < - - & - - - - < - - * - - - - - * - - * - - & - - - - - - - * - - - * - - & - - - - - - - - - * - & - - * - - & - - - - - ; , > > } n B N V S S D S D S G F F L ! Q ) o.=X:X6XyXpXzXjXkXCXCXVXCXBXNXlXzXsXiX5X5X5X3X5X6X5X5X5X5X5X3X5X5X5X5X5X5X6XuXpXxX#X#XuXpX#X#X#X#X#X#X#XwX#X#XwX5XwXyXxX5XsXwX5XwX#X7X7X7X#X#X#X#X#X#X7X#X#X#X7X7X2X2X2X4X6X5X6X5X3X>X-X~.W.G.X.K x x l l J J G G F F G D D D D V S H B B n } } > - < * $ % % @ 1 1 @ 1 @ @ % $ $ $ * * - - ; } B Z F ( #X#X#XsXeXrX.XoXXXXXA.C.V.m.b.c.j.8.3.3.*.=.=.e.e.w.r.D.J.G.G._.;X#X3X3XyX#XuXuX#XuX6X#X#X).[.'.].R. X X X Xx. XU. XE.E.E.].'.[.9X;X>X;X).|.F.t.e.=.=.=.:.w.z K J L L { J d g h 9 9 8 4 7 7 2 2 o & $ * * < - - , ; , - - - - - $ - $ $ $ - $ $ * $ $ * $ $ - $ $ * * $ $ - $ $ * < $ * $ - * $ * * * < < * < < < & * & * < - - - $ < $ < - < < < < - * $ - - * - $ * & - $ * & * * - & - * - < & < < - < - - - - - * $ $ $ $ $ $ $ $ % $ $ $ $ $ $ $ $ $ $ $ $ % * % * % % % $ $ $ % $ % * % $ % * % % $ $ $ $ $ $ * % $ $ $ $ $ $ ",
"- - - - - - - - - - - - - - - - - - - - - - - - - - - - - - - - - - - - - - - - - - - - - - - - - - - - - - - - - - - - - - - - - - - - - - - - - , > } } n B N Z Z S S S S S S S F Y Y ! ) ' $X*X2X5XiXaXlXBXBXCXVXVXBXBXjXhXaXpXxXyX5X6X6X3X6X3X6X3X6X5X5X5XyXyXyX5X5XyXuX#XuXgXuX#X#X#X#X#X#X#X#X#X#X#XwXyXsXwX#XwX#X5XiX#XwX7X#X#X%X#X#X#X#X#X%X-X#X#X:X#X7X7X2X6X5XyXyX5X3X>X-X_._.D.D.O.O.k x l l C J G G D D D D D S S Z H B B n } > > - * & $ % @ @ @ 1 1 @ @ % # # * $ * & - , , } B S T W #X#X#XzXeX0X0XoXXXA.A.N.n.n.c.j.8.3.1.1.=.;.;.w.w.r.D.D.G.W.~.).;X>X3X6X6XuX#X#XuX#X#X3X;X;X`.T.R.U.x.A.A.A.A.Z.Z.Z.Z.x. XE.'.}.;X;X>X).).H.F.t.h.=.=.-.-.O.k K J J { { C l g h 9 8 8 8 7 5 2 2 & & & < < < - - , - - - - - - $ - $ $ & $ $ $ * $ $ * $ $ * $ $ < & $ $ $ $ $ $ $ $ * $ - $ $ * $ & $ & * < * < * < $ * * & < $ $ - $ - $ < < $ $ < $ - $ - $ * $ & $ - * * * $ & * $ - & * - - - - - - - - - - - & - & $ < * $ $ < $ - - $ * * $ * & $ * * * * $ * * < * * * * * * * * * * * * * * * * $ * * * * * $ * * * * * < < ",
"- - - - - - - - - - - - - - - - - - > - - - - - > - - - > - - - - - - - > - - - - - - - - - - - - - - : - - - - : ; - - - - - : , - - - - , - ; , , > > } n B N V Z S S S S Z V Z S S Y ! Q ) +X*X:X5XiXaXhXkXnXCXVXCXCXBXNXhXaXsXwXxX5X3X6X2X2X2X2X2X6X3X5X5XxXwXwXxXxXxX5XpXyXuX#XuX#X#X#X#X#X#X#X#X#X#X5X#X#XyXsXiXwX#X#XwX#X:X#X-X%X#X#X^.#X/.#X#X#X7X#X2X7X7X4X6X5XyXyXwX5X3X;XQ.H.D.r.O.k i j j l l C G G D D D S D D S S H N B B } } > - < * $ $ @ @ @ 1 @ @ @ @ % $ $ * < - - ; v n N S T #X#X#XiX#XeX0X{..XXXA.N.N.n.v.j.8.8.1.*.=.%.#.w.r.r.D.G.G.W.~.-X#X>X3XwXwXyX5XgXuX#XuX3X#X).|.'.T. Xx.A.A.N.B.N.B.B.N.Z.Z.x.E.E.|.`.;X,X-X~.H.F.h.e.;.=.=.-.-.z x J { G C J d g 9 0 0 8 8 4 6 5 2 2 - - : < - : : - , ; , - - - - $ * $ * $ * & $ $ $ & $ $ $ $ $ $ $ $ * < $ $ - $ & $ $ $ $ $ * $ $ $ * $ $ & $ * $ & * * $ $ - $ $ $ $ - $ $ - $ $ $ - $ $ $ * * $ - $ $ * $ & * $ - * - - - - - - & - - - - - - - - - - - - - - < $ - - $ - - < - < * - - * - & - - - < & - & * - < - & - - & - - - < - & - - * - & - - - & < - < ",
"; - - > - - > - - - > - - > - > - > > - > - ; > - > - - > - > - ; > - - > - > - - > - ; > - - > - > > - ; - - > : - - : : - - > ; - ; - - ; - - ; , > v } n N N H Z Z S S Z H H H H S F L ! ) o.$X*X2XiXsXhXkXPXCXVXCXCXnXkXlXzXsXpXiX5X5X5X2X2X2X2X2X2X5X5X5XwXiXiXiXiXwX5X5X3X2X2X2X%X^.^.' _ !._ ] ^.#X>X:X3X6X3X6X6X:X5X2X#X7X#X#X#X-X#X#X^.#X^.#X#X7X#X:X7X2X2X4XuXyXxXwX5XqX;XQ.H.D.w.w. .i i h h l C C G S D D D S S S S H N M n n > > - - * % % @ @ 1 @ 1 @ @ # % % $ * * - , > } n N D T ( #X#XpXwXeXtX{..X XA.Z.v.v.j.7.7.2.>.%.%.#.-.w.O.D.X.G.o.!./.-X:X6X5XwX5XxXiXuX6X2X7X*X-X`.`.Y.U.x.Z.B.B.B.B.V.m.B.m.N.z.z. X X'.).).,Xo.).H.J.t.;.<.=.#.-.O.x x J G G C C g g 9 9 0 8 8 4 6 6 2 p - ; - : : : , , , - - - : < < $ $ & * $ < $ $ * $ $ $ & $ & $ * $ < $ $ < $ & $ $ $ & * $ * $ $ & * * $ $ $ $ $ $ < $ $ $ < $ $ * $ $ & $ - $ $ $ $ - - $ - $ $ $ * $ $ $ & * * $ - - - - - : : ; : : ; : , : : - : - : - - - - , - - - , - - - - - - - - - , - - - - - - - , - - - , - - - - - - , - - - - - - - - - - - - ; - - ",
"> > > > > > > > > > > > - > > - > - - > - > > - > - > - - > - : > - > - - > - > > - > - - > - > > - - > > > > - : > ; > - ; > - , , , , , , , , - > > > } n n N V Z S S V H N N N N Z S Y ! / ] o.*X7XyXpXzXlXPXCXCXVXCXPXkXjXzXaXiXwXyX3X2X2X7X2X2X2X2X6X5XxXwXiXiXiXiXwXwXqX3X>X,X-X/.^.!._ o._ _ _ ' #X#X#X3X2X4X2X6X2X#X2X3X2X#X:X#X#X#X^.#X^.#X#X#X#X7X7X7X#X2X5X5XxXxXxXwXqX;XQ.F.t.w.-. .i i j h l C C G D S A D D D D S S H B m n v > - - * $ $ % @ @ 1 @ @ @ @ $ $ $ * - - , > } n H D W ( #X#X#XsXeXtX{..XXXx.M.M.v.j.7.3.1.*.@.@.-.-.O.z X.X.^ !.^.#X*X7X6X5XxXiXwX5X5X6X4X:X-X).`.Y.E.x.Z.N.N.m.V.V.V.V.V.m.N.N.z.x.I.'.`.).,X,X_.Q.F.t.;.;.;.%.-.-...l l J C C C g h 9 u 0 0 8 6 6 p p p ; - : : : , , , > > - - - < < - $ $ * $ * & * $ < * * * * * $ < * & * * $ < $ - * * $ < $ * & $ * * $ & $ $ $ $ $ $ $ $ & * * * * - $ < $ $ $ - $ $ $ $ $ - $ * * $ - * & $ $ $ - - - - : : ; : > ; : , ; > > ; ; > > : > , ; , , , ; - , > - > > > > > - , ; , , ; > > > , , ; , ; , , > , , , , ; , , ; , , > ; > > > - > , , > ",
"> > > > > > > > > > > > > > > > > - > - - > - > - > > ; > - > > > > - > - > > - - > > > > - > > - > - - - > - > > ; > ; > > ; > , - , - ; , ; - > , > } } n N N Z S S Z Z H N N N N V S F R ! ) +X&X:X5XiXzXlXNXBXCXVXnXBXjXlXaXsXiXyX5X5X2X6X2X2X2X2X2X5X5XxXxXwXwXsXqXqXqX9X;X;X).~.~.W.W.^ ^ ^ ^ o.o.!.^.,X#X#XwX4X6X3X5X2X#X:X7X#X7X#X#X/./.#X/.#X%X7X#X#X7X3X5X4XyXyXxXxXwX>X).Q.H.t.w.-.t t i u h l d C S S S D D D D D D S H N m n } > , & * * % @ @ @ 1 1 @ @ % % $ $ < & - , > n n H D T #X#X#X#XhXeXtX{.R.XXx.M.M.c.j.7.3.1.%.%.@.#. .O.O.K ^ o.^.#X#X1X2X6XyX5XwXwX5X3X3X>X,X).`.L.Y.U.g.Z.N.B.V.V.V.V.m.m.B.l.z.x.x.T.L.`.-X).).o.X.F.y.e.=.=.-.-.O.j x C C C C C g g 9 w 0 0 8 4 6 5 p ; ; > , : > , > > > > , ; : - < < < - * < * * * - - < < < < - - - < < - < - - - - * - - - - - - * * < * $ $ $ $ # $ $ $ $ $ $ $ - $ < < - * $ - $ - - $ - $ $ $ - $ * & * * $ - * - - & : , ; , > > > > > > > > > > > > > > > > > ; > > ; > > > > > > > > > > > > > > > > > > > > > ; > > > ; > > > > > > > > > > > > > > > > > > > ",
"} } n } n > } } } > > > > > > ; - > - > - - > - > - - > - > - ; - - > - > ; - > > - - - - > - - - > - > - - > - - - : - - - : - ; - , ; - , , - - ; > > } n N H Z S S V Z N N N B N H S D L ! ) +X$X=X6XwXaXhXNXPXBXCXBXkXlXzXaXpXiXyX5X5X6X6X6X2X4X6X5X5X5XxXxXiXsXwXeX9X9X9X9X[.|.|.Q.|.G.G.G.G.I G.^ !.~./.#X:X#X#X3X#X#X6XwX2X2X6X#X:X#X#X#X#X#X%X#X#X7X3X2X2X4X5XyXyXwXwX5XqX).Q.F.r.w.-.#.t t y h l C C V D D F F F F F G D S Z Z B n } > - * * $ % @ 1 @ 1 @ @ @ $ # $ & < - , > } m H D T #X#X#X#XwXwXtX{..X XA.Z.v.c.8.7.3.1.*.@.#. . .O.z X.I !.#X#X#X1X1X4X5X5X5X5XqX8X;X).`.`.L.Y.I.g.Z.M.B.m.m.V.m.m.B.N.l.l.z.x. XY.'.).).o.-XQ.H.F.y.e.:.=.#.#.i j l l G C C d g g 9 9 0 8 9 6 6 p p p ; , > b > > > > > ; > > - : - - - < - - - - : : ; : : : : : - : : - - : : - - , - - ; , , > - ; - - & * * $ $ % $ $ $ * * & - - - - - < & - - - - - - - - - - - & - $ - - < - - - - - : ; > > > > } > > > > > > > > > > > > > > } > > > } } > > > > > > } > > > } > > > > > > } > > > > > > > > } > } > > > } > > > > } > > > > > ",
"n n n n n } } } > } > } > > > > > > ; - - - - - - - > - - - - - - > - - - - > - - - - - - > - > > - - > - - - - - ; : - - - : ; - , , - - , , ; , ; > > } n N N V S S Z Z H N B N N N Z G Y ! / ` #X*X2XyXsXzXjXBXBXBXBXNXhXaXsXwXyX5X5X6X6X6X6X6X5X5XuXyXyXxXxXwXwXqX9X9X[.{.}.E.|.E.|.E.D.r.D.D.D.X.G.^ o.!.$X#X#X#X3X5X#XwX5X3X2X2X7X2X#X7X#X#X%X#X:X7X2X2X6X5X5X5X5XyXyX5X3X;X).Q.D.r.w. .t i w y h g C C S S D D Y Y { Y Y F D S H m n } > > - & $ @ @ @ 1 1 @ @ % # $ $ * - - , ; } M Z D W ( #X#XgX#XwXtX{..XXXx.M.N.c.j.7.5.1.%.%.@. . .O.K I I o.+X#X#X&X1X4X4X5X3XqX8X;X[.`.|.L.Y.I.f.Z.Z.N.m.m.m.V.B.m.N.l.z.x.x.P.Y.L.`.).)./.~.o.H.D.y.w.;.$.#.-.i j l C C C C d d 9 9 9 8 8 4 9 7 6 p p ; , > > b v v > } v > > > , , : : : : : : , , b b b b b b , b b , b , > , > > > > > > v > > > > , > - * $ $ # @ $ % $ $ * - - - : > : : - : : - < - - - : - - : - - - & - - : - : , ; : > > > > > > > } > > > } > > > > > > > } > } > } > } > } > } > > } > > } > } > } } > } > > } > > } } > } } > } > } } } > > > } > } > } } } ",
"n n n n n n n n n n n > } > > > - - > > > - - - - - - - - > - - - - - > - - - - > - - > - - - - - - - ; - > - > - - : - - - : - - - - - - - - - - ; > v n n B H Z S S S S V N N n N N Z S Y R Q ` o.$X:X5XiXhXjXNXBXkXkXlXzXaXiX5X3X6X6X6X6X5X5X5XyXuXyXyXyXxXxXwXwX9X9X[.}.E.E.E.E.E.h.h.h.h.r.r.r.D.D.I W.o.!.#X2X#X#X6X6X6X5X3X5X6X2X2X:X#X#X#X-X2X#X2X2X3X5X5XyXyXyXyXuX3X3X,X_.Q.D.w.O.i t t y h c g C C G D D Y Y Y R L Y Y F V S B B n } > - * $ $ @ @ 1 1 @ @ @ % $ * * - - ; > } m Z D W ( #X#X#XjXsXtX{.].XXA.Z.n.c.c.7.3.1.*.@.+. . .O.z K ^ o.' #X#X&X1X1X1X2X6X,X;X[.`.Y.Y.P.d.x.z.M.M.B.B.C.m.V.N.N.z.z.g.x.P.L.L.`.)././.-X/._.G.J.y.:.:.#.#. .i j l J C V C d d g 9 9 8 8 9 7 6 p p p ; > > > v > } } v } v v v b b , b b b b v v v v v v v M v n v v n v v n n } n } n } s n n n n } } > - & * $ $ @ % % $ $ - - , ; , ; > > ; ; : ; > ; : > , ; ; : > : : : , , , ; > > > > } } } } } } } } } } > } } } } n } } } } } } } } } } v } } } } } } v } } } } } } } } } } } } } } } } } } } } } } } v } } } } } } } } } } } ",
"m N B B B B B n n n n } } > > > > > - - - - > - - > - - - > - : - ; - - - - - - - - - - - - - - - - - - > - - - : - - - - ; - - ; - - - ; - - , , , ; v } B N N Z S S S Z H N N B N N H S Y R ! ) ] $X*X6XiXaXlXkXkXBXkXhXaXsXyX5X6X6X6X6X6XuX5XxXxXxXxXxXyXyXyXwXqX9X[.}.E.E.E.E.s.a.h.h.h.;.h.w.y.r.D.D.G.^ o./.#X#X6X#X2X5X5X5X5X5X2X2X:X#X:X7X7X7X:X2X5X5X5XyXyXyXyXyX5X5X>X/.~.G.D.O.O.i i w y y c g C C S D G Y Y R R R R L F F S H B n } > - * $ % @ @ @ @ 1 @ % # $ $ & - - , > } M H D W ( #X#XgXgXaXtX{..XXXA.B.v.b.c.j.8.1.*.%.#. . .O.K X.G.o.' #X#X&X1X1X4X2X:X,X).`.L.Y.I.x.x.z.l.M.n.m.m.m.B.m.N.z.z.f.I.K.L.H._.).-X%X%X%X~.~.H.D.y.w.:.:.#.i k j l l C C C d d a 9 8 8 8 4 7 6 5 p ; ; > , > v v } n v n } v v v v b b b v v v v M M M M M M M M M M M M M M M B n B B B B B B B B n n } > - < $ % @ % $ $ $ - : > > } } } } } > } } > } > > > > > > > > > > } > } > } } } } } n } } } n } } n n } } n n } n } n } } n n } } n n } } n } } } } n } n } } n } } } } } } v n } } v } } } n } } } } n } n } } } } } } } } ",
"H H H H N N N N B B n n n n } > > > > - > > - - - - > - > - - > - > - - > > - > - > - > - > - > - > - > - - - > > - > - > - - : , - ; , - , - , , > > v } n B N V S S S Z H N N B N H V S F L ! Q ` $X=X7XwXaXzXlXkXkXjXhXaXiX5X6X2X2X2X2X5XyXyXxXpXxXxXxXyXyX5X3X>X9X[.].E.x.g.l.z.q.8.9.4.;.h.;.w.w.r.D.I ^ ^ !./.#X#X6X4X5XyX5XxX5X5X2X2X2X2X#X2X2X2X6X5XxX5XwXwXyXyX5X4X2X:X/.~.G.D.O.i i t w y y c g C C S D Y Y T R ! ! ! R Y F D S H n n > , - $ # @ @ 1 1 @ @ @ % $ $ * * : > > } m H D T ( #X#X#XgXsXtX{.oXXXA.A.B.b.c.7.8.3.*.%.+.#. .k z X.I ^ _ ^.#X&X&X&X1X7X,X).`.'.Y.I.f.z.l.l.k.n.n.m.m.V.m.N.l.z.f.K.L.L.Q.).o.o.%X-X-X%X/._.G.F.w.:.-.#. .t i j l C C V V d f a 6 9 4 4 4 7 5 2 2 ; ; > > > v v n n n n M n n v v M M v M M M M M M Z Z M Z M Z B Z B Z N B N N N N N N N H N N N m B } > > * $ @ @ # $ $ - - ; } } n n n n n n n } n } n n n n n } n n } n } } } n } n } n n n n n n n n n n n n n n n n n n n n n n n n n n n n n n n n B n n n n n n n n n B n n n n n B n n n n n n n n n n n n n n n n n n n n n ",
"S S S S Z Z Z H H N N B n n n n > } > > > > > > > > > > > > > > > > > > > > > > > > > > > > > > > > > > > > > > > > > > > > > > > > > > > , , , , , ; > } n B N H Z Z Z Z H N N N B N H S F Y R Q ) o.&X7XyXsXzXjXjXkXlXhXaXiX5X6X2X2X2X6X3X5XyXyXwXiXiXxXyXyX5X3X>X;X'.E.E.z.z.l.8.8.8.8.3.1.*.;.;.w.r.D.X.I ^ _ ' #X#X5X5X5XxXwXxX5X5X6X2X7X#X2X#X2X2X5X5XwXxXxXxXyXyX5X4X2X#X/.W.G.X.O.k u w 0 y c g g d C V D F Y R ! ! Q ! R R { G S H B B > , < & # @ @ 1 @ 1 @ % % # * * * - - > n m H D W / ' *X2XqXeX0X.XoXXXA.C.B.b.c.j.j.>.>.%.#.-.k ..x X.[ o.+X+X#X&X@X1X&X1X-X).`.L.P.x.z.l.l.k.V.n.n.V.m.m.B.N.M.g.f.K.o.o.`.o.-X1X&X&X=X%Xo._.J.X... . . . . . .h l C C C C d f f 6 7 4 4 7 7 5 5 2 ; ; > b > v n n n M m M M n m m m m m B m m H V H V V V V Z Z Z V V V V Z V H Z S V Z S Z S V H H N B } > * $ % % % % $ < > } } n M M M m M m M m n B M M m B B B n M B B B B B B B M M B M M N M N N M N M N N B B M N M M M M B B m M M M B M B N m M M M B B B m B B B B B B B B B B B B N N B B N B N B B N B N N B B N N N B B ",
"D F D D D D D S S S H H H N B B n n n n } } v } } } } } } } } } } } } } } } } n } } } } v v v n } } n } n v } } } v } n } n } } } } } } } > ; > , ; > > v } n m N H H V H N N N N N H Z S S F L ! / ` $X*X5XiXzXhXNXjXlXzXaXiXyX6X:X2X2X6X3X3XqXqXwXwXwXyXyX5X3X3X>X[.'.'.E.s.q.l.v.8.8.8.1.1.*.%.;.;.w.O.X.G.^ _ +X#X6X#XxX5XyX5XxX5X3X2X2X7X:X2X:X2X5X5XyXxXxXxXwXyX5X6X4X:X:X/.o.G.K z k i u y y h g C C G G D Y T R ! ! Q ! W R Y F S Z B n n > - * $ % @ @ 1 @ 1 @ @ $ $ $ - - ; > } n H D R ~ ' %X:X9XtX{..XXXXXA.B.m.m.b.j.5.2.>.=.#.-. ...X.X.X.o.o.o.#X&X1X&X1X<X7X).`.Y.P.f.z.l.k.j.b.m.m.V.V.m.n.N.z.f.K.L.L.o.o.$X%X@X&X1X&X%X-Xo.J.i... . .| |  .h g l J C V C m d f 6 6 7 7 7 7 5 p 2 ; ; > > v v v n n M m m m m m V m d m C C C C C V V G C G C G C G C G V V G G S S S S S G D S S H Z B } > - $ $ # $ $ < : > } n M B N N N N B N N N N Z N N N H N H H H H N N H N N N H H H H N H N N Z N H N H N H H N H H H H H H H H H H H H H H H H H H H H H Z H H H H H H H H H Z H H N Z H N N Z N H H N H N N N H N N Z H N ",
"Y T X.A D Y T A D D D D A S A A Z H N B B B M M B B B B B m B B B B N B N B B B B B B B M N M A B N B B B B M M B H N N N N B B N N B B n n } > > , , , > v } s n N N N N N m N N N H H S G F Y R ! ) o.*X2XiXaXlXjXkXlXhXaXpXiX5X6X3X>X>X>X>X8X8X8X>X8X3X3X6X3X3X;X).|.E.E.s.q.8.8.8.3.3.3.1.*.%.;.e.w.D.D.I o.!.^.#X#X6X#X6X3X5X5X5X3X2X2X7X2X2X:X2X2X3XyXwXwXxXwXyX5X4X2X2X#X/.!.G.X.z k j y y h c g l C G S G Y Y R ! ! ! ! W R F F D H Z n n ; - * $ @ @ 1 1 1 @ @ % % $ $ * - : > } M H V L ~ o./.;X[.{.{..XXXXXS.C.m.n.b.j.j.>.>.:.-.w.....K X.o.o.o.+X#X@X1X1X&X<X,X).`.Y. Xx.l.k.k.V.m.V.V.V.V.m.m.N.s.g.K.X.o.o.o.+X+X@X1X&X&X%X-Xo.J.X... . .|  . .9 h g C G C V m d a 6 5 7 7 7 5 2 2 2 & ; > > v v v n M m N m C C V d d d l l J J X.d C J J J { J J J J J C J { G C G D G D D D D D S S H N n > > - $ $ $ $ - > > } M m N H Z H H Z V Z S H S S S S G D D S D D S D D G D D D D S D S D G G S D G S G G S G D S S D D D D F D D D D V D D D D V D D G D D D D S D D D S D D D S S D D D D D D D D D D S D D G D D S S S D ",
"o.T T o.T o.T T R D o.Y Y Y T A D D D D D D A A S S S S S S S A S S S S S S S A D D D D D D A A D D S D S D S A S S S S S D D S S S S H N B n } > - ; , , > > } } n n n B n B N N N H Z Z S S F Y ! / +X&X7XiXaXhXlXNXjXjXfXsXiXyX5X3X>X>X;X;X[.;X[.).;X,X>X:X2X>X,X[.|.E.E.s.q.8.8.8.8.3.3.1.*.%.;.-.r.r.G.W.o.+X#X#X#X#X6XyX#X6X4X2X2X2X:X#X2X#X7X2X2X3X5X5XyX5X5X5X6X2X2X2X-X/.!.^ X.K z x j j h l l C C G F F F Y R R R ! R R L Y F D V Z m n > - < $ % @ @ 1 1 1 % @ % $ $ * < : > } n H G P I W._.[.}.]..XXXA.S.A.C.B.m.b.k.8.0.<.:.w.....X.K E o.o.o.+X$X1X@X1X1X7X>X).'.T. Xz.z.k.V.m.V.V.V.V.V.V.B.N.z.f.K.L.o.o.@X@X@X@X&X&X1X%Xo._.X..... . . .8  .9 h l C C V V V f f f f 6 5 5 p 2 2 ; ; ; ; v > v v M M B m C C g l l ......x x x ....J ..l ......x x x J K J J J L { G G F F G D F F S S N B } , - & * * - - ; } m B N N Z H S V D S D F F F Y Y Y Y W Y T R R Y Y R R Y Y R Y Y Y T R Y Y Y Y Y Y Y Y Y Y Y R Y Y R Y Y Y Y L Y R Y L Y L Y R Y L Y Y F R Y Y Y Y R Y Y Y R T Y R Y Y R R Y T T Y Y R Y Y L Y Y R R F L ",
"o.T o.o.T o.o.o.o.W o.T o.T o.T o.T A T T T A T o.D T T Y Y Y Y L Y Y T Y Y T T Y Y A T T T A T Y o.T T T T T T o.D T D T R T T R R Y F D H B } > ; ; - - - , , v v v } } n n N B N V Z Z S S G F L ! ) $X7XyXsXhXjXkXkXkXhXzXaXiXwXqX8X;X).`.).|.Q.Q.).).).:X:X>X;X).|.L.E.a.0.q.8.3.8.3.1.*.%.%.-.e.r.D.G.Q.~.3X#X#XuXuX#X5X6X:X2X7X2X#X2X#X7X2X2X2X2X6X3X5X5X5X5X6X4X2X5X7X#X/.~.o.X.K K z x l l l J C G G G F F Y R Y R R Y Y L F F D S H B n } - < $ @ @ 1 1 1 1 1 @ # # $ * < : , } n H J P I G.H.Y.R.R.XXXXA.S.C.C.C.m.n.k.l.9.e.y.r.r.X.K I o.^ o.@X+X$X&X1X1X1X6X>X8X'.T. Xx.l.B.V.V.V.V.V.V.V.V.B.N.z.f.I.L.o.o.@X@X@X&X@X1X@X,Xo.o.o.F... . .w w w  .h l C C V V m f f p p p 2 p 5 2 ; ; ; ; , v v v v n B m C C l l ........................................z z U J J L F F F D F F F S F H Z N n } , > < - : ; } } n N N Z S D D D G F Y Y R R ! ! W ( ( W ( ( ( ( Q ( W ( ( W ( ( ( Q ( W Q W Q ! Q ! ! ! Q Q Q ( [ / Q Q / Q Q ! Q Q Q ! Q Q E Q Q Q ! Q Q ! Q / / / ( ( W ( W ( Q ! Q ( W ( W W Q / W ( W ! ! ! ! ! W ! ",
"` o.` o.@X( ` o.@X( ` ` ( ( ( o.T o.o.o.( o.o.o.T o.T o.o.o.T o.o.o.T o.o.o.T o.o.o.o.o.( ( o.o.o.W o.o.W o.o.o.W o.o.o.o.o.o.o.) [ [ R L D H B } , - - * * < - - - , ; > n n B N H Z V V S S Z S Y R ) $X*X5XaXhXkXkXkXNXkXjXzXaXsXwXqX9X`.|.H.H.H.H.Q._.~.).,X;X#X).|.F.h.h.9.3.8.1.1.1.*.*.%.%.;.-.t.D.H._.-X,X#X6X#X#X6X#X#X:X#X#X7X:X7X2X7X2X2X2X2X2X6X2X4X2X2X2X2X2X#X7X:X#X/.o.^ I I U J J J J J J { { F F Y F F Y L Y Y F F F D D S H B B } ; - $ % @ 1 X   1 1 @ @ % $ $ < : : } m m C J K J.Y.E.U.XXA.A.S.C.C.V.m.m.N.l.q.p.i.y.r.X.I I ^ ^ ^ o.+X+X$X&X1X2X4X6X8X9X}. X Xx.z.B.V.V.V.V.V.V.V.V.m.N.s.f.I.X.X.o.` ( @X@X@X&X1X%X_.o.X.X... . . .u y 9 g g C C V V V m m p p 2 p 2 2 ; 2 ; ; ; > > > v v n B m C d J ......u.u.0.u.a. ....... . ...u... .y.........z K J P L F Y Y F D D F S S N N B n } , > > > } } n M N H V S D F F Y R R ! ! / / / / ` ` ' ` ` ` ` ` ` @X` ` ` ` ` ` ` ` ` ` ` ` ) ) ` ) ) ) ` ` ` ` ` ` ` ` ` ) ] ] ) ) ] ] ) ] ) ) ] ] ` ` ` ` ` ` ` ` ` ` ( @X` @X` ` ` ` ` @Xo.` ` ` o.` ` ` ` ( o.` ` ",
"@X#X$X$X@X#X#X#X@X#X#X#X@X@X@X#X@X@X@X@X@X@X@X' o.` ` o.o.o.( ` o.o.( ` o.` ` @X( @X@X` @X@X@X' ( @X@X@X@X@X@X' ` @Xo.+X( @X@X#Xo.' ] ) ! Y S m } , - $ $ $ $ $ * < - ; > v } B N N Z Z Z Z Z Z S F L Q ] *X3XsXhXjXBXNXPXNXkXhXzXaXeX9X[.Q.H.F.F.t.D.F.H._.~./.#X;X).Q.H.P.h.0.4.1.1.1.*.*.%.%.%.-.e.r.F.W.).-X3X#X#X5X3X#X#X#X#X#X#X-X#X7X2X7X:X6X#X6X5X2X2X2X2X2X2X2X2X2X#X2X#X/.o.o.^ I I U U P { P L L L Y Y F F Y F Y { F F F G D S S H Z m } > < $ % @ 1 1   1 1 1 @ @ # $ < < : v n m C J X.t.i.g.x.A.B.C.C.S.V.C.m.m.N.l.s.p.F.D.G.X.^ ^ ^ _ _ o.@X+X&X1X1X2X4X5XqX9X}..X Xx.Z.m.m.V.V.V.V.V.V.V.n.N.z.f.K.X.o.o.` @X@X@X&X&X=X%Xo.o.X.X... . .| 0 u y g g C C V H m m m s ; p 2 ; ; 2 & ; - ; > > v v v M m m C C l ....u.<.0.0.0.9.9.0. .0. . .<.;.<.<.<.:.e.:.....K U P L L Y Y T D F F S S H N N n n } } } } n n M N H Z S G G Y L ! ! Q [ ) ) ] +X+X+X#X#X@X#X#X#X@X#X#X#X#X#X#X#X+X#X@X+X#X+X#X' +X' #X#X#X#X+X+X#X#X#X#X+X#X#X#Xo.#Xo.#Xo.#X#X#X+Xo.#X#X#X#X#X#X@X#X#X#X#X#X#X#X@X#X#X#X@X#X#X#X#X#X+X+X+X+X+Xo.+Xo.#Xo.",
"1X=X*X*X1X&X*X*X=X*X=X*X1X1X=X=X&X&X&X&X@X&X$X$X@X&X&X&X@X@X&X&X@X@X&X&X@X@X&X&X@X&X&X&X&X&X&X&X@X&X&X&X#X&X$X=X&X&X&X&X&X&X*X=X1X&X+X' ) R D H } , < $ % % % # % $ $ < ; > } m N H Z Z V H H H Z S Y ! ] =X2XiXhXlXBXBXBXPXPXkXlXdXeXtX[.H.F.F.y.w.r.r.D.W._./.-X).).|.F.h.h.9.*.1.*.*.%.%.%.@.#.;.w.t.H.|.).>XwXiX5X5X#X>X#X#X+X^.^.#X#X#X#X:X#X#X7X:X#X2X7X7X:X2X:X6X#X:X2X#X#X^.^._ _ ^ ^ P E P P L R L L Y L L Y F F F D G G D D F V S H Z B n > - * % 1 1 1     1 1 1 @ % = = : : v m C C x ..t.p.s.Z.N.C.C.C.V.V.V.V.m.M.l.f.d.F.J.G.o.^ _ ) _ ] o.+X+X$X<X1X4X6XyXwXqX.X.X XA.N.B.V.V.V.V.V.V.V.V.n.N.z.f.K.X.o.o.` ( @X@X#X&X=X%X%Xo.X..... . .w u 0 h g g C C V S m N n s s p ; ; & ; ; - ; > > b b b b M B m C g ....u.9.0.l.k.v.k.k.q.6.6.6.<.,.,.,.,.,.<.<.;.y...X.K U L Y Y F Y F D S S S H Z N n n n n n n n B N N H S D F Y R ! Q [ ) ] ' +X#X#X&X=X=X=X*X=X1X*X*X=X=X*X=X=X1X=X=X*X*X*X=X*X=X%X%X*X%X=X*X=X%X*X=X*X*X=X=X*X=X%X<X=X<X=X*X*X=X%X*X*X*X=X*X=X*X&X&X*X*X=X*X=X=X*X=X=X=X*X=X1X=X=X=X=X*X=X=X=X=X*X=X=X*X=X",
"2X6X2X2X6X2X2X2X2X2X7X7X:X:X:X:X7X7X7X7X7X7X:X:X:X2X2X2X4X4X1X1X2X2X2X2X2X2X2X:X:X:X3X#X:X:X3X#X7X7X7X7X7X7X7X:X7X7X7X7X<X2X2X2X7X<X%X+X] E F Z s , * $ # # @ @ @ # # $ - > } n N Z S Z H N N N N S D ! ) $X6XiXaXkXNXNXBXBXBXPXkXhXrXtX}.H.F.y.y. .y...X.X.o.o././.).Q.F.t.h.;.=.*.%.*.%.@.@.@.#.-.w.F.H.|.;X3XwX5X6X2X=X&X+X] ] ] ' +X^.#X-X#X:X7X7X7X7X7X7X#X4X2X#X2X2X#X2X7X%X#X^.^._ ^ ~ [ [ E E E R R R R L R F F F G D G S D G S D S S H B } > - $ % @ 1             @ % # * < b b n C d z r.e.p.l.N.N.V.V.V.V.V.V.V.N.N.z.f.K.L.o.o.o.o.o.` @Xo.o.+X#X&X=X4X4XuXyXeXtX{.].XXA.Z.B.m.V.V.V.V.V.V.m.n.M.s.p.K.X.X.o.o.o.@X@X#X&X&X=Xo.o.X.X..... . .8 9 9 g d C C G H H B n n v ; ; ; ; ; - ; , ; , > b v v n M m d C ....<.0.l.k.k.b.j.j.k.5.6.2.2.,.2.2.2.2.4.<.<.u.....K U P R Y Y D D D S S S H N Z B B m n m B m B N Z S S F Y R ! Q ) ] ' ^.#X#X%X*X%X7X:X7X:X:X:X:X:X:X:X7X:X:X:X:X3X#X>X#XwX#X3X#XwX#XwX#X3X#X3X#X3X#X>X3X3X#X#X3X#X:X5X#X#X2X5X#X3X#X3X#X3X#X3X#X:X:X:X7X:X:X:X2X:X:X:X:X:X:X:X:X:X:X:X2X2X2X2X2X2X2X2X:X",
"5X5X5X5X3X3X3X5X>X>X>X,X,X;X,X;X;X;X;X>X>X>X>X3X3X3X5X5XuXuXuXuX5X5X5X5X3X3X3X3X>X>X8X>X;X;X;X;X;X,X,X>X,X,X:X2X7X2X2X2X2X2X2X6X2X2X*X$X] E Y H n ; - $ # 1 X @ @ @ % $ * , v M N N V S H N N N N N G R ) $X*X5XaXhXkXNXPXBXBXPXkXlXrXtX'.L.t.y.:.:. . ...X.X.o./.~._.W.G.F.h.h.;.;.=.%.%.@.+.+.-.-.r.D.G.|.;X3X3X5X6X2X=X&X' ] ) ) ] ] +X^.#X#X#X:X#X7X7X7X7X7X7X7X2X7X7X7X2X#X7X#X#X^.' ] ) / Q Q Q [ Q ! Q ! R R R F Y F F D G D S D G S Z H B n > - $ % @ 1             1 @ = $ < b v n m l x w.e.0.l.n.m.V.V.V.V.V.V.N.N.z.g.I.K.X.`.o.+Xo.@X` @X` @Xo.$X&X1X1X4XuXxXqX9X{.]. XA.Z.n.m.m.m.V.m.V.m.n.v.l.s.f...X.o.o.o.o.@X@X&X1X&X*X-X).X.X..... .9  . .a ..d C V V Z N B n n v ; ; , - , ; - , : > > b b v v } m d .... .<.0.k.n.n.m.m.j.j.j.5.5.5.5.5.5.2.6.2.,.<. .....K P P ! Y F T D S S S H H N N B B B B B B N Z S S G F F R ! Q / ] ' ^.#X%X%X-X-X,X,X>X,X>X;X>X;X>X;X;X,X;X;X;X;X8X>X8X3X8X3XwX5XwX5XwX3XqXwX8X,X8X>X;X#XqX3XeX#XiX3X5X6XiX6X5X6XwX5X3X3X>X3X8X,X>X>X>X>X;X;X;X;X>X,X;X,X;X;X;X>X>X>X>X3X3X3X3X5X5X5XyXyX",
"pXpXiXiXiXwXqXqX9X8X9X[.[.[.[.).`.[.[.).;X9X8X8XwXwXsXpXpXpXgXgXpXaXpXsXiXwXwX9X9X9X[.[.).[.[.).).[.).).,X,X,X:X:X:X:X2X2X2X2X2X2X2X*X$X] Q { S n , < % @ @   1   @ # % * ; s n N S V Z Z N m N N N S L Q ' *X5XaXzXNXNXPXCXBXPXPXlXrXtX[.H.t.w. . . .....X.o.o.!.!.!._.G.F.t.t.e.;.-.;.-.-.-.-.-.O.r.D.H.).;X>XwX5X6X<X=X#X] ] ) ) ) ] ' ' ^.#X#X:X2X7X#X6X7X2X2X7X2X7X7X7X7X#X#X%X#X^.' ] ) ) / / [ [ / [ Q Q ! ! R R Y F F F G D D S S S Z N B } > - $ # @ @           1 @ @ # < = : v n d C x r.u.0.M.n.V.V.V.V.V.B.N.M.l.g.f.P.Y.`.o.;X/.+X@X@X` @X+X+X$X&X=X1X4X4X5XwXqX{.]. XA.Z.N.n.b.b.n.b.b.b.j.k.k.p.i.P.X.X.W o.( @X@X&X=X*X7X-Xo.o.X.X.......a ..g d d C C S Z Z M n v b > : , , , , - ; : > , b b v v M m m ......<.l.k.b.m.m.j.n.j.j.j.5.5.5.5.5.5.2.2.2.<.<.i...K I P R Y Y D D S Z H Z N B B B B B N N Z V H S D G Y R Q Q #X#X#X#X%X7X,X,X,X;X).9X[.[.[.[.[.9X[.).[.[.[.[.[.[.[.[.[.9X9XqXwXsXpXsXiXwXwXqX8X9X;X9X;X;X8X3X3XqXwXwX5XyXxXyX5X5XyX3X3X3XqX9X9X[.[.[.[.[.[.[.[.[.[.[.[.[.[.[.[.[.[.9X9X9XeXqXwXsXsXaXpXgX",
"fXfXfXzXzXsXeXtXtX[.[.}.'.'.'.'.'.`.'.`.[.[.9XeXeXdXzXfXjXjXNXgXjXhXhXhXzXrXrXtXtX[.[.}.'.'.'.|.|.`.`.Q.`.).).).-X:X7X7X<X2X2X<X7X*X%X+X] ! Y Z n , - $ @ @ @       @ % $ - > B N N S S S N B B N N S Y Q ] %X2XiXaXfXNXNXNXBXBXnXlXdXtX'.L.t.w.#. . . ...X.X.X.!.!.!.W.W.H.D.t.t.h.e.e.w.-.O.i O.O.D.D.W.).;X3X3X6X4X<X=X+X] ) [ ) ) ) ] ' #X#X#X#X7X#X7X7X2X:X2X2X2X2X2X7X2X2X7X#X#X#X' ` ) ) ) ( ) ) ) / ) ~ [ / E ! R R F F F F D D S S Z H B } > - $ % @               @ @ = = < b v n m l z w.<.q.k.N.V.V.V.C.B.N.Z.z.z.f.I.L.L.o.o.o.&X$X@X@X` @X@Xo.+X$X=X1X4XuX5XwX9X[.}.U.g.M.M.c.c.b.c.c.j.j.j.6.9.u.....X.X.o.o.( @X#X&X1X2X2X-X-Xo.X.X.X.X.....g l J C { C S Z N M n n v > , : - , , : ; , > > > b b v v M f .... .<.0.k.b.j.m.m.j.j.j.j.5.5.5.5.5.5.2.2.,.,.<...X.K U P L Y F D A Z N B m B n m B m B B N Z H S D F Y R W ) ` #X#X<X2X2X2X>X9X[.[.[.'.}.'.'.'.'.'.'.}.}.'.'.'.'.'.'.}.}.[.tXrXrXeXzXzXzXsXeXtX9X[.[.|.`.[.[.9X3XqXwXwXiXxXxXiXxXxXwXwXqXqX9X[.[.[.[.|.'.'.}.|.}.].'.'.}.'.'.'.'.}.[.}.[.tXeXrXdXdXzXhXhXhX",
"NXNXjXjXhXdXrXrX0X}.'. XY.P.T.P.P.Y.Y.Y.'.}.[.0XrXdXlXkXNXNXNXNXNXNXNXjXlXcXrX0X{.].].E.E.E.Y.Y.L.L.L.L.L.Q.)._.o.-X7X*X1X=X<X*X<X=X$Xo.) ! F H n > - $ # @ @ 1 @ X 1 # $ ; > n N N S S Z N N B N N S F ! ) $X2X5XpXaXhXjXNXPXPXPXlXcXtX'.H.t.w. . .i i ..X.J o.^ _ _ W.W.G.H.H.D.F.t.r.r.O.O.z O.z K G.W.~.-X3X3X6X2X*X$X+X] ~ [ / ) ) ] ] ' ^.#X7X7X7X7X2X2X6X2X3X6X2X2X2X7X#X7X#X#X^.+X] ` ) ) ) ) ) ` ] ` ) ) ) / Q E R R Y Y F F G S S H N n } ; < $ # @             1 @ @ # * < : v n m C x w.<.0.k.n.B.V.m.B.N.z.z.f.f.P.L.L.o.).o.$X$X$X+X@X+X+Xo.@X+X$X&X1X1X4X4X3X8X[.'.I.g.s.l.j.j.j.j.7.j.5.2.,.<.;.....X.X.R o.o.@X#X=X<X2X2X3X,X-Xo.Q.X.X.X.X.X.C C C G S V Z N M } } v > , , , , , , , , > , , b b v n s m l .. .;.6.8.v.b.b.c.c.j.j.7.5.5.5.5.2.5.5.2.,. .......K P P R Y D A Z N B n n } n n n B B B Z Z S D G F R Q Q ' #X#X#X2X4X5XqXqX9X[.'.].T.T.T.T.R.T.T.R.R.E.T.E.E.E.R.E.R.].].{.rXrXdXdXlXhXdXrX0X[.[.'.|.|.'.[.9X9XqXwXiXiXiXxXpXxXxXiXwXqX9X[.{.'.}.E.E.E.R.E.E.E.E.R.R.E.R.E.E.R.R.R.].{.0XrXcXdXlXkXkXPXBX",
"NXNXNXNXlXdXrX0X.X.XT. X Xf.x.d.f.f.I.I.T.}.{.0XrXlXnXCXPXAXAXAXAXCXCXPXbXcXcX.X]. X XE.g.E.f.d.d.d.K.K.H.H.o.Q.o.-Xo.$X&X&X&X&X$X$X+X] [ R F Z n > - < $ @ @ 1   @ # # * - } n N S V S S H N N N N S D ! ) +X%X6X5XsXzXjXkXNXNXkXlXdXtX[.L.r.w. .t u u g ..X.L ~ ^ _ !.~.W.W.H.H.H.G.D.D.K z z K U I G.W./.-X:X2X2X7X=X$X+X] ) ) / [ / ) ) ] ' ^.#X#X7X:X2X6X5X5X5X6X6X2X2X2X2X:X#X#X^.] ` ` ) ) ` ` ] ' ' ' +X_ ) ) ) / Q R R L Y F G S S N B n } : - $ % @ @             @ @ # * < b v n d l ..w.e.l.l.n.m.m.B.N.z.x.f.P.T.X.H.`.`.o.:X$X&X$X$X#X@X#X+X+X+X#X&X1X1X1X2X2X;X`.'.P.f.q.0.8.5.7.5.3.2.>.&.,.;. .....G X.o.T T @X$X1X4X4X5XqX:X,X[.o.Q.o.X.X.X.L X.X.{ G S V N M M v v > , , - , - ; , ; > , , b b > v } f g ....;.9.8.k.c.c.c.c.j.7.7.7.5.5.5.5.2.6.| ,.,. .....K U E L F D S A M n } v } } } n n m m Z H S G Y R R [ ` #X#X1X4XuXyXiXeXtXtX}.].E.U.U.U.g.g.g.g.g.U.U.g.g.g.x.g.x.U. X]..X{.cXnXnXkXnXdXrX0X].T.E.E.E.E.'.[.9X9XwXiXpXpXpXpXpXpXiXqXtX9X[.].E.R.E.E.x. Xx.E. XE.U.g.U.g.g.g.g.U. XR..X.X0XcXbXnXCXCXCXCX",
"AXNXNXNXkXbXcXvX.X X Xx.z.a.0.z.0.p.a.f.I. X.X0XcXbXnXVXAXFXAXFXAXAXAXCXnXbXvX.X.X Xx.g.s.s.s.p.p.p.i.t.i.F.X.X.o.o.$Xo.@X@X@X( +X' ] ) E Y D N n > , * $ % @ @ 1 @ @ % * , } n N Z Z S N N N N N N S G R Q ' $X*X5XiXpXfXjXkXkXkXlXrXtX[.H.r.w. .i u u h l X.{ ~ ~ ) _ !.~.~.Q.~.Q.W.G.G.I I U J K I ^ !.^.%X7X7X7X<X=X$X' ] ) ) [ / / / ) ] ] ^.^.#X2X7X2X5X5XxX5X5X3X6X2X7X#X7X#X#X^.' ` ) ) ) ) ] ] +X#X+X^.^.' _ ] ) Q [ ! R Y F D D H H B } } : * $ # @               @ @ # * < : v n m l x ..9.0.N.n.m.m.N.Z.x.f.I.Y.o.Y.o.).o.%X%X=X&X&X$X#X+Xo.o.+X+X$X@X1X1X1X2X:X,X`.Y.P.d.p.6.3.2.2.1.>.&.%.$.|  .....X.X.G W W o.( $X1X2X5X5XwX3X>X8X-Xo.o.o.o.X.X.{ Y { D D H N M M } v > , , , - , , ; , , , , , : > > s s g 9  .;.,.6.8.j.j.j.j.7.7.7.5.5.5.>.>.| 5.>.|  . .....K J L L F D Z M n v } > > > } } } m B H S D F R W E ) ' #X<X4XuXpXpXaXrX0X{.].R. Xg.s.z.z.z.s.z.z.s.s.z.z.s.l.z.z.z.x. XoXvXbXbXnXCXnXbXrX{.R.E.f.E.E.P.E.|.[.9XwXsXpXpXpXpXpXxXsXwX9X{.].R.E.E.g.z.z.z.z.z.z.s.z.z.z.z.z.z.z.z.x. X XoXvXvXbXnXVXAXAXFX",
"AXAXAXCXnXcXvX.X.X Xx.z.l.l.l.6.l.l.0.a.f.I. X.XvXbXnXGXAXFXFXFXFXSXAXZXmXbXoXoXXXA.z.z.q.8.6.4.4.<.<.e.i...F.X.o.o.o.' ` ` ` @X] ] ) / E Y D H n > ; - $ $ @ @ @ @ @ $ < ; > n N H Z S S N N N N N S D R Q ` ^.*X2X5XiXfXfXjXkXkXdXdXtX`.L.r. .i w u u ..g C X.E ~ ~ ] ^././.-X).).).!.W.^ I I P E [ ^ _ ^.%X%X*X*X%X$X#X] ] ) / ) [ [ [ ) ) ] ' ^.#X#X2X6X5XxX5XxXyX3X6X6X:X2X#X#X#X' ] ` ) ) ) ` ] +X' ^.#X^.#X#X' ' ) ) Q ! R L Y G D H N n } > ; $ % # @             1 @ @ = = < : } n m l ....<.l.k.n.B.N.N.z.x.U.X.Y.o.o.-Xo.%X%X%X%X%X$X$X$X#X+X@X+X+X$X#X&X=X<X7X:X`.o.H.F.h.9.9.1.>.>.&.&.$.+.| |  . ...g J G o.o.( @X$X<X4X5X5X5XwX3X8X:X>Xo.o.o.o.o.o.R { G S Z N M } } v > , ; , - , , - , ; , : , b : } ; s f g  .-.=.3.3.8.8.8.8.7.7.5.5.5.2.>.>.2.| 2.|  . ...X.U U L Y F A Z M } > - - - : > } } n B Z S G Y R Q ~ ` #X#X<XuXxXaXzXdXrXcX.XR. Xx.z.l.M.l.l.M.l.l.M.l.l.l.l.l.l.M.z.x.XXoXoXvXbXmXnXmXbXvXoXR.E.f.a.d.h.E.'.[.9XwXiXaXpXgXgXgXpXsXeXtX[.].E.x.z.z.l.l.l.l.l.l.l.l.l.l.l.l.l.l.M.z.x.XX.XvXvXmXZXSXAXFXFX",
"AXPXVXnXmXbXvX.XXXXXz.l.k.j.j.5.5.5.6.0.a.f. X.XvXvXnXZXSXSXDXDXJXFXGXmXmXvXoXoXXXA.l.l.8.8.8.3.1.1.;.;.:.r.r.X.X.W o.o.o.@X( o.) ) ) ! R F S N n > ; - $ $ % @ @ @ @ % * - > B N S S S N N N N N N H S R ! ) ' $X7X6X5XpXfXhXjXlXdXrXtX`.H.D.k y 9  .y h l J { E E ) ] ^.#X#X-X:X:X/./.!.^ ~ [ E E [ ) ] ^.$X$X*X=X=X$X^.' ] ) ) [ [ [ / [ / ) ] ' #X7X#X3X5XwXwXwXxX3X6X2X7X7X#X%X#X^.] ) ) ) ) ) ] ' ^.#X%X#X#X^.^.' ) ) / ! R R Y F S H N n } > - - % @ @             @ @ @ # = < : v n m l j ..u.0.l.v.N.N.Z.g.f.L.X.o.o.-X$X$X$X=X%X=X=X=X&X$X$Xo.o.+Xo.$X$X&X=X%X-X-Xo.'.L.K.u.u.<.=.&.%.| | | | |  . .9 g ..V { X.T o.( #X<X4X6X5XiX5XwX3X:X7X%X#X` o.o.R Y F D S H N M n } v > , , ; : - : - : : : : : : : , ; f a h  .-.=.*.3.8.8.8.8.8.8.3.8.3.*.*.=.| | ,.|  . .z z U P L F D D N M v : & < - - ; > } n B H D F Y R Q ` ' #X7X4XyXsXsXdXdXrX{.oXXX XZ.l.v.v.v.v.v.v.v.v.v.v.v.v.v.k.k.l.Z.XXXXoXvXmXmXmXmXvXvX.X Xg.a.0.p.p.E.Y.[.9XqXsXiXpXgXgXpXpXsXqX0X}.E.E.x.M.l.v.v.v.v.v.v.k.k.k.v.j.j.v.j.l.M.Z. XoXoXvXmXmXGXSXFXFX",
"VXCXmXmXbXvXoXoXXXx.N.k.k.j.j.5.5.5.5.6.0.x. X.XvXvXmXmXZXZXZXLXZXZXmXmXbXvXoXOXA.Z.l.k.8.8.5.3.1.*.*.:.:.w.O.K X.X.R W ( T @XW ) ) [ ! R F S N n } , - $ $ # @ @ @ # # < ; } n B V Z S V S N N N N S D F ! ~ ] #X%X7X6XxXaXfXhXjXzXsX9X`.H.D.O. . .9 9 g l J P P ! / ` #X#X:X:X7X7X7X#X#X^.) ~ [ Q ~ ) ] ^.$X$X=X$X^.$X+X] ] ] ) ) / / Q / Q [ ) ] ^.#X2X6X5XxXiXxX5X5X2X:X7X#X#X#X+X_ ) ) / ) ~ ) ] +X#X/.#X#X#X#X+X' ` ) [ E R R { D S H N B } ; - $ $ % @ @             @ @ $ * < : } n d C x ..y.a.q.l.M.Z.z.f.P.L.`.o.o.$X@X&X&X&X%X=X=X%X&X$X$X#X@X#X$X%X&X%X,Xo.,X`.`.X.X.P.d. .;.:.$.#.| | | | 4  .6 ..d d X.G T o.o.( #X=X<X2X3X5X6X6X2X2X*X=X#X( @X( o.D F F S H N m } v v > , - - ; - ; - - : < : : < : , ; s f f  .i =.*.4.3.3.8.8.3.3.3.1.1.*.*.%.>.| |  .i k x x U P L L D Z M v > - - < $ - - > } n B H D F R Q ~ ' #X%X:X3XwXsXdXcXcXvXoX.X Xx.Z.M.v.c.b.c.c.c.c.c.v.v.v.j.k.k.k.z.Z.x.XXoXvXmXmXMXmXvXoXXXg.s.q.0.0.p.d.Y.`.[.qXwXpXpXpXgXgXpXeXeX9X}.]. Xx.l.v.v.c.c.c.c.c.c.j.v.j.j.j.j.j.j.l.z.x.XXoXvXbXnXVXGXAXAX",
"mXmXbXvXvXvXoXXXXXA.l.k.j.j.j.j.5.5.2.4.0.a.f. X.XvXvXmXmXmXmXmXmXmXmXMXvXoXoXXXA.z.l.8.8.5.3.1.>.*.%.$.-.O.O.K X.{ o.Y T T ( o.Q Q Q R R F S N n } , - * $ % @ @ @ @ $ $ ; > B N Z S V Z N N N B N N S F R Q ` ' =X*X6X5XiXaXfXzXzXeXqX).H.D.z ..9 h h g d J J P ! Q ` #X#X2X#X2X2X2X#X#X#X] ] ) / ) ) ] ] +X$X$X$X$X+X^.' ] ] ] ) ) / Q Q E Q Q ) ^.#X7X2X6X5X5XxX5X6X6X7X7X#X#X' ' ) ) [ Q [ / ~ ) _ ^.#X#X#X#X#X^._ ` ~ / ! R Y F D S N N n } > - * $ @ @             1 @ @ # = < b v n m l x ..y.u.a.q.z.z.g.I.K.`.o.o.&X$X@X&X&X&X&X=X%X=X$X&X$X#X$X$Xo.%Xo.`.o.[.o.'.'.X.K.i...p.:.:.|  . .| 9  .9  .a g ..X.V D T o.o.@X@X#X1X1X2X2X2X2X2X*X=X$X#Xo.( o.o.R F F S H N M n } > > , ; - - : - : - - - < < < < : ; ; f 9  .-.#.;.1.3.3.3.3.3.3.1.1.*.*.%.%.|  . . .j j x U J P L F D S N v , < $ $ $ < - , } n m Z S Y R Q ) ' #X%X:XqXeXeXcXcXcX.X.XXXXXA.M.v.c.c.b.c.b.c.c.c.c.v.v.k.k.8.l.q.x.x.XXoXoXMXMXvXMXvXoXXXx.s.0.0.9.p.K.Y.|.9X>XwXxXpXpXgXuXgXsXeX9X{.R.x.z.M.v.v.c.c.c.c.j.c.j.j.j.j.8.8.j.8.q.l.x. X.XvXcXnXnXCXCXAX",
"vXvXvXvXoXoXoXXXA.A.l.k.j.j.j.2.2.2.2.2.9.p.f.T. X.XvXvXvXvXmXvXbXvXvXvXoXoXXXA.z.l.k.8.8.3.1.1.*.%.$.-.-. .z z G X.D o.W o.( ( / Q Q ! Y F S N n } , - $ $ % @ @ @ @ % * , } n N H Z S S N N N N N V S D R ! ) ] ^.=X7X5XxXpXaXaXsXeX8X).W.X.z g ..h g g J G { R ! Q ) #X#X#X2X#X4X4X#X#X#X' #X` ` ` ] ' ' ^.+X^.+X#X^.+X' ^.' ] ) ) [ / Q ! ! Q [ _ #X#X7X6X3X5X3X6X6X2X:X#X#X^.' ] ) / Q Q ! ! Q ) ) ' ' #X^.^.^.' ` ~ / Q R L Y F D S H B n } > - * $ @ @               @ @ = * : : } n V C U ..y.i.u.f.f.f.I.L.L.o.o.$X$X#X@X&X@X&X&X$X&X$X&X$X$X$X$X$X%Xo.`.o.`.'.Y.Y.I.K.K.i.d...y. ....... ... .g g ..g V C C X.Y T ( T o.#X#X@X=X%X=X=X$X$X#X@X` ` W o.T R F F D Z N m n } } > , - - - - & $ - * * < < < : : , p f g 9 -.-.*.1.3.3.3.3.1.1.1.*.*.=.@.#. . . . .j x x J P P L L D S M } : < $ $ $ $ < ; v } B S G Y ! ) ] #X%X-X,X8X9X0X0X{..XoXXXXXA.Z.M.N.b.c.c.b.c.b.b.b.c.v.k.8.q.q.q.a.g.U.XXXXoXoXMXoXoXoXXX Xx.s.0.4.9.h.h.K.|.).3X6XuXxXuXgXgXpXsXeX0X].R. Xx.M.v.c.c.c.j.j.j.8.8.8.8.8.8.8.8.8.8.a.g.E.}.0XrXrXlXkXNXNX",
"oXoXoXoXOXXXXXA.z.l.l.k.j.j.5.5.2.>.>.,.,.<.p. XU. X.X.XoXoXoX.XvXoXoXoXoX X Xx.z.q.8.8.3.1.1.*.%.%.#.#.i i k l C G X.Y W W T o./ Q Q ! R F S N n } , - $ $ % @ @ @ @ $ * , } n N H S Z S N N N B N N S G R ! Q ] ' $X*X2X5XiXiXpXsXqX>X).W.I K l g g l l C { { R ! / ) ] #X7X2X4X2X4X#X2X#X#X#X' ] ] +X' ' ' +X^.+X' +X+X+X^.' ' ] ) [ Q ! R ! ! [ ) +X#X:X3X6X3X6X6X:X7X#X#X^.' ] ) [ Q ! R R ! ! [ ) ) ' ' +X' ' ` ) / E R R F F D S Z H m B } > - * $ # @ 1             @ @ $ * < : v B m C J K ..J.i.d.P.K.L.L.`.o.,X$X$X&X&X@X&X&X$X&X$X$X$X$X&X@X=X$Xo.).`.`.Y.T.I.I.f.f.i.i.i.........h g l ..g g ..f C C G G S Y Y o.o.o.( @X( @X` @X` +X( ` ( o.W W ( Y Y F D S V N B m } > > ; - - - * - $ $ $ $ * < * * - ; ; f 9  .i #.*.*.1.1.1.1.1.*.*.*.%.#.#.i  .j j j l l J J P L L F D H M > ; < $ $ $ $ - ; > n N Z D T Q ) ' #X%X-X;X9X[.{..X.XXX XXXA.A.N.M.n.b.c.b.b.b.c.b.c.v.v.l.q.q.p.p.d.d.E. XoXoXOXoXOXoXOXXXA.s.q.0.4.9.<.h.F.Q.).;X3X6XxXuXxXpXpXsXeXtX{.].x.Z.M.v.v.c.j.j.8.8.8.8.8.8.3.3.3.3.3.4.p.p.P.'.}.9XeXaXgXgXgX",
"OXXXXXXX XXXA.A.z.l.k.k.5.5.5.2.>.>.&.>.,.<.<.u.f. X X X.XXX.X.X XXX X X Xx.z.z.q.0.3.3.3.1.*.%.@.+.| t t j x x X.C D D T W T T Q / E ! R F S N B > > - < $ % @ @ @ # % $ ; } n N S S S S S N N N N H S D L ! Q ) ' $X=X7X6X5XyXxXwX3X,X/.W.^ U X.J J C J J { L L ! Q / ] #X#X#X4X#X#X2X2X#X#X#X+X+X+X' ' ' ' ] ] ' ' ^.^.+X$X#X#X] ] ) Q ! R L R ! [ ) #X#X7X2X2X2X2X2X7X#X^.+X] ) [ Q ! R R L R R ! / ) ] _ ' ] ` ) [ ! ! R Y F G G S H N N n } > ; * % # @               @ @ $ $ - ; } n N C J J X.X.X.L.K.L.L.Q.`.).%X%X&X&X&X@X&X#X$X$X$X$X$X$X$X&X*Xo.).).`.T.I.U.g.x.g.f.g.....i...X.X...d ..X.C X.C C X.X.D X.o.o.T T T W W o.o.o.o.o.o.o.o.( o.R o.W T Y Y F D S V H B M } v > , - & * $ $ $ $ $ $ $ = * - - ; p f a 9 -.#.%.*.1.1.1.*.1.*.%.%.@.-.-.i  .h h g J J J P P L L Y D H B v - $ # # $ $ < - > n B S F R / ` #X#X-X,X[.[.}.].R.R.XXXXA.Z.Z.v.v.c.c.b.c.b.b.b.b.v.v.k.q.a.p.d.P.K.P.E.E.R.XXXXXXOXOXA.A.z.l.q.4.4.;.h.t.H.H._.-X3X#XxXuXuXxXpXsXtX9X{.R. Xx.M.v.c.c.j.j.8.8.8.3.3.1.3.1.1.1.1.,.<.h.K.L.`.).>X5XuXuXuX",
"XXA.A.A.A.A.z.z.l.l.k.5.5.5.2.>.&.&.&.$.=.,.<.<.a.a.a.x.x.x.x.x. Xx.g.g.s.s.s.0.6.6.3.1.*.*.%.@.+.+.r t u h h l X.V { F T o.T o.Q Q E ! R F S H n v , - * % # # @ @ @ $ $ ; } n N Z V S H N N N B N N S G F R Q ) ` ' $X*X2X6X6X5X3X2X:X/.!.o.I { { { J G G { L R ! Q ) ] +X#X7X2X#X4X2X#X2X#X#X$X+X+X' ' ] ] ] ] ] ' ' +X$X$X$X#X^._ ) Q R R Y Y R Q ) ^.#X#X:X7X2X7X:X#X#X^.] ) / Q ! R Y F L F R ! ! / ) ) ) ) ~ / E R R Y F D D S S H N B n } , - * $ @ @ @               @ # * - : } n m V G U U X.X.Q.Q.Q.o.`.o.,X%X$X$X&X&X&X$X$X$X$X$X#X$X$X&X&X=X%Xo.Q.L.T.g.x.x.Z.z.a.f.i...X.X.X.J J C X.C J X.V G V S X.D F D o.T o.! o.T o.T W o.T o.W T T Y R Y Y F F G D S Z H B M } } > , - - * $ % % % % $ # = $ < - ; p f a  .i #.%.*.1.1.*.*.*.%.%.%.@.-.i i h l l J C { { { L L L { D H n } - $ # % # $ $ ; > n N Z F R / ` #X%X-X,X[.}.'. X XA.A.Z.M.M.N.M.n.v.c.c.c.b.c.b.b.c.v.l.q.p.h.K.F.H.H.L.E.E. XXXA.S.A.A.M.M.8.8.4.1.;.e.y.F.G._.3X#XuX#X#XgXxXxXwXeXtX].R.U.Z.z.v.v.c.j.8.8.8.3.3.1.1.*.*.*.*.%.=.:.y.t.J.G.W.%X*X<X#XuX",
"Z.N.N.N.l.N.l.k.k.k.5.j.5.2.>.>.>.$.$.#.$.$.,.<.<.0.0.a.q.z.z.z.q.s.s.q.q.q.0.4.4.4.1.*.*.%.@.+.+.r t t w y h d C C G D T A T T Q Q Q R R F S N s } , - * $ # @ 1 X # % * , } n N N S Z S S Z B N N N S S F R ! [ ) ' #X$X*X2X6X6X3X2X7X%X^.^ E X.P { L { { L R R E Q ) ] +X#X#X#X2X2X#X4X#X7X#X$X$X$X+X' ] ] ] ] ] ' ' ^.$X^.$X#X^.' ) Q R L F Y R Q / ^.#X#X7X7X#X#X#X#X^._ ) ~ Q ! R Y Y F F F L R ! Q [ / ) [ / Q R R F F G G S Z Z H N B n } ; ; * % @ @                 % % * - : } n N V G L P I X.o.o.).o.o.o.%X%X%X=X&X&X$X$X$X@Xo.#X$X@X@X&X&X=X-X;X`.Y.T.x.x.Z.M.M.s.a.i...X.X.X.P { { { { { G D X.o.Y A o.Y Y Y F T R Y Y Y T T F F A Y T F F F F F F D S S S Z N B n } v ; ; - * $ $ # # # @ # = $ $ < - ; ; f a h i -.#.*.*.*.*.*.%.%.@.+.+.i k h g l C C C { { { Y L Y Y D S n > - $ % # % $ * - > n N S F W ) ' #X*X:X,X[.'.T.U.g.z.M.M.N.v.v.c.v.c.c.b.c.c.b.c.c.v.k.q.a.d.K.H.G.H.H.|.Y.E.x.A.A.B.B.N.v.j.8.3.4.=.;.e.y.D.G.~.#X#X#XuX#XuXyXxXsXtX0X.XR. Xz.M.v.j.j.8.8.8.3.1.1.*.*.*.*.%.%.%.@.:.w.r.D.G.W.o.^.#X#X@X",
"N.v.N.k.k.k.k.j.k.5.5.5.5.2.>.&.%.@.$.$.:.=.=.=.4.4.6.6.6.6.k.6.6.6.6.6.4.3.4.1.1.1.*.*.%.%.+.+.| | 4 | 9 6 g g d G G G Y Y o.o.Q Q Q ! R F G N n } , - $ $ % @ @ @ @ $ $ - > n N S S V Z N N N N N N S S D R R Q ~ ` ' $X%X*X6X4X2X2X7X$Xo.o.( W W R Y R R L R ! ! Q ) ) ' +X&X*X*X*X*X*X*X*X&X$X=X#X^.] ] _ ) ) ] ] ' +X$X$X$X#X#X_ ) Q R L Y F R ! [ ) ^.#X#X:X#X#X#X+X] ) ~ ~ ! E R Y F F F F F L R ! [ / [ / [ R R F F G S S Z H H N N n n } , - * % # @ 1         1 1 @ @ % $ - - > n M H G { E [ ~ o.^.(.(.%X%X%X*X&X%X&X&X$Xo.+X+Xo.@X+X#X#X&X&X%X%X).`.L. Xx.z.z.N.l.z.p.h.D.X.I P L Y L R R L { L L R R L R R R Y { Y F F F F D F D D G S D G S S G S D S S S Z Z N B M } > > ; - - $ % # @ @ @ # # $ * < - ; s f g  .i #.@.%.%.*.*.%.%.@.@.#.i i k k g J C G { F F Y R R Y { D H n > < $ % @ # # < - } n N S F W ( #X&X*X:X).[.T.I.x.z.l.M.v.c.b.c.c.b.c.b.c.c.c.c.c.c.k.l.q.d.P.F.H.W._.W.H.|.E.g.Z.N.B.n.b.c.j.8.3.1.<.;.e.t.D.D.W.!.^.4X#XuX#XgXxXwXeX0X{.E. Xz.M.v.j.j.8.8.8.1.1.1.*.*.%.%.@.@.@.#.-.O.O.z X.I _ ) ] ` @X",
"j.c.b.j.j.j.j.j.j.5.5.2.2.,.,.=.=.:.:.-.:.:.=.,.,.1.6.3.5.5.5.5.3.8.3.3.3.3.3.1.1.*.*.%.%.@.+.+.| | | 4  .9 g d d C V D F T T T Q / E ! R F S N n v , - $ $ % @ 1 X # # * , > n N N S Z S H V N N N N S S D F R ! Q ) ] ' $X*X*X2X2X:X<X=X$X` o.o.W ! ! W W R R ! ! Q ) ] ^.$X$X*X*X*X*X*X*X*X*X%X$X+X' ] ] ] ) ) ) ] ] ^.#X$X$X#X^.' ) [ ! Y Y Y L R Q ) +X^.#X#X#X^.+X] ) ) / ! R R Y { Y G F F Y Y R R ! ! ! ! R R L F D S S S H N N M n n n > ; - * % % @ 1         1 1 1 @ $ $ - - > } M H S { ! / ` ' $X$X&X*X%X*X*X*X*X*X=X$X&X^.+X+Xo.@X+X$X&X&X*X%X).`.Y.T.x.z.z.l.l.0.h.t.D.K P P Y Y T F T F Y F { F F Y F { F F F F F D S S H H Z V Z Z Z S S Z H S V Z S Z Z N N n n } } ; - - $ $ $ @ @ @ @ @ # $ < - - s f d f  .i +.%.=.*.*.%.%.%.@.+.+.+.i y l l J C { D Y Y Y Y R F F S N n ; < $ % @ % # $ - ; n B S F W ( #X=X*X,X9X'.}.I.g.z.k.v.b.c.b.c.b.c.c.c.c.c.c.c.k.l.l.q.a.d.F.H.W.W.!._.Q.L.d.g.l.M.b.b.c.j.j.8.1.1.*.;.;.r.r.G.^ !.' #X#XuXuXuXxXiX9X9X].E. Xx.M.k.v.j.8.8.3.1.1.*.*.%.%.@.@.@.@.+.-.k O.z I I ^ ~ ( ) ( ",
"b.j.j.j.j.5.j.j.5.5.2.2.,.,.=.;.:.y.w.w.:.:.;.;.,.4.3.3.5.5.5.5.3.3.3.3.3.1.1.1.*.*.%.%.@.+.+.+.| 8 | 8 6 9 g g d C V G F Y T T ! Q Q ! R F D N n > , - * $ # @ @ @ @ $ $ ; > n N N N S V Z Z N N N N S S G F F R ! Q ) ' $X*X*X7X2X2X7X*X&X+Xo.@Xo.o.W T W W W ! Q ~ ) ] ^.$X%X*X*X%X*X%X&X%X$X$X+X^.' ] ] ) ) ) ) ) _ ' +X$X$X#X+X' ) Q ! R Y Y R ! [ ) ] +X^.#X/.^.] ] ~ / ! ! R Y R Y Y Y F Y F R R R ! ! ! R R F F F D S S H N N N n n n } > : - $ # @ 1 1         1 1 @ X % # * - > } n H D Y ! / ` #X&X&X*X<X<X*X<X*X*X&X&X$X$X+X+Xo.@X@X@X&X&X&X*X-X).`.'.I. Xz.z.z.s.a.h.t.D.I E L F T F Y D T F D F F F F F F F F D D H H H N N N N N N N N N N N H N H H H N H N m n } } } , , - $ $ % @ @ @ @ # = = < b v n m f g  .O.-.;.%.*.*.%.%.@.@.+.+.i i k l J C G F F Y T Y Y Y Y F S N n , $ $ @ @ @ $ * - > n B S F W ( #X=X*X,X;X[.T.U.g.l.M.c.b.b.c.c.b.c.b.c.v.v.k.k.q.q.a.a.d.K.H.Q.W.^./.~.Q.H.E.a.z.M.v.c.j.j.8.3.3.*.*.;.w.r.D.G.G.o.^.#X#X#XuXuXuXwXqX9X].R.x.Z.M.v.j.j.8.8.3.1.1.*.%.%.%.@.@.@.+.+.-.i k z J P E [ Q ( W ",
"j.j.j.j.j.j.5.5.2.2.>.>.>.,.:.e.e.e.t.t.t.t.h.h.9.9.6.3.5.5.3.3.3.3.3.1.1.1.*.*.*.*.%.@.@.+.+.r | | 8 | 8 9 g a d C S F D A o.T Q ) Q ! R Y S N B } ; - * $ @ % @ @ # % < - ; n B N Z N Z Z V N V N N S S S D F F R ! [ ] ' =X*X2X2X2X<X<X*X&X#X( ` ( o.o./ / ( Q Q ~ ) ] +X$X$X*X*X*X*X*X$X$X$X+X^.' ] ] ) ) ) ) ) ] ] ' ^.^.$X^.^.] ) [ ! ! R R ! ! / ) ] ] ^.+X^.] ) ) / ! E R R L R L Y Y Y L R R R ! R R R R R F F D S H H N N M n n n } , , & $ $ # % @                 @ @ $ $ - - > n N S Y ! ) @X&X&X<X<X<X<X<X*X*X*X%X&X$X+Xo.o.@X@Xo.#X#X&X&X*X7X-X).`.Y.I.f.f.z.d.i.t.D.X.U L R T T T A D D D D D D S S S D S S H H H N Z N B B B m B m B m N B B N B N N B B m m n n } } > - - - $ # @ @ @ @ # $ < : b n n d d f ..-.-.@.%.*.%.%.%.@.@.+.+.t i k l J J { F Y T R T R F F D H B v ; < $ # @ % $ $ - > n N S Y W ( #X=X7X>X[.[.T.R.x.z.k.v.c.c.b.b.c.b.c.c.v.v.l.q.q.a.a.d.P.F.Q._././././.Q.|.P.d.q.l.j.j.j.8.8.3.1.1.=.;.;.w.D.X.^ _ _ #X#XuX#X4X6XwX9XtX}.R. Xx.l.v.v.v.8.8.3.3.*.*.%.%.%.@.@.+.+.t i k O.z K I E Q ! / ( ",
"j.j.j.j.5.5.5.5.2.>.>.&.=.=.e.y.t.t.F.F.F.F.i.p.p.9.4.5.5.3.5.2.3.1.1.1.1.*.*.*.%.%.%.@.@.+.+.r 8 | 8 8  .9 g g C C G D G Y Y o.Q Q Q ! R F S H n } , - $ $ % @ @ @ @ # $ - > n n N N S H Z V Z Z H N S S S S S F F R ! ~ ' $X*X:X2X4X2X2X<X*X&X@X@X@Xo.` o.( W ~ Q ) ] ' +X%X*X*X*X*X$X%X#X+X+X' ] ] ] ) ) ` ) ) ) ) ] ] ^.+X^.^.] ] ) [ Q ! ! ! E Q [ ) ] ' ' ' ] ] ) / ! E E R R R Y R R R R R R R R R R R R F F F G S S H H N N n n n } > ; - $ $ $ # @ 1 X           @ @ @ @ # $ $ - - } B S Y W ` #X1X<X2X2X4X2X2X<X*X*X%X&X^.+X+Xo.( @Xo.+X$X&X&X*X7X-X).`.L.L.P.I.d.i.t.J.D.U P L Y F D D A D A Z Z Z H N Z Z N N N N H B B m n n n n n m n n n n m n m M M n n M n n n } > > > - - < $ % @ @ @ @ # $ - > v n H C d g ..-.-.%.*.%.*.%.%.@.@.+.+.i k k l J G { L Y T R T Y Y F D H N v : < % @ @ # $ $ ; > n B S Y W ` #X=X*X>X;X}.'.I.x.z.v.v.b.b.b.c.b.c.c.c.v.l.l.a.a.d.P.K.F.|._.~./.8X#X[.).|.K.h.a.6.8.8.8.8.3.3.1.*.=.;.;.r.D.G.^ #X#X#X#X#X#XgXuXwX8X9X'.E.x.x.M.v.j.j.8.8.3.1.1.*.*.%.@.@.@.+.+.+.-.k k z K P E E / / ( ",
"j.j.j.j.j.5.5.2.2.>.&.&. .<.e.t.F.H.Q.|.|.L.P.d.p.9.0.3.5.2.5.2.3.1.1.1.1.*.*.%.%.%.@.@.+.+.+.e | | | 4 9 9 a a d C V D Y Y T T Q / / E R Y S H n > , - * % # % @ @ @ # $ - , v n N N H Z H N S N S S Z S N H S S D Y ! ~ ] $X*X7X6X4X3X4X2X7X<X1X&X&Xo.o.@Xo.W ) / ) ] ' $X$X*X*X*X*X$X#X^.' _ ] ] ) ) ~ ) / / ) ) ) ] ] ] ' ] ' ] ] ) / [ Q ! ! Q / / ) ] ] ] ] ) ) [ ! E Y Y Y R L R R R ! E ! R ! R R L Y F F F F D S S H N n n n } > , , - - * $ $ % @ 1 1 X     1 1 1   @ @ % % $ * - > B S Y / ' &X<X4X6X6X6X4X2X7X<X*X*X&X^.o.@X@X@Xo.@X+X#X&X*X*X*X-X).).Q.Q.L.H.F.J.J.D.I I P L F D D A Z N N Z M M M B N N m N B m n n n n n n } } n v v v n v v n v n n n n n } } } } } > > ; - $ $ % # @ @ @ % < : v M N V C X.....w.;.#.%.*.*.%.%.@.@.+.+.-.i k l X.J L Y R T T R Y F F S N n > ; $ % # @ % $ $ - > n B S F W ( @X&X:X:X9X[.T.U.g.l.M.v.b.b.c.b.b.c.b.v.k.l.a.f.h.i.F.H.Q._.~.-X%X#X#X-XQ.H.E.d.a.0.8.3.8.3.3.3.1.1.=.;.w.r.r.D.W./.#X#X#X#XuX#XuX3X8X[.].E.E.z.l.v.j.j.j.8.3.3.1.*.*.%.%.@.@.@.+.+.i i O.K U P I E Q / W ",
"j.j.j.5.2.5.2.>.&.&.$.$.:.:...K.H.Q.`.`.`.'.Y.P.f.9.6.6.5.5.2.2.1.1.1.*.*.*.%.%.%.@.@.+.+.r r e | 8 8  .8 9 g g C C V G F Y o.o.Q Q Q ! R F S N n } ; - * $ % @ @ X # # $ - > > n B N N H H Z N S Z V Z N N S S S S F R Q ` #X%X7X2X6X6X6X6X2X7X<X*X=X$X@X` o.@X) ) ) ] _ $X$X*X%X*X%X$X+X' ] ) [ ~ ~ / / ) ~ ~ ~ / ) ] ` ] ] ] ] ) ) ) ) / [ Q Q / [ ) ) ) ) ] ) ) [ ! E Y Y Y { Y Y R R ! ! ! E ! ! R L Y F F G D S S S H N B B n n } ; ; - < * $ % # @ 1 @   1     1 1 1 1 @ @ @ @ # $ & > n Z { / ' &X2X6X5XyX6X6X2X2X*X*X&X$X+X@X( ( o.o.` +X+X$X&X%X*X%X%X).).o.Q.G.G.G.X.I P P L G D S S Z N B B n n n n n n n n n v } v v } n } > } > } } } } } v } } } } } } } } > } } > > > , - - $ $ # % @ @ # $ < b n M S G G J l ..w.-.=.%.*.%.%.%.%.@.+.#.+.i O.z X.P X.T T T W Y Y F D V N n > - < % @ @ @ # < - > n M S Y W ( #X$X:X,X9X[.T.U.x.z.M.c.c.c.b.b.b.b.c.v.l.q.a.h.K.H.H.W._.~./.%X7X#X8X;X).|.F.h.h.9.4.3.3.1.1.1.1.*.;.;.;.t.D.G.^ !.+X#XuX#X#XuXuX3X8X[.}.].x.z.l.v.v.j.8.8.3.1.1.*.%.%.%.@.@.@.+.+.i i k z U I E [ / / ( ",
"5.5.5.5.5.2.2.>.&.&.$.$.:.y.y.F.|.`.;X;X[.[.'.E.f.a.0.3.5.2.2.2.1.1.1.*.*.%.%.%.@.@.+.+.+.+.r r | 8 | 8  .9 g g d C G D F Y T T ! Q Q ! R F S H n } , - * $ # @ @ @ @ % % < > > n n m N N S S S S S H S S N N N V S G L ! ` ' $X7X2X2X6X3X6X6X2X:X<X=X=X` @X( o.) ~ ) ] ' +X+X$X&X*X$X+X' ` ~ Q ! ! W ! ! ! / [ [ ) / / ~ ) / ~ ) ) / [ / [ / / [ Q [ / [ ) ) / [ / ! R Y Y G F F G Y R R E ! E ! ! R R Y F D G D S Z H H N N B n n } > - - * * $ % # @ @ @   @   1   1 1 1 1 1 1 @ @ % $ * - n Z Y / ^.*X4X5XyXyXyX5X4X7X<X%X$X+X@Xo.@Xo.( ( o.o.@X#X$X%X=X%X%Xo.o.o.o.^ ^ I [ I P L G D G Z Z N M n n v n > b v > > > } > v v > > > > > > > > > > > > > > > > > > > > > > > > > > > , - - - $ # @ @ @ % $ - b M Z S G J C X...w.-.;.%.%.*.%.%.@.@.+.+.i O.O.z J P o.Q o.W W R Y F D H H n > - $ $ @ % @ $ $ ; > n N S F W ( #X=X*X:X;X[.T.I.g.l.l.c.b.b.c.b.c.c.v.k.q.a.d.P.F.J.W.W.(.=X*X7X<X3X#X).).|.F.h.h.,.=.1.1.1.1.*.*.*.*.;.e.w.D.D.W.!.' #X#X#XuX#X4X3X>X[.].E.E.z.l.l.j.j.8.8.3.3.*.*.*.%.%.%.@.@.+.+.-.O.O.K K I [ ~ / ) ( ",
"5.5.5.5.3.1.1.*.&.$.$.:.-.y.F.H.`.).9XqX9X[.'.E.E.a.0.3.3.3.3.3.1.1.*.*.%.%.%.%.@.+.+.+.r r r e 8 | 8 | 6 9 9 d C C V G Y Y R ! ! E Q R Y F S N n } , - $ $ % @ @ @ @ @ $ < ; > s B B N N S H S V S S Z N N N N N N S F ! ~ ' $X*X2X2X4X6X6X4X2X7X7X*X&X@X@Xo.( / ~ ) ` ] ' +X$X$X$X+X' ] ~ Q ! R R R ! ! ! ! Q ! [ [ / Q [ ~ / [ / Q [ Q Q Q Q Q Q [ / [ / [ / ! ! R Y F G D D D G F F Y R ! ! ! R R F G D S S H H N N N B n n } } , ; - * $ $ % $ @ @ @ @ 1   1       1 + 1 1   @ @ @ % $ - n H Y [ ' *X5X5XyXwXyX5X2X:X*X=X$X+Xo.o.o.( ( o.( ( o.@X@X$X#X$X@X$Xo.o.( [ o.L L L Y G G S Z N B B n v v > , , , ; , ; : ; , , ; > ; , , , ; : , ; , , ; ; ; : , ; , , , ; , ; : , - > - - - $ $ % @ 1 @ $ $ : v M A D { P P X...w.;.;.=.%.%.%.%.@.@.#.| #.k ..K X.P ! ! ! W W W Y F D H N n > - $ % # @ % $ < - > n B S Y W ) #X&X*X,X9X[.'.E.x.z.l.v.k.j.b.b.j.j.k.l.a.a.d.F.H.W.~.^.$X=X=X1X2X#XeX8X`.|.F.t.h.<.,.*.*.*.*.*.=.%.;.;.w.r.D.G.W._ ^.#X#X4X#XuXuX3X;X[.'.E.E.z.l.v.j.j.8.8.3.1.1.*.%.%.%.@.@.@.+.#.i O.O.z K ^ ^ ~ ` ) ( ",
"3.2.2.2.2.,.1.*.$.=.:.-.y.r.J.Q.).;XqXqXqX[.'.Y.f.a.0.6.3.3.3.1.1.1.1.*.%.%.%.@.@.+.+.+.r r r e | 8 | 8 9 9 g g d C V D F Y Y W ! ! ! R Y G S N n } , - * $ % @ @ @ @ # % < - > n n B N N N S S S S S S N N N N N N S F R Q ` $X&X<X7X2X2X:X:X7X<X*X&X$X' ` ( o.) Q Q ) ) ] ] ^.' ' ] ) ~ ! ! R Y L Y Y L R R ! ! W R ! ! ! ! R ! E ! ! ! ! E ! ! ! ! Q ! ! ! E R R Y F G S H V S S D G F Y R Y L F F F D Z H H N M B M n n n } } , , - - $ $ $ % @ @ @ 1 @ 1 1 X   1     X 1 @ @   @ @ % $ - } Z Y [ $X*X3XyXiXwX5X5X2X*X*X$X$X@X( ( ( Q W Q ! ( o.( o.o.@Xo.o.@Xo.o.[ W ! R T F G D S Z N B B n > ; , ; - - - < - - - - - - - - - - - - - - - < - - - - - - - - - - - - - - - - - - - < < $ $ # @ @ @ # $ : v M A F L P X.X.X.r.w.w.;.;.;.=.%.@.@.+.#. .-...z X.X.o.! o.W W W F F S V N v ; - $ # @ % % $ $ - > n B S F ! ( @X&X:X>X;X[.'.T.U.x.z.z.l.l.l.k.l.l.l.q.a.d.K.H.J.W.!.#X&X=X1X1X1XwX#X;X).|.F.h.e.;.*.*.*.*.*.*.=.;.;.e.h.D.D.X.^ _ ^.#X#X#XuX#X4X3X;X[.}.E.x.x.l.v.c.j.8.8.8.1.1.*.%.%.%.%.@.@.+.+.-.O.O.K K ^ ^ ) ` ` @X",
"2.>.1.1.*.1.=.=.;.;.y.y.r.J.J._.).3X3XqXqX9X|.Y.d.a.0.3.3.3.3.1.1.1.*.*.*.%.@.@.@.+.+.r r r e e | | | 8  .9 g d d C S D D Y Y Y ! ! R L { D Z N n v , - * $ % @ @ @ @ % $ $ ; > v n B N N S N S S S S N V B n N N N S D R E ) ' $X=X1X1X*X7X*X=X=X$X@X#Xo.o.o.W ! Q Q ~ ~ ~ ) ) ) ~ / Q ! R Y F G F G F F F L Y R Y R L Y R Y R Y Y R Y Y R L Y Y L L Y Y R Y Y Y F D D H H N N B N Z S D D G F G D S S H N B n n n n } n } > > ; ; - < * $ $ @ # @ @ @ @ 1 X     1   1 1 1 1 X   @   @ @ $ - } H { / ' *X2X5XwXyX5X4X2X*X&X$X' o.( [ E ! L R ! W W / o.( o.o.( / ( ! W R T Y D D A Z N B n n } ; ; : - & < < < * & < * * < & * < < < & & < < * & < < < - < < * < - & < - - < - & - < - < < % % @ @ @ # # $ - v M Z F L R X.X...D.r.y.e.;.;.;.#.#.@.+.#. . ...X.X.E o.o.o.( W W Y F D Z B n ; < $ # @ @ @ $ < - > n B S F W ( ' =X*X:X8X[.}.T.R. Xg.z.z.z.l.l.q.s.a.a.f.i.H.H.W.(.^.#X#X1X1X1X4XiX5X#X).|.F.t.e.;.*.*.=.*.=.=.;.;.e.r.r.D.D.G.o._ ^.#X#X#XuXuXuX3X8X[.].E.x.z.l.v.v.8.8.8.3.1.1.*.*.%.%.@.@.@.+.#.-.O.O.D.X.^ o._ ' #X#X",
">.>.>.*.*.;.;.;.e.y.t.F.F.Q.Q.).,X>X3X3X9X[.'.Y.f.p.9.8.3.3.3.3.1.1.*.*.%.%.@.@.+.+.r r e e r e 8 | 8 | 8 9 g g d C V S D F Y T Y R R Y F S H B s > , - $ * # @ @ @ @ # $ < ; > n n B N N S S S Z S S S S N N N N N N S F ! Q ] o.#X$X@X&X$X$X$X#Xo.@X( o.( W o.! ! ! ! ! ! ! Q Q ! R R Y F G S S S V D D D D F F F F F F D G F F G F F F F F F F F F F F F F F G D V N N B B M M m B N H H N H H N N B n n n } } } > , > , ; ; - - * $ $ % # % @ @ @ 1 1 1   @ 1 1 1 1 1 1 1 + @   @ @ @ $ - > N Y [ ' *X2X5X5X5X5X2X*X%X$X' _ o./ ! R Y Y F Y Y R T R ( W E ! W R T Y F D D A Z N M n } } > ; , - < < * $ $ % $ $ $ $ $ $ $ $ $ $ * $ * $ $ $ $ $ < % $ $ $ * $ $ $ $ $ $ $ $ < $ $ $ % $ % # @ 1 1 @ % $ : v B S D L L E P X.D.D.t.t.e.w.-.;.:.#.#.+. .w.....X.o.o.Q ( ( ( W R F D H B } , < $ $ @ % # # $ - > n N S F W ) #X&X*X3X8X9X[.}.].R.U.U.U.g.x.g.g.a.f.i.i.K.H.W.W.^.^.&X&X#X1X1X4X#X8X9X[.|.F.h.h.;.*.=.*.=.:.:.e.t.r.r.D.G.G.W.^ _ ^.#X#X#X#X4X5X6XqX[.}.]. Xz.M.v.j.8.8.8.3.1.1.*.*.%.%.%.@.@.+.#.i O.O.K G.^ !.' #X#X#X",
"&.&.%.&.=.=.:.e.t.F.F.H.Q.Q.).;X,X3X2X3X8X).|.Y.d.a.0.3.3.3.3.3.1.1.*.*.%.%.@.@.+.+.r r r e e e 8 | 8 8 0 y g g C V V S D D F F Y Y Y F G S N N } > ; - < $ % @ @ 1 @ # $ $ ; > } n N N N S S S S S S N N N N N N N S S F ! ! ) o.` @X` @X` ` o.o.o.o.( o.W W ! R R L Y R R Y Y Y L F G D S S Z Z N N N H S H S S S S S S S S S S S S H S S S S S S S S S S S H H H B M M n } } } } } } n n n M n n } } > > ; ; - - - - - - * * * * $ $ # # @ @ @ @ 1 @ 1 1     1   1 1 1 1 1 X 1 @ 1 @ $ $ & v N F Q ' &X7X5X5X5X2X7X*X&X' ' ) [ ! R Y D S S S S D F F Y Y F Y F F F A A Z Z Z M n n v , ; - - < & $ $ $ $ % $ $ % % $ % % % $ % % $ % % $ % $ $ $ % $ % $ $ $ $ # $ # $ $ # $ $ $ $ % % # % @ 1 X 1 1 # $ - v M S F L E P X.o.G.G.D.J.r.t.e.-.-.#.#.#.-. .r.D.X.o.o.o.o.@XT W R F D H B n ; - $ % @ @ % # < - } } m S Y ! ) ' $X7X3X8X9X9X[.}.].].T.T.I.I.I.K.K.K.K.F.H.H.W.~.^.$X&X&X1X1X1XuXiX5X8X|.|.H.h.;.;.=.*.;.:.;.y.y.r.D.D.G.G.I o._ ^.#X#X#XuX#XgXuX5XqX[.}. XE.z.M.v.8.j.8.8.3.1.1.*.*.*.%.%.@.@.+.+.-.w.r.D.G.!./.#X%X=X1X",
"$.$.$.$.=.:.e.t.t.F.|.Q.).).;X3X3X6X3X:X;X`.|.K.d.p.0.3.3.3.3.3.1.1.*.*.%.%.@.@.+.r e e e e e q | 8 | 8 y 9 g g l C V S D D F F F F F G D Z N n n > - - & $ # @ @ @ @ # $ - : > n n n N N S N S S S S S S N N N B N N S D L ! Q / ( o.o.o.o.( o.( Q W T ! R Y Y Y F Y F F D D G S S Z Z N N B B B B B m B m B N N N N m B N N B N N N N N N N N H N N N N N N B m B M n } } } > ; ; > > ; > > ; , , , - - - - * * * * * $ $ * $ $ % % % % @ @ @ @ @ @ 1 @ 1 @   1 1 1 X 1 1 1 1 1 @ @ @ % $ : > N D ! ) $X*X2X2X2X2X*X&X$X' ` [ ! L F D S H H N N Z H S S S S S S Z Z H Z M M v } b b - < & < * $ $ $ % # # # % # # # % # @ # # # % # # # @ % # # @ % # @ @ @ % % # % % % @ # % % % # # # # @ 1 1 1 1 @ % $ - } M S D Y R o.E o.W.G.G.G.J.F.r.y.-.-.#.#. .w.w.X.X.o.o.$X@Xo.( ( R Y D N B v > < $ $ % @ % $ $ ; > n B S F W / #X&X7X2X3X9X9X9XtX}.}.}.}.'.'.|.L.H.H.H.H.W.W.~.(.%X&X&X=X1X1X1X4X#XwX#X[.|.F.t.e.;.=.=.;.;.y.y.D.D.G.G.G.W.o._ _ !.#X#X4X#XuXuXxXqXeX0X}.R. Xz.l.v.v.c.8.8.3.1.1.*.*.%.%.@.@.+.@.#.-.w.r.D.W.~./.%X<X<X<X",
"@.@.$.$.:.;.e.t.F.|.`.9X8X8X3X3X6X2X:X:X,XQ.H.P.d.p.9.3.3.3.3.3.1.1.*.*.%.%.@.+.r r e e e e q q 8 | 0 8 y 9 g g C C V D D D D D F D S S Z H N n } > ; - * $ $ @ @ X # # $ - - > n n N N V Z N S S S S S N N N B N N N S G F L ! ! o.W o.W W ! R R R T R L Y F F F G G D S V N N N B m n B } } } } } } } } } n } n n n n n n m } n n n n n n n n n n B n n n n n } } } > > ; - - - - - < < - < < * * * * $ * $ $ $ % $ $ $ $ % % # @ # @ @ @ @ @ 1 @   1 1 @       1 1   1 1 1 1 @ @ @ @ % $ & v N D ! [ +X%X<X<X7X*X%X$X' ` [ / ! Y S S N M n n } M M m N B N N M M M M n n v v > ; - * $ $ # # @ @ # @ # @ @ @ @ @ @ @ @ @ @ @ @ @ @ @ @ @ @ @ @ @ @ @ @ @ @ @ @ @ @ @ @ @ @ % @ @ @ @ @ @ X 1   1 1 @ # $ - > M V D L E ! o.o.o.!.W._.W.J.D.w.w.-.-.#.:. ...J.o._.$Xo.@Xo.( ( R F D H B n ; < $ $ @ # @ # < - > } N S F ! ) ' $X:X2X3XqXqXqXtXtX9X9X[.[.`.`._.Q.W.W.~.W.~.(.^.%X$X*X*X1X1X4X4X#XeX#X`.H.F.h.h.;.=.=.;.:.y.r.D.G.G.^ _ o._ _ _ ' ^.#X#X4X#XuX5XwXqX0X{.R. Xz.l.v.c.j.8.8.3.1.1.*.*.%.%.@.@.@.+.#.-.w.D.G.G.~./.7X<X2X4X",
"@.+.@.#.#.w.t.F.H.Q.).8XqX5X5X5X6X2X2X:X,XQ.L.K.d.9.0.6.3.3.3.1.1.1.*.*.%.@.+.+.r e e q q 0 q q | 8 | | y y g l d C C S D D D D D F S S H N B n } > , - * $ $ @ @ @ @ % $ $ - > n n B N N N S S S S S N V H N N B B N Z S D F R R W W W W T Y Y F F F F F D D G S D S Z N B B n } } } } } } } } } } } } } } } } } } } } } } } } > } } > } } } } } > } } } } v > } > ; , - - - < < $ $ $ $ $ $ % % % % @ % @ @ @ % @ @ @ @ @ @ @ @ @ @ @ 1 1 1 @ 1 1 X     1   @ 1     1   1 1 @ @ X @ % $ $ ; > B S R ) ' $X%X=X*X%X$X' ' ) [ ! Y F S N m } } } } > } } } } v } } } v v v > > : - < $ $ # % @ 1 @ @ @ @ 1 @ @ 1 @ 1 @ 1 @ @ @ @ @ @ @ @ @ @ @ @ @ @ @ @ # 1 @ @ @ @ @ 1 @ @ @ 1 @ @ @ @ @ 1 1 1   1 1 @ $ $ : } M S F R ! W o./ ^.^./.~._.G.D.r.w.-.-. . ...y.X.H.o.o.#X@X@Xo./ W Y G H B } : & $ # @ @ % $ < - > n B S F ! / ' =X7X2X5XwXwXqXeXeXeXeXqX9X;X-X).~.~.!.o.^.^././.=X*X1X1X4X1X4X4XeX#X9X).|.F.h.h.;.;.=.;.e.y.D.G.^ W._ _ _ ' ' ' ' #X#X#X4X4X6XyXwX9X0X{.E. Xx.z.v.j.c.8.8.1.1.*.*.%.%.%.@.@.@.+.-.-.w.r.G.Q./.-X7X2X4X4X",
"+.+.#.:.-.w.F.F.|.).9XqXwXyXxXuXuXxX4X:X)._.|.K.h.p.9.6.3.3.2.2.>.>.&.&.$.| | | t e w w 0 0 q 0 q 0 0 y y g g g l C F G D F F D D S S Z H N n } } > ; - < $ % @ @ @ @ # % < - > } m n N H H Z S H S S Z Z H N N N m Z Z H D F F { Y L F F F F D S S S S S S S S S Z H m B n } } , , ; > ; , , , ; : ; : ; : ; : ; , ; , ; : , ; : ; : , ; : ; , , , , ; , , ; ; ; - - - < $ * $ $ $ $ @ @ @ @ @ @ @ 1   1 X     @ @ + X 1 @   X @ 1 X 1 1 1 X 1 1 1 1 1   @   @   X 1   1   1 1 1 @ @ @ # $ - > n S F o.o.` @X$X$X+X( ( ( o.T T Y S H m } } } ; , ; , , : ; , , , ; - ; , : - - < $ # # @ @ + + + + + + 1 @ + + 1 # 1 1 1 @ 1 @ @ 1 @ 1 % 1 1 % @ 1 1 X 1 @ 1 X 1 @ 1 @ 1 @ 1 @ 1 @ @   @ @         1 @ % $ , } N S F R Q ) o.+X+X$X%X%X~._.J.D.y. . .-.w.w.r.J.o.Q.o.%X&X#X@X( T Y D Z B } ; - $ % # @ # $ $ ; > n N S F R ) ' #X*X2X5X5XiXiXiXsXwXiXwX3X3X:X%X%X^.$Xo.$X$X$X*X%X7X7X2X2X4X4X4X4X2X,X`.L.L.i.y.u.;.e.e.y.D.D.o._ !.' ' ' ' +X' ^.#X&X*X1X4X5XyXwXqXtX}.]. Xx.z.M.v.8.8.8.3.3.*.*.%.%.%.@.@.+.+.#. .w.D.J.W.).-X:X2X4X4X",
"-.-.-.w.y.t.J.H.|.).qXyXxXxXxXuXuX#X2X:X;XQ.H.P.d.0.6.6.3.3.2.1.>.>.&.$.$.$.| | t w w 0 0 y 0 y w 0 y y y h l l C { F F Y F F D S G S H H N n n v > - - < $ $ @ @ @ @ % $ * ; > n n N N H Z S Z S S S S H N N N N m m N Z S S D G F D D D S H H N N N N N H N N N N B M } } } ; , , - - - - - - - - - - - - - - < - - - - - - - - - - - - - < - - - - - - - - - < - < < $ $ $ $ % @ @ @ 1   @ 1         1           +   1             1 1 1   1   1 1 X         1     1   X 1 @ @ 1 X @ $ $ $ > n H D Y T o.` @X` o.o.o.( o.T T D V N B } > - - - < < < - - - - - - - - - - < # # # # @ 1 1     + + + + 1 + + + 1 1 1 1 1 1 @ 1 1 1 1 X 1 1 1 1 1 1 1 @ @ 1 1 @ 1 @ @ 1 @ 1 @ 1 @ 1 @   @   @   1 1 1 % % < ; n N G Y ! Q ) @X@X&X=X*X7X%X_.W.J.D.r.w.w.w.r.J.G.).o.>X7X=X#X( ( Q Y F H B n , < $ # @ % % # < - > } N S F ! / ' %X*X2X6XwXxXiXsXpXsXpXxX5X6X2X*X&X&X$X$X&X&X=X<X<X<X<X2X4X4X4X4X2X3X,X).`.H.K.i.u.u.e.y.t.J.J.o._ ' +X' +X+X$X#X$X&X%X*X1X4X6X5X5XqX9X}.{.E.E.Z.z.q.q.q.8.1.3.1.*.*.%.%.@.+.+.+.#. .w.r.D.W.~.%X:X2X4X4X",
"y.w.y.y.r.J.J.Q.).;X3XwXwXuXyXuXyX4X2X>X;XQ.|.P.d.9.0.4.3.3.1.1.>.&.>.| | |  . .w y y y 9 y y 9 9 y y y h g l { P L L R Y Y Y F D S S Z N B B } } > : - < $ @ @ @ @ @ # $ * - v } B M N H Z Z S S S H Z H N N N N B N N N N Z Z Z H H Z N N N B B m m B B B m B B n n } } , ; - - - - - & - $ < - - $ < $ < $ - - $ $ < $ - < $ < $ $ < $ - - $ $ < < - $ - $ $ * $ $ * $ $ % $ @ @ @ 1                                                 1         @       @ @   1 1 1     1 1 1 1 @ 1 % @ $ * > } B Z F o.Y T o.o.o.T o.Y o.T F D H N } > , - < - < $ < * * * * = * * * * * $ # = # 1 + 1   +   +     + + + + + 1 1 1 # 1 @ @ @ @ 1 1 1 1 1 1 @ @ 1 @ 1 1 @ @ @ @ @ @ 1 @ @ @ @ @ @ 1 @ 1 X     1 1 @ @ $ < > n H D R Q ( @X#X&X=X1X7X7X:X/._.G.J.D.r.y.r.D.J.W.`.;X-X7X=X$Xo.o.! R D Z B } ; < $ # % @ % $ $ - > n B S F R ~ ] #X*X2X6X5XxXiXpXpXpXpXxXuXuX4X<X=X&X&X&X&X=X1X<X1X4X4X4X4X4XuX4X6X3X,X;Xo.`.L.K.K.i.d.X.J.J.W.o.!.' +X#X#X#X$X&X=X*X*X7X4X4X4X6X6X3X9X[.}.E.E.E.g.s.s.q.q.0.9.*.*.*.%.@.@.+.+.+.|  .O.r.X.W.~.%X%X7X<X4X",
"F.F.D.F.H.H.Q.Q.).;X3X5XyXyXuXuXuXuX5X3X;X`.|.P.d.a.6.6.5.2.>.>.>.>.| &.| | | u u y h c c c 9 h c g c g g l J J P E ! ! ! R R Y F D S V N N n n v > - - & $ $ @ @ @ @ % $ - ; > n n N N H V V S S S S S S Z Z N B m M M B B m m B B m B B n n n n v } n n v n n } } } } } , - < < $ $ $ $ $ $ $ $ $ $ $ $ $ $ $ $ $ $ $ $ $ $ $ $ $ $ $ $ $ $ $ $ $ % $ $ $ $ $ $ $ % $ % % @ @ @ @ @ 1                                                                                     1 1 @ 1 @ @ % $ $ - > n B Z D Y D o.T o.T T Y Y F F S H n } > , - < $ $ $ $ $ # # # # $ # = # # # # 1 # 1 +   + +         + + + + + 1 1 1 1 1 1 @ @ @ @ @ 1 @ 1 1 1 @ @ 1 @ @ @ @ @ @ @ @ @ @ @ @ @ @ @ @ @ @ @ @ @ 1 1 @ @ $ - > B S F W ~ o.+X$X=X1X<X2X2X:X-X).Q.J.D.D.D.D.G.H.Q.o.:X:X:X%X=X@Xo.o.Y F H B v , * $ % @ @ @ # * ; > n N H F R ~ ] ^.*X7X6X5XxXiXpXpXpXpXpXuX4X4X2X=X1X&X1X*X<X1X2X4X4X4X6X6X4XuX4X6X3X>X,X[.`.L.L.L.K.K.L.J.W.W.o.' ' +X#X#X&X=X*X7X<X<X2X<X4X<X2X>X>X;X[.'.].].E.E.x.g.s.h.9.9.1.*.*.%.%.@.+.+.| t  .O.z X.G.W.(.#X*X#X<X",
"H.|.H.Q.|.Q.).).;X,X2X5X2XuXuXuXuXyX5X3X9X`.|.E.d.0.0.6.3.2.>.>.&.| | | | |  .y h c g g g a a a g g g l J J J P Q o.! ( Q W W R F G S Z N B n } > > ; - < $ @ $ @ @ @ % $ < ; > } m m N H H Z S S S Z S H Z N N m M B B n n n n n n } } } } > > > > > > > } > > } } ; ; , - - & - $ $ $ $ $ % $ $ % # # $ % @   $ % % % # # $ % % $ % # $ % % # # % $ % $ # % $ % @ $ @ @ % @ @ @ @   1                                                                                     X 1 1 @ @ @ # $ $ - > > n N S S D F F F Z o.F F F S H N n } ; - < < $ $ # # # # # # # # # # @ # # @ @ 1 + + +   1 1   + + + + + + + 1 + # + @ # @ @ @ @ @ @ @ @ @ % @ 1 1 @ % # @ @ @ @ @ % @ # % @ # @ % @ @ @ @ @ 1 @ @ % * - } N G Y ! o.` #X=X1X2X2X4X6X3X-X-Xo._.G.G.J.G.Q._.~.,X:X3X2X<X&X@Xo.T Y F H B v ; & $ # @ @ # $ < - > n N S G W [ ] #X%X7X2X5XxXxXiXpXpXpXxXxXuX6X4X1X<X<X<X1X1X4X4X5XuXuX5XuX5X5X5X6X6X3X>X9X`.`.`.`.L.`.'.'.o.o.o.!.' #X#X#X*X<X<X:X2X4X<X2X4X2X<X7X:X-X;X[.[.}.].].E.E.E.s.s.9.*.=.&.%.@.| | | | t  . .z K X.^ o.#X#X#X#X",
"`.).`.`.).).;X;X,X>X2X2X6X6X6XuXuXyX5XqX9X[.'.Y.f.a.0.6.2.>.>.&.&.| | | w w y h h g l d d d d d d d d d J { { o.( o.o.( o.o.Q T Y F S V H B n } } > ; - < $ $ @ @ @ @ # $ - - } n n M N Z Z S Z S S S H H H Z N N B n n n n } } > > > ; ; , ; : : : ; : : , ; : , ; - - - - < < $ < $ $ $ $ $ % % % % @ @ @ @   # @ # % # % % @ @ % % @ # @ # % % @ # % % # @ # @ % @ @ @ @ @ 1 1 @ @                                                     1   1             1         1     1 1 @ 1 @ @ % $ $ * - > } n B B H S S D S G D D S S Z B M } > ; < & $ $ $ # # # @ @ 1 1 1 # # @ @ @ 1 1 + + +   1 @     + +   1 + + 1 # + = % $ # # # # @ @ @ @ @ # % % @ % $ % % # % % # % # % # % # % # % % @ @ @ @ @ @ $ * , n N D E ) +X#X&X7X7X4X6X6X5X6X3X,X).)._.W._._._.).;X,X3X3X6X2X1X@X` o.Y D H B v : - $ # @ # % # < - > n B S F R Q ] ^.=X<X2X6X5XxXiXpXpXpXpXpXuX6X6X2X2X1X2X4X4X4X5XuXyXyXyXyXyXyX6X6X3X6X8X8X8X[.9X[.[.`.o.o.o.%X$X+X#X#X#X*X*X<X4X6X6X6X3X2X<X*X*X*X%X-X-X;X;X[.[.}.'.E.E.h.h.h.9.&.&.%.@.| | | q t i j z K I ^ _ _ ` #X#X",
"9X8X8X8X8X>X8X>X,X2X:X2X4X2X6XuXyXyXyXwXqX[.'.E.f.a.0.2.2.>.>.$.| | | | w y y h g l d C C C C C C C C { { L E o.o.` ` ` ( o.W W L F S Z N B B } v > - - & $ @ @ @ @ @ % $ * - > } B M Z V Z Z S S S S S S H N N m B M n } } > ; : : - - - - - - & - - - - - - - - < - < < < $ < $ $ $ # $ % % # @ @ @ @ @ @     @ @ @ @ @ @ @ @ @ @ @ # @ @ @ @ @ @ @ @ @ @ @ @ @ @ @ @ @ @ @ @ @ @ 1   @               1 1 1           1 1 1 1 + +   1 1 1   1 1 1   X 1 1 1 1 1   1 1 1 + 1 1 @ @ @ @ % $ & < - ; > > n n n B N Z S S D D S S Z m B } > > - - $ $ % % # @ @ @ 1 # @ 1 @ @ 1 @ 1 1 1 1 + + X 1     + + 1 1 1 @ @ @ # # % % $ $ % $ # % # % % % @ $ $ $ $ % % $ # # $ % # $ % # $ % % # $ # # % # % % $ - ; n D Y Q o.@X=X<X2X6XuXyX5XxX5X5X>X,X-X/.~./././.-X>XqXwX5X6X4X*X#Xo.W F D H B } ; < $ % @ % % $ & - > n M S F R ! ] ' =X*X2X6X5XxXxXpXiXpXsXxXwX5X5X4X2X2X4X6X6X5XyXyXiXiXiXyXyX5X6X6X3X3X3X3X8X8XqX9X8X8X8X9X,X%Xo.^.+X#X%X*X<X6X6X5X5X5X6X2X7X*X%X&X%X%X-X;X>X8X9X9X}.}.E.E.h.h.*.>.%.$.@.| | q | w i k z K I I ~ ] ] ` @X",
"wXwXwXqXwXqX3X3X2X2X2X2X:X4X4XuXyXyXxXwXqX[.}.E.P.a.0.4.2.>.&.$.| | 0 | u 9 h g d C C C C G V V V C C G L L W o.o.#X@X@Xo.@Xo.! L D S Z N m B } v > - - * $ $ $ @ 1 @ # $ * - > } n B N H V Z V S H S S S H H N B B n n } > > : - - - - $ - * * $ - $ - $ * * * & < & < < $ & $ < $ $ % # @ @ @ @ 1 @ 1 1 @     1 @ @ 1 1 @ @ 1 1 @ 1 @ 1 @ 1 @ @ 1 @ 1 1 @ 1 @   @ 1 @ 1 1 1 @ 1 1 1 @   @ @ X         1 1 1 1 X 1 1 1 1 1 1 1 @ 1 + X 1 1 X 1 1 @ 1 1 1 1 @ @ 1 X 1 1 1 + X @ @ @ # # $ $ $ $ - - , > > n n m N H H S S D S S S N N } } > , , - - $ % % X @ @ @ @ @ X @ @ @ @ @ @ X 1 1 1 X %         X @ @ @ # % # $ $ $ $ & * $ * * $ * $ * * $ $ $ $ $ $ $ $ $ $ $ $ $ $ $ $ $ $ $ $ $ $ # $ % $ * , } B G R ) o.@X*X2X6X5XxXwXiXiXwXwX5X3X:X-X7X-X-X7X>X5X5XwXiXyX3X2X&Xo.o.T D S B } , < $ # @ @ # $ $ - > n m H F Y [ ) ^.#X*X2X6X3XyXwXiXpXiXiXiXxXyX5X6X3X6X5X5X5X5XwXiXiXwXwXyXwXwX5X5X6X3X5X5XwXwXqXwXwX8X3X:X,X%X$X$X$X#X=X*X:X6X5XwXxX5X6X4X<X*X$X$X%X=X7X:X3XqXqXeX9X[.|.E.h.h.9.=.&.$.$.$.| | | w u y x K U I ~ ) ) ` ` ",
"iXsXxXwXwXwX5X5X2X2X2X2X#X5X5X4XyXyXwXwXqX[.'.T.I.p.a.9.,.2.| | | | 8 w y 9 g g g C C G D D S D G D F { T Q o.` @X#X$Xo.@Xo.( ! R F S Z N N } n v > ; - * $ @ @ @ @ @ % % < - > } n m N Z N V H S S S S Z Z H N N B M n v > : : - - $ $ * $ * * * * $ & $ $ $ $ $ $ $ $ $ $ $ $ % $ $ @ @ @ @ 1                                                 1 1 1 1 1 1 X 1 1 1 1 1 1 X 1 1 1 @ 1 @ @ @ @ @ X @ @ @ @ @ @ @ @ @ @ @ @ @ @ @ @ @ @ @ @ @ @ @ @ @ @ @ @ @ @ @ @ @ @ @ 1 @ @ @ @ @ $ $ $ $ $ - - - > > v } n M N N Z S D D D S S V Z N n n } ; ; ; & & % % X o X % % X X % o % % % o X o & O $ X X X X % % % o % & % & & & & & & - & - - - - - - - < < < & $ $ - $ $ $ $ $ $ $ $ $ $ - $ $ $ $ $ $ * - > n H F W o.^.*X7X5X5XiXiXsXaXsXsXiXwX5X3X2X:X:X2X3X6XwXiXpXiXwX5X2X=X+Xo.F F S m n ; - $ % @ % % $ $ - > n B S D R ! ) ' %X*X7X6X6X5XwXiXiXiXiXiXxX5X5X5X6X5X5XqXqXqXeXeX9XeXeXeXqXqX5X3X5X3X5X5XyXwXiXwXwXyX3X2X7X*X=X$X#X%X*X7X6X6X5XiXxX5X5X4X7X*X&X=X$X*X<X2X6XyXiXeXqX9X|.|.F.h.h.9.=.| | | | q q  .9 ..d X.Y X.o.~ ` ` ` ",
"sXiXiXiXxXxXyX5X5X2X4X2X4X4XuXuXuXyX5X5X8X9X`.'.P.d.u.<.<. .4.| |  .y y y g g d C G D F F D Y Y F Y Y R W W ( o.+X#X$X#X` o.( T R F S Z N B n } v > - - * $ % @ @ @ @ # $ * - , v n n M N Z Z Z H S S S H Z Z N N M M v n > , : - * * - * * * $ $ $ $ $ = $ $ $ @ $ # # # $ @ $ % % @ @ @ @ 1 1                                                 1       1   1       1 1     1 1 1 1 @ @ @ @ @ % # % $ % # % # # # # # # # % # # # % @ # % # # # $ $ # # # # # # # % @ # # # $ # $ $ $ $ $ - - - : ; > } n n B N H S S S F G F F D G Z Z H B n s s ; & 2 5 & o o o o o o o o o o o o 2 o 2 . o o o o o o o o o 2 2 5 5 2 2 2 ; p ; ; ; } > > , , b b - - - - < < $ $ < $ $ $ $ $ $ $ $ $ $ - $ - < - ; , } N D R ( o.=X2X5XwXiXaXaXzXzXzXzXaXpXiXyX6X2X6X4X6XyXiXpXsXsXpX5X2X<Xo.( o.F S N v , < $ $ @ @ # # < ; > } M S G R Q ` ' #X*X7X2X6X6X5X5XwXxXxXxXwXuXwXwX5XqX5XqX9XqXtXtXtXtXtX9XqX9XqX3X5X5X6XyXyXyXxXiXyXyX5X6X:X7X*X%X&X*X*X<X6X5XxXiXiXxX5X6X7X*X*X=X=X*X<X4X5XxXxXiXqX9X[.|.E.h.h.u. . .=. . . .u  ...g ..X.X.R o.] ] ] ] ",
"xXxXiXxXyXyXyX5X5X2X2X4X#XyX4X4X6XuX6X5X8X;X}.'.L.K.i.u.u.<. . . .y y 9 g g d l G { F F Y Y T Y T W W Q ( o.o.+X+X#X#X#X@X( o.! L F S Z N B n } } > > - & $ $ $ @ @ @ @ % * - ; v } n m m N H Z H S Z S S H Z Z N M M M v v b b - < * * < = * * $ $ $ = $ # # # # @ # # @ @ @ @ # @ @ 1 X   1 1                                                           1       X           1 1 @ @ @ % $ $ $ $ $ $ $ $ $ $ $ * # $ = * # * = $ = * = = $ $ = = $ $ $ $ $ $ = * = $ * = * # * * $ $ * $ - - - > > } n B N N Z S F F D Y D o.D F Y F F D S V V m s p p 5 5 5 5 3 5 5 5 5 5 3 5 5 3 5 5 5 5 5 3 5 5 5 5 5 5 5 5 5 5 5 5 p 5 f s f s m n M v n v b v } b , , : : - - < $ - $ - $ $ - $ $ < - - - - - > } B S F W ` #X7X6XxXiXaXzXhXhXhXhXhXfXaXpXiX5X6X6X6XyXxXpXaXzXaXsXiX6X7X+Xo.T Y S N n , - $ # # @ @ $ $ - > n N H D R Q ) ' #X*X<X2X6X3X5X5XyXwXwXwXxXxXyXyXwXwXqXqXtXtX{.{.{..X}.{.9X9X8X8X5X6X5X5X5XuXuXyXxXyX5X4X2X7X<X*X7X7X<X2X6X5XxXxXxXxX6X6X4X7X7X*X*X<X4XuXuXxXpXsXwXqX;X|.H.F.r...u. . . . .....g ..X.J { X.o.o._ ' ' #X",
"xXyXyXyXyX5XuX5XuXuX6XuXuX4XuXuX4X4X4X2X,X,Xo.`.H.F.F.t...........h h g g g d C C { F R Y W W ! ( W W o.( ` ` ` o.+X+Xo.o.o.W ! L F S S H m B n v > - - < * @ @ @ 1 @ % % $ - - > v n n B N Z V Z S H Z S A Z Z Z Z M M M v b b b - - - < < * * * * = $ # # # # @ # @ @ @ @ @ @ @ @ 1 X 1                                                                                       1 @ @ @ $ $ $ < < < < < < < < < * < < * < * * * * * * * * < < * * < < < < < * * * * * * * < < < < * * - - - , > > n B B S S D A Y Y o.D o.T o.Y W W W W L L { G C d d c 5 c 7 6 6 7 6 4 7 6 6 6 6 6 6 7 6 7 6 c 6 6 7 6 7 6 4 c 4 c c c c c c a d d C m Z Z Z Z M M n v > > , : - < < & $ $ $ $ < $ - - - - - ; ; } } B H G R ) o.1X2X5XsXzXhXjXkXNXPXPXkXjXhXaXpXxXyXuXyXxXiXaXfXfXfXaXsX5X2X$Xo.W Y G N n v - < # @ % % $ < ; > n M S F R Q ) ' %X*X7X7X2X6X6X6X5X6X5X5X5XuXwXyXyXqXqXtX{.}..XR..X.X].{.}.9X9X8X3X6X6X6XuXuXuX5XyX6X6X6X4X4X2X2X<X2X6X6XuX5XyXxXxXxX5X6X6X4X<X2X:X2X6XyXyXiXpXpXwXqX9X).|.H.F.K.............x g X.X.Y X.o.o.#X' #X#X#X",
"uX6X5XuX6X5X5XuX5XuXuX5XuXuX4X4X4X4X4X<X*Xo.o.`.'.X.X.X.X...X...l l g g d l C G { { R W W Q / / ( o.o.( ` ` o.@X+X+X` ` o.( Q R Y F S S H N B } v ; > - * $ @ @ @ @ @ @ # $ < - ; v } n n M N H S S Z S Z A Z A Z M M A M v v v b b : : : < < < < = $ = # # # 1 1 # + 1 @ 1 1 1 @ 1                                                                                           1 1 @ @ $ $ < - - - - : : : : : : : < , : : : : < : : < : < : : : : : : : : : : > < : < : : : : : : : - : - : > > n B H S T Y Y T W T T o.T o.T o.) / / / / E E P K J h h c y 0 0 0 8 0 0 0 c c 0 0 c c 0 0 0 c 0 8 y 0 y y 0 y 0 w y w i y y c h l J J { F D D A A A M M n v } , - - - * - $ $ $ $ $ - - - ; , > } } B N S Y ( o.&X7X5XpXzXhXlXNXBXBXBXBXBXkXjXfXaXiXxXyXxXpXpXaXhXhXhXfXaX5X2X%X` W T D H n } - $ % @ @ # $ - - > n N H F R ~ ) ' %X*X*X2X2X2X2X2X6X3X6X6XuXuXwXyXiXeX9XtX{..X XXXXX XR.R.].}.[.8X5X6X6X6X4X4X4X4X6X6X6X6X4X6X4X6X6X6X6X6X5XyXyXyXyXyX5XuX6X6X4X6X6X5X5XyXiXpXgXpXwXqX>X-XQ.Q.G.X.X...X...X.X.X.X.{ X.o.o.o.%Xo.#X%X#X*X",
"4X4X6X6X4X6XuX5XyX5XyXyX5XuX6X4X1X1X<X=X%X%X;Xo.o.o.o.X.X.X.X.X.J l l C C C C { P L ! ! / ( ( ) @Xo.@Xo.+X+X+X@X@Xo.o.o.( W ! R Y D S Z N B n } v > - - < $ $ $ @ @ @ @ % $ * - , > } } n N N H H H S S H S S S Z Z A M M M M v v b > > b b : - < < * * = # # @ 1 1 1 + 1 1 1 1     1                                                                     1   1             1 1 @ % % $ - : ; > > v v > v b v b v > v b b b b v b b v b v b b b > > b b b > > v b b v > b b > , > , > > > > n n H S G Y W T o.o.( o.o.o.o.o.( ( ' +X' ' ' _ o.^ K K O.O.i i t t r t t t t t t t t r t t t t t t t t t t t t t t t t t t r i O.O.z J P P R R T T D D A N M M v } > - - $ $ $ $ - - < - - ; , > } n N H D F R ) +X1X4XiXzXhXkXPXBXCXVXVXVXCXBXPXlXfXaXiXpXiXsXaXfXhXhXhXhXaXxX4X=X@Xo.R F Z B > ; $ $ # % % $ $ - > n M S G R ! ` ' #X%X<X7X<X2X7X2X2X2X6X6XuXuXyXwXiXeXtX}..X XXXA.A.A.XX XR.}.9X8X8X6X4X4X4X4X4X4X4X2X4X6X6X3X5X6X5X5X5XyXyXyXyX5XyXyX5X5X5X5X5X5X5XyXxXiXpXpXpXaXiXwX>X;X~._.W.o.X.X.X.X.X.{ X.X.o.o.o.o.o.=X*X%X<X<X<X",
"#X3X2X5X2X6X5X5X5XwXxXxXwX5XuX4X<X*X&X$X*X$X;Xo.o.o.o.X.o.X.X.J J G G C C { G { L ! ! [ ( ( ` o.( +X#X#X#X+Xo.o.o.@X( ( ( ! W Y F G S V N B n n } > ; - < $ % @ @ 1 @ @ @ $ $ - - > v } } B N Z H S S S D D S H H Z N Z N m B M n n v } b > > > , - - * $ % % # @ @ 1 1 @ 1 1 1 @   @ 1                                 @ X 1 X               1     1 1 1 1 1               1 1 @ % $ < < > > } n n n n n } v n } } n > v n } } v n } } } } v n } } n v n n v v n > n v v n > n } } } n n n n N S F o.Y o.o.o.+X&X@X#X$X$X#X@X&X#X=X#X=X=X/.!.W.G.D.O.w.-.#.@.@.+.+.@.+.@.#.+.@.+.@.#.#.#.@.#.#.#.@.@.#.#.@.#.@.+.@.@.#.#.-.w.O.z K I E [ E ! R Y F D S Z M n } , ; - < - $ - $ $ - - - , > } n B N S F ! [ +X&X2XyXaXhXlXBXCXVXGXGXGXGXVXVXBXkXhXfXaXsXpXaXzXhXhXkXlXhXaXiX6X*X@Xo.W Y S m v - - $ % @ @ $ $ - > n m H D Y ! ) ' #X=X*X7X7X2X<X<X:X2X2X6X6XuXxXxXiXeXtX{..X XXXA.A.A.A. X XR.[.8X>X4X4X4X4X2X2X2X2X2X4X6X6X5X5XxXxXwXxXxX5X5X5X5X5X5XyX5X5XxXwXiXwXiXiXiXaXaXpXiXwX5X3X>X/.~.!.o.o.X.o.o.o.o.o.o.o.o.o.o.*X%X*X<X7X2X2X",
"2X#X:X#X#X3X2X3X5XwXwXwX5XqX3X:X7X*X%Xo.o.%Xo.o.o.o.o.o.o.o.o.L L J { G G { L L R ! [ / ` o.` +X@X$X&X$X$X$X#X+X` o.( Q ! W L Y F D S Z H B n } > > > - & $ # @ @ @ @ @ % % $ < - , v } n m N N H S D G S G S G G G S H V V H m m m m n } } s > > ; - & - % % % @ @ @ # @ @ X @ @ % @ @ % @ @ @ % @ @       @ X         @ # # %         # @ @ @ 1 X 1 @ 1 1 X 1 @   @ 1 1 1 @ @ @ $ $ - , } n n n m m n m m n m n m m m m B m m m n m m m m m n m m m m m n m m B m m m m B m m B B m n B H S S F T T o.' &X&X*X*X*X<X*X*X*X1X1X<X<X4X4X<X:X-X~.Q.H.t.e.;.=.%.%.%.%.%.%.%.%.%.%.%.%.%.%.%.%.%.%.%.%.%.%.%.%.%.%.*.%.%.%.%.;.-.w.r.D.X.^ ^ ) [ Q W L G S V N n n > ; - $ $ $ $ $ $ - - ; > } n B N S D T W o.o.*X6XiXzXlXNXBXVXGXSXSXSXSXGXVXBXPXlXhXzXaXaXzXzXjXhXkXkXlXzXiXuX=X` W o.Y S N v : < % @ @ % # < - > n B S F R ~ ) ' #X*X*X<X7X7X7X7X<X<X2X4X6XuXxXiXsXeXtX.XR.XXA.A.N.Z.Z.x. XT.[.9X>X6X2X<X4X1X2X<X7X2X2X6X6XwX5XwXiXiXwXwX5XqX5X6X5X3XqXxX5XwXiXiXiXiXpXiXaXiXaXiXxXwX6X:X%X%X~.` o.o.o.T o.o.` o.o.o.@X=X7X:X2X6X3X2X4X",
"#X3X3X#XwX#X#X>X8XqXqXeXqX8X8X;Xo.o.o.o._ _ o._ !.' _ ' ] ) [ ! W L F F F R R ! ! Q / o.o.@X@X$X$X%X%X=X$X$X#X` ` o.[ [ ! ! R F F D S H N B n n } > , - * $ # @ @ @ @ @ % # $ < - , > } n M Z H D S F G { { G J C J C C C C C C C m C d m f f s p s p & 2 & & & % o X % % % $ $ $ $ < < $ < $ < < < < < - - < $ < - $ $ - < < < % $ $ $ $ $ $ % $ # # @ @ @ @ X @ 1 1 @ 1 @ @ # $ $ - : } } M m N m H m m m C d m d m d C m C d C d d d C d C d m C d d C d m C d V d m d V m m m s V Z S Z D T o.o.( @X*X7X2X6X3X6X6X6X3X2X6X6X#XgXuXxXyXwX;X[.|.|.h.h.h.1.*.*.*.*.*.*.1.*.*.*.*.*.*.*.1.*.1.*.*.*.*.1.*.*.*.*.1.*.*.*.*.;.h.;.r.r.G.G.^ ^ ^ ^ E P { G C m m s } ; & < $ $ $ $ - - - - > } n m S D Y R ~ o.@X2X5XaXhXkXBXVXGXGXSXSXSXSXSXGXCXBXkXhXhXfXzXhXhXlXkXkXkXhXzXsX6X7X@Xo.( T S N n : < $ % # % % $ - > n N H F T W ( ' #X%X*X*X<X<X<X7X*X<X2X4XuXuXxXxXsXeXtX{..XXXA.A.Z.Z.A.x. X}.[.8X>X4X4X4X1X2X<X2X<X2X2X6X6XxXxXiXiXsXwXwXqXqX8X8X9X8X8X3XeXwXiXiXiXiXaXpXiXiXwXiXxX5X6X:X*X%X$X$X#Xo.#Xo.' #X#Xo.$X&X*X7X7X2X6X6X3X5X3X",
"#X#X#X3X#X>XqX8X9X9XtX9X9X[.[.).`.o.`.o.W.o.^ !._ _ ' ] ] ) / Q ! W R R R ! W ! [ ) ` ` o.+X$X&X=X=X=X%X=X$X+X@X` / / ! R R F F D S Z H N B n } } > - - < * % % @ @ @ @ @ # $ * - - v } m N Z D F Y L L { P J J U J J ..J ..l l l l g d g a d d a f p p p p . o 2 o & o 2 & & ; : ; ; > } } } } } } } n } } } } } } n n } } } } } } > > > - - $ $ $ % $ # % # # # # # @ @ % # $ $ < : > } M N N H V V C C d d d d d l d g l d l l g l C g l l l l g l l l l l g g g g g g g g d C X.G G X.D o.o.o.( &X1X6X5XxXiXiXiXiXiXiXiXiXiXgXgXgXfXaXsXeX0X[.Y.E.p.9.4.3.3.3.1.3.1.1.3.3.1.3.3.3.3.1.1.3.1.1.3.3.3.3.1.3.3.3.1.1.1.1.*.*.h.t.t.F.G.G.G.^ I I P J l J C d s ; & - $ $ $ $ $ $ * - ; > } B N S G Y ! o.@X=X4XiXzXlXBXCXVXSXSXSXFXFXSXSXGXCXCXBXlXlXlXjXlXkXlXkXkXjXhXaXiX6X*X@Xo.W T D Z n , < $ @ # % % * - v n N H D T W o.' ^.#X=X*X<X*X*X*X7X7X2X2X6XuXxXiXsXeXtX{..X XXXA.A.Z.A.x.R.T.[.;X,X6X1X2X4X1X1X<X2X2X4XuXuXxXxXiXiXwXqXqX9X9X[.[.[.9X9X9X9XqXeXsXiXiXiXiXiXiXxXwX5X6X4X2X1X*X*X=X&X&X#X$X#X#X$X&X=X%X*X7X2X6X5X5X5XyXyX",
"5X#XqX#X>X;X,X;X[.[.}.}.].'.|.|.Y.X.X.L.X.X.X.o._ _ ] ' ` ( ) / / ! ! Q ! Q / ( ( ` o.` +X^.$X%X*X*X*X=X%X$X@Xo.) / [ ! R L F F D V H N B B n } > > , - & $ # % @ @ @ @ @ % $ $ & - > } M Z D Y Y R L L X.P U X...X.............z k j j x h h h c c c c 6 6 5 6 5 5 5 5 p s s s n m M B B Z H S V S S S S S G S V S G D D S S V V H N B n } } > > - - - $ $ % % % # $ $ % % $ $ < , b v M B Z V V V C C C l g l x h l j x x z z x ..j ..x j j ..j ..x j ..j ..j ......h ..g ......X.X.Y o.o.o.#X=X<XuXyXpXaXzXzXhXdXzXzXhXzXhXhXjXjXjXjXjXlXdXrX{.E.E.s.q.4.8.3.8.8.8.8.8.3.8.8.8.8.8.3.8.3.3.8.3.8.3.3.3.8.3.8.3.1.3.1.3.4.;.h.e.t.t.D.G.G.X.K K K J l l d d p p & & & $ $ $ $ $ - - , } n B N S F R Q o.$X*X5XpXhXkXCXVXGXSXSXSXSXSXSXGXGXGXCXCXPXPXNXkXlXkXkXkXjXlXhXaXiX6X<X@X@Xo.T D Z n : < % @ @ # $ * ; ; v N Z D Y o.W ` #X#X*X<X=X*X=X<X7X2X2X6XuXyXiXiXsXsXtX{.].R. X Xx.x. XU.T.'.[.;X,X2X4X4X4X4X4X4X4X4XuXuXuXuXxXiXxXwXeXtX[.{.}.}.].}.}.[.tXtXwXwXiXiXxXyXyX5X5X6X2X2X2X2X2X<X1X<X=X=X&X=X&X&X=X=X=X<X2X2X6X6XwXyXwXyXiX",
"5X#X#X#X;X#X).[.'.}.].].E.E.E.E.P.K.i.X.D.G.G.o.W._ ] ] @X@X` ` ` ( ( ( ( ) o.` o.o.@X#X$X$X%X=X*X*X*X=X&X$X@Xo.) [ ! ! R Y F F D V H B B m n } > ; , - * $ # # @ @ 1 @ % % $ - : , v n N A D T W Q [ o.X.X.X.X............. ...w.w.w.O. .O.k i k k y y 0 c 8 c 8 c c a a d d V V D D F F R R R ! ! E ! E ! ! ! ! ! ! ~ E Q Q ! R R F F S H B n } ; : : - < * $ % $ % $ * < - - , v v M B Z A D G G J l l l j x k k k w. . .w.w.y. .y...y.y.y. ... .y.y. .y. ... ..... . .........X.X.o.o.` *X2X6XiXpXfXlXlXkXBXPXPXPXPXPXlXPXPXNXNXAXCXBXBXbXcXvX.X Xg.q.8.8.8.8.8.8.8.8.8.8.8.8.8.8.8.8.8.8.8.8.8.8.j.8.8.8.8.8.8.8.3.3.1.*.9.e.h.h.t.r.D.r.D.z O.z z l c a a p ; & % % # $ $ $ * - , } } B H D F ! ~ o.$X7XyXaXlXBXCXGXSXSXSXSXSXSXGXGXGXGXCXCXCXBXBXBXPXPXkXkXlXhXfXsXxX4X=X@X` W T F N n b < $ % # @ % $ - v n N H D Y T ( ` #X#X#X#X=X<X<X*X7X2X2X6X6X5XpXiXsXsXtX0X{..XR. XU. XI.T.'.`.;X,X:X<X4X4X1X2X4XuX6X6XuXuXuXgXuXxXxXqX9X0X}.].R.].E.R.].}.{.9XwXwXwXyX5X6X6X6X2X:X2X2X2X<X<X2X2X<X<X2X<X<X1X*X=X<X<X<X2X6X5X5XyXyXiXiXiX",
"#X#X#XwX#X[.[.'.|.R.E. XE.g.f.h.d.i.y.y.t.X.D.X.^ ^ _ ' ` ` @X` @X( o.` @Xo.o.+X@X#X^.$X&X$X=X*X*X*X*X=X$X$Xo.` ) / ! ! R F F D V Z H N B n n } } > , - * $ % % @ @ @ @ @ % $ $ - , } n Z A T W ( ( o.o.X.X.X.y.i.u.<.u.;.<.<.u.;.e.:.:.:.-.-.-.-.-.i t i t t w e y y c g l C P L R Q / ) ] ] ] ' ' #X#X+X+X' ' #X%X+X#X' +X' %X' ) [ ! R F S V m n } ; , - < < - $ $ - - : : ; > } M M Z S D D G { J l x j  . . .-.-.:.:.:.e.;.<.:.u.<.<.<.<.<.<.<.<.:.<.:.:.<. .:.:.:. . .<.....X.X.[.o.qXsXpXfXhXjXPXBXCXVXVXGXVXGXVXVXVXVXGXAXAXAXAXGXGXmXbXvX.XXXx.z.8.j.8.8.8.8.j.8.j.8.8.8.8.j.8.j.j.8.j.8.j.j.j.8.8.8.8.8.8.8.3.3.3.9.9.;.h.;.e.e.t.e.r.O.O.k k y c c 5 p 2 & % % # # # $ $ - , > n B N D R Q ( @X=X2XiXzXlXCXVXGXSXSXSXSXGXGXGXGXVXVXGXVXVXVXCXCXBXnXkXkXjXhXaXpX5X4X=X@X@Xo.W F Z n b < $ % @ @ % * - > n m N D Y R W ` @X#X#X#X<X<X*X<X2X2X2X6XyXwXiXiXsXsXeXtX9X{.].].].T.}.'.'.`.;X,X:X2X<X4X4X4XuX6XuXyXuXuXuXuXuXxX5XqX9X}.].R. Xx.XX X X].}.tX9XqXwX6XuX2X2X2X<X<X<X<X7X2X2X4X4X6X4X2X4X<X2X2X7X2X<X2X6X6X5XyXiXiXiXiXsX",
"#XyX3X#X#X).`.|.E.E.g.x.z.s.q.0.9.<.e.e.y.y.D.D.G.W._ _ ' @X' @X@Xo.@X@X@X#X@X^.$X#X$X%X=X=X%X*X*X*X*X%X&X^.@Xo./ [ ! R L F S S S Z N B n n } } > > , - & $ $ # @ @ 1 @ @ % $ $ - , } M Z T T Q o.+Xo.o.Q.L.i.i.p.9.9.0.0.9.4.9.9.4.9.9.4.;.<.;.#.:.=.@.#.#.+.+.r -.i k z K I P ^ ) ] ' #X#X#X<X#X2X:X#X7X7X2X:X#X7X:X#X2X2X:X#X=X&X^.] / ! Y D S N B n ; , ; - - - - - - ; > } n n B Z A D D F { J J g .... . .-.:.;.=.<.9.9.9.9.9.0.,.<.4.9.<.6.6.0.0.0.6.6.<.4.,.,.,.2. .<.u...L.'.}.tXeXdXhXkXPXBXAXGXSXFXFXSXDXFXFXSXFXSXFXJXJXJXJXDXZXZXmXvXoXXXx.Z.v.j.j.8.8.8.c.c.8.c.j.8.8.j.c.j.j.j.j.j.j.j.j.j.j.j.8.8.8.8.3.3.3.4.1.4.h.;.h.e.;.w.-.-.-.-.i i i c 6 5 2 o % % # % # $ * - , } n N S F Y Q ( @X=X6XiXhXkXCXGXSXFXSXSXGXVXVXCXVXVXVXVXAXGXGXGXVXCXCXPXkXlXfXpXxX6X2X=X@X` W T T Z M , - $ $ @ # $ * ; > n B Z D Y W o.) ` #X#X#X=X*X7X7X2X6X6X5XyXyXpXpXsXsXwXtXeXtX[.[.[.[.`.[.).).,X,X<X7X4X2X6X6XuXyXyXxXxXuXxXuXpXyXqX9X[.].R. Xx.A.x.x. X X].}.9X3X6X4X4X<X1X*X=X%X%X*X<X<X2X6X5X5X5X5X6X6X4X<X2X2X2X6X6X5XyXiXiXiXsXsXiX",
"#X#X#X3X-XQ.|.|.E.g.s.z.l.q.q.8.0.<.,.;.;.y.r.D.G.^ _ ' +X+X@X+X$X$X$X$X$X$X%X&X=X=X%X=X=X*X*X*X*X*X=X=X&X+Xo.` ~ Q ! L Y F F S H H N B n n } } > > - - * * # % @ 1 @ @ @ # $ $ - , } M S Y W ( +Xo.o._.L.K.i.a.0.0.l.6.7.k.6.k.8.6.6.6.4.4.4.4.4.*.=.%.%.%.%.%.#.-.-.O.O.D.I W.!.#X#X#X<X2X2X6XwXiXyXwXxXwXyXyX5XwXyXxXwXxXyX5X3X2X=X$X' / ! L D S N B n } , : - - : , > } } n M N Z S S F F L P J ...... .:.:.=.=.,.4.4.6.6.8.7.k.k.6.6.k.6.k.6.6.6.6.6.6.6.6.6.6.5.2.,.,.9.u.i.I.T.tXrXdXlXBXCXAXAXSXFXDXDXDXKXLXJXJXLXDXLXKXJXKXKXKXDXLXZXMXvXoXOXA.M.v.j.j.j.j.c.j.j.c.c.j.j.j.j.c.c.j.j.c.c.v.v.j.c.j.j.j.8.8.3.8.8.3.1.4.4.*.*.;.=.:.;.-.;.-.#.-.i y c c 5 2 o % @ @ @ # $ * < , > n B D F R / o.$X7X5XsXhXBXCXSXFXFXSXGXGXVXCXCXCXCXVXGXGXSXSXGXGXVXCXPXkXjXzXsXwX5X2X*X@X` o.Y F S m > < * @ @ # % $ - ; n N H S F W W / ' ' #X*X*X*X<X2X2X2X5X6XyXwXpXpXiXsXwXwXeXqX9X9X8X[.;X;X;X,X:X:X7X2X2X6X6X5X5XxXxXxXxXxXyXyXyX5X3X9X}.].U.x.A.Z.A.Z.A.E.].}.9X>X3X2X4X1X*X=X&X=X$X=X<X:X2X6XyXyXyXwXyXyX6X6X2X4X6X6X5XyXiXiXwXiXpXpXsX",
"xX#X3X#X-X_.|.E.E.s.s.l.k.8.8.8.2.2.,.=.;.y.y.D.D.W.o.!.#X#X#X$X&X$X=X=X=X=X=X*X*X=X=X=X*X*X*X*X*X*X=X%X#X` @Xo./ ! ! Y F F S S H N B n n n } } > ; , - < $ % # @ @ @ @ @ # $ * - ; } M S Y ! ) o.o.).`.L.P.f.a.l.k.j.j.j.j.j.j.k.j.8.7.8.8.3.3.3.4.1.*.*.*.=.*.%.;.e.r.D.G.G.!.%X#X2X2X4X6XyXiXpXaXsXpXaXpXsXsXpXaXsXsXaXaXaXpXiX5X2X=X^.) Q R F S H N n } } } > ; > > } } n B N N Z S D F L P X.J X... . .=.,.1.3.3.5.8.8.8.j.k.k.6.k.7.k.7.k.k.k.k.k.k.k.k.k.7.7.6.5.6.6.0.a.f.R.].0XcXnXnXCXAXFXFXJXJXJXKXKXKXKXKXKXKXKXKXKXKXKXKXKXKXLXHXmXMXoXXXA.Z.v.v.j.c.j.j.c.c.8.v.j.v.c.j.j.j.c.j.j.v.j.j.v.j.j.j.8.8.8.8.8.3.3.3.1.4.1.*.=.*.%.%.%.%.#.#.+.r t 0 4 5 5 o X % @ # # # $ - , } n N S F R ( o.$X7XyXaXjXBXGXZXFXSXFXGXVXCXBXBXBXCXVXVXGXGXSXSXSXVXCXPXkXhXzXpXwX5X:X*Xo.o.o.o.L S m > - $ % # # $ < : > n B H G F R T ~ _ !.^.%X%X%X:X2X2X3X5XyXwXyXiXsXiXiXsXiXwXwXwX8X3X3X>X:X:X7X7X7X7X7X2X6X3XwXwXwXeXwXsXwXwXwX3X9X9X[.'.E. XA.A.N.B.Z.x. XE.}.[.8X3X4X<X1X=X&X$X$X$X%X*X2X6X5XyXiXiXwXyXyX5X3X6X6X3X5X5XyXwXiXiXpXsXiXpX",
"#X#X#XwX;X).|.P.f.s.q.8.k.8.8.3.3.3.*.=.;.-.w.F.G.W.!.^.#X#X=X=X=X*X*X*X*X*X*X*X*X*X*X*X*X*X7X*X7X*X*X%X$Xo.+X` [ Q ! L F F S S Z N B n n } } } > > , - * $ # % @ @ 1 @ @ @ $ $ - , n N V { E o.o.Q.`.L.T.I.f.l.k.k.b.j.j.b.j.b.c.c.j.j.j.7.7.5.3.3.1.1.1.1.*.*.;.;.w.t.F.G.W.~.-X*X2X2XuXyXiXsXsXaXaXaXaXaXaXaXaXaXzXzXzXfXaXaXiXxX6X*X#X] [ R F S S B B s } v } } } } } n n M N H V G G { J J K K O.w.:.;.=.1.1.3.5.7.j.j.j.j.j.k.k.k.k.k.k.l.l.l.l.k.l.k.l.k.l.q.q.6.q.0.0.f.I.R..XvXcXnXVXGXFXFXFXDXDXJXKXKXKXKXKXKXKXKXKXKXJXJXJXJXKXJXZXMXvXoXXXA.Z.l.k.v.8.j.v.k.8.l.l.k.j.k.j.v.j.j.j.c.j.j.j.j.j.j.j.8.8.8.8.3.8.3.1.1.1.1.*.*.*.%.%.%.@.@.@.+.r t 0 6 7 2 o X @ @ @ @ # * < , } n N G Y E ) o.$X2XiXaXlXBXAXSXFXFXFXGXVXCXBXPXBXBXCXCXGXGXGXGXGXVXCXPXkXhXaXsXwX5X>X,X/.!.o.I G C m s & * % @ @ $ * - > n B H G { { X.o.o.!.~./.).,X:X>X6X5X5XwXxXiXiXiXiXpXiXiXwXiX5X5X5X6X6X4X4X2X1X<X<X2X2X>XqX8XeXeXtXeXqX9XeXqX9X9X[.'.].E. XZ.Z.M.Z.Z.x. X].}.9X3X2X4X1X1X=X&X$X$X$X=X*X:X6X5XiXiXiXiXiXyXyXwX5X5X5XwXyXwXiXiXiXsXiXsXpX",
"#XuX#X3X-XQ.|.L.d.s.q.8.8.8.8.3.3.1.*.*.;.e.y.D.J.W.~.%X%X=X=X<X*X<X*X*X<X*X*X7X7X*X7X*X7X*X<X7X7X*X=X=X$X+Xo.) / ! W Y F D S S H N N n n n } } > > , - & $ # % @ @ @ @ # # $ * - , s m G P U o.o.Q.L.Y.P.x.a.l.k.k.j.b.b.j.b.j.c.j.j.j.j.7.7.5.8.3.3.4.1.9.;.;.;.h.t.F.F.G.~./.%X7X2X4XuXwXiXiXaXaXaXaXaXaXaXaXaXaXaXaXzXzXaXsXiX5X2X%X#X) [ R F S H H B n n n } } } } n B B m N C C G G P U K K O.r.w.;.;.1.3.5.5.7.7.j.j.j.j.j.k.k.k.k.q.q.q.q.q.q.z.z.z.z.z.z.q.q.s.s.a.f.g. X].{.cXbXnXCXVXAXAXFXFXDXSXDXDXDXDXJXLXLXDXDXJXJXJXJXJXJXFXmXmXvXoXXXx.M.v.8.8.j.8.8.q.q.q.q.q.l.8.8.k.8.j.j.j.j.j.8.j.8.8.8.8.3.8.3.3.3.3.3.1.1.1.*.*.%.*.%.@.%.@.+.+.r q 0 8 7 o o X @ @ @ # # * < , } n N D Y E ) +X=X2XiXzXNXCXGXFXFXFXFXAXCXBXPXkXkXPXBXCXCXGXGXGXVXVXCXNXkXjXhXsXeXqX9X).Q.Q.G.X.X.C d f & & % % # = * - > n N H G J X.X.X.G.H.Q.).).;X,X3X3X5XyXxXiXiXiXiXiXiXiXiXiXxXxXyXyX5X6X4X4X1X4X<X2X,X2X>X8X9X9X9X.X.XtXtX{.[.[.}.[.}.R.E.x.x.z.Z.Z.x.x.E.].[.9XqX5X6X4X1X*X=X=X=X%X*X<X2X6X5XxXiXsXiXiXiXwXyXyXyXyX5XiXiXiXiXiXiXpXiXsX",
"#X#XuX#X/.).|.K.E.a.0.8.8.8.3.3.1.*.%.%.=.e.t.D.G._./.%X*X1X1X<X7X<X<X<X*X7X<X*X<X*X7X*X7X*X7X*X7X7X*X%X^.+X` o.[ Q R Y F F S V H N B B n n } } > > : & * $ % % @ @ @ @ @ # # * - , s m C J X.X.J.L.Y.P.f.a.z.l.k.k.j.j.j.j.j.j.c.j.j.j.7.7.7.7.8.3.3.1.h.1.h.;.e.t.r.F.H.W.~./.%X7X2X2X6XyXyXiXiXsXsXpXpXsXpXsXpXsXsXsXsXpXiXsX5X4X7X&X' [ R F S S H N m B B n n n M n B B m N m C C C J x z z O.w.e.;.;.9.4.5.8.8.7.j.j.j.c.j.j.k.l.0.0.a.a.a.a.f.f.a.f.x.g.g.g.g.g.g.f.g.g.R.R.{.0XcXdXnXBXCXAXAXAXAXAXGXAXGXGXSXSXSXFXSXDXSXFXFXFXAXSXVXmXbXvXoXXXx.z.8.8.8.8.q.q.q.s.s.a.a.q.q.q.q.8.8.8.8.8.8.8.3.3.8.8.3.3.3.3.3.3.1.1.1.*.*.*.%.%.%.@.%.@.@.+.+.t q 8 4 3 5 o X @ @ 1 # # $ < ; } n N D Y W o.@X*X6XpXhXNXCXSXFXFXFXSXVXCXPXkXlXjXNXPXBXCXCXVXCXCXBXPXNXkXjXzXdXsXeX9X[.'.L.H.F.....g f 2 & @ @ # = * < > n m C C { X.X.J.F.L.L.'.'.[.8XqX5XwXiXxXxXpXxXiXiXiXiXiXiXxXxXyXyXuXuXuX4X1X1X2X<X2X,X;X9X}.{..X.X.X.X.X.X X].].R.R.U.U.U.x.x.x.x.E.E.].}.[.qXqX5X6X4X2X1X*X*X=X*X*X:X2X6XwXyXiXiXsXiXsXiXiXiXwXiXyXwXiXiXiXiXiXiXiXiX",
"gX#X#XyX-X_.|.F.h.h.a.6.8.3.1.1.*.*.%.%.;.w.y.J.Q._.-X:X2X2X2X2X<X7X7X7X7X*X*X7X*X7X*X*X<X7X<X7X<X*X*X=X&X@X` @X~ ! ! R F F S S H N N n n } } > > > - - * * % # @ 1 @ @ @ # $ $ - ; s s l x X.J.K.K.f.f.x.z.l.l.k.j.j.j.b.j.j.j.j.j.j.j.7.7.7.5.3.3.4.9.;.h.h.e.r.F.J.G.W.W.~./.%X=X<X<X2X2X6X5X5X5XyXwXyXwX5X5X5X5XyXxXxXwXyX5X6X2X%X' / ! R G S Z N B B B B B B M M M M M M m V C C l l z z O.w.e.;.;.4.4.3.5.7.7.7.j.j.j.j.j.k.q.0.0.u.u.u.d.i.i.d.I.I.I.R.I.I.R.I.I.T.T.T.T.{.0X0XrXlXnXPXPXPXPXBXBXCXCXCXBXCXVXVXVXGXGXVXGXAXAXAXCXCXBXlXcX{..XE.s.s.8.8.8.9.9.h.h.h.h.h.h.h.a.4.8.8.8.8.3.8.3.3.3.3.1.3.1.3.1.3.3.1.1.1.1.*.*.*.%.%.%.@.@.@.+.+.r e w 8 4 5 o o % @ 1 @ # $ $ < , } n H G Y ( o.@X7X6XpXfXNXAXAXFXFXFXSXAXCXPXkXlXhXlXlXkXkXPXBXBXBXPXNXNXkXjXhXdXrXtX{.].T.T.i.i.......f p & X % @ # * < > v m C J ....X.F.i.P.E.T.'.}.9XqXeXiXiXpXpXpXxXiXiXiXiXiXyXxXxXxXxXuXuXuXuXuX4X4X2X>X;X[.'.}..X.X.X X X X X X XU. XU.U.U.g.U.f.E.E.E.E.'.[.9XqXqXxXyX6XuX2X<X1X*X*X<X:X2X6X5XwXyXiXiXiXiXiXiXiXiXiXiXiXiXiXiXiXiXiXiXiX",
"#X#X3X#X/._.|.H.h.h.9.4.3.1.1.*.*.%.%.%.:.e.r.J.Q.).-X3X6X4X4X2X4X<X<X7X*X7X*X7X*X7X*X7X*X7X*X7X7X*X*X=X$X^.o.` [ Q ! R F F S S N N N B n n } } > > , - < $ # # @ @ @ @ # # # * - ; s f l x ..F.i.a.f.z.z.l.l.l.k.j.j.j.j.j.j.j.j.7.7.7.7.7.5.3.3.4.9.*.;.e.t.t.F.G.G.W.W.~.~.^.#X%X<X*X<X7X2X2X2X6X5X3X3X6X5X3X3X6XyX5X3X5X5X3X7X=X#X) [ R D S H B B B B N B N N B M N M M m N m d d l z k O.-.:.;.;.4.3.6.8.8.7.j.7.j.j.j.7.8.6.0.a.u.u.i.K.K.J.L.L.L.L.'.T.'.T.}.].}.}.}.}.}.tXtXrXrXhXlXjXkXNXjXNXjXjXkXkXkXkXkXNXPXPXPXBXPXBXPXPXNXlXlXrXrX{.].E.a.q.9.3.1.;.h.h.h.F.t.F.h.h.h.h.3.3.3.3.1.1.1.1.1.*.*.1.*.1.1.1.1.1.1.*.*.*.%.%.%.%.@.@.@.+.+.r r e 0 8 6 3 o o @ @ @ @ # # * < , > m H D R ~ @X#X<X5XpXlXNXAXAXFXFXFXSXAXBXNXjXhXhXhXlXhXlXlXkXkXkXNXNXNXkXkXlXdXcXrX{..X XU.x.u.e. . .6 p o % @ # = = : b v m C ..X...y.u.d.x.x.U.R.}.0XeXeXiXpXpXpXxXxXiX5XiXiXxXiXiXiXpXpXxXyXyXuXuX4X4X2X:X;X[.}.R. X XA.A.A.A.A.A.x.x.A.x.x.g.f.I.P.E.H.|.|.[.9X9XwXiXiXyXyX5X6X2X2X2X:X2X2X2X3X5XyXyXwXiXiXiXiXiXiXsXsXiXiXiXyXwXwXqXyXwXyX",
"uX6X#X>X/.Q.Q.F.h.h.9.4.1.1.*.*.%.%.%.#.-.e.t.F.Q.).>X3X5X5XuX4X2X7X*X*X*X*X*X*X*X*X*X*X<X7X7X<X7X*X*X%X$X+Xo.` / Q W F F F S S H N B n n } v } > > , - * * % % @ @ 1 @ 1 # = * < ; s d g x ..u.p.a.l.l.l.k.6.j.j.j.j.5.j.7.5.j.7.7.7.7.5.5.3.3.1.*.;.h.e.t.D.G.G.W.W.!.!.!.' ^.^.#X#X#X*X#X*X%X:X#X#X:X:X#X#X:X:X#X#X:X3X#X:X#X&X^.) / R F S N B n n B B N B H H N Z B B B N N C d g l k  .-.:.;.=.4.3.6.8.7.j.j.7.v.j.j.7.8.8.6.<.u.u.y.F.X.X.J._._.Q.`.`.[.[.[.[.[.[.}.9X[.tXtXtXeXdXzXzXhXhXfXjXjXgXzXzXzXzXdXhXhXjXlXjXlXlXjXjXjXhXzXzXeX9X}.E.E.h.9.9.4.h.h.h.t.F.H.H.H.F.t.h.;.9.4.1.1.1.1.*.*.*.*.%.*.%.*.*.*.*.1.1.*.*.%.%.%.%.@.+.+.+.+.r r e q 0 8 7 3 2 o X 1 @ 1 # # $ < ; > B H F R / o.$X7X5XpXlXPXCXSXFXFXFXGXCXBXjXlXzXzXzXzXfXhXhXhXlXjXjXjXNXNXjXlXdXrXvXoXoX Xx.z.z.9.:. .9 7 2 % @ # # = < > n m C J ....u.a.z.z.x.XXU.].{.tXeXeXpXxXxXxXxXxX5X5X5XyXxXxXiXpXxXpXxXyXyXuX4X4X3X8X[.'.]. X XA.A.A.C.S.A.B.B.A.Z.x.x.g.I.P.Y.|.|.Q.).-X>XqXiXwXpXiXiXyX6X6X2X2X2X2X2X3X6X5X5X5XyXwXiXiXiXsXsXiXiXiXiXwXyXyXyXyXyX5X5X",
"#XuX3X#X/._.H.F.t.h.h.*.*.*.*.%.%.@.@.#.:.w.t.H.Q.).8XwXxX5XyX4X4X2X7X*X*X*X*X*X*X*X*X*X7X*X*X7X*X*X=X=X$X+X@X( [ ! W R F F S S H N N n n } } } > > , - & $ $ @ @ @ @ @ # # = * - ; s f g k y.<.9.l.l.k.k.j.j.6.5.j.5.5.7.5.7.5.7.5.5.5.3.3.1.1.*.*.=.e.r.r.D.G.W.W._ _ _ _ +X^.^.^.+X^.#X^.#X#X#X#X#X#X#X#X#X#X#X#X#X#X#X#X#X#X' ] [ R F S B n } } } n m N H Z H Z Z N Z B B N m d l j k  .-.;.=.4.4.8.8.8.j.7.v.j.7.j.7.7.8.6.0.<.u.F.X.X.X.o.o.o.o.).).;X;X;X8X8X8X9XqXqXeXeXeXsXrXsXsXzXzXaXaXaXpXpXiXsXiXsXaXaXaXzXzXzXfXzXfXgXgXpXpXwXqX[.|.E.h.h.4.*.;.;.;.t.F.G.G.W.G.G.F.t.h.;.*.1.*.*.*.%.%.%.%.@.%.%.%.*.*.*.*.*.*.*.%.%.@.@.+.+.+.r r r r e q 0 8 7 5 o o X @ @ @ # $ $ < , } B H F R / o.$X7X5XaXhXPXCXSXGXFXGXGXCXPXlXhXaXaXaXpXaXaXaXzXzXhXhXjXjXjXjXkXlXcXvXoXXXXXA.l.l.0.=. .9 6 & % @ = = = b b n m C l ..y.p.z.l.l.z.A.XXR.{.tXqXwXpXpXxXuXyX5X5X5X5X5XiXiXiXiXiXpXiXxXxXyX6X6X3X;X[.T.R. Xx.A.B.B.B.B.V.B.B.B.N.Z.z.g.P.F.H.Q.W./.-X-X>X5XqXwXiXiXyX5X5X6X3X6X2X2X2X6X6X6X3X3X5X5XwXyXiXiXiXsXiXiXyXyXwX5X5X5X5X6X6X",
"uX#X#X#X/.~.Q.H.t.h.=.=.*.*.%.%.@.@.@.-.w.w.J.H.Q.9X8XwXyXxXuX6X4X2X7X7X*X*X*X*X*X*X*X*X*X*X*X*X*X*X=X$X#X@Xo.) [ ! R L F D S S N N N n n } } > > ; , - * $ # % @ @ 1 @ # # $ * - ; s a h ..:.,.4.6.j.k.j.j.j.j.5.5.5.5.5.5.5.5.5.3.3.3.1.1.>.>.%.;.;.e.t.D.G.G.^ _ ] _ ' ' ' ' +X' ' ' ^.' +X' ^.+X^.' ^.+X^.+X^.+X^.^.#X^.%X' ' / Q L S H n } } } } } n B H H H S Z Z Z M B N d d l j k -.:.;.;.4.6.6.8.l.v.M.v.v.v.v.8.8.6.9.u.u.y.K.X.X.o.o.o.o.%Xo./.,X,X8X8XqXqXqXeXwXeXeXeXsXsXsXsXeXsXeXwXwXiXiX5XwXyX5XyXiXiXsXpXpXaXaXaXpXiXiXwX5X>X;X|.F.h.h.h.;.;.;.t.r.G.W.W.W.W.G.D.r.e.h.*.;.*.%.%.%.@.@.@.#.#.@.%.%.%.*.*.*.%.*.%.@.@.@.+.+.r r r r e q 0 8 4 7 3 o o @ X @ @ # # * - , } B H F E ) @X&X2X5XsXhXPXnXZXZXZXGXCXnXlXhXzXaXsXpXsXiXsXpXpXaXaXfXhXjXNXjXkXbXcXvXoXXXA.S.N.k.6.,.| 0 7 2 % # # = = = > } m d l .. .<.l.k.N.N.A.XX X].{.9XqXyX5XyX6X6X6X6X3X6X6X5X5XyXwXxXiXiXxX5X5X5X>X8X9X}.T. Xx.Z.l.B.V.m.V.V.V.m.m.n.l.z.a.d.H.H.W.!.!.$X%X:X:X3X5X5XwXwXwX3X6X6X2X2X2X2X2X2X2X6X6X6X5X5XyXyXwXyXyXwXyXyX5X5X5X6X:X6X6X2X",
"#XxX#X5X;X_.Q.D.t.h.;.=.%.%.%.@.@.#.-.-.w.t.D.|.).;XqXwXwXxX5X5X4X2X7X7X#X7X#X:X7X7X#X7X#X:X7X7X#X7X#X#X#X' ] ) ! ! R F F S S S H m n n n } > > > > > - - % $ # @ 1 1 @ # # = * - ; p a h  .:.<.6.7.c.c.j.j.7.7.5.5.5.2.5.2.2.5.3.3.1.1.1.4.*.=.=.;.e.w.r.X.I o._ ] @X` ` ` ] ] ] ] ] ] ] ] ] ] ' ] ] ] ] ] ] ] ] ] ] ' ' ] ] ] ) [ R G H B } > , ; } } n N N S S Z Z Z Z B N m d C l j O.w.-.;.9.0.q.q.M.Z.M.M.Z.M.l.l.q.q.9.p.u.i.t.D.X.o.o.] ' +X$X/./.-X;X;X;X>XqXwXwXxXsXsXsXeXeXeXeXeXeX9XeX9XqXqX5X5X5X5XxXwXxXiXiXiXiXpXxXxXuX5X5X6X>X).Q.H.F.e.e.e.:.e.r.J.G.W.~.!.!.W.G.r.h.;.=.%.%.%.#.%.#.-.#.-.#.#.@.%.%.%.*.*.%.%.@.@.@.+.+.+.r e r e q 0 0 8 4 3 3 o o X @ @ @ # $ * - , } B Z F T o.o.=X2X3XsXdXlXmXmXmXmXmXnXlXlXdXsXsXiXiXxXxXwXiXiXpXpXaXfXjXjXkXlXbXcXvXoXXXA.N.n.k.k.| |  .5 2 X % # # = b b b m d ......,.0.k.k.N.z.x. XT.[.;X8X3X6X2X2X2X2X2X2X2X4X4X5X5X5X5XwXwXwX3X8X8X8X[.[.}.T.x.x.M.N.n.n.m.m.m.m.m.n.n.k.q.p.i.P.X.o.o.o.o.o.@X*X8X3X8XeXqX3X2X2X2X2X2X:X2X2X<X2X2X2X2X2X6X6X6X5X6X5X5X6X6X6X6X2X2X2X2X2X7X",
"xX#X5X#X#X_.H.H.r.e.;.=.%.%.%.#.=.-.w.w.r.D.H.Q.).;X3X5XyXyX5X6X4X2X6X#X2X7X#X7X2X#X2X7X#X7X:X#X7X#X-X#X' ' ) ~ Q R R F D G H Z N B n n } } n > > > - - - $ % # @ @ @ @ # # # * - ; s f g  . .,.6.7.j.j.j.7.7.7.5.5.2.2.2.2.2.2.1.1.1.*.*.;.=.;.-.w.w.r.D.D.I ^ ~ ) ` ` ` ` ` ` ] ) ] ] ` ] ) ] ` ) ) ] ) ` ) ` ] ) ] ] ] ] ] ) / ! R D H n } ; : : ; } n B Z S S S Z Z Z H N m m d l x O.r.e.h.h.a.s.g.x.x.A.XXA.A.A.z.g.s.f.h.i.F.J.G.W.o.o.+Xo.+X(.(.~._.).).).>X3XqXwXxXxXxXwXeXeXtXtX[.{.9X9X9X8XqXqX3X3XyX5XyXyXyXxXxXxXxXyXyXyXuX4X2X:X).Q.H.J.t.t.y.t.r.D.G.W.~././.~.W.H.D.w.e.;.@.%.%.#.-.-.-.O.-.-.-.-.-.;.*.%.*.%.%.%.@.+.+.r r r e e e q 0 8 8 4 3 2 o X X @ @ @ # # % - , } B S { T o.+X=X:XqXeXrXcXbXvXMXmXbXbXbXrXsXsXiXxXxX5XyXyXyXyXwXpXpXgXfXfXhXlXdXcXoXoXXXXXN.M.k.5.| | 8 7 2 % @ # = = = b M m d .... .<.6.k.k.N.z.z.I.I.Y.`.)./.-X,X*X7X*X:X7X:X7X2X2X2X4X3X:X3X8X8X8X[.}.}.T.R. Xx.Z.N.N.n.n.n.m.n.n.n.c.k.l.0.u.i...K.X.o.o.o.o.o.o.o.o.-Xo.;X-X,X,X7X7X7X7X<X7X7X7X7X*X7X7X7X7X:X:X2X2X2X<X4X7X7X7X7X<X<X*X7X",
"xX#X3X#X-X_.Q.H.t.e.;.-.-.%.;.-.-.w.r.r.D.D.Q.Q.).;X3XwX5X5X6X4X2X2X#X7X7X2X2X2X7X7X7X7X2X7X7X:X#X#X#X^.' ] ) Q ! R Y F D S H H B n n n } > } > > , , - * $ $ % @ @ @ @ # # = * - ; s a h  . .,.6.7.7.j.j.7.5.5.2.2.2.2.2.2.>.>.*.*.*.=.;.;.-.w.w.O.O.K K I I ^ ~ ) ) ( ` ( ( ` ) ( / ( / ) ( ( / / / / / ) / ) ) / ~ ] ) ) ) / Q R F S B } > - - - : } n N Z V S S S H B B N m V C l J z r.t.t.E.E.E.XXXXOXoXXXXXXXXX XE.E.E.h.F.H.H.W.!.o.#Xo.o.!.!._._.Q.Q.Q.`.).8X3XwXxXxXwXwXeXtX[.{.].}.}.}.[.[.9X8X3X5XyX5XuXyXyXyXyXxXyXyXuXuX4X4X6X7X/._.Q.J.J.t.r.r.F.J.W._.).#X#X/.W.G.F.e.;.-.%.@.%.-.-.O.O.O.O.O.O.-.;.;.%.*.*.%.%.@.@.+.+.r r e e q q 0 0 8 4 7 3 . o o @ @ @ @ @ $ $ < : v n A Y W o.+X&X,X8XtX0XvXvXvXvXvXvXvXcXrXrXeX5X5X5X6X6X5X5X5X5XiXiXpXgXfXhXzXdXcX.X.XXXA.N.M.7.5.| | 9 7 2 o # = = = b b M M d ......0.6.k.k.l.l.z.d.P.H.H.W._.o.o.^.+X%X%X=X*X<X&X<X<X*X7X,X8X;X`.[.}.].R. X Xx.A.M.N.n.n.n.n.n.n.c.j.j.k.6.9.u.....X.X.P X.X.X.o.X.o.o.o.o.`.-Xo.%X%X*X*X*X=X=X*X*X&X=X=X=X&X&X=X&X#X&X=X=X=X=X%X&X%X=X%X=X=X",
"uX5X6XqX-X).W.F.F.w.-.%.%.%.-.-.w.r.t.D.J.Q._.~.,X:X3X3X6X6X6X4X2X2X2X7X7X#X7X7X2X#X2X:X7X#X#X#X#X^.#X' ) ) ~ Q ! L F F S H Z B n n } } v > > > > ; , - * * % @ @ @ 1 @ @ # = * - ; s f g  .:.<.6.7.7.7.j.7.5.5.2.2.2.>.>.>.>.&.*.*.=.=.-.-.-.w.O.r.K K I I E [ Q / ( ( ( ( ( ( / / / / / / ! ( / Q ( Q ( / ( ( / / / / / / / Q ! R D H B } - - - $ - } } B N S S S A Z N Z N N C C J U K D.F.H.E.E.R..XoXoXoXOXvXoXoX.X].E.|.|.Q.Q._.~.(./.$X$X$X~._.G.H.F.H.H.|.Q.).8X3X5XxXwXeXtX[.].].R.R.R.].}.}.9XqXqXwXyXyXyXyXyXyXyXyXuXuXuXuXuX4X4X7X-X~._.G.G.D.D.G.G.W._./.#X8X>X#X_.G.F.r.w.-.%.-.-.-.-.O.O.r.O.w.O.e.-.;.%.*.%.%.%.@.+.+.r r e e e q q 0 8 8 4 7 5 . o X X @ @ @ # # = - ; } B Z F W ( o.%X:X8X9X{..XoXoXoXOXoXoX.X0XtXqX5X3X6X4X4X6X6X6X5X5XxXpXgXgXfXdXdXcX0X.X Xx.z.l.7.6.| | 8 7 o % @ = = = = b v B C g .. .<.4.4.k.k.k.0.u.y.y.X.X.X.o.o.o.o.o.&X$X&X$X&X&X$X$X%X%X).`.`.'.R.R. Xx.x.Z.Z.N.v.v.c.c.j.j.j.j.7.7.5.4.<. .u...........X.X.J X.X.X.X.X.o.o.o.$Xo.$X$X$X&X$X$X&X$X$X$X^.#X#X+X+X( o.+X+Xo.+X+X$X$X$X$X$X$X",
"uX#X6X#X8X).Q.D.r.e.;.#.-.;.-.w.r.t.G.G._.Q.[.#X:X:X:X6X6X6X4X2X2X2X#X2X7X2X7X7X2X7X#X#X:X#X#X#X#X/.' ) ) ) Q ! R Y F D S H H n n n > } > > > > ; : ; - $ $ $ @ @ @ @ @ # # # * - ; s f g  . .,.,.5.7.7.7.5.5.2.2.5.>.2.&.&.&.&.%.%.#.#.-.O.O.O.z K K I P I E E Q ! Q Q Q / Q Q Q / Q ( Q ( ! ( Q ( Q Q ( W Q Q Q / Q / Q / Q Q R L D N n > - < $ $ : > } B N S S S Z Z N N N N V C { U I G.G.|.|.[.{.vXvXvXMXvXvXvXvX0X{.}.`.`.Q.)././.%X%X%X%X/._.H.J.F.F.F.t.F.|.Q.).>X3XwXqX9X9X}.].E.U.U.U.E.].}.[.tXqXwXxXxXxXyXyXuXuX5XuXyXuX4X4X4X4X:X7X/.~.W.W.G.G.G.W.~.[.#XwXqX#X9X).H.D.t.w.-.#.#.-.i O.O.K D.K O.D.O.e.;.;.%.*.%.%.@.+.+.r e e q q 0 8 0 8 4 4 7 3 2 o X X @ @ @ @ # * - - } B H F W ( @X=X-X;X}.]..XXXOXXXXXoXXX.X}.9X9X3X2X4X2X2X2X2X2X4X6X5XxXpXaXaXaXdXrX{.]. Xx.s.6.4.| | | 6 5 o % % % # = b > n m d l .... .,.4.4.2.4.,. . .......U X.U X.o.o.o.+X@X@X@X@X` ( ` o.o.o.L.T.U.x.A.A.Z.N.N.N.k.c.j.j.j.7.5.5.5.5.>.&.,.|  . ...g ....g ..g ....d ..X.X.X.o.o.o.@X@X#X+X@X@X@X@Xo.+X( ` ` ( o.o.o.o.o.o.o.( ` @X@X` @X@X",
"uXpX6X3X,X).Q.J.t.w.-.-.#.-.w.w.D.D.G.~.~.).#X8X:X:X2X:X2X:X2X2X7X7X2X7X#X2X2X#X7X:X2X7X7X%X#X#X#X' ] ) ~ Q ! R L L D S H Z B n n } > > > ; , > ; , - - * & $ # @ @ 1 @ @ # = * < ; p f g  . .:.,.6.5.5.7.5.2.2.2.5.| 5.&.&.&.&.@.@.-.-.-.O.z z K K P P E E E R ! ! W Q ! ! ! ! Q ! W W ! ! ! ! W W W W Q W W Q Q R Q Q Q Q Q R R F S N } : < % $ $ - > } B N V Z S V Z N N B H V G P P ^ W.).).[.tXrXvXmXmXmXmXMXmXvXcX0XtX9X).;X-X-X:X7X7X*X-X~._.H.F.t.e.e.h.t.F.|.).).3X3X3X9X}.T.E.x.x.z.x.x.R.].[.tXwXwXiXxXyXyXyXyX5X5X5X5X6X4XuX4X3X2X7X-X/.(.W.W.W.W._.).#XqX#X3X3X>X`.|.D.t.-.-.#.-.i O.O.D.K I G.G.D.r.w.e.%.*.%.%.%.@.+.+.e e q q 0 q 8 8 8 4 4 3 3 . o X X @ @ @ @ $ $ - ; } B S T ( ( +X%X-X[.}.]. XXXA.A.A.XXXX.X}.[.;X-X2X2X1X2X<X2X:X2X4X6XyXxXgXpXsXeXtX{.].I.g.0.4.,.| | | 7 5 o X @ # = = : b n m m d .. . .,.,.,.2.,.,. . . .j h x J J P o.( o.o.o.o.@X` ( o.o.o.o.L.L.f.x.x.Z.N.N.N.M.c.k.k.j.7.5.5.2.2.2.>.>.| =.|  . . . .y y h  .h 9  .....g C X.X.Y o.( ( o.@X@X` o.( o.o.o.( ( o.T o.T W T T o.o.( o.o.@Xo.` ",
"uXiX5X3X#X).Q.J.D.w.-.-.-.-.w.r.D.G._.~./.#X3X#X*X:X7X7X7X7X7X7X#X2X:X7X7X:X7X7X7X#X#X:X#X#X#X^._ ] ) ~ Q ! R R F D S S H m B n } > > > > , ; , , , - - * $ % # @ @ @ @ # # = * - ; f f g u  .,.,.2.5.5.5.5.2.2.>.| >.| &.,.| $.#.#.#.i k k z K P P E P R R E ! ! ! ! ! ! ! ! ! ! ! ! R R E ! ! ! ! R Q R E ! E R Q R E Q E ! E R F V B } : $ $ $ $ $ - } n m Z Z S Z H N B N N V G L E _ !.#X#XeXeXbXnXmXZXZXHXLXmXmXdXrXeX8X>X;X,X>X:X2X2X:X-X).Q.H.F.t.h.;.h.h.F.|.|.).;X;X9X[.'.E.g.x.z.z.z.x.U.R.{.9XeXwXiXxXxXyX5XyX3X6X3X5X5X3X6X6X3X2X:X7X%X/.^._ !././.#X#XpXwX#XqX8X`.|.F.t.e.-.@.-.-.O.O.I G.^ ^ G.D.F.h.-.;.*.%.%.@.+.+.r e e q q 0 8 0 8 4 4 7 3 3 o o X X @ @ @ # $ $ < , } B Z Y ( ( +X$X,X[.}.R. XA.A.C.Z.A.x. XT.[.;X:X7X1X1X1X1X<X<X2X2X6XuXxXpXpXiXeXtX[.'.I.p.p.,.=.| |  .7 5 o % % # = = : b n m d g g .. .=.,.>.&.| | | | 0 y 9 g g l J U ! [ / / ( ( ( ( o.W X.X.X.f.f.s.M.N.N.n.n.n.j.k.7.5.5.2.2.2.| 2.| &.| | |  .| 8 y | 9 | 6 8 9 9 7 a g ..C X.X.T o.o.` ` o.o.( o.o.( W o.T R R Y T T R o.T o.o.( ( ( o.W ",
"uX#X#XyX>X).W.J.D.w.-.-.-.w.O.r.G.G.~.;X#X#X#X#X#X7X#X7X#X7X#X7X7X#X#X7X#X#X7X#X:X#X7X#X#X/.' ' ] ~ / Q ! R R F F D V Z Z B B } } > > , ; , , , , , , - - $ $ % @ @ 1 @ # # = * < ; s f g u  .,.,.2.5.5.5.5.2.2.2.2.&.2.| | &.| #.#.i O.k x J P P L R E ! ! ! E ! ! ! ! R E L E P R P P E L P P P E P L E P L L L P R R R E R R L D Z B } - $ % # $ $ ; } n N Z V S Z N N N B N S F R Q !./.9XwXwXzXkXBXZXLXHXLXLXZXnXnXdXrXqX8X>X>X2X2X3X3X3X>X).Q.H.K.t.e.u.;.h.t.F.|.`.).;X`.'.Y.E.g.s.l.l.z.g.U.R.}.tX9XsXiXpXxXxXqX3X3X>X>X>X>X>X>X>X>X>X>X-X%X/.^.^.^.#X#X#XwX#XiXzXqX8X;X|.F.r.-.-.-.#.O.O.D.G.^ W.W.W.G.D.O.h.;.;.%.%.@.+.+.r e w 0 0 8 8 8 8 4 4 3 3 3 . o X X @ @ @ # $ $ - , } B A Y W o.$Xo.o.`.T.U.x.A.A.B.N.Z.x.U.Y.|.).%X*X=X*X=X*X*X*X*X2X4X5XyXxXpXsXwX9X[.Y.P.d.u.,.| | | 4 7 o o @ @ # = < b > n m d d .... . .=.| &.&.| | | 8 9 8 6 g g C P L E ( ( W ( W W R L o.X.X.i.p.q.M.v.n.c.j.j.j.7.5.5.2.2.&.2.| | | | | | | | | | 0 0 8 8 4 8 8 4 6 7 6 g d V X.R T o.( T o.( o.W T o.W T T Y F F D D Y T T W W W o.( T o.",
"4X<X:X*X%X~.G.G.D.O.O.i O.O.O.K G.W.!.^.#X#X#X#X#X#X#X#X#X#X#X#X#X*X#X%X#X#X#X#X#X#X#X/.^.' ] ) ) Q Q ! R L F F D V Z H B B n } } > > , , , ; , , , - - * $ % @ @ 1 @ @ # # $ * - ; s f g  . .| ,.2.3.3.3.3.1.1.>.| &.$.$.$.#.#.#.i k k x l J P L R W W W W Q Q E [ E E E E P P P P P J U P U U P U P P J P J P P { P L P R R L F D Z n } - % # # % $ - } n m Z Z Z H N N m B N S D R Q ] #XpXiXuXgXNXAXFXJXKXKXKXLXmXnXcXrXtX9X;X8X8X>X3X3X3X>X).).|.F.t.h.e.u.h.t.K.|.|.|.[.'.'.E.f.a.q.q.8.q.s.g.T.}.9XqXwXwXiXwX5X9X8X;X[.[.[.;X[.;X;X[.).).).-X/.%X#X%X#X1XwX#XfXpXiXqX8X[.Q.F.r.w.#.-.i -.O.K G.W.!.!.~.G.F.t.h.-.%.%.@.@.+.r i w y 0 8 0 8 8 8 4 4 4 3 5 o O X X % @ @ # $ $ < , } B A Y W ( o.$X-X`.T.T.x.Z.N.N.k.M.z.f.Y.Q.).%X$X&X&X&X=X=X*X*X2X4X6XuXyXiXiXqX9X[.L.K.u.u. .| | | 4 7 2 o X @ = = = : b n m m g h .. . .| | | | | 8 8 8 4 7 6 a g d C L L R ! ! T R T T L U X.....u.q.k.7.7.7.7.7.5.5.2.>.>.&.$.&.| | | | | | 8 | | 8 8 | | 8 8 8 4 4 4 6 a a g C X.L o.o.Y W W o.T o.Y o.o.R F F F F D D F F L o.F W o.T o.o.",
"1X<X=X%X/.~.W.G.D.r.O.O.O.O.z D.I o.^.' #X#X#X#X#X#X/.#X#X#X/.#X#X#X#X/.^.#X#X/.#X/.' ' ] ] ) Q Q Q R R Y F F D S H N H n n } } > > > , , ; , , , ; ; - - * $ # @ @ @ @ # # = = * ; p f g u  . .,.1.3.3.3.3.1.*.>.>.&.$.#. . . .i k k k z J J P L W W W ( / / / ~ ~ E ^ I P U U J J K J K K J K K U K J U J J J J P J L L P L L L D Z B > - $ % @ % $ - > } B Z H Z N N N B B H S F R Q ' #X#X#XpXNXNXAXFXKXKXKXKXZXZXbXcX0X0X[.[.[.9X8XqXqX3X3X8X).|.H.K.t.h.i.t.K.K.|.|.|.|.Y.E.E.a.a.q.q.q.0.a.E.Y.}.[.eXwXwXqXqX9X[.[.[.[.`.`.'.'.'.'.[.[.`.).).-X%X-X<X<X<X#XaX#XpXiXqX8X).H.F.t.-.-.-.-.O.D.D.W.~.^./.~.W.H.D.w.;.;.%.@.#.+.#.i i y y y y 8 8 4 4 4 3 3 . o o X X @ @ @ # $ $ < : v B Z T ( ` +X%Xo.[.T.I.x.z.M.n.N.l.f.f.L.H._.%X$X&X&X&X&X=X*X*X*X2X6X5XyXiXxXqX9X[.'.F.i.u.| | | | 4 7 o o X # # = = : b n m d d g h y  .| | | | | | 8 4 7 5 6 p d d C G { F Y T T T F Y { J J X.....0.6.5.7.5.5.5.2.2.&.$.&.$.| | | | | 8 8 | | 8 8 8 8 8 4 8 8 4 4 7 7 6 a a d C S F D Y W W T o.W W Y Y D Y F F S S D D S F F Y R Y Y Y T Y ",
"$X$X$X$X^.!.o.I K K O.O.z z K K ^ ^ ] ] #X#X#X#X#X^.' ' /.' ' ' ' ' ^.' _ ' ] ] ] ] ] ) ~ / Q ! ! R L F F D S V H H B n n } } } > > ; , , , , , ; , - - * $ $ # @ 1 + @ @ # = * - ; s f g  . . .=.2.3.3.2.1.1.*.&.&.$.&.#.-. . .k k z z J J P L R W W W ( / ) ) ) _ ^ ^ I I K J x z x z x O.z z z z z z x x l l l l J J P P L L F D H n > - $ # @ # % - > } B N H Z H N N B N N S D R Q ' #X#XpXpXfXNXAXFXJXKXKXHXHXmXmXvX0X].].}.}.[.9XqXqXwXqX8X;X`.|.H.H.F.t.F.K.P.E.P.Y.E.E.f.d.a.a.9.3.0.9.p.P.Y.`.9X9XqXqXqX9X[.}.'.Y.Y.E.T.T.T.E.T.T.'.'.'.).).:X:X7X2X4X#XgXgXpXwXwX9X).H.F.w.w.-.-.-.w.r.G.W.~.%X/./.|.G.F.w.;.-.@.@.-.i i i j j h c c c 8 4 4 7 3 3 3 . O X X @ @ @ # $ $ - : } B S Y W ( @X$X-X`.L.T.g.M.M.k.l.l.a.f.K.H.~.o.#X#X@X&X&X=X=X*X2X2X4XuXyXiXiXqX9X).H.F.y. . .| | 8 7 5 o o X # # = < b v n m m d g 9  . .| | | 4 | 4 4 7 7 5 5 p f f V V S G D F D D D D G G J ...... .<.,.2.2.2.&.&.&.&.| | | | | | | | | | 8 4 | 8 | 8 8 8 8 4 4 7 6 5 6 f f d C C { { Y Y R W R R R Y R F F F G S S S S S F F Y Y Y Y o.T X.",
"+X@X' ] _ _ ^ I I K K J K U K I I ^ _ _ ^.' ` ` ' ' ] _ ] ] ] ] ] ] ] ) ] ] ) ) ) ~ / Q Q ! ! R L F Y D S V Z Z Z B n n } } } } > ; , , , ; ; ; ; , , , - $ % % @ @ @ @ # # = * - , p f h  . .,.,.>.3.3.3.1.*.*.&.| |  . . .k k z x l J J P { L R R W / ( ( ' ' ' ' _ ^ I K K O.k k k O.O.k O.O.O.O.O.k z k j j l l l J J L L L { D Z B > - $ @ # % $ - > } n m N N N N B B N N S F R ( ] #X#XfXuXNXNXAXJXJXKXKXHXHXMXvXoXoXXXR.R.].}.{.9X9XwXqXqX8X;X).Q.|.H.Y.P.L.K.P.E.E.E.f.f.a.0.4.4.4.4.9.h.P.L.|.9XqXqXqX9X[.[.'.T.E.E.E.f.g.U.U.I.I.E.T.T.[.[.;X>X2X4XuXgXgX#XpXwXeX#X).H.F.r.-.-.-.-.w.D.G.~.).-X:X-XQ.H.t.h.-.%.@.-.+.i k k j h l h c c c 4 4 4 4 3 . . o X X X @ @ # $ $ < ; } B Z Y ( o.@X+Xo.`.L.I.f.z.l.k.k.0.a.i.K.G.o.o.o.#X@X@X$X$X=X*X*X2X4XyXyXiXwXwX8X[.H.F.y. . .| 8 4 4 3 o X % % # = = b v v m s d a g 9 4  .8 | 8 8 4 7 7 p p 2 p p f m m H H S A A A A S S V l .... . .$.$.$.&.$.$.$.| | | | | q q q q 4 | 4 | 8 8 8 8 | 8 8 4 4 6 6 p f f f f d C V S F D F Y { Y Y Y F Y F F F D S S S D S F F F Y { Y T T Y ",
"] ] ) _ ~ ~ ^ I P I U K U U U P E [ ~ ) ) ) ( ) ) ) / ) / ) ) / ) ) ) / ~ / Q Q Q ! ! R R R L F F D D S Z Z H m n M } } } } > > > > , ; , ; , ; , ; , - - $ % # @ @ 1 # # # # * - - ; f .. . .,.,.2.5.2.3.1.*.%.%.#.#.#. .k k z z J J J P L L L R R ! ( ' ' #X#X^./.W.W.G.K O.O.O.i -.i -.-.-.w.w.-.-. .i k i y j h l l J J P { G D Z M } - $ # @ % $ < , > n B N N N B m B m N H F R Q #X#XxX#XpXjXNXAXFXJXKXKXHXMXMXMXoXXXXXA. XU.].}.[.eXwXwXwX3X>X;X).).Q.Q.|.Y.E.E.f.s.g.s.q.0.4.4.1.,.;.;.h.F.H.Q.;X8XqX8X9X}.'.T.U.g.s.s.s.z.s.s.z.g.g.E.T.}.[.[.8X3X5XuXpX#XjXgX#XgX9X|.G.F.t.-.-.-.w.w.r.G.).-X>X>X-X).|.F.h.;.-.#.#.-.i k x x l l l g c c 6 4 4 3 3 3 o O X @ @ @ @ # $ = - , v M D Y ( ( o.$X,X`.L.T.f.s.q.l.6.0.a.i.F.G.o.o.` +X@X+X#X&X=X*X7X4X6XyXxXiXwXwX8X`.H.F... . .| 0 4 7 3 o % X # # $ < b v n s m d g a 9 9 | 8 8 8 4 7 6 5 2 p 2 p s } n m m N N N Z Z Z Z V V d l h  . .w | | | | | e q e q q q q q 0 0 | 4 8 8 4 | 8 8 7 4 8 4 7 6 p 6 f f f m V V V S S G D D F F F F F F F F D S D D S D S G S F F F F F F F ",
"/ / Q Q Q [ Q E E P P P P P P E E E E / Q Q / Q Q Q Q Q [ Q Q [ Q Q Q E Q ! ! ! R L L Y L D D D S S H H H B n n n } } } } , , ; , ; , , , , > , , , , - * * $ % @ @ @ @ @ # = * - ; p f a 9  . .,.>.5.2.1.1.*.%.@.+.#. .i k z x J P P P L L L R R ! ! ) #X#X#X#X#X#X~.W.G.D.O.O.i i -.+.-.@.-.:.:.-.-.-. .t i u u y h l J J P L { D S M > - $ # @ # $ < - } n B B B m n B n B N S F R Q #X#X#XwXpXfXNXAXFXJXKXHXHXMXMXOXOXOXA.A.A. X X].{.tXeXwXyXwX5X3X>X;X[.).|.Y.E.E.g.s.z.q.0.6.3.1.*.=.=.;.y.t.H.Q.).>X>X9X[.'.R.U.g.z.z.l.l.l.l.M.l.z.x.g.E.T.'.9XqXqXyXxXgXjX#XgX#XwX#X).H.D.r.-.-.#.-.w.F.H.|.;X>X>X;X|.G.F.O.-.-.#.-.i k z l J J J l d c c 6 4 4 7 3 3 . o O X @ @ @ @ $ $ - : v M D Y W o.#X%Xo.[.L.P.d.a.6.6.0.0.u.i.t.X.o.^ ` +X@X+X$X$X*X*X2X4X6XyXxXiXiXqX8X).H.J.y. . .q 8 4 7 3 . o X @ $ = < b v } m m f f a 9 9 8 4 8 4 7 6 5 p p ; ; ; ; > } } } } M M M M Z N H C d g g y 9 w w q q q q q q q 0 0 8 8 8 8 8 8 8 4 8 4 8 4 4 4 4 4 7 6 a f f f s s m m m m H H H S S S S G D F D F S G S S G S S S S G D G D G F F F ",
"Q ! ! ! E ! E E P E L L E L E L R E ! R ! ! ! ! ! ! ! ! R ! ! ! ! ! R ! R R Y Y F F G D S S S H H H N B B n } } } > , ; > , , ; ; , , ; , , , ; - , - - < $ $ % @ @ @ @ # # = * - ; s f g  . .| ,.2.2.2.1.1.*.%.@.#.#.i k j x U U P L L L L L R ! ! / ) #X#X#XyX:X-X/._.J.D.r.w.-.#.-.#.@.@.#.=.%.%.#.#.+.r t w u y y l l J P L Y F Z M } - * # # % % - , > } B B B B m m B B N S D R Q ^.#X#XsXpXgXNXCXDXJXKXHXHXMXMXOXOXXXS.A.A.A. X.X{.tXeXsXpXxXyX5X3X>X;X[.|.'.E.g.s.q.l.8.8.3.1.*.%.%.#.:.y.D.H._.).,X;X;X[.'.E.g.z.M.l.v.v.c.v.k.v.l.z.s.g.R.}.[.qXwXxXxX#X#XjXgXaXeX8XQ.H.F.r.-.-.-.-.r.D.|.).>X>XqX;X).|.D.r.-.-.+.i i k l J J { G J l d c 6 4 4 3 3 3 . o X X @ @ # # % $ - - v B A T ( o.#X$Xo.`.`.K.f.a.0.0.0.9.u...X.X.o.^ ] ` ` #X#X=X*X*X2X4X5XxXiXiXiXwX9X).Q.D.....w q 8 4 3 . o o X # # * : : v v n f f f a 6 6 4 4 4 6 7 5 5 2 2 ; ; ; > > > } } } } v n n n m m m m f a 6 6 8 8 8 8 8 8 8 8 8 8 8 4 4 8 8 4 4 4 4 4 4 4 4 4 4 4 4 6 6 p p s m s m m m m N N N N H H S S S D S S S S S S S S S S S S S S S D D D D S ",
"R R L ! R L Y R L Y L L L L R L L R R R L R R L Y R L Y R L Y R R L R Y Y L F G D D S S S Z H B B B B n n } } } > , ; , , - : - - , - - , - , ; - - - - * $ % @ @ @ @ @ # # $ * - ; p f g  . . .,.2.2.2.1.*.*.%.@.+.#.i k x K J P L ! R W R W ! ! Q ) ] #X#X#X#X:X:X).~.H.D.O.w.-.-.@.#.@.%.%.=.%.%.@.@.+.r r e w u y h l J J L { D S M > : $ @ # % % - - > n n B m B B n B B H S F R ~ !.#X#XwXpXgXNXAXLXKXKXHXHXMXMXOXOXS.C.B.B.A.x.R.{.tXeXwXiXxXwXyX3X8X;X`.|.E.E.g.s.l.k.8.8.3.1.*.%.:.-.w.r.D.W._.-X,X;X9X'.T.E.g.l.l.v.c.c.c.c.c.v.k.l.s.g.R.'.0XtXwXiXpXjXgXgX#XiX#X#X[.G.D.r.w.-.w.w.t.F.|.).>X3X3X>X).|.F.r.-.O.-.i O.k z U P P { C C g c c 7 4 3 3 3 o O X X X @ @ # $ $ < ; v B A T T ( o.%X,Xo.`.K.d.u.u.0.<.<.u.i.J.X.o.~ ] ] +X#X$X=X*X*X2X6XxXiXpXpXsXwXqX).H.J... .w 8 8 7 7 . O X X # # = < : v } n m m f a 5 7 6 7 7 7 5 p 2 ; ; ; ; : : - : - > - > v v v n n n s s f p a 7 7 4 4 8 4 7 4 4 7 4 7 4 4 7 7 4 7 7 4 4 7 7 4 4 7 7 7 5 5 p f s n n M n M n n n M M B N N H H H S S S S S S S S S S S S S S S D S S S S ",
"R Y L L Y L Y R Y Y Y Y Y L Y Y Y { L Y { Y F F { F { F F F F { F F F F F D G D S S Z N N B m n n } } } } > , ; : - - - - - - - - - - - - - - - - - - $ $ $ # # @ @ @ @ # # = * < ; s f g  . . .,.>.2.2.2.>.&.| @.#.i i k x x J L R W W W W W ( / ) _ ' #X#X#XpX2X:X,X).G.G.r.w.-.-.-.@.%.%.%.%.%.%.@.@.+.+.e e 0 w y h l J P { { D S B v - $ # # @ $ < - ; } B m B B m B B B N S F R Q ' #X#XwXpXfXNXCXAXJXJXKXMXMXMXOXOXS.B.B.A.A.XXR.{.tXeXeXiXiXwXwX8X9X9X`.|.E.E.s.q.l.8.8.5.3.1.%.=.-.w.O.r.G.G.~.).>X8X).[.T.U.z.l.v.v.c.c.c.j.c.j.8.q.s.g.E.'.[.eXeXiXpXuXpXxXxX5X3X9Xo.o.L.X.....y.y.J.H.|.;XqX3X3X9X;XQ.H.D.r.O.-.O.O.l J I P L L J C a c c 6 7 3 3 . . O X X @ 1 @ # $ $ * > } B A L ( @X@X$X%Xo.'.Y.K.d.u.<.u.u...X.X.X.o.o.` @X@X#X&X*X*X:X6X5XxXaXaXaXzXeXqX[.o.K... .y 8 4 7 3 . o X @ @ # * < : v n n m s f p 6 5 7 3 5 5 3 2 2 & ; - - - - - - - - - - : > > > } > s ; p p 2 7 7 7 3 7 3 3 7 3 3 7 7 3 7 3 3 7 3 7 3 7 7 3 3 7 7 3 5 5 p p s s s } v v n v s n n n n M n N N N H H H H H H H H H H Z Z S Z S Z S S S H ",
"L Y Y Y Y Y Y F Y F Y F Y F F F F F F F F F G D D S D D S D D D G D D S S S H H N H N N B n n } } } > > ; - - - < - - < $ < & $ * * * - - $ * < - $ - $ $ $ % # @ @ # @ # # * < - ; p f h  . .,.,.2.2.2.>.>.>.&.@.+.#.i k x J P P ! W W W ( Q / ) ] ] #X#X#X#XpX3X:X;X~.Q.J.D.r.w.w.-.-.-.%.%.=.%.%.@.@.+.r r e e y j h l l U L Y D S n v - $ # @ % % < - } } n n B B n B n B N S F R Q !.#X#XsXpXfXNXAXFXJXKXHXHXMXMXOXOXS.C.B.N.A.XX X{.0XeXwXsXwXwX9X9X[.'.Y.E.E.s.s.q.l.8.8.3.4.=.:.-.w.O.O.D.G.W./.#X,X;X[.[.T.E.x.l.M.c.c.c.c.7.7.7.8.0.a.f.E.}.[.9XwXiXiXgXpXxXxXwX5X8X-X'.X.L.K.K...J.J.Q.).;X3XwXqXqX;X|.G.D.r.O.O.O.z K P P P L L J C d a 5 7 7 3 . . O o X X @ @ @ # $ $ - > } B A Y T ( @X#X,Xo.o.Y.X.d.u...u.i...K.X.X.o.o.o.@X#X&X=X*X:X4X5XxXpXgXhXhXhXzXeX8X`.L.....y 8 4 7 . . O X X % $ $ < , v n n s s f p p 2 5 5 3 2 2 2 & - - - - - < < * * $ - * - : : - > > > - & 2 2 2 7 3 3 3 3 3 3 3 3 3 3 3 3 3 3 3 5 3 3 3 3 3 3 3 3 3 5 2 2 2 ; ; , , v v v , b > > , v s n n N N N N N N N Z N Z N N H H H H Z Z H H S Z ",
"F F L F F F F F F F F D F D F D D D D D D D D S S S S Z S Z H H H Z H H H N H N N B B n n } } } > - , - - - < * $ * $ $ $ * $ $ $ $ $ * % $ $ $ $ * % $ % $ % @ % # # # = $ * < - ; p f g  . .| &.2.2.2.2.>.&.$.@.+.-.i k x J J P R ! W Q ( ( ` /.^.#X#X#XiX#X#X3X:X,X-X~.W.G.D.r.O.O.-.-.-.-.%.@.@.@.+.+.r r e w w y j l J U { { D S M > - $ # # # $ < - } } B B B B B n m B N S G R Q ^.#XwX#XpXhXNXVXFXDXKXHXHXMXMXOXS.S.C.B.N.Z.XXR.{.tXeXsXeXeXtX9X[.'.T.T.E.g.a.s.q.8.8.4.4.4.;.e.w.r.r.X.X.W.~./.>X>X;X9X'.T.E.z.l.M.c.c.j.j.7.7.5.6.9.9.d.Y.'.[.qXqXiXpXxXpXxXxXyXqX8X,X;Xo.H.X.X.J.J.Q.~.).>X3XwXyX>X;X).Q.G.D.D.z K K K P E L L L G C d a 6 7 3 3 3 . . O X X @ @ @ # $ $ - - } B A L o.( @X#X7Xo.o.o.X.K...K.....X.X.X.o.o.@Xo.#X$X=X*X7X4X6X5XpXaXhXjXkXlXlXeX9X`.X.....w 4 4 3 3 O o X % @ # = : : > n m B m s p p 2 2 5 2 o & & & & & - < < * * $ $ $ $ $ $ * - - - - & & & & & o o o o o . o o . . o 3 o . . o . . . o 3 . . 3 . o . o 2 2 & & - : : : : - - - - - : > > > n n n M m M m B m M M B N B H H H H H H Z Z Z ",
"F F D F F F F D D D D D A D D D D D S S V S H H Z N N m m N N N N N B N N B n B B n n } } } ; , - - - $ $ $ % * $ % % # % # % # $ % $ % $ $ $ % % % % $ % # # # % @ $ # # * = < - ; ; p f  . .,.,.,.2.2.2.>.&.$.@.+.i i k h x P L R ! Q ( ) ` ' #X#X#X5XxX#XpXiX4X6X:X-X/.W.G.D.D.O.r.O.-.-.;.#.@.@.@.+.r r e e w w j h l J P { Y D Z M } - $ % @ % $ $ - } } n m n B m B n m N S F R Q #X#X#XwXpXfXNXVXFXDXKXHXHXMXMXOXOXS.B.N.Z.A. XR.{.0XeXeXeX9XtX[.].T.I.g.a.s.q.q.0.8.8.4.4.;.;.y.r.r.D.I W.~./.#X#X:X>X).}.T.U.z.l.v.c.c.j.7.7.5.3.1.9.u.i.K.|.).;XqXyXxXuXpXpXxXiXiX5X8X8X[.`.o.Q.Q._._.).>X3X5X5X5X3X-X/.~.W.G.G.K K I P I E L L L J C d c 5 7 3 3 3 . O X X X @ @ @ @ $ = * > > B A Y T o.@X&X%X%Xo.`.X.X.X.X.X.X.X.X.o.o.o.o.$X$X=X<X<X2X6X5XiXaXfXkXkXPXBXlXdXtX`.X... .y 4 7 3 . . O X @ @ # $ : : > n n s } s ; p 2 2 o 2 2 o & & - $ * - * $ $ # $ $ % # $ $ $ $ * $ & % & % o o o . o o . o o o O O o O o o o o o . o o o o o o o o o o % & & & * - - * * * < $ < - - > > > > n n n M n M n n M n B B B B N H B H H H H ",
"F G G G D D D D S S S S S V Z S H S H S Z H N N N B B B B n n n n n n B n n n n } } } } } , - - - $ $ $ % # % @ % @ % % % @ @ # % @ @ % # @ % @ # # @ % # @ @ % # @ $ $ = $ * < - ; s p c  . . .,.2.2.2.>.>.&.$.@.#.i i k x J J P R W / ( ( ' #X#X#XqX#X#XiX5XpX6X6X6X:X/.~.W.W.G.K D.r.w.-.-.@.#.+.+.+.r r e q 0 w u h l U J L { D S M b - * # # # % < - } } n m B B n n B m Z Z F R Q ] #X#XsXpXfXNXAXFXJXKXHXHXMXOXOXOXS.N.N.Z.z. XR.{.tXeXeXeX9X}.].R.U.g.x.s.s.q.8.8.4.4.9.<.;.e.r.D.X.G.G.o.^.#X3X:X>X>X[.'.T.U.g.M.v.v.j.j.7.3.1.>.,.=.u.t.F.|.).;X3XwXyXpXpXpXxXiXwXwXwX9X,X,Xo.)._.).-X:X>X3X5X5X5X3X:X/./.~.G.G.I ^ I I E E E L G G d f a 5 5 3 . . . O O X X @ 1 @ $ % * - > } B S Y T ( @X&X&X%X-Xo.`.X.X.X.X.o.X.o.o.o.o.&X&X=X*X<X2X3X5XiXpXzXjXNXBXCXCXnXlXtX[.X.X.h y 4 7 3 . . O X X # $ * - , v n n n n s p ; 2 & & o % & & % $ * * $ * % % $ @ % @ # % # # # % $ % % % % X X o O O X O o O X X o X O o O o O O X o X o X o O o X % o % % % $ $ $ $ % $ $ $ $ % $ $ - - ; > > } } } n } n v n n n n n n B B N H H H H ",
"D D D D D D S V S Z Z Z N Z N Z Z N Z N N N B n n } } } } } } } } } } } } } } } } } > > ; - - $ $ % % # # @ @ @ @ @ 1 @ @ @ @ @ @ @ @ @ @ @ @ @ @ @ @ # % @ # # $ $ $ $ * * * < - , s f g y  . .,.2.2.2.2.>.&.$.@.+.+.i k x x P P E ! / ` #X#X#X#XwX#XiXsX#X5X#X3X2X:X:X#X/.!.!.^ G.I O.r.O.-.-.#.+.+.+.r r e e w w y j l J P P { F Z M > - $ # @ % # - - } } n n B B B B B M N H F R [ _ #X#XwXpXgXNXCXAXJXKXHXHXMXMXOXXXA.N.M.M.z. X].{.tXeXeXtX0X].R.U.s.z.l.8.8.8.3.3.1.1.,.;.e.y.D.X.G.o.o.^.^.#X4X#X3X>X).[.E.U.z.z.v.k.j.7.5.2.>.&.$.:.;.t.F.H.).;X3XyXyXuXpXpXpXiXiXiXqX3X8X8X9X,X-X:X,X;X>X3X5X3X3X2X:X-X%X~.!._ ^ ^ ^ [ E E ! R L { d a a 5 3 3 3 . O O O X @ @ @ @ # # * * - } B S Y T o.@X#X%X%X%Xo.o.o.X.o.X.o.o.o.o.+X$X%X*X*X:X4X6X5XxXiXfXhXkXBXVXVXVXBXbXrX[.L...j 9 4 7 3 . . X X @ @ # * : , } n n n } } > ; - & % & & % & $ & $ $ $ $ $ # # @ @ @ @ @ @ @ % % @ @ % @ X % X X X X X X X O X X X X X X X X X X X X X X X X X X X X X X % @ % # # % # @ # @ # $ $ $ $ < ; ; > > > } } } ; } > } } } n n B B B B B B m ",
"S S S S S S S N Z N N N B B m N B B m B B B n } } } } > > > , > > > > > > > > ; > ; , , - - < * $ # % @ X @ 1 @ 1 @ 1 @ 1 @ @ @ @ @ @ @ @ 1 @ @ + @ @ @ # % # % $ $ $ $ * * < - , ; s a g  . .:.,.,.4.2.2.>.&.$.#.+.#.i j x x U P ! / ) #X#X#X#X5X#X3XiXwX#X3X3X2X:X:X:X:X#X/.^.!.^ G.K O.O.-.-.+.+.r r r e e q w y y h l J U { { D S M v - $ % % @ $ $ - } } B B B B B n m M N S D R Q ' #X#XwXpXfXNXAXFXDXKXHXHXMXMXOXA.A.N.M.l.x.U.T.}.9XeXeXtX[.].U.x.z.l.k.j.8.8.3.3.1.*.=.:.e.r.D.G.^ o.^.#X#X#X#X5X3X>X[.'.T.U.z.z.l.k.8.7.3.>.>.%.:.:.w.r.F.Q.).,X>X4XyXxXxXxXpXiXiXwXyXyX3X3X8X,X,X,X,X:X>X:X3X:X6X:X-X%X%X^.^._ _ ~ ~ / [ E ! L { G d d p 5 3 . . . . O O X X   @ @ @ $ $ - > } B S L o.o.o.-X%X%Xo.-Xo.o.o.o.o.o.o.o.$X$X%X*X7X2X2X5X5XxXpXaXhXjXNXCXAXGXZXCXlXrX[.o.X. .6 7 3 3 . O O X X @ # * < , } v n n n s > ; - & & $ $ & % $ $ $ $ $ # % % @ @ @ @ @ 1 @ @ @ @ @ @ @ @ @ X @ % X @ @ @ X @   X @ @ X X X % @ X @ X   @ X @ @ X X @ X @ @ X @ @ @ @ @ @ 1 @ @ @ # $ $ $ - - - > > ; > > ; > , > > > n n n n B n B B B ",
"Z Z S N N Z N m m n B n n M n } n n n n } } } } > , , ; - - ; - , - - : - , , , , - - - < * * % % % @ @ @ 1 @ 1 1 1 @ 1 @ @ 1 1 1 @   1 @ @ 1 @ @ @ @ % @ % $ $ $ $ * * < < - - , > s f h ....u.u.0.0.0.9.,.,.$.#.-.i k k x J P E Q ) ' #X#X#X3X#X3X5X#XqXsXqX#X:X,X:X#X#X%X#X/.!.o.^ G.r.O.O.-.+.+.r r r r e e w w y h l J P { Y D S M v - = # @ % % $ - > } n n m n n n B m N S F R Q ] #X#XsXpXfXNXVXFXDXKXHXHXMXoXOXOXA.M.M.z.z.U.].}.tXeX9XtX}.R. Xx.l.v.j.j.8.3.3.1.1.=.=.w.r.r.G.G.o._ #X#X#XuX4X4X3X>X9X}.'.E.g.z.l.l.8.6.3.,.&.:.:.w.r.D.J.W._.,X3X5X5XyXyXxXxXiXiXwXwXqX5X8X8X8X>X,X,X>X;X;X:X;X-X:X%X%X^.^.^._ ' ] ` ) ( Q ! L P G d a p 5 3 3 3 . O O X X X   % @ % $ * - - } m V { o.o.o.o.;Xo.-X-X,X%X$Xo.@X+X+X#X$X*X*X7X2X2X6X5XwXpXsXzXhXkXBXVXVXGXGXCXlXrX[.L.X.h 6 7 3 3 . O X X X # # * - , } n n n n } > > - & - $ $ $ $ $ * $ $ $ $ $ # # @ @ @ 1 @ @ @ 1 @ @ @ @ @ @ 1 @ @ X @ X @ @ @ @ @ @ 1 @ @ @ @ X 1 @ 1 X @ 1 1 @ @     @   1 1 1 1   @ + @ 1   1 X @ @ # $ $ < - - : - - : : - : ; ; > > > } n n n n B n ",
"m N B B B n n n n n } } } } } } } } } } } , > ; : - - - - < < - - $ - < - - - * < - < < $ $ $ # @ @ @ 1 1 1 @ X 1 @ @ 1 1 1 1 1 @ 1 @ 1 X @ @ @ @ # $ % $ $ $ $ * - - - - - : : > } s d l ....d.d.a.f.a.p.<.;.:. . ...k z K U I ^ ~ ] ] #X#X5X#XiX3X3X3X>X#X9X;X)././.).%X%X$X^.^._ ^ G.D.O.O.#.+.r r r r e e q q u y j l J J { F F Z M } - * # @ # # < - ; } } n n M B n B B N S D R [ /.#X#XwXpXzXPXAXFXJXKXHXHXMXvXOXA.A.N.l.l.s.I.].}.9XeXtX9X}. X Xz.M.M.j.j.8.8.1.1.*.%.:.-.r.r.X.^ o.^.#X#X1X1X1X4X3X>X9X[.}.E.U.g.s.s.s.0.9.<.;.y. ...t.X.L.o.o.,X>X6X6XuXyXyXyX5XwX5X8X8X8X8X>X;X;X`.`.).-X).).)./.)./././.' ^.' ' ` ` ) / [ ! L G G d d p 5 3 . . . . O O X X 1 1 1 # # * < > } m C X.X.o.o.o.}.`.o.9X-X%X*X*X=X=X<X1X*X<X7X2X4X5X5XiXpXaXzXhXkXNXBXVXGXGXVXnXlXrX[.o.X.g g 5 3 3 o O O X % @ # $ - > } n n n n } > : - < * * $ $ - $ $ $ * $ $ $ % % $ @ @ @ @ @ @ @ @ @ @ @ @ @ @ 1 1 @ @ 1 1 @ 1 1 @ @ @ 1 @ + @ 1 1 @ 1 @ + + + + +   + + 1 + 1 +               1 + + @ # # % $ < - - - - & < - & < - - > > > } > } } } } ",
"} } } n } } } } > > > > : : : > > ; : : - ; - - < $ $ $ $ $ % $ $ $ $ $ % $ $ $ $ * $ % $ % % @ @ @ 1 1 1 1 @ 1 1 1 1 1 @ X 1 1 1 1 1 @ @ @ # % $ $ % % $ $ - - - - - , - : , , > n s J J X.J.K.I. X X Xf.d.t.y... .k x x K U [ ~ _ ' #X#XuX5X5XyXwXqX>X;X).).`.Q.Q._.~.~.^./.$X^.!.!.I D.O.O.-.#.+.+.r r e e q q u y h l J P P { F Z M b : $ @ @ @ % < < ; } } n n n n n n B N S F R [ ^.#X#XwXpXzXNXCXAXJXJXHXHXMXMXOXXXA.M.l.q.f.I.Y.[.9X9XqXtX}.R.U.x.l.k.c.8.8.3.1.*.%.@.-.w.O.D.X.^ o.^.#X#X#X1X4X4X5X3X9X[.}.].E.U.g.g.a.p.d.i.i.i.t.F.J.L.o.[.;X:X2X6X6X6X6X6XuX6X5X6X8X8X;X`.`.`.`.`.`.|.|.Q.Q.W.Q.W.~.~.!.^.' ' ' ` ` ( ( Q ! L L C C a c 5 5 3 . . O O O X   1 @ # # $ $ - ; > m d J X.X.P.Y.'.}.`.[.9X8X3X6XuX4X4X4X4X4X6X3X3XxXiXsXaXhXjXlXPXnXCXVXVXVXCXPXdXeX[.o.X...g 6 5 2 o o % X @ % $ * - : > n n n n n > > < - - * * * $ - - $ * & $ $ $ $ # % % % # % # @ % # # @ # @ # 1 @ @ @ 1 # 1 # 1 @ 1 @ # 1 # @ @ @ 1 @ + + @ + + + + +                           + X @ @ # $ $ $ $ $ * $ * * * * * * - - - - ; > > > > > ",
"> ; } > > ; ; - - : - - - - - - - - < - - < $ < $ $ % $ # $ # % % % # # $ # % % # % % @ % @ @ @ @ 1 1 @ 1 1 1 1 @ 1 1 1 1 1 1 1 + @ + @ @ # # $ % * * - - - - , ; ; , > > > , b > n m J U X.L.'..X.X X.XT.K.F.J...z z z U U I ^ ).#X#X#X5X#X#X5X5X3X3X>X;X)._.H.G.H.G.W.W.!.^.$X^.!.!.G.D.O.-.-.#.r r r r r e e w y y x l l P L Y D Z M } - $ # # # # $ - - b } n n n n } n m N H F R / ' #X#XsXpXfXNXVXFXDXKXHXHXMXvXOXXXZ.l.q.q.a.I.Y.'.9X9X9X9X}.]. Xz.N.k.j.j.8.3.1.*.@.@.-. .O.K I ^ o.^.#X1XuX1X4X6XyXwXqX9X[.}.}.E.E.E.E.P.P.K.K.H.F.H.H.o.'.o.8X>X2X6X6X4XuX2X2X2X2X:X;X).`.`.L.L.L.L.L.H.H.F.G.H.G.G.G.W.W.!._ ' ' ` ` ` ( Q ! L L C C a p 5 3 . 3 . . O X X   @ @ # # $ $ < - ; m d X...X.X.I.T.].}.{.tXtXsXsXpXpXxXxXyX5X5X5X5XpXsXfXhXlXkXBXBXCXCXVXVXCXBXlXzXqX,Xo.X.C g f p 2 o X X X @ @ % $ - : v n M n n v v > , < - * $ * * - - $ * - $ $ $ $ $ % $ $ % $ $ $ % $ $ % % # @ @ # @ @ @ 1 # @ # @ @ @ @ # 1 # @ @ @ 1 @ # + + + + +   +                         1 1 + @ @ @ # % $ $ $ $ $ $ $ $ $ $ $ * - * - - - - - - ",
"- - - ; < - < < - $ $ $ $ $ $ $ $ $ $ % $ $ % # % @ % # @ % @ @ @ @ % @ @ @ @ @ @ @ @ @ @ @ @ @ @ @ @ @ X @ 1 1 @ @ % 1 @ @ @ @ @ @ @ # % $ $ $ - - - , , ; > > > v v > > > v v } m V { ^ o.`.0X.XvX0X.X.X'.H.J.K K K U I I ^ _ /.#X#X#X#XyXpX5XwXwXqX;X).Q.H.H.D.D.D.G.W.W.~.^.^./.W.G.D.O.O.#.+.+.r r e e e 0 q w y j l J J L L D A M b - * # @ @ # $ < - , } } } } n B n B N Z F R / !.#X#X5XpXfXNXAXFXDXKXHXHXMXoXoXXXz.l.q.a.a.P.Y.`.8X8X9X9X}.T.g.x.l.k.j.8.8.1.*.%.@.+.i O.O.z K ^ o.' #X#X#X4X4X6XwXwXqX9X9X[.}.'.'.'.Y.Y.L.`.L.Q.Q.`._.o.[.,X:X>X6X2X4X2X<X2X<X7X:X;Xo.`.`.L.L.K.P.i.i.h.h.t.t.t.D.D.G.G.W.!._ +X` ` ` ` ( ( ! L P G d d a 5 3 . . O . O X X X @ @ # # = = - > s f f ....i.g.g.U. X.X.X0XcXdXlXjXfXgXgXpXiXxXiXiXsXaXhXkXPXBXCXCXCXVXCXCXBXkXhXsXqX-Xo.o.X.C f s 2 & & % % @ % # $ - > } n n n n n v > , - - - - - - - - - * - - * - * * * * $ * $ * $ * $ $ % $ $ $ # # # # # @ # @ # @ @ # # # # # # # @ # @ + @ + @ + + + +                             1 1 X @ # # # % @ % # @ % % % $ % $ $ $ $ $ & * * * ",
"& $ $ $ $ $ $ $ % % % % # $ % % % # # # % # % @ @ @ @ @ @ @ 1 @ 1 @ @ 1 @ @ 1 @ @ @ 1 @ @ @ @ @ @ @ @ # 1 @ @ % @ @ % % % @ @ @ % @ % % $ $ - - - ; , v v > } } } } } } v v v } n N V L o.~.9XrXcXbXbXvXrX[.`.X.I K U P I ~ _ ^.#X#X6X6X5XyXyXxXxXwXqX).`.H.J.r.r.t.r.D.G.W.~.^.^./.W.W.G.O.O.-.#.r r r r e e q q y y h x J P L { D Z M } - $ @ @ @ # # * - - } > } } } } n B N S G R / ' #X#XiXpXfXNXVXFXJXKXHXHXMXoXOXXXA.q.q.0.a.d.Y.`.;X8X8X[.'.T. Xz.l.k.j.8.3.1.*.@.+.r i i k K I I _ ' %X1X1X4XuXyXwXwXwXeXqX9X[.[.[.`.[.`.`.[.`.).[.).;X9X>X>X3X8X6X2X2X<X1X<X=X%X*Xo.o.Q.L.K.i.d.u.u.u.h.e.h.w.w.w.r.D.K G.W._ _ ' ` ` ( ( Q ! R G G d f 5 5 3 3 3 . . O O     @ @ @ # $ = < ; s f ......a.s.x.x.XXOXoXvXvXnXnXPXPXNXNXfXaXpXiXpXaXhXlXPXCXCXGXAXGXCXCXBXkXlXzXiX2X&Xo.F { C f f ; & $ % % @ @ $ $ < : } n B n n n } > > : - - - - - - - - - - - - - & - - * - & * - - - $ - $ $ $ $ $ # $ # # # # % # # # % $ # # % # # % # # # 1 @ 1 + +                   +           1 X @ 1 @ @ @ @ @ @ @ @ % @ @ % @ @ # $ % # $ # $ $ $ ",
"% $ # % # % # % # # # @ # @ @ # @ % @ % @ % @ @ @ @ @ @ @ 1 @ 1 @ @ @ @ @ @ 1 @ @ @ @ @ @ @ % % % % $ % $ % * $ $ $ @ $ % % $ $ % % $ * * - - ; v } } } n n n n n n M } n v } } n B D E o.-XeXdXnXnXmXbXcXeX8Xo.^ [ I E [ _ _ $X#X3X#X6X5XxXxXiXiXqX8X[.Q.H.t.e.w.w.O.r.D.G.W././.~.!.G.D.r.w.-.+.+.+.r r e e q 0 u i h l J J L { F Z M b - $ # @ @ % @ $ - - ; > } } } } n n N S D R [ !.#X#XsXiXhXNXAXAXJXKXHXHXMXvXoXXXz.q.q.a.p.K.Y.`.;X;X8X[.}.T.U.z.l.k.j.8.3.1.%.@.+.r i j k z I ^ _ ^.#X1X4X1XuXyXwXiXwXwXqXqXqX9X8X[.;X8X9X9X8XqX8XqXqXeXqX3X3X2X6X2X2X<X<X=X=X%Xo.o.`.J.K.i.i.a.9.0.9.;.%.;.-.-.w.O.O.D.I ^ ^ _ ' ` ` ) ( Q ! L L C C f a 5 3 3 3 . . O O O   1 @ # # = $ < ; s f a .. .9.q.M.S.XXOXOXMXMXmXZXSXAXCXNXNXfXaXaXsXzXjXkXBXCXAXGXGXAXCXCXPXkXzXaXiX2X&Xo.o.S G m m ; & & $ % @ % $ $ - ; } v n n n n v } > , , , , - - , , - ; - - - , - - - - - - - - - - - - - - - $ $ $ $ $ % % $ $ $ % $ $ $ $ % $ $ # $ # % @ @ @ + @   1 1 @ + +   1 + + +       X 1   + + 1 @ 1 @ @ @ @ @ @ @ @ @ @ @ @ @ @ @ @ % @ % @ % ",
"% # @ # @ @ @ @ @ @ # # @ # @ # # % @ @ # % @ # @ % @ @ @ @ @ % @ % @ % % % % @ % % # % % $ $ $ $ $ * * * - - * - * < $ < < * * $ * - - , ; > n n M m B B B B B m M M M n n } } n N D ! o.2XsXnXZXZXZXVXkXsX8Xo._ ~ [ [ ~ _ ^.*X3X3X5X5XyXiXpXiXiXwX9X).|.D.t.w.-.-.w.r.D.G.W.~././.~.G.D.r.O.-.#.r r r r e e w w u h h l J P L { D Z N } - * % @ % % % $ & - : > > } } } n n N Z F R / ^.#XwX#XpXhXNXCXFXJXJXHXmXMXvXoXXXz.q.0.0.p.K.L.`.).8X8X[.'.R.U.z.l.k.j.5.3.*.%.+.r t w u x z U I o.' #X=X<X4X6XyXwXiXwXwXwXqX3X3X>X3X>X8X3XqXqXwXwXqXwXwXwX5X5X5X6X4X2X<X<X=X=X8Xo.o.L.J.K.u.u.9.6.2.,.*.*.%.@.@.-.O.O.O.I G.W._ _ ] ` ` / [ ! R L C d f a 5 3 . . . . O O X   @ @ # # = = < ; s f 9  .<.0.l.N.B.A.OXOXMXMXHXLXDXFXAXCXNXjXfXfXfXhXlXPXBXGXGXSXSXGXVXBXNXhXzXpX3X:X@Xo.R o.G V m > , * $ % @ # @ $ - > } n n n n n n } > > > - , - ; - , ; , - ; - ; - - - ; : - - - - - - - - - - * $ * $ $ $ $ $ $ $ $ $ $ $ $ $ $ $ $ $ $ $ # # @ X @   @ 1 + + X   @ 1   X 1   + @   @   @ @ @ @ X @ @ @ @ @ 1 @ @ @ 1 @ @ @ @ @ @ @ @ @ @ ",
"% % @ % # % % # % # % % % $ % % % # # $ % # # $ $ # $ $ * $ * $ $ * * $ * $ * * $ < * * < < - - - , - , , ; - , ; - , ; - - ; - , , , > } } n B B H H Z H H N N B m M n n } } } n N S W o.4XaXBXZXDXDXZXBXzX5X7Xo.) ~ ) ] ' $X%X#XwX5XxXiXpXpXpXiXqX8X`.H.F.w.w.-.-.-.w.r.G.W.!././.~.W.G.D.O.-.-.t t t t t t w i y j x l J P L { F S B } ; $ % X @ @ % % $ < - - ; , } } } n N S F R [ #X#X#X5XpXzXNXAXFXJXKXLXHXMXvXOX Xz.q.0.9.p.K.Y.`.[.>X8X;X'.T.U.x.l.8.8.5.1.*.@.+.r t u h j K I I _ ^.#X=X<X4X6XyXiXiXiXiXyX5X3X6X3X6X6X5X5X5XiXwXiXiXiXxXiXiX5X5X6X6X4X<X<X=X*X%Xo.o.o.J.i.u.<.<.6.2.>.*.*.%.%.@.-.-.O.K D.I _ _ ] ] ` ( ( Q W L G C C f p 5 3 3 . . . O O X X @ @ # # = * - ; s f h  . .,.k.l.S.S.OXOXMXMXHXHXKXJXFXAXPXkXhXzXhXhXlXBXCXGXSXSXGXGXCXBXkXhXaXiX5X<X` o.o.Y F H m > , & $ @ @ @ $ $ - - > n n n m n v } > > , , - ; : , , - , , , , : , > ; - : > > > > , , , - - - - $ * $ $ * $ * $ $ $ * $ $ * $ * $ $ $ $ % % # # @ @ @ @ @ @ @ + @ @ @ @ @ @ @ @ @ @ @ @ 1 @ @ @ @ @ @ @ @ @ @ @ @ @ @ @ @ @ @ 1 @ @ @ @ 1 ",
"$ @ # % # $ % $ $ $ $ $ $ * & $ & $ $ * $ * * * * < < < < : < : - : , , , , , > > > v > > v } } } } n } } n } n } n } } n } } n n n n n B N H Z S D D D S V S H N B B n n } > } n n V W o.4XfXBXAXJXJXFXBXjXaX#X#X` ) ] ' +X$X2X2X6XwXyXiXpXpXpXsXwXqX|.H.F.r.;.-.-.-.O.r.D.Q.~./.^.~.W.G.D.O.O.O.i i t t i i i c k z l J J P L F G Z m } ; & X X % % % % % & - - - > > } } n N S G R [ ] #X5XwXpXfXNXAXFXJXKXHXHXMXvXoXXXs.q.0.q.h.t.E.|.;X>X8X[.[.E.E.s.q.8.8.3.1.&.@.| r w w j j J U o.o.+X#X*X<X4X6X5XiXiXiXiX5X5X4X4X4X2X4X4XuXuXyXiXiXiXpXiXiXxXyX5X5X5X6X<X<X=X&X&X%Xo.H.L.i.u.9.0.6.2.2.*.*.%.@.#.#.+.O.O.K G.^ _ ] ` ` / ( ! ! Y G C d f p 5 3 3 . . O O O X   X 1 # # = = < ; s f g  . .6.k.n.B.S.OXOXMXHXHXHXKXKXKXLXCXNXjXhXhXkXkXBXCXGXGXSXGXGXCXPXkXhXaXiX4X<X$Xo.T T A Z B n , - * % @ % % $ < : } } n n M n v } > > , : : : : : : , : , , , , , : > , : , , , : : : : : - - < < < * * = * * * * $ * < < * * * $ * * $ $ $ # # # @ @ # @ @ @ # # @ # # @ @ # # @ % # @ # @ @ @ @ @ @ @ @ @ @ @ @ @ @ @ @ @ @ @ @ @ @ @ @ ",
"$ $ $ $ $ $ $ - - - - - - : < - - - , - , - : , : , v b v v v v v n M B M M B B B B B N N N N H N H H Z H H Z H Z H H H H H Z N N H H Z V D G F F F F { F D S S H B n n } ; ; , ; n Z Y ` 2XgXPXFXJXJXFXAXNXaX4X=X#X' ' +X#X*X<X2X6X5XyXiXiXaXpXiXwXqX;XH.F.e.w.-.-.-.O.D.G.W.~././.^.W.W.K K O.k k i k O.c c O.z z l K U P P L L G V m s & & % o O O X % % $ - - - - : > } n N S D R / _ #X#XsXpXfXNXCXFXDXKXHXMXMXvXoXXXx.0.0.9.h.P.|.[.8X8X8X;X[.E.E.f.s.8.3.1.1.%.@.| e q u u x x X.I [ o.#X&X<X2X6X5XyXxX5X5X5X4X4X<X<X1X<X4X4X5XyXyXiXxXpXiXiXiXyX5XyX5X6X4X<X<X=X=Xo.o.Q.J.i.u.9.4.2.2.2.*.%.%.@.+.#.i O.r.D.I o._ ] ` ` ( ( ! R L G C s f 5 5 3 . . . . O   X X     # # = = : : s f a  .| 6.6.v.B.A.OXOXMXMXHXKXKXKXDXDXVXPXkXkXhXkXPXBXVXGXGXGXGXVXCXNXjXhXgXiX4X<X&X` o.T F A B v , * $ # # @ # % - ; } n B B M n n } > > , , : : : : : : : : : : : : : : : : : b , , : : : : : < < < < < < < < = * * * * < = * < * < * < * * * $ $ $ $ # # # # # # % # % # % % % % % % % % # % % # $ $ # % % # % # % % # % % $ @ % @ @ % # @ ",
"$ - - * - - - > > > > n n > > n v > > } > n v n n M M M M A A Z A S A A A D D D F F F F F F F F F F F F F F F F F F F Y F Y F F F F F Y Y Y W W W W ! W Y L F V Z N B n } ; - - , > B F ` <XaXPXAXJXJXFXAXNXgX5X<X#X+X$X#X%X*X<X2X6X5XyXxXpXpXaXsXwX8X|.|.F.w.-.#.#.-.O.r.G.W.~./.%X/.!.^ G.K z z k k l z z z z l K J U I P E L L D V m s 2 & o O % X O % % % $ % - - : , } n N S F R / ' #X#X#XpXfXNXAXFXDXJXHXHXMXvXOXXXs.0.0.a.h.K.|.[.>XqX>X9X[.'.E.a.0.8.4.1.*.@.@.| e q u h j x U o.o.o.#X=X<X2X6X5X5X5X5X5X4X2X<X<X1X<X<X<X4X4XuXyXyXiXiXxXiXiXwXwXyX5X5X4X2X1X<X2Xo._.Q.J.i.i.9.0.6.2.2.*.*.%.@.+.#.-.O.O.G.I ^ _ ~ ` / / Q R Y F G C d f 5 5 3 3 . . O O O     # 1 1 # = = * , s f g  . .,.6.k.N.A.OXOXMXMXHXHXKXKXKXFXAXPXNXkXkXkXPXPXCXGXGXVXVXCXPXNXjXfXgXxXuX1X#X@Xo.T Y Z B v , - $ @ # @ % * < : } } n B } M n } > b , , : : : : : : : : : : , : : : : : : : : : : : : : : < < < < < < * < < < < < < < < < < < < < < < $ * * = $ $ $ $ $ $ $ $ $ % $ $ % $ $ $ $ $ $ $ $ $ % $ $ $ $ $ % $ $ % $ $ $ $ % $ # # $ $ # $ % ",
"- - ; - > > > } n n n m B B B M B B M m B B N N Z N Z Z D A A A T Y R W ! W ! Q ! E ! E E Q ! ! R ! ! ! ! R ! ! R ! ! R R R ! R ! ! W Q Q [ [ ) ~ ) [ [ ! Y F D S B B n > - < * * , B D / *XpXNXAXJXJXFXAXNXhXxX4X*X&X&X&X*X*X:X2X6X5XyXxXiXpXpXsXwX9X).H.F.t.-.-.-.-.O.r.D.W.~./.$X^.!.^ I I K J K l K K K J K K I I P E E E L L G C m s p 2 . o O o O O % % % $ $ - - , } n N S G R [ ] #X3XwXpXhXNXCXFXJXKXHXHXmXvXXXXXs.q.0.0.f.E.|.[.8XqXqX9X[.E.E.h.p.4.1.*.*.@.+.| e e u u j K I P o.o.@X&X<X1X2X6X5X5X6X4X2X<X<X=X=X=X=X<X<X2X6XuXyXyXiXiXiXpXiXiXiXyXyX5X4X4X2X:X%X).Q.L.K.p.9.6.2.2.>.*.*.%.@.+.-.+.O.O.K G.^ _ _ ` ` ( W R Y F C V d a p 5 . 3 . . O O O O   + 1 # = # * < ; p f 9  . .,.6.k.Z.A.OXoXMXMXHXHXKXKXJXFXAXCXBXkXkXkXPXnXBXCXCXCXCXBXPXNXjXjXgXiX4X1X@Xo.W o.D Z B n , < $ # @ @ % $ - ; } } n M n } } } } b , : : : , : : : : , : : , , : : : : : : : : : : : : < : b < < < < < < < < < < < < < : < < < - < < - * * * * = * * = $ * * $ * * $ - * $ * * $ $ < $ $ * * $ * $ < $ $ * * $ * $ * $ $ * & $ $ * $ $ ",
"> > > } } n n n m H H Z Z D Z S S S H S Z D S S D Z A F D Y Y T Q / ( ) ) ) ] ] ] ] ' ] ] ' ] ] ] ) ) ) ) ) ` ` ) ) ` ` ) ` ) ) ` ) ` ` ` ` ` o.o.@Xo.` Q W Y G V N B v > & * $ $ - n S Q %XiXkXAXJXJXDXAXBXjXiX6X<X*X*X*X*X<X2X2X6X5XyXxXiXpXpXiXwX9X|.H.F.w.w.-.-.-.w.r.D.W.~.$X%X^.' _ ^ I I J P P U I I I I I ^ E ^ E E E R L G C d s p 5 2 . . O O O % X # % $ * - : } } m H F R / #X#X#X5XiXfXNXVXFXDXJXHXmXMXvXoXx.z.q.0.9.p.E.|.[.9XqXqX9X[.|.E.h.9.4.*.>.&.$.| | e q w j j K U ^ ) o.#X&X*X<X4X6X5X5X3X4X2X*X=X&X$X&X&X*X*X<X4X6X5XyXyXxXiXiXiXiXiXiXyX5XuX4X4X2X,X).Q.L.K.p.0.0.5.2.2.*.*.*.@.+.#.-.O.D.K G.^ _ ~ ] / ( W T Y G V m f p p 5 3 . . . . O O X   1 @ # # = * < - > p a 9 | ,.,.6.l.A.XXOXMXMXHXHXKXKXKXJXAXVXPXBXkXPXkXBXBXBXBXBXBXBXkXkXjXhXaXxX5X<X&Xo.o.T A Z m } , - $ # % @ % $ - : } } n n n n n } > , , , : : : : : : : : ; > , , : : : > : : : : , , : - : : : - b < : - < < < - - : - - : - < : : - - : - - - < - < - < < - - - * - - - - - - & - - * < - - - - < < - & - - - < - < < < - < < < - - * - ",
"n n n n n B B H Z S S F D T F F F F F F F F Y Y Y o.T o.o.o.o.o.) ] ' ' #X$X#X#X$X=X=X=X=X$X$X$X$X$X$X+X#Xo.o.+Xo.+X+Xo.o.$X$X+X#Xo.+Xo.$X&X&X$X$X+X+X@X) Q W F S N B } , * % # % * ; H W $XxXkXAXJXJXDXSXCXjXaXxX3X2X<X7X2X2X6X3X5X5XyXxXpXpXpXsXqX9X;X|.D.e.-.-.-.-.w.D.G.W.~.%X%X^.^._ ~ E E I P P I E I ^ ^ ^ ^ ^ ^ ~ E ! E L G C d p 5 5 . . . . O O X X @ % # $ - : } n B S D R / /.#X#XiXpXhXNXAXFXJXKXHXHXMXoXoXXXg.s.0.a.f.E.Y.[.9XeX9X;X[.|.h.h.9.1.*.%.$.| | e e e u u x x I I o.+X#X&X*X<X<X2X2X6X4X7X7X*X=X&X$X$X$X%X*X<X7X6X6X5XqXyXyXiXiXiXiXiXiXxXxX5X4X6X,X,X`.L.P.d.a.6.2.2.>.*.*.%.@.+.+.O.O.z X.G._ _ ] ] / ( W R F G V d s p 5 5 3 3 . . . O O X X 1 @ # # = * - , s f 9  . .$.,.0.q.Z.XXoXMXMXHXKXKXKXJXJXSXCXPXPXkXkXPXPXBXBXBXnXPXPXkXlXhXaXpXiX5X<X$X` o.T A Z B } , $ $ % @ @ % * - : } } n B n n } } } > ; , : , ; : : , ; , } ; ; > - > ; ; b , > > ; > > : - , ; ; : : - - : > ; ; : - ; ; : : - : - - : - - : - - - - - - - - - - - - - - - - - - - - - - - - - - - - - - - - - - - - - - - - - - - - & - ",
"n B B m B H Z S S D F o.A T T T T A o.D A Y o.F o.D o.Y o.o.o.o._ ^.(./.[.#X#X#X*X7X7X7X7X7X7X*X*X*X*X=X=X=X=X=X<X=X=X=X=X*X=X=X=X*X=X*X*X*X*X*X*X=X$Xo.o./ W Y D H B } ; * $ @ # * , N W $X5XjXGXDXJXDXSXCXkXzXiX6X6X2X3X2X6X6X5X5XwX5XiXiXpXpXiXwX;X|.H.F.r.-.-.-.-.O.r.D.Q.~.%X%X&X#X' ) ) E E E E [ [ ~ _ _ ] ) ) ) ) / Q L L G V d f 5 5 . . . . O O X X X @ # $ - : > n B S F E / ^.#X#XsXpXfXNXVXFXDXHXHXZXmXMXoX Xx.s.a.a.f.E.Y.}.9X9XtX[.[.E.E.h.9.=.*.$.$.| | e | w w u j x I X.` o.#X&X1X*X2X2X6X3X2X2X<X=X%X$X$X$X$X=X=X<X7X6X6X5X5XwXwXiXiXsXpXiXiXxXxXyX5X5X>X).`.L.P.d.0.9.5.2.2.*.%.%.%.@.-.-.O.O.D.I o._ ] ] ( Q W R F S V m f p 5 5 . . . . O O X X   1 @ # # $ * - ; p f a  . .$.,.6.0.x.XXoXvXMXmXHXKXKXJXJXAXVXBXBXPXkXNXkXPXPXPXPXkXlXlXdXzXzXeXwX3X7X$Xo.o.A F H B } , - $ # # % # $ - ; } n B B n n n } s ; ; ; ; ; ; ; ; ; ; ; s ; s s ; ; ; ; ; ; ; ; ; ; ; ; ; ; ; ; > p ; p ; ; ; ; ; ; ; ; ; ; ; ; ; ; ; ; ; ; : ; ; ; ; ; ; ; > ; : ; : ; : , : : : ; : , - ; > - ; - - > - , ; : , , ; ; > , ; > , ; , , ",
"N B B H H S S F F Y Y Y o.T o.o.o.o.W o.o.o.Y o.F o.o.X.X.o.o.o.~.~.).[.#X#X>X9X>X:X6X6X2X2X2X2X7X7X7X7X7X2X7X7X7X7X7X7X7X7X7X7X7X7X7X7X7X7X2X:X:X<X*X$X@X) [ R F S m n , < $ @ @ $ : N W o.5XlXGXDXDXJXAXCXkXzXsXxX5X5X6X5X5X5XyXiXyXiXiXpXiXpXwXqX>X).H.F.w.-.-.+.-.w.D.G.W.~.%X*X%X#X+X' ) / Q Q / / / ] ] ] ' ' ] ) / Q Q ! R G C d a 5 5 3 . . . O O X X @ % # # * : } } N S G R ) !.#X#X3XpXfXNXAXFXLXKXHXHXMXMXoXXXU.s.a.p.d.E.Y.}.[.tX[.[.|.E.F.h.h.*.%.$.$.| | | e e u j j K U ^ o.o.$X$X=X<X7X2X2X2X2X7X7X*X=X%X$X$X=X=X7X7X7X6X3X5X5XyXiXiXiXiXiXiXpXpXxXxX5X5X3X;X`.L.P.p.p.0.2.2.>.*.%.%.@.+.#.i O.D.K G.o._ ' ` ( ( ! T F G Z d s p 5 5 3 3 . . . O O X X @ @ # # $ - & 2 p f 6 6 | $.,.,.a.z. XoXvXMXHXKXKXJXJXFXSXCXBXkXnXkXkXkXkXkXkXlXlXlXlXdXrXtXeX8X,X*Xo.o.W X.D S B } , - $ # @ @ % # - - } n n n m n s } ; ; s ; p ; p p s s p s s p s s s f s s p s p s p s s p s f s s s s s s f s f s s f p s s s p s s ; p p ; s p s s ; p ; ; ; ; > > > , > > > > ; > > > , > > > > > > > > > > > > ; > > > > > > > > v > > ",
"H H H S S S F { T T o.o.T ( o.( ( ` o.` o.o.o.o.o.X.X.X.X.o.X.o.H.Q.Q.Q.).).).,X>X3X2X3X6X6X6X2X6X2X2X2X6X2X2X2X6X2X2X2X6X2X2X6X3X4X4X4X3X4X3X6X4X2X*X*X$X@X/ W F S N n > * % @ @ $ : B R #X5XjXGXDXKXDXFXVXBXzXsXxXxX5XwXxXiXiXiXpXpXpXpXpXpXiXxX3X;XQ.G.D.w.-.-.i -.O.D.G.Q./.:X7X*X=X#X@X` ` / / ( ` ` ] ` ' ] ' ` ` ( / Q R L G C d f 5 3 3 . . . O O X   X @ % $ * - , } B S F R / ' #X#X5XpXzXNXVXFXJXKXHXHXMXmXoX.X Xg.f.f.E.E.'.].}.}.}.'.E.E.d.h.4.=.*.$.@.| | r q q w u x z U I o.o.+X&X=X<X<X2X2X2X2X2X2X*X*X*X=X*X*X7X<X7X6X3X5XyXyXwXyXiXiXiXpXiXpXxXxXxXxX5XqX8X`.Y.P.f.a.0.2.2.2.*.*.%.@.@.#.O.O.D.I G.!._ ' ] ` ( W R F S V s f p 5 5 3 . . . O O X   X @ @ % % & & & p p 6  .| #.#.*.4.0.g.x.oXvXMXHXHXHXJXDXFXAXCXNXkXkXkXjXNXjXkXkXlXhXdXzXrXeXtX9X[.[.o.o.o.o.D D Z B } , * < % % @ # $ - ; } } n m n s s s s p p p p p p p c a f f a f a a f f a f f f a f f f f a a f a a f f f p a a a a a a f a f a f p p p p p p f p p f p p p s ; s > > > v v b v b v v b v v > > > > > > > > > > } > v > } } } } } } } } } } ",
"S S S S D F A o.T o.o.T o.@Xo.@X&X@X&X$X&X$Xo.o.o.X.X.L.X.P.K.X.H.H.|.|.|.Q.[.;X;X>X3X3X5X6X6X5X5X5X5X5X3X5X5X5X5X5X5X3X5X5X5X3X6X5X3X6X6X5X5X5X6X3X4X<X$Xo.) ! Y F Z m > - * % @ % - N W o.5XjXGXDXDXKXDXGXBXhXaXpXiXxXxXsXsXaXzXzXaXaXaXpXpXiX5X>X).Q.H.r.O.-.i +.O.O.r.G.W.).:X2X2X<X=X#X#X` ] ` ` ` ] ] @X' ' ] ] ` ) ( Q R { J C d a 5 5 3 . . . O O O X   @ # # * - } n N S F R [ /.#X5XwXpXhXPXVXFXJXKXKXHXZXmXvX.X].R.E.E.E.T.T.T.].].R.E.E.d.h.h.,.*.%.$.@.| | r e w u k j z I ^ ~ @X+X&X=X<X7X2X2X3X4X2X2X7X7X7X*X*X7X2X7X6X6X6XyXyXwXyXwXiXiXiXwXiXiXpXxXxXxXwXwX8X`.'.I.d.0.0.2.2.2.*.*.%.@.@.#.-.O.O.D.G._ !.' ] ` ( W Y F S V d s p 2 5 . 3 . . . O O   X 1 X % % o 2 2 p 6 9 9  .r @.=.4.0.s. XoXvXmXZXLXLXJXJXSXAXBXkXkXjXhXjXjXjXjXjXhXdXdXrXtX0X}.}.`.T.o.X.X.X.X.D A B v , < $ % @ # # * - , } n n m n d f p p p p 5 a 6 a c c c c c c c c c 9 g 9 9 c c c c c c c c c c c h  .a  ...h h h h h c h h c a a 6 a a a a a 6 6 a a f f f f s s } } > v v v v v v v v v v v v } v v v v } } } } } } } } } n } n n n n n n ",
"S S D F D Y F o.o.T o.` ` @X&X&X1X1X1X<X>Xo.o.o.X.K.X.d.d...I.i.K.P.K.K.L.|.`.`.).,X2X3X6X5X4X5X5X5X5XwXyXwXyX5XyXyX5XyXyX5XyX5X5X5X5X5X5XwXxX5X5X5X3X:X*X$X@X/ ! F D N } - * # # % , m R +X5XjXCXDXDXDXFXGXBXhXaXsXsXpXsXaXzXhXhXhXhXhXfXpXpXyX6X>X).W.G.D.O.i i i -.O.D.H.Q.-X>X6X4X<X1X&X#X#X' ' ] ' @X' ' ' ' ` ` ` ) / Q R L G C d a p 5 3 3 . . O O O X X @ # * $ - , n B H F R / /.#X#X5XsXhXNXVXFXKXKXKXHXLXmXbXcX{.].'.E.T.T.E.R. XE.U.E.s.a.a.4.9.*.*.@.@.+.| r q t u j j K U I o.o.#X$X=X*X<X<X2X3X2X2X2X2X2X2X2X2X3X6X3X6XyXyXyXwXyXiXiXiXyXyXwXwXiXxXpXxXpXwXqX9X[.'.Y.f.a.0.6.2.>.*.*.%.@.@.#.-.O.r.G.G.!.^.^.@X` ( ( T F S V m f p 5 5 3 3 . . . O X X X X % X % 2 2 7 6 9 9 | 8 +.@.*.=.9.g. X.XvXmXmXLXDXFXSXAXCXPXkXhXhXhXfXjXjXjXhXhXzXrXtX{.}.T.Y.Y.Y.X.X.X.X.V G H B n , - $ # @ @ % * * , > } n m m s f f c 5 c 6 6 c c c c c i c c i c y y 9  .9 u y y y y u y y u u u i  . . . . . . . .i i u u u y y y 9 9 9 9 9 6 c 9 9 6 6 f f s s } v v v v v v v v v v v v v } } > v } } } } } } n n n n n n n n n B B B B ",
"F F F F F Y Y Y T o.@Xo.@X&X1X1X1X4X4X4XqX8X[.T.L.K.f...p.u.p.u.p.h.h.d.P.P.|.Q.).;X:X6X6X6XuXyXyXyXyXxXwXxXiXxXxXwXwXxXwXxXiXwXiXwXiXiXiXiXiXiXiXiX5X4X*X$Xo./ ! Y G N n ; * $ $ $ - B W o.5XjXGXDXDXKXDXGXBXlXfXsXpXsXaXzXjXjXlXkXjXhXhXgXiXwX6X-X/.W.D.O.O.i t +.O.O.D.G.).;X3X5X6X4X4X<X=X#X#X@X+X+X@X' +X+X` ' ` ` ( / Q R L G C d f 5 5 3 . . O O O     X @ % # - : } } N S F E / #X#X#XiXpXhXkXGXFXHXKXKXLXLXmXmXcX0X0X}.'.T.T.R.U.U.U.x.g.s.0.9.4.1.*.%.@.@.+.| r e q w u j K U ^ o.@X#X&X=X<X7X2X4X2X4X5X6X5X5X6X6X6X5X5XyXwXwXwXwXiXiXwXxXwXyXwXyXyXxXxXxXxXpXpXwX9X[.Y.I.d.0.6.2.5.2.*.*.%.@.#.#.-.O.D.D.W.!.^.^.+X` ) W R F S C m s p 5 5 5 . . . . O O X   @ % o o 2 5 5 6 6 8 8 | +.@.%.*.4.f.U.oXvXMXmXLXDXJXAXAXBXNXhXhXhXaXfXfXfXfXfXzXzXtX0X}.}.T.I.P.d.I...X.X.X.G H M n b < $ # % @ @ # - : } } m m d f f a c 6 6 8 8 y 0 t t i i i -.i -.i  . . . .i  .i i  .i i  .i  .-.-. . .|  . . . . .-.-.-.i i i u u y y y 9 y 0 y y y 9 9 g a f f n v M v v v v M v M v n v v } n } } } } } } n n n n n B n N N N N N N m N ",
"F D Y Y o.A o.T o.( @X&X&X*X2X4XuX5XiXwXqX9X`.Y.K.i.p.<.9.<.9.9.9.9.p.p.d.d.K.|.Q.).-X7X4X6XuX5XyXwXxXiXiXiXsXiXiXiXiXiXiXiXiXiXiXiXiXiXiXiXpXpXiXiX5X6X<X*X+X` [ R F H n > < % % $ , m Y o.5XlXVXDXDXKXFXGXBXjXzXaXaXaXzXlXjXPXnXPXNXjXhXgXpX5X2X-X~.W.X.O.O.i i i O.O.D.G.).;X3XyXyX6X6X2X<X%X$X$X#X^.#X+X+X' ' ] ] ) ) / Q R L G C d a 5 5 . 3 . . O O O     @ # * < - } } N S F R / _ #X#XsXpXhXNXVXSXLXKXKXLXLXZXnXbXrXtX{.}.].R. XU.x.z.z.q.q.0.6.4.1.*.*.%.@.+.| r e w u j j x U o.^ o.#X$X=X1X*X2X2X5X5X5X5X5X5X5X5X5XiXiXwXiXiXiXiXiXwXiXwXyXyXyX5XyXwXxXxXpXxXiXwX9X[.'.I.f.9.0.2.2.>.*.%.%.@.+.#.O.O.D.D.W.~./.$X+X` ` W R F S C m f p 5 5 . 3 . . O O O   X X X X 2 5 7 6 8  .8 | | @.@.%.*.9.f.E..XvXbXZXZXFXFXGXVXPXNXhXhXaXaXgXgXfXfXgXsXeXtX}.].T.f.d.p.u.....X.C C G H B } , < * # % # # $ - , > n n s m f a a c c c 0 0 t t t -.+.-.-.-.-.@.-. .| | -.#.-.-.#.#.#.#.#.-.%.=.:. .| 9. .,.=.=.=.$.:.$.:.#. .| t  .| | u  .|  .|  .y 9 9 g a f m M M n M v M M n M M n n n n n n n n n n n n n M n m m B N N N H H H Z H ",
"F A o.Y D o.T o.o.' @X$X*X7X4X5XxXxXsXsXeX9X}.T.P.f.a.9.4.6.2.2.3.6.0.9.p.h.K.H.Q.).-X7X7X4X4X5XwXxXiXiXpXiXiXsXpXsXiXpXiXiXiXsXiXpXiXsXsXpXsXpXpXwXwX5X:X*X$Xo.[ W F S B > * $ # $ , N W #X5XlXVXDXKXDXLXGXBXkXhXaXaXzXhXlXkXPXPXPXNXkXhXfXpX5X2X*X~.G.K z k y t i O.O.D.G.).>X3XwXyX5X6X4X7X*X=X$X$X$X#X^.^.' ' ] ] ) / Q E R L G C d f 5 5 3 . . . O O     X @ % # < : ; n B H D R [ ' #X5X#XiXzXkXVXSXDXKXKXJXLXGXCXlXdXeXtX[.'.R.U.x.z.l.l.k.8.8.3.1.1.*.%.@.@.+.r r e e u u x K K I o.o.+X&X&X<X7X2X2X3X6X5X5X5XxXiXiXiXiXpXiXiXpXpXiXpXiXxXyX5XyX6X3X5X5XuXxXxXpXpXwX9X9X'.T.f.a.0.6.2.2.*.%.%.@.@.#.-.w.r.G.W.!.^.$X+X@X( ( W F G m d s p p 3 3 3 . . O O   X X X X o o 2 7 7 8 8 | | | +.@.*.*.9.a.U..XvXmXmXSXFXFXAXAXPXjXhXaXaXaXaXaXgXaXsXsXtX[.}.T.f.f.a.9.u.u.......X.G H B } b < * # @ @ # * - : } n m m f d a c c 0 0 0 r t t +.#.@.@.@.%.%.%.%.,.| $.$.$.$.$.%.:.%.=.%.=.=.=.*.| 5.2.7.,.>.,.4.,.,.,.>.=.$.#.#.| | | | | | | | | w  . .9 g d d s B B M M B B n n n n m B M m B n N n n m n B m n B N N N H Z H Z S Z V ",
"L Y T T T T o.o.o.#X$X*X2X2X5XyXiXsXsXeXtX{.}.T.f.a.0.6.5.5.5.2.3.3.6.4.9.h.i.H.Q._.%X-X<X4X4XuXyXiXiXiXpXsXsXpXpXsXpXsXpXpXpXsXpXpXsXpXsXpXsXaXsXpXiX5X2X*X$X` [ W F S B > * $ $ $ : B W #X5XjXGXDXLXKXDXSXCXkXzXaXzXzXhXjXnXPXBXBXNXkXhXfXiX5X2X-X~.^ X.z k i i i k O.D.W.).>XwXwXxXyXuX4X2X*X*X=X&X$X$X^.^.+X' ] ] ) ) / Q ! L G C d a 5 5 3 . . . O O O X 1 @ # $ * - } } N S F R / ] #X#XqXwXzXkXBXGXFXDXLXLXFXGXBXlXdXeXtX{.}.R.U.z.z.l.j.j.8.5.3.1.1.*.%.@.@.| | e e w u j x K I ^ o.o.$X&X=X<X7X2X6X5X5XwXxXiXiXiXiXiXsXpXiXiXpXiXsXpXiXwXwX5X5X6X6X5X5XuXxXxXpXsXwX9X{.T.I.f.a.0.2.2.>.*.*.%.@.@.-.-.O.r.G.W.~.^.^.#X` ( / R F S V m f p 5 5 . . . . O O   O X X X o 2 5 7 4 7 | | | | @.@.%.=.9.d.U..XoXbXmXSXSXSXAXVXPXNXhXfXaXaXaXaXsXsXeXeXtX}.Y.I.f.a.0.9.4.<.....C C C H B v b : $ % @ @ @ * * , > n m m d d a c 8 y w t t t +.@.@.%.%.*.%.%.%.%.&.&.$.&.=.%.%.%.%.%.*.*.*.1.1.1.2.2.5.5.2.5.2.2.5.2.>.>.&.&.@.@.| | | | | | | | | |  .9 j h g d C C s m B B m n m B m m m N N N H Z H N M m B n B B N N H H V Z S S S S ",
"D o.T T o.o.( ( +X$X7X2X2X3X5XiXeXeXeXtX0X}.].I.f.a.0.6.5.5.5.5.3.3.4.4.<.h.t.F.J.~./.=X<X<X4X4XyXiXpXsXpXaXaXaXsXpXsXpXsXaXsXpXaXsXpXaXsXaXaXaXpXsXiX5X4X*X$X` / W F V n > & $ % $ - N Y o.5XjXVXDXKXKXFXGXBXkXhXzXaXzXhXjXkXPXBXPXNXkXhXaXpXyX2X-X~.W.G.K z O.k k O.z G.Q.).>XyXwXyXyX6X4X7X<X%X=X%X$X$X#X#X+X' ' ] ) ) / Q R L G C d a p 3 3 . . . O O X X 1 @ % $ < : , } B S D R [ _ #X#XwXyXaXhXPXVXGXSXDXSXZXCXnXbXdXrXtX}.T.E.g.s.l.k.8.8.8.3.3.1.*.*.@.$.+.| t t u u j j z U I ^ ~ @X+X&X*X<X<X2X6X5X5X5XwXiXiXiXiXsXiXsXpXsXsXpXiXiXwXyX5X6X3X6X6X4X4XuXyXxXxXwXwX9X[.}.I.f.a.6.2.2.2.*.*.@.@.@.#.-.O.r.G.G.!.!.$X@X` ) W R G S C m s p 5 3 3 3 . O . O O     X X o o o 7 6 | 7 | 8 | +.%.%.=.<.a.U.R.vXbXmXSXSXFXAXAXPXNXlXdXzXzXsXsXeXeXtX9X[.'.T.f.a.0.0.,.,. . .....V V V B n b < * # % @ # # - : } } n n d d c c c y y t -.#.#.@.%.*.*.*.*.*.*.*.&.&.&.&.&.&.&.*.*.*.*.1.1.1.1.3.5.2.5.5.5.5.5.5.5.5.3.1.>.*.&.&.>.| >.| | | | | | |  .| u j g g d d C d d d d d d C C m V V V G S Z Z Z H N N M B B B N N Z S S S S D S ",
"F o.D Y T o.( @X@X1X1X6X3X5XwXeXeXtXtX{.{.].U.U.a.a.6.8.5.5.5.5.5.2.>.,.<.e.y.F.X.o.o.#X=X1X4X4XyXiXiXsXsXaXaXaXgXaXpXaXgXpXaXaXaXaXpXaXaXgXaXaXaXsXiX5X4X*Xo.o.Q Y G H } ; * $ $ $ ; N Y +X5XjXGXDXKXKXDXGXBXkXzXaXaXaXzXjXkXkXNXNXjXjXzXaXiXyX6X:X/.!.G.K z z l O.z D.G.~.).3X3XuXuXuX4X4X2X*X*X=X%X$X$X$X$X#X^.' ] ` ) / Q R L G C d a 5 5 . . . . . O     X @ % $ < ; > n B S D R Q ] ^.#X#X5XsXzXjXPXCXGXGXGXnXnXbXrX0X0X{.].R.U.z.s.l.k.8.8.3.3.1.*.*.@.@.| | |  .u u j j x U U I [ o.o.$X$X=X<X2X3X6X5X5XiXiXiXiXiXiXiXiXpXiXsXpXiXiXwXyXyX6X3X2X2X7X2X2X4XuXyXxXiXeX9X[.'.T.f.0.0.6.3.>.*.*.%.@.#.#.O.O.O.D.G._ _ ' ] ) ( W T F S V m f p 5 5 3 . . . . O O X   X @ X o 5 5 7 6 0 0 e r +.@.@.=.h.a.E.XXvXbXZXGXSXFXSXAXCXPXNXlXhXdXsXeXeXtX9X}.Y.T.I.f.a.0.9.4.=.;.w.O.x J C H B M b < $ % @ @ @ * * : > } B m d d d h c k y i i #.#.%.*.*.*.*.*.*.*.%.%.%.%.%.%.*.%.*.*.1.1.*.1.1.1.3.2.5.5.5.5.5.5.5.5.3.3.1.1.>.*.*.&.&.$.$.&.$.&.$.&.$.|  . . .j j l l l d g d d g d d d C C G { F { F G S Z H N m B n M N Z H H S G S S G ",
"Y Y A o.T o.( @X&X1X4X6XwXqXeXtXtX0X}.].R.R.U.g.s.q.6.8.5.5.5.5.2.2.>.,.;.e.y.r.X.o.o.@X$X&X1X2X5XiXiXpXpXaXaXaXgXaXaXaXaXgXgXpXpXaXgXaXfXaXfXaXaXaXsX5X2X*X#X` E Y D N } , $ $ @ $ : B R ^.5XlXVXDXKXLXDXSXCXkXhXaXaXfXaXzXhXlXhXhXjXhXfXaXiXwX3X:X-X~.W.I K K z K K G.G.~.-X:X5X5X5X4X4X2X*X*X&X$X&X$X$X$X$X^.^.+X+X] ) ( Q R L G C d a 5 5 3 . . . O O O O   @ # $ < : > n N S G R Q ) ^.3X3X6XyXpXhXkXNXPXnXnXnXbXbXcX{.].].R.U.g.s.q.q.8.8.3.3.1.*.*.@.@.#. .| u u  ...j x x U I I ~ o.+X#X&X*X7X2X5X5X5XiXxXwXiXiXwXiXiXiXiXiXiXiXiXiXwXyX6X6X6X7X7X7X<X2X4X6X6XyX5XwX9X[.'.P.f.a.4.5.2.2.1.*.%.@.+.#.-.O.O.X.G.o._ ] ) ( ( W Y F V V m f p 5 5 3 3 . . . O X X X @ % o & o 5 5 6 c y 0 t r @.%.%.9.h.E..XoXbXmXSXSXFXFXSXAXCXPXNXlXdXrXrXtX}.}.Y.T.P.d.a.9.4.4.4.;.-.-.k J J C H B v b - $ # @ # % $ - : } n m m m d d l l h k k O.-.-.%.;.*.*.*.*.*.%.%.%.@.%.@.%.@.*.*.*.*.*.1.3.1.3.3.2.5.5.2.3.5.5.3.3.3.3.2.1.1.1.*.&.&.&.>.&.>.&.&.&.&.$.,.:. . ...k k j j h h h g g l l J J P P P ! R Y F D Z Z n n n m N N H H S S D D D ",
"o.Y T o.o.( o.#X1X2XuXyXwXeXtXtX}.}.].R.I.g.g.s.l.0.6.8.5.5.2.2.>.>.>.=.:.:.r.X.X.X.o.o.+X&X<X4X5XxXsXpXaXgXaXaXaXaXgXgXaXgXaXgXaXgXgXaXaXfXfXfXfXsXiXyX4X=Xo./ ! F S B } - * @ % $ : B R ^.5XjXVXDXKXJXDXGXBXkXhXaXaXsXaXaXaXzXzXzXfXaXaXsXpXxX5X3X:X/.!.W.G.I K K G.I W./.-X2X3X6X4X4X1X*X=X=X&X$X$X$X$X$X$X#X#X^.' ] ` ) Q R { G C d f 5 5 3 . . . O O   X 1 % # $ < - v n B N D R ! ) ] #X#X2X6XiXaXzXhXlXlXbXcXcX0X.X.XR.XXU.g.s.s.q.8.8.3.3.1.*.*.@.@.+.#. . . .j x x x U U I I ~ o.o.+X$X&X*X<X6X5X5XxXiXiX5XiXxXiXiXiX5XwXwXxXwXwXwXyX5X4X2X7X*X*X=X&X<X<X4X4XuX5XqX8X[.Y.I.f.0.0.5.2.1.*.*.@.@.+.#.#.O.z K I I ) ) ( / W W Y F S V d s p 5 5 . . . . O O X X X X @ % o & 5 p 6 6 c 0 t r +.@.=.;.a.E.].0XvXnXGXFXJXFXFXAXAXCXnXnXbXrX0X{.}.T.I.f.d.a.9.0.4.4.*.=.;.O.O.x J C S B v b < * # @ % @ * < - > n B m V C C J J l l z O.O.-.;.;.*.*.*.*.%.%.@.@.@.@.@.@.@.%.*.*.1.1.1.1.1.1.3.2.2.2.2.3.3.3.3.3.2.2.3.2.1.1.1.>.>.>.2.>.>.>.>.>.&.,.,.$.:.:. .-.O. .k k k k y j j x x U I ^ ~ / Q ! R F Z N m n n B M M Z H D S D G D ",
"A Y Y Y T o.@X&X1X4X5XpXsXeXtX[.}.T.E.g.g.a.a.q.0.k.6.5.5.2.2.>.>.>.&.$.:.w.....X.o.Q o.o.+X&X2X6XxXpXsXaXaXaXfXaXgXpXaXgXaXgXaXgXaXaXgXgXaXfXfXaXsXpX5X:X=X@X/ Y G H B > < $ @ @ $ - N R ^.5XlXVXJXLXKXLXGXCXkXzXaXsXpXpXpXsXaXaXpXaXsXpXpXiXiXwX5X:X:X/.W.o.I I ^ I ^ !.^.%X7X2X4X2X4X<X*X=X%X$X$X^.$X$X$X%X$X#X^.@X] ) ) E Q L G C d f 5 5 3 . . . O O O X 1 @ % $ < - b n B S G F ! ~ ] ^.#X*X2X5XxXpXaXzXzXdXrX0X.X].R. Xg.z.s.q.q.6.6.4.1.1.*.%.@.@.+.r t t i k k x J U U U [ ~ ~ ) ` o.+X=X*X2X6X5X5XiXiXiXiXiXwX5X5XiX5X5XyXyXwXxXyX6X3X6X7X7X=X%X&X&X<X1X2X4X6X5XqX8X[.'.I.d.a.0.2.2.1.*.*.%.@.@.+.i k O.K I ^ [ Q Q Q ! T F D G V m f p 5 5 3 . . . . O O X X X @ % % & & 2 5 5 c c 0 t #.@.=.4.a.E..XvXbXmXGXFXFXJXJXFXFXGXCXnXcXcX.X.XT.I.f.p.a.9.0.4.1.4.=.=.-.O.O.l J C Z Z v b < $ # # @ % $ < : } } B m V C C G J J K z O.O.-.;.;.*.*.*.%.%.%.+.+.+.+.+.@.@.%.%.*.*.1.*.1.1.1.1.2.>.2.2.1.1.1.1.2.2.1.2.1.1.2.1.>.2.2.2.2.2.2.2.2.2.,.,.,.,.<.:.:.:.-.#. . .i i k k z z I I ^ _ o.] / W Y S N n n } } n N Z H H S S S D ",
"F Y Y o.T o.@X&X1X6XiXsXeXrXtX}.T.E.g.f.s.0.0.6.6.5.5.6.5.2.2.>.>.&.$.$. . ...z J U [ ~ ` @X#X1X2XxXiXsXsXaXaXsXaXsXpXaXpXpXaXpXpXaXsXaXaXfXaXaXaXpXiX6X7X$Xo.! Y G N n > * $ @ # $ - B R ^.5XjXVXDXKXJXDXGXCXkXzXaXsXpXiXiXiXiXiXiXiXiXiXsXiXiXyXwX3X:X-X/.!.o.o.^ o._ !.&X%X*X*X7X7X*X=X%X$X^.^.#X#X$X$X=X=X%X=X$X^.' ] ) Q R L G C d f 5 5 3 . . . O O O X X @ # $ < - } } B N G Y R Q ) ' #X&X<X2XuXyXxXiXeXtXtX{.].XXXXs.s.l.q.8.8.6.3.2.1.*.%.%.@.+.r t t u i j x K U U I [ [ [ o.` @Xo.$X=X*X7X5X5XiXiXiXiXiXwXiX5X5X5X5XyX5X5XyXyX6X6X4X:X7X=X%X&X^.$X&X=X1X2X4X3X3X;X`.L.Y.f.9.4.3.3.1.*.*.%.@.@.#.#.O.O.K U I E E ! W T Y F F V V m s p p 5 3 . . . . O   X   @ @ @ % % & & p p a c 0 t +.@.;.<.h.E.XXvXvXmXSXFXJXJXJXJXFXFXGXmXbXcX.XR.U.g.a.0.9.4.2.3.1.4.*.:.-.O.k l J V H B v b : * % @ # % $ < ; } n m N H G G { P P U K D.O.w.;.;.*.*.%.%.@.+.+.+.r r +.+.+.@.%.*.*.*.*.1.*.1.1.>.>.>.>.>.>.1.1.1.1.1.1.2.1.2.2.2.2.2.2.2.2.5.2.2.2.2.2.,.,.,.,.*.=.;.:.#.#.#.i t i O.z D.G.!.!.$Xo.` ! R D Z n } } } n m Z H H S S D S ",
"F Y D T T o.` &X2X5XwXsXeXtX}.].R.f.a.0.6.6.8.8.5.5.5.5.2.>.>.>.%.$.$.|  . .k x X.J E [ o.+X&X1X2XyXiXiXsXaXaXaXsXpXsXsXsXsXsXsXsXsXpXsXsXsXaXsXsXpXxX3X7X$X] Q Y S B } ; $ % @ @ $ - H R #X5XjXVXDXLXKXDXSXVXkXzXfXsXiXwXxXwXxXyXwXwXxXiXiXiXiXiXyX5X3X:X*X/.^._ !._ !.^.%X%X%X*X*X*X*X&X&X#X+X+X^.^.$X$X%X=X=X=X$X#X+X] ) / ! L G C d a 5 5 3 3 . . O O O X 1 @ # $ < - } n B Z S F R ! ) ] ' $X=X1X2X4X6X5XqX9X}.].R.g.s.Z.v.k.k.8.6.3.1.>.*.%.%.+.+.r r t w u j x K U U [ [ ~ o.( ) o.` @X&X=X7X2X5X5XiXiXiXiXiXxX5X5X5X5X5X6X6X5X3X3X3X6X2X<X*X%X$X$X$X$X&X&X<X1X2X6X>X[.`.L.I.d.a.0.6.2.1.*.*.%.@.#.+.i k z z U P P E ! T T Y F D S H d f p 5 5 . 3 . . O O O X X X @ % % $ < & ; p a c c t i #.=.9.a.E..XoXbXZXZXDXJXJXJXJXFXFXGXmXbXvX.X XU.a.0.0.2.2.2.1.*.*.=.;.-.O.k l J G H B M b < * @ % @ # $ < - > } m Z S D F { E E I I D.D.O.w.;.%.*.%.%.@.+.+.r t t t +.+.+.@.%.*.*.*.1.*.*.*.>.&.>.>.>.>.*.*.*.*.*.1.1.1.2.2.5.2.2.2.2.5.2.2.5.2.2.2.2.5.2.,.4.*.&.&.%.@.#.+. . .w.r.J.W.~./.*X#X' ( W D Z n } v } } n M H Z S S G S ",
"o.F o.o.W T @X&X2X3XwXeXtX0X}.R.E.a.0.6.3.5.3.5.5.5.2.2.2.>.>.&.%.@.#. . .k x x U U E [ ( @X&X<X6X5XiXsXpXsXsXsXsXwXwXeXeXeXwXeXeXwXeXwXsXwXsXsXiXwX5X4X*X#X` ! F S N } - * $ @ @ $ - N R ^.5XjXGXDXKXKXLXSXVXkXjXzXaXiXwXxXwXyXyX5X5XwXxXwXiXiXiXiXwX5X2X<X%X$X^.^.^.^.^.^./.^.%X%X/.^.^.^.^.+X^.^.#X$X=X=X%X*X*X%X^.#X' ) / R L G C d p 5 5 . . . . O O O     @ # $ < - b } B N S D R E Q ) ` ' #X*X1X<X2X6X>X;X}.T.E.g.Z.q.j.7.7.8.3.2.1.*.%.%.@.+.+.t t w i j j x J P [ [ [ ` ` o.` o.@X+X$X=X7X2X5X5XiXiXsXiXiXxX5X5X5X5X3X3X6X6X4X6X6X2X7X7X=X%X$X$X$X$X$X&X1X1X2X2X,X).`.L.P.f.9.4.3.3.1.*.*.%.@.+.r i k k l K P L R W Y T F F S V V m f f p 5 3 . . . o O X   X @ @ # # $ * < ; ; p c 8 i +.#.=.h.a.E.R.vXbXZXZXJXJXJXJXJXJXFXZXZXbX.X.X Xg.q.6.5.2.2.2.*.*.*.=.#.-.k z l J V V N v b : * % @ # @ $ < - } } B N S F R R Q [ ^ I I D.r.h.e.;.@.@.@.+.+.+.t e t t t +.@.%.*.*.*.*.*.1.*.*.&.>.&.>.>.*.*.*.*.*.*.>.1.1.1.2.2.2.5.2.5.2.2.2.2.2.2.2.5.2.2.2.>.>.>.&.*.@.+.+.#. .w.r.J.G._.%X*X$X+X) W D Z n } > } n n M H Z S S G D ",
"A Y D Y o.o.o.@X-X8X9X9X0X{.].I.f.a.0.6.3.3.3.3.5.2.2.2.>.>.&.$.#.#. . .i ..z J U P [ ~ o.+X&X1X6XyXiXsXsXsXeXeXeXtXtX9X9X9XtX9X9XtX9XeX9XeXeXwXwX5X5X:X=Xo.( ! F S N n ; * $ @ @ $ , N Y ^.5XlXVXDXKXKXJXFXVXBXjXzXaXsXpXxXwXyXyX5X5X5XxXxXiXiXiXiXyX3X6X2X<X*X&X/.$X$X^.!./.~.~.~.!.~.^.!.^.' +X#X$X=X%X<X<X7X*X=X=X#X' ) / Q L G C d a 5 5 3 3 . . O O X X X @ % $ * - , } B N S G F R ! / ] ' #X#X=X1X2X2X>X).`.Y.I.s.s.8.8.7.8.3.2.1.*.&.@.@.#.+.t t i u j j x U U I ~ / ` ` ` ` ` @Xo.$X&X*X7X2X5X5XiXiXiXiXiXiXwX5X5X5X5X4X3X6X2X2X:X7X7X*X=X&X&X$X^.$X$X&X=X<X<X7X:X-X`.L.P.d.0.0.3.3.1.1.*.%.@.@.-.-.i x z J P E R R Y Y F D D S m m d p p 5 o 3 . o O O O O   @ @ # = = * < ; ; p a c y r #.=.4.h.E.oXoXbXnXSXJXJXJXJXJXDXSXZXnXvXvX.X Xf.0.6.2.2.2.>.1.*.%.%.#.-.k x l C C H B v b < $ # @ @ # $ < ; > n B Z S F T W Q ) ) _ I G.D.r.w.e.-.;.-.-.i i i i y t t -.#.@.%.*.*.*.*.*.1.*.>.>.&.&.&.&.&.*.%.*.*.*.>.>.1.1.2.2.2.2.2.2.2.2.2.>.2.2.2.2.2.2.>.>.>.>.%.@.@.+.+.#.w.r.D.Q.~.).-X$X+X) W D Z } v v > } m N H S S S S D ",
"Y T Y Y Y o.o.o.o.9X[.}.{.].T.I.f.a.4.4.3.1.3.1.1.3.1.1.*.%.=.#.-. .i k k x x U U E o.) o.@X&X2X4XiXiXsXsXeXeXtX9X[.[.}.[.[.}.[.}.[.[.[.[.9X9X8XqX3X2X7X#X+X) R Y S N n > < $ @ @ $ - N R ^.5XlXGXDXKXKXDXDXGXCXBXhXzXaXaXpXiXxXyXyX5X3XxXwXwXxXiXwXyXyX6X6X2X<X*X*X%X%X!.W.W.W.W.G.W.W.!.!.!.^.$X$X$X%X<X7X7X2X7X7X*X$X+X` / ! L G C d p 5 5 3 . . . O O O X X @ % # * - , } n B N S F Y R Q ~ ` ' #X#X#X6X#X9X[.`.Y.P.a.q.q.5.5.5.2.>.*.%.$.@.| | |  . .j ..j x J U I [ ) ) ` @X` @X@X+X#X#X=X*X<X2X6X5XwXiXiXiXiXwXxX5X5X5X5X6X6X2X2X7X7X7X*X=X&X%X&X$X&X&X&X&X1X=X<X*X-X).Q.L.P.h.a.4.3.3.1.*.*.%.@.+.+.i i k K U P P L W Y T D D S Z m m s s p 2 2 2 o o O X X X 1 % @ # # = = < b > p a c i t @.=.9.h.E.].vXbXZXGXSXDXJXJXJXAXAXVXbXbX.X.X Xz.0.6.5.2.>.>.*.%.@.#.-. .k l J C C H B n > : * = @ # % % $ , } } B S S Y T Q ( ` _ _ W.G.D.D.t.w.w.O.i O.i k c i i i i -.+.@.%.%.*.*.*.*.*.*.*.*.*.*.*.*.%.%.*.%.%.*.*.*.>.>.2.2.>.2.2.,.2.>.>.>.,.2.>.2.2.5.>.>.>.&.| $.| | |  . .r.D.W.~.-X%X$X+X/ R D Z } v > } } B M H H S S D S ",
"Y D o.F X.o.o.o.o.`.'.'.T.T.U.f.a.0.4.3.3.1.1.1.1.*.*.*.=.=.:.-.-. .k k z K U U E E [ o.@X#X1X4XuXwXiXsXeXtXtX[.}.}.'.Y.T.T.T.].Y.'.}.'.'.[.).;X,X,X#X#X^.` / ! Y G V B } - $ % % $ , B Y +X5XhXGXLXKXKXKXDXSXVXBXkXlXhXzXaXpXwXwXxXwXyXyXxXxXxXwXyXwXyX5X6X4X4X2X*X-X~.~.W.G.G.G.D.G.G.G.W.!.^.$X$X*X<X<X2X6X6X4X2X<X=X^.` ) E L G C d a 5 5 . . . . O O X X   @ # $ * - ; v } m N H S F Y R ! ) ] #X#X#X#XwX#X).`.Y.P.f.0.6.3.3.2.1.*.%.$.+.#. . .u k j j x J U I E [ [ ~ ( @X@X` @X` #X#X&X=X<X2X2X5X5XxX5XiXwXiXiXxXiX5XwX5X3X6X2X:X7X<X*X=X=X%X=X=X%X&X%X=X=X=X1X*X*X%X~.Q.H.K.p.0.4.3.3.1.*.%.%.@.#.+.-.O.x z U I ! R T R T F D S V m m s s p 2 2 o o o o O X X 1 1 1 # = = * : < ; s a c y -.#.=.9.s.E.XXoXbXmXZXFXDXJXFXAXAXAXnXbXcX0X XI.z.0.6.2.>.>.>.%.%.@.#.t i k x l C V H B n b - * % @ @ % $ - - > n n S D Y ! ( ` _ ' !.W.^ G.D.r.r.O.O.O.O.k k l k h k O.i -.-.=.*.*.*.*.*.1.*.*.*.*.*.*.%.%.%.%.%.%.%.%.*.*.*.&.2.&.>.&.&.&.>.&.&.$.2.| 2.| | &.&.&.&.| $.| | |  . .r.J.G._./.%X$X` / R D B n } > > } n m H S S S D G ",
"T Y Y o.T o.o.X.L.L.T.I.I.f.a.a.a.4.4.1.1.1.1.*.*.*.*.%.%.:.-. .k k z z K U I P Q ) o.o.#X=X2X4XyXwXiXeXeXtX9X}.'.T.I.I.I.I.I.I.I.I.E.P.Y.|.`.)./.%X#X^.' ` / ! Y F S N } , * $ # $ - H R +X5XjXGXDXKXKXKXKXDXZXCXBXkXlXhXzXaXsXiXxXwXxXwXwXyXwXyXyXyX5XuX5X6X6X4X:X-X~.W.H.D.D.D.D.D.D.G.W.!.!.$X%X*X<X4X6X3X5X6X3X7X=X$X] / ! L G C d f 5 5 3 . . O O O   X   @ % # * < - > } n B N H G F R E Q ) #X#X#X5X3X>X;X`.L.P.p.p.9.3.1.>.&.%.@.+.| |  .i u k x K U I I E ^ ~ ( ) ` @X@X@X@X@X#X#X=X=X<X<X4X6X5XyXwXiXiXwXiXiXiXiXxX5X6X6X7X:X7X=X%X%X=X%X=X*X*X*X*X*X*X=X1X=X*X,X~.Q.L.i.h.p.0.4.3.1.1.*.%.@.+.-.i i k z U P ! W W R F F D S Z N m s s ; p & & 2 o % % X @ 1 1 # @ # = * < - ; p a c y +.-.=.h.a.E..XvXbXmXZXFXJXFXAXAXAXBXlXcXrX.X.XI.z.0.6.2.>.>.&.%.@.+.+.t i h h l C V H N v b < $ % @ % @ * $ ; > n B Z D R Q ) ` +X+X/.!.W.W.I G.K D.O.z z K l l z z z O.O.-.-.%.%.*.*.1.1.*.1.*.*.*.*.%.%.%.%.%.%.%.%.%.%.%.%.&.&.&.,.&.,.$.>.| &.&.| &.| | | $.$.| | | | | | |  . ...D.G.W.(.$Xo.` / R S N n > > } n m N Z H S S D D ",
"T R Y T Y X.X.X.X.f.i.f.f.a.a.0.9.4.4.1.*.1.*.*.*.%.%.@.@.-.-.k k z J U U I E ^ o.o.@X^.=X<X4X4XyXiXiXeXtX9X}.T.T.I.d.f.f.a.a.a.a.f.f.P.K.L.H.Q._.(.^.' ` ( ( ! R Y G N n > $ $ % $ , B R ^.5XhXGXDXKXKXKXKXDXSXVXBXBXkXjXhXaXaXsXiXxXxXyXyXwX5XyXyXyXyXyXxXyXyX5X3X-X).|.G.D.t.O.r.O.D.I G.W.^.$X*X<X2X6X5XyX5X5X6X2X=X$X] ) Q { G C d a 5 5 3 3 . O O O O X   @ @ # $ * - ; v } B N H S S F Y R ( #X#X#X#X#X,X).`.L.P.h.9.9.1.>.&.%.$.@.| | t i u ..x K K U I [ ^ ~ ~ ] ` @X` @X@X#X#X&X&X=X1X<X7X2X2X5X5X5XxXiXiXiXiXiXiXiX5X5X6X7X*X=X&X&X&X%X=X*X*X7X7X7X<X1X=X&X&X&Xo.o.H.H.h.h.9.4.3.3.1.*.*.%.@.+.+.-.O.z K U P E E R R Y D D H N m m } } p p & & & & o % @ X % @ 1 # # = < < , ; f a c i t @.*.4.h.E.XXvXvXZXGXFXFXFXAXAXPXnXlXrX0X.XT.x.p.0.5.2.2.>.&.@.@.+.t i u h l l C G H B n b : * # @ @ # % < - } } B S F T Q ` +X$X$X$X%X!.W.W.G.I I K K I K I I J J z O.O.-.;.;.*.*.*.*.*.1.*.1.*.*.*.%.%.%.%.@.@.@.@.@.@.%.%.&.&.| &.| | | | | | | &.| | | | | | | | | | | | e i k ..X.X.W.!.o.+X` Q Y A M n } > } } n M Z S S S G S ",
"T T R o.F X.X.X...f.u.a.0.0.0.6.4.4.1.1.*.*.*.*.%.%.@.@.#. .i k z x U P P E ~ ~ o.+X^.&X<X<X4XuXyXiXiXeXtX[.}.Y.I.f.a.0.0.0.0.0.0.a.a.p.h.F.J.H.W._ _ ` ) / ( Q ! Y F S B > - $ @ * - B Y ^.5XhXVXDXKXKXKXKXKXSXGXVXBXNXkXhXzXzXpXsXiXwXyXwXyX6X3XyX3XyXyXxXxXyXxX>X>X).G.F.r.r.w.w.O.r.D.G.W./.%X7X2X2X5X5XyXxXyX3X2X*X$X' ) ! L G C a f 5 5 3 . . . O O X   X @ @ # $ * - ; , } } B B N S G F R Q ` #X#X5X3X>X;X|.|.K.h.9.,.*.&.&.$.@.| | e | i i x ..X.X.~ ~ ) ` o.o.o.@X@X` +X$X$X&X$X=X*X*X7X2X2X2X3X5X5X5XwXiXiXiXiXiXwX5X6X6X7X=X&X$X$X&X&X=X*X7X7X2X<X<X1X&X&X&X$X%Xo.Q.J.t.h.9.4.3.3.1.*.*.%.%.+.+.-.i z z U I E [ E T Y D A Z N m m } } ; ; ; & & & $ % % @ @ @ 1 # # $ < < - s s c c y +.#.;.9.h.U..XvXbXZXZXFXFXAXAXAXNXjXzXtX0X}. XI.a.6.6.2.1.&.%.+.+.r w w y h g d C C H B M b : $ @ @ @ # $ * - } } B S F W [ ] +X$X7X%X%X%X!.!.^ ^ I I I E P P P P K K z O.O.e.=.%.*.*.*.*.*.*.*.*.%.*.%.@.%.@.@.@.+.@.@.@.@.@.| | &.| | | | | | | | | | | | | | | | | | | 0 | w  .i ..X.X.o.o.#X` / W Y Z M } } > } } n M H S S S S S ",
"W W T D o.{ X.......<.9.0.6.6.2.1.1.*.*.*.*.%.%.%.@.#.#.#. .k z x U P P E [ ) _ +X^.&X*X<X2X5XyXxXiXiXqX9X[.T.I.f.p.0.6.6.2.j.6.6.6.9.9.h.t.F.G.G.^ ) ) / ( Q W ! L F S B > - $ $ $ ; B R +X3XjXGXDXKXKXKXKXJXSXGXVXBXPXkXlXhXaXaXsXiXxXyXyX3X5XyX3XyXyXyXxXiXiXyXwX;X).|.D.t.w.-.w.w.r.D.G.W./.%X7X2X4XuXxXxXwXxX5X4X*X$X+X) Q R G C d a 5 5 . 3 . . O O X X   @ % # # * - - , > } n B N Z S D R ! ) ` #X#X#XqX;X`.|.K.d.h.<.,.&.%.$.+.| | w u u k x K X.X.o.o.o.o.o.o.o.o.o.o.$Xo.o.%X%X%X%X7X7X7X2X2X2X5X6X5X5X5XiXiXiXiXiX5X6X2X7X&X$X$X^.$X&X%X7X7X2X7X2X<X<X<X&X$Xo.o.o.X.F.t.h.0.4.3.3.3.*.*.*.@.+.-.i O.O.K I I E E E R Y D D Z N n n n } } ; ; - - $ $ % @ @ @ @ @ # # $ $ - > p p a c t t #.=.;.E.E.oXoXbXmXZXAXFXAXAXPXNXhXaXeX9X'.T.d.a.0.4.1.>.&.@.+.+.e e y y c l l C V V B v > < * % @ # # % * - , n N S F W ) ' =X7X2X:X7X%X/.^._ ^ ~ ^ ~ [ ~ ~ ^ ^ ^ I D.O.O.;.;.*.*.*.*.*.*.*.*.*.*.%.%.%.@.@.+.#.+.+.+.@.#.+.| | | | | | q | | q q q | 8 8 | 8 | 8 | | 0 0 0 e u j z z I X.o.o.` / R F Z M n } > v n n N H H S S D G ",
"T W Y X.X.X.X...d.p.9.6.2.5.5.2.3.1.*.*.*.%.%.@.@.@.#. . .k k x J U P Q [ / ` ' +X&X*X:X2X4X4XuXyXwXwXqX8X'.Y.f.p.0.6.6.5.5.5.2.3.3.4.9.<.t.t.X.I ^ ~ [ / ( / ! ! R F S m } - $ $ $ ; N Y ^.5XhXSXKXKXKXKXKXJXSXGXVXBXnXkXjXzXzXpXiXwXxXyX3X5X3X5X3X3XyXxXiXpXiXwXqX>X|.|.F.r.w.w.w.O.r.D.G.W./.%X<X2X4X5X5XxXxX5X3X2X<X$X' ) ! L G C d p 5 5 3 . . . O O X X X @ @ # $ * * - ; > } } B B N S D Y W ( #X#X5X#XqX;X[.|.Y.P.h.h.9.<.=.$.#.|  .u  ...j ..X.X.o.o.o.o.o.o.o.o.o.o.o.o.~.~.~.o.%X%X%X-X-X:X:X3X2X6X6X5XxXiXiXxXiXiX5X6X:X7X$X$X+X+X^.&X$X=X7X2X2X7X<X<X&X&X^.*Xo.o.H.J.t.h.4.0.3.1.1.*.*.%.@.+.#.i k z K K E E Q W T Y F S Z N B n } } ; } ; ; - * * % # @ @ 1 @ @ # & & ; ; s p c c y #.-.;.h.h.E..XvXbXVXZXFXAXAXAXPXjXhXsXeX{.}.I.f.a.6.4.1.>.%.@.+.r e 0 y y c g d C V H N v > : * # % @ @ $ * - } } N S Y Q ] #X*X2X3X4X4X7X%X$X^.' ' ] ` ) ) ) ] ) ^ ^ D.r.r.e.;.=.*.*.1.*.*.*.*.%.%.%.%.@.+.#.#.#.#.#.+. .#.#.| | | | | | q q q q q 0 8 | | 8 0 | | 8 | 0 | 0 w u j z K I ^ ^ ) / Q R F Z M } > > } } m M Z H S S S S ",
"W T T T X.X.X.....<.<.2.5.5.5.2.1.1.1.*.*.%.=.#.#.#. . .O.k x J U P P ! / ) ` #X$X*X7X2X4X4X5X5XuX5X3X8X[.'.Y.P.p.0.6.5.5.5.5.5.3.4.1.,.;.y.r.D.I ^ Q / / / ! ! ! R F D H } - < % * : m Y +X5XjXGXKXKXKXKXKXLXSXVXBXBXkXjXhXaXaXpXiXiXwX3XyX5X5X4X5X5XyXiXiXpXpXiXwX>X).|.H.t.w.w.O.O.O.D.G.W./.*X7X2X4X6X5X5X5X5X6X2X=X$X' / ! L G C d a 5 3 3 . . . O O X X 1 @ @ % # $ * < - > > } n B N S G F W ) ` #X#XwX#X>X[.[.|.E.E.f.h.u.u.e.e... . .k ....X.X.X.X.H.W.W._._.W.Q.W._.~.W._._._._._.)._./.-X-X:X:X2X2X3X5X5X5X5X5X5X5X3X2X7X=X&X+X^.$Xo.$X&X=X7X7X7X<X<X<X&X&X&X$Xo.o.X.F.h.h.h.4.3.3.1.*.*.%.@.+.+.-.O.O.z I I E ! ! R F D S Z m n n } } } > - - < * * % @ @ @ X @ % % & & & p p a c c i O.-.e.h.E.E.{.vXbXGXAXAXAXAXAXPXkXhXzXtX9X'.T.f.a.0.6.1.*.%.@.+.r e 0 y c c d C C V Z B M > - * % # @ % % * - ; n B S R [ ^.#X2X5X5XiX5X6X2X*X$X#X' ' ] @X' +X' ' _ W.G.D.w.e.;.*.*.*.*.*.*.%.%.%.%.@.#.#.-.#. . .i  . . . . . . . . .w w q q q 8 q 8 | 8 6 | 9 9 y y 9 w y y u j j x K U ^ ^ ~ Q W Y D H M } > } > } n M Z H H S S S ",
"T W T o.G X.X...y.<.,.6.5.5.5.2.2.2.&.&.%.%.:.#.-.-. .k z x x J P P ! Q ) ` ' $X=X<X2X2X5X4XuX4X4X6X3X,X).|.L.d.a.0.5.5.5.5.2.2.2.2.,.,.<.....X.X.o.W W o.W o.T W R Y D N } - $ $ $ - N Y +X6XlXVXDXKXKXKXDXFXGXCXNXkXhXzXzXsXiXiXxX5X5X5X3X6X6X6X5X5X5XiXiXpXsXsXwX8X[._.H.J.y...r...J.G.W.W./.%X:X7X6X6X4X4X5X6X2X*X*X+X] ) E L G C d f 5 5 3 . . O O O O     1 @ # # $ * - - ; ; } } m N N F F ! / ' #X#XsXwXqX9X[.}.}.E.E.E.E.P.h.t.r.r.r.r.D.D.D.D.D.H.H.H.H.H.H.H.H.H.F.H.H.H.H.H.H.Q.W._.Q.).).#X>X>X#XwX5X#XpXsXwX#X5X#XwX#X#X#X/.' ^.' ^.#X#X>X#X3X3X#X#X#X#X#X' o.W.G.F.t.u.9.4.3.3.1.1.*.%.%.+.+.i O.k z K E E E R R T D Z N N B } } } > > , - < * $ # @ @ @ @ @ X % & & 2 p p a c h k k w.t.t.Y.'.{.cXbXZXZXSXSXAXAXNXNXjXsXrX[.].E.I.s.0.2.>.>.&.| | | 8 8 9 9 a d d C V H H v v < * % @ # @ $ * - , } N G R ~ #X#XsXaXaXaXpXxX#XxX#X#X#X#X#X#X#X#X#X#X#X#XG.F.t.e.;.=.*.*.*.%.%.%.@.@.@.#.#.-.-.i O.i k O.k O.k O.i k i i y i 0 0 0 0 8 8 y y y y h y h y j y j j j h z x U I ^ [ [ Q ! Y S Z B } > > } n n B N H Z Z S S ",
"T T D o.X.{ X...y.u.4.6.5.5.5.2.2.>.2.&.=.=.:.-.-.O.O.z z K U U P E E Q / ` @X&X<X2X6X5X4X5X6X4X4X7X*X).Q.H.K.i.u.0.6.2.5.2.2.2.2.&.&.:. .....X.X.X.o.T T ( ( W W R Y G N } ; $ $ $ - N W o.5XjXGXDXKXKXKXDXSXCXNXkXhXzXaXsXiXiXyX5X5X3X6X6X2X6X6X3X5XxXxXiXpXpXsXsXqX8X).Q.H.X.J.D.X.G.G.W.(.%X*X*X<X2X2X2X2X2X7X*X=X$Xo.` / ! L G C d a 5 5 3 3 . . O O O X X @ @ @ # # $ $ - - , } } n B H S F ! ) #X#X#X5XwXeXeXrX0X0X{.].].].'.|.|.H.H.G.D.D.D.F.F.F.F.F.K.K.K.K.K.P.i.K.K.K.F.F.F.F.F.F.H.H._.)./.#X8X#X5X6XxX5X#X#XwXwX#X3X#X#X^.#X' ' #X#X#X#X#X#X#X#X>X#X#X#X#X+Xo.o.G.D.t.h.9.4.3.3.1.1.*.%.@.#.#.-.i O.J K P E ! R Y F D S Z B n n } > > , - - < $ $ # # @ 1 @ X % o o 2 5 p a c c j k O.r.F.F.|.}.0XbXbXnXVXAXSXAXCXNXNXhXdXrXtX{.E.f.a.0.6.>.>.&.| | | 0 8 9 9 a g C C V Z N M v : * # @ @ # % * - ; n N D R _ #X#XwXzXzXzXaXaXpXxXpX#XxX#X#X#X#X#XgX#X#X[.W.F.t.e.;.=.%.*.%.%.%.@.@.+.#.#.-.i i O.O.O.O.O.z O.O.z z k k h y y y 8 8 8 8 8 8 c c c h l h l h x h x l x J U I P E [ Q E R F S B n } > > > } n n B N H H Z Z ",
"W T o.Y G X.....u.<.,.6.5.5.5.2.2.2.>.| =.$.:.-.O.O.z z K U U P E E E Q ` ] #X=X7X6X6X5X5X4X4X<X1X*X=X~.W.H.K.i.a.9.2.5.5.2.2.2.>.&.&.:. .....X.o.L o.o.o.( ( W T R F D N } , * % * > N W +X5XlXAXDXKXKXLXDXVXBXlXhXaXsXiXxX5X5X6X6X3X4X6X2X2X3X3X6X6X5XiXiXpXsXpXwXwX8X).).Q.J.J.G.J.G.W.~./.%X%X*X<X<X*X<X<X*X*X*X#X+X@X` Q ! L { C f p 5 5 . . . . . O O   X 1 @ @ # $ $ * < - , b } n B V D R W ) ' #X5X5XwXsXrXdXcXcXvXvXvX0X{.{.[.|.|.Q.Q.H.F.F.F.K.K.d.f.d.f.d.f.f.f.d.d.p.d.p.i.h.t.t.F.H.H._.).9X#XwX#X5X#XwX#X5XwX#X3X#X#X#X#X^.' ' ' #X^.#X#X#X>X#X#X#X#X#X#X_ _ W.G.F.t.h.9.4.6.2.1.*.*.%.@.+.#.i k k K K E E R R Y D D Z N B M n } > > : - < * $ # # @ @ @ @ X % o o 5 5 6 c c h x z D.D.J.|.|.9XrXdXbXZXVXAXSXAXCXPXNXNXhXrX0X{.E.g.s.0.3.>.&.$.| | 0 8 8 8 6 a d d C S H B M b : * % @ @ @ $ * - , n N F ! ] #X#XaXzXkXkXlXhXaXpXxX#X#XyXgXxX#X#XyX#X8X).Q.H.t.h.;.*.*.*.%.%.@.@.+.+.+.i i O.k z z K J K K K K K z K l k k y c 8 8 8 8 8 c c c l l l l J l J x J J U U U I P E E E R L D S B n > > > > n s M B N N H N H ",
"T W T T P X.X.X...<.<.2.5.5.2.5.2.2.2.2.=.;.w.w.O.z K I U U E E E E Q / ] ' &X<X4X4X5XwXyX4X4X<X=X$X^.!.W.J.F.u.<.<.6.5.2.2.>.>.&.&.$.:. ...X.X.X.o.R W T T o.W o.R { D N } - * $ $ - N W o.5XjXVXDXJXJXDXGXCXkXzXaXiXiX5X5X6X3X2X2X2X2X2X2X2X6X6X6X5X5XxXiXiXpXsXwXwXqX8X).o.).~.W.W.~.(.(./.%X*X%X*X*X*X*X*X*X=X#X$Xo.` / Q ! L G C d a 5 5 3 . . . O O X X   @ 1 @ @ @ $ $ * - , > } n N H D F Q ) ' #X#X5XiXsXdXdXbXbXmXbXbXbXbXrXtX9X;X).`.Q.|.L.P.f.a.a.s.q.s.q.q.0.s.0.s.a.p.9.u.h.h.h.t.F.J.H._.).8X#X3XxX#X#X3X#X#X#X#X#X#X/./.' ' ' ' ' ^.^.#X#X#X#X#X#X#X#X#X+Xo.o.G.F.t.h.9.4.5.2.2.*.*.%.@.@.#.i O.z z K P P R R T F D Z Z B M } } > , - - < * $ # # @ @ 1 @ X o o 5 3 7 6 c y j z O.K G.Q.Q.;XeXrXdXnXCXGXAXAXAXAXAXNXNXjXdX0X.X].U.s.0.4.2.>.$.| | | 8 8 6 6 a a d V V Z N v v - * $ @ # % % $ < } } N F ~ #XiXsXzXkXBXBXBXkXjXaXsXpXsX#XpX#XgXxXxXsX#X[.|.H.F.h.;.;.*.%.%.@.+.+.+.+.t i i k x z K K K U I I I K U K K l c c c 8 8 4 6 6 c c g l l J P J J U P P U U U P E ^ E E R ! F D Z B n v > > > } n n n N N N N Z ",
"T T F o.X.P X...u.u.,.6.2.5.5.5.2.>.>.>.=. .:.r.r.K I I [ [ E E E Q ) ) ] #X=X*X2X5X5XxX5X6X2X1X#X@Xo.o.X.J.t.u.u.0.2.2.2.2.>.&.&.$.$. . .....X.X.R o.W ( ( ( W T Y F D N } ; * $ $ - N o.o.5XlXVXLXKXJXDXAXBXlXaXiX5X5X6X2X2X2X2X2X2X2X2X2X2X2X3X6X5X5XxXiXiXiXpXwXwX3X3X,X>Xo.~./.(./.%X%X%X*X*X*X*X=X*X*X$X$X#X+X+X` ) ) ! R L G C d a 5 5 3 . . . O O O     @ 1 @ # % # $ * - - , } n B H D Y Q ) #X#X#XsXaXzXlXnXnXZXZXZXZXmXZXnXdXsXeX9X;X[.'.E.E.s.s.q.q.l.k.q.l.k.l.q.q.0.6.9.4.9.;.e.e.t.F.J.Q.).#X;X#X#X#X5X#X#X#X#X/.#X' ' ' ' ' ' ' +X' ^.^.#X#X^.#X#X#X#X+X] !.W.G.J.t.u.9.4.2.2.>.1.*.%.%.+.+.-.k k J K P L R Y F F S S N B n n } > , - - * $ # # @ @ 1 @ @ X o o 3 7 6 8 0 y k z K G.W.~.;XeXqXzXlXnXCXGXGXGXAXVXVXBXnXlXdXrX.XR.U.s.0.3.1.%.@.+.| 4 | 7 7 6 a f d V V H N M v - $ # @ % @ % $ - , } N F Q ^.#XlXjXkXCXVXCXBXkXzXaXpXxXyXxXxXfX#XiXwX8X;X|.|.F.h.;.=.%.%.@.@.+.+.r t t i i x z K U E E ^ E ^ E ^ I I U J l c c c 6 4 8 6 c c g J { { P P P P P I I E E E E E E ! E Y F S H B n > > > } } } n B B N m N N ",
"W T Y L F X.X.....u.<.6.2.5.2.2.2.>.,.4.=.u.y...X.I I ^ ~ ~ [ ) Q ) ) ) ' o.=X7X2X5X5XwX5X6X1X1X#Xo.o.o.o.D.F.e.<.4.6.2.2.2.>.>.$.$.| |  .....J X.o.T o.( ( o.W o.Y F S m } - $ $ $ - N T ` 5XjXVXLXJXJXSXGXPXzXsXxX5X6X2X2X7X2X2X7X7X2X7X2X2X6X6X5X5X5XwXiXiXiXpXiXiXwX5X3X>X:X-X%X%X%X%X%X*X<X*X*X*X=X$X$X$X$X+Xo.] ` ) / Q ! L G C d f 5 5 3 . . . O O   X   @ 1 @ @ # % $ $ - - , } n m H G Y ! ) ' 3XwXxXsXhXlXnXVXZXLXLXKXZXZXVXNXlXdXeXeX[.'.E.U.g.l.l.v.v.j.c.j.j.k.k.j.8.8.3.1.1.,.;.;.t.t.J.Q.~.#X8X#X5X#X#X#X#X#X/.-X' #X^.#X' #X' ^.+X^.+X' ^.' ^.#X#X#X#X#X' !.~.G.F.i.i.9.4.6.2.2.*.*.%.@.+.+.i i k z J U P R T F F S S N m n } } , ; - $ $ $ # @ @ 1 1 @ % X o . 3 7 8 0 y u k z K G.W./.#X#XwXaXlXBXBXVXVXGXAXAXCXCXNXlXcX0X{.R.U.s.0.4.1.%.@.+.| 8 8 4 7 6 a a d d V H M v > < * % @ @ @ % $ - > n Z F Q ^.#XsXlXBXGXGXGXCXNXkXzXsXpXiXiXpXgXxXiXwXqX9X|.|.P.h.h.=.*.%.@.+.+.r r t 0 y h z J K I ^ ~ ~ ~ ~ ) ~ E E I J J h c c 8 6 c c a l C { L P ! E E Q Q E E [ ~ [ Q [ E ! R Y F S N B n } } > > > } n n B B B B N ",
"T W R R F X.X.....u.<.<.,.6.4.4.,.6.,. .;.y.r.D.D.^ ^ _ ) ` ` ) ) ) ) ] ' +X=X*X2X6X5X5X6X2X1X&X#X@Xo.o.X.X.r.u.<.9.2.5.2.>.&.$.$.| |  . .....X.R o.o.T ( ( T W F Y F S B } - $ % * - B R o.uXhXVXDXJXLXSXVXPXzXsXyX6X3X2X2X2X7X7X2X7X2X2X2X4X3X6X5X5XiXxXiXiXpXiXiXiXyX5X6X6X2X7X7X7X<X7X7X<X7X:X*X%X=X&X$X$Xo.' ] ) ) ( Q ! E L G C d f 6 5 . . . . O O O X   1 @ 1 @ @ # $ * $ - ; } n B H D L ! _ ^.#X3XwXpXhXkXCXGXFXLXKXKXJXJXSXCXNXhXzXeXtX].R.U.z.M.v.v.c.c.c.c.j.j.7.7.5.5.3.1.*.=.=.;.w.t.F.W._.-X#X#X3X#X#X#X#X/.#X#X^.#X' ^.#X^.#X^.' ' ^.' ' ' #X/.#X#X#X#X#X^.W.G.J.i.u.9.4.2.2.>.*.*.%.@.@.-.+.k z x J P L R Y F D A Z B B B } } , - - $ $ $ # @ 1 1 # @ X o o 5 5 4 8 w i i O.O.D.G.`.#X9XiXpXfXjXPXBXGXGXGXAXVXCXPXnXlXcXrX{.R.f.a.9.4.*.%.@.r | | 4 4 4 6 a f f d m m m n > - $ % # @ % $ $ - , n N F Q #X#XaXkXCXGXSXGXGXBXkXhXzXaXpXpXpXpXpXpXwXqX;X[.|.P.h.;.1.%.%.@.+.+.t t 0 y i k l U P E ~ ) ) ] ` ` ) ) [ E U J l c c c c c c d J G J L ! ! ! [ / ) ) ) ) ) [ [ E Q R R F D S N B } > > > > } } n n n B B B N ",
"T W R R L J X.X...i. .u.<.<.9.9.<. .<.u.y.t.F.X.G.W._ ' ' ` #X` ] ] ] ] ' $X=X*X2X2X6X6X2X2X1X$X@Xo.o.o.o.X.t.t.u.9.2.2.2.>.>.&.$.| |  . ...X.J X.Y W o.W ( W ( o.Y F S B > - $ # $ ; N Y +X6XjXCXFXDXLXSXVXNXzXiXyX6X2X2X2X2X2X2X2X2X2X2X3X6X6X5X5X5X5XiXiXiXiXiXiXiXyX5X5X4X4X2X2X4X4X2X2X2X2X2X7X*X*X=X$X$X+X' ] ) ) ) / ! ! L G d d f 5 5 3 3 . O O O X X X @ 1 @ @ % # % $ - - , } n B H D Y ! _ #X#X#X5XiXzXkXCXSXDXKXKXKXJXJXFXAXPXNXhXrX0X{.].x.x.Z.v.c.c.c.c.j.j.j.7.8.5.3.3.1.*.*.=.:.w.r.D.G.~.).#X3X#X#X#X#X#X#X#X#X^.#X#X^.#X^.#X#X#X^.#X#X^.#X#X#X#X#X#X#X#X/.~.Q.J.K.i.<.4.6.2.>.*.%.%.+.+.+.i O.k J J P P Y Y F D D S N B } } } ; - < * % # # @ 1 1 1 1 X X o 3 7 8 0 w t i O.r.G.W.).#XiX#XpXfXjXPXBXVXVXAXAXVXCXCXNXlXdX0X{.R.I.a.9.1.*.%.+.r 8 8 8 4 9 7 6 f f m d s s ; - * $ % @ @ @ # $ < ; n Z F Q #XwXzXkXCXGXSXSXGXBXkXhXzXaXpXpXpXpXpXiXwXqX9X|.|.h.h.h.=.*.@.@.+.+.t t t w y l z I I ^ ) ] ] ] ` ` ( ) / Q I U J l x h h g l d J J L L R ! Q / ` ) ` ] ` ` ) ) / Q ! R { D S N B n } > > > } } n n B n B B m ",
"W R R W R X.X.X.......u.u.u. .u.e.e.e.t.t.F.J.G.W.~.#X-X#X#X#X#X+X' ' ' o.&X=X%X<X7X7X7X<X1X1X&X@X@X+Xo.X.X.K.u.u.9.2.5.2.>.$.&.| | | |  .g g X.X.T o.T o.o.T T R Y F H M > - $ % $ : B R +X6XhXCXSXDXLXSXVXkXzXsX5X5X6X3X2X2X3X6X3X3X6X6X5X6X5X5XwX5XiXxXiXxXiXpXxXxXxXuXuXuXuX6X4XuX4X6X6X4X6X2X7X7X<X*X$X$Xo.@X) ) ) / ! ! R L { C d f p 5 5 . . . O O X     1 1 @ # @ # $ * - - , } n B H D L ! / ] #XqXqXsXzXkXCXSXJXKXKXKXKXJXJXAXCXPXhXdX0X{.]. XZ.M.M.c.c.c.v.v.7.7.8.3.3.1.*.%.%.%.@.-.w.r.D.G.W.^.#X#X#X#X#X3X#X#X#X#X#X#X#X,X#X#X#X#X#X#X#X#X#X#X#X#X#X#X#X4X#X:X).Q.H.K.i.9.4.2.1.>.*.*.%.@.@.#.i i k z J P P F F F F D Z N B m } , - - & $ $ # @ 1 @ 1 1 @ X X . 5 4 8 q t #.-.O.r.D.W.~.#XqXxXpXgXjXNXCXCXAXAXAXCXCXPXNXjXrXtX}.'.E.p.9.*.%.%.+.r | 8 8 8 4 6 6 a a f f s s ; & & % @ @ % @ % * - , n N F ~ #X#XsXkXCXGXSXSXVXCXkXjXzXaXsXpXpXiXpXiXwX>X9X|.E.t.h.;.*.%.%.@.+.+.r e 0 w i x z I I ) ] ] @X@X` @X` ) ) ~ [ I P J J z l J J J J { L W W Q Q ( ` ' ^.' ' ' ` ) / Q ! R F D V N n } > > > > } > n n B B N B m ",
"T R R R R R { X.X.X.....i.u.i...t.t.F.D.J.J.Q.~.).#X#X#X#X2X#X#X$X+X' +X+X#X$X$X=X=X*X1X&X&X&X@X@X#X+Xo.o.F.K.i.<.0.4.2.2.,.&.| | | |  .......X.{ o.T o.T W o.T Y F G H M > - $ # $ : m Y o.6XzXCXSXDXDXGXCXkXhXsXxX5X5X5X6X6X5X6X6X5X6X5XwX5XwX5XxXxXxXiXyXxXyXxXxXuXxXxXuXuXuXuXuXuXuXyX5X5XwX5X6X2X7X*X$X$X' ] ` ) ) ) Q ! E Y G C d a 5 3 3 3 . . O O O O   @ @ @ @ @ # % * $ - , } n N H G { ! ~ ] #X#X#XzXaXjXBXAXFXKXKXKXKXJXJXAXAXBXlXdXcX{.XX XA.M.v.b.c.c.7.7.8.5.3.2.1.*.*.%.@.@.#.-.w.O.D.G.W.!.$X#X#X#X#X#X#X#X8X#X#X#X3X#X#X3X>X#X,X#X#X#X#X#X#X,X#XuX#X#X3X#X-XQ.H.K.i.9.<.1.>.>.*.%.@.@.+.+.-.i k x K P L R Y T D A Z Z B n } } , - $ $ # @ @ 1 1 1 1 @ % o 5 5 8 0 e r -.-.y.r.J._./.#XpX#XgXfXjXNXCXVXCXAXCXCXPXNXkXhXrXtX}.E.h.h.;.*.@.@.+.+.| | 0 8 8 6 7 6 6 f p p 2 & & % % % @ @ # % * < > n Z F ~ #XwXaXkXCXGXSXSXVXBXkXjXzXaXpXpXpXxXxXwX5X>X).Q.|.F.h.h.*.%.%.@.+.r r e t i c k J K ^ _ ' +X@X@X@X@X` ] ) ~ ~ ~ I I K U K K U P L P R R W W / ) ` #X#X#X#X^.' ` ) / ! R F F S N n n v > > > > n n n n n m B B ",
"R W R R R X.X.L X.X.X.X.X.X.K.X.D.J.F.H.G.Q._.).).:X:X2X5X#X4X#X=X$X$X$X$Xo.$X$X$X$X&X$X#X#X#X&X#X#X^.o.o.H.F.i.u.0.2.2.2.&.&.&.| | | 9 9 ....{ X.Y o.T ( T T T Y F D H n > * $ % $ : B Y o.6XzXCXGXFXSXGXVXkXhXaXiXwX5X5X5X5X5X5XxX5XiXiXxXiXiXiXiXiXiXxXxXyXxXxXuXxXuXxXxXuXuXxXxXxXxXxXxXyXyX5X5X6X7X*X*X&Xo.] ` ) ) / Q ! E L { C d p 5 3 3 . . . O O X X   1 1 1 @ # $ $ $ - - , } n N Z D Y R Q ] $X#X#XwXpXjXPXAXJXJXKXKXKXKXJXFXAXPXkXbXrX{.oXx.Z.M.N.c.v.7.7.8.3.2.1.*.%.%.@.@.@.+.#. .O.O.D.I W.^./.#X#X#X3X#X#XwX3X#X#X3X#X3X#X#X3X#X#X#X;X#X>X#X#X#XuXuX#XuX5X2X,X).L.L.i.u.9.>.>.*.%.%.@.@.#.-.i k x x U P L R Y F F S S B B n } , - - $ $ @ @ + + 1 1 1 1 X o . 7 8 w e #.#.e.y.t.G.G.`.#X#X#XjXfXjXNXCXCXAXCXAXCXPXkXlXdXeXtX|.L.F.h.;.*.@.@.r r 0 0 8 8 8 8 4 7 7 5 p 2 2 2 o % % @ X @ # % * - > n Z F Q #XwXaXjXBXGXGXGXVXBXkXjXzXaXpXpXiXxXxX6X6X,X).Q.H.t.h.;.*.*.%.@.+.r r e 0 t k z K I ^ _ ^.+X#X@X@X' ' ' ] ] _ _ ^ ^ W.^ G.^ I ^ P E R W ! Q / ` ` #X#X#X#X#X#X' ) [ ! R { D V N B s > > > > } > n n B B B B m ",
"R R R R R R Y X.o.X.X.X.X.o.X.X.G.W.W._.~.).).,X:X3X3X5X5X4X3X2X*X=X=X$X$X$X#X+Xo.' o.+X+X#X#X#X#X&X*Xo.o.H.K.u.9.9.6.2.2.>.&.| | | | 9  .g l X.L o.Y o.W o.W T F G S N n , * % # $ : B Y ` 2XfXPXGXDXSXGXCXBXhXaXiXiXiXxXwXiXiXiXiXwXiXiXiXiXiXiXiXiXiXiXyXyXyXyXuX5XyXuXxXxXpXxXpXxXpXxXpXiXiXwXyX5X2X*X*X&X+Xo.` ) ) / / ! R L G C d a 5 5 . 3 . . O O O X   @ 1 @ # @ # $ $ - - > } n B N G { ! Q ) #X#X3XxXiXzXkXVXFXKXKXKXKXKXJXFXAXPXkXdXcX.X.XXXA.Z.v.c.v.7.5.3.1.*.%.%.@.@.+.+.+.r t i O.O.K X.^ o.^.#X5X#X5X#X#XwX#XxXwX#XwX#X3X3X#X6X3X3X#X,X#X#X3X5XuX#X4XuX5XqX8X).|.K.i.<.;.>.*.*.%.%.%.@.+.+.-.i k z J P L L F F D S S Z B n } , - - $ % @ 1 +     1 1 @ @ o 2 7 8 w r #.:.:.e.r.F.Q.).#XwXpXgXhXjXPXCXCXVXAXCXCXNXkXhXsXeXtX|.|.t.e.;.%.@.+.r r 0 | | 8 8 8 4 4 7 5 7 2 2 o o X X X @ @ @ $ * < } } N F Q ^.#XaXjXBXVXGXVXVXBXkXhXaXsXiXpXfX#XpX6X:X*X).|.H.t.e.;.*.*.%.@.+.r r e t y c k K I ^ !.^.&X#X#X@X@X' ] ' _ _ !._ ~.~.!.!._ ^ ^ ~ E ! ! ! Q / ` #X#X#X#X*X%X#X' ` ) ! R Y D S N B v v > > > > } n n n B B B B ",
"R R R R R o.o.{ R X.! o.o.X.o.o.~.~.~././.,X:X>X3X3XwX5XyX5X3X2X2X%X*X=X$X$X#Xo.+X' ] ' +X+X+X#X&X&X%Xo.).L.K.i.p.9.2.2.| 2.&.| | | | 9  .g ..C { o.T o.o.( T T F F S B n > * $ % $ : m D ` 4XaXPXGXDXSXGXVXBXhXzXsXiXiXiXiXiXiXiXiXiXiXsXiXpXpXiXiXiXiX5X5X5X5X5X5X5XyX5XyXwXiXxXiXiXpXpXsXiXiXiXyX5X2X7X*X&X+X+X] ` ) / ! ! ! L G C d f 5 5 3 . . . O O O   X 1 1 @ 1 # % $ $ & - , } n B Z D F R Q ) ) #X#XwXxXzXkXCXSXDXKXKXKXKXJXJXAXCXnXbXrXvX XXXx.Z.v.j.7.7.3.1.*.%.%.@.+.+.r r r e t i k k K I ^ o.' $X#X#X#XxX3X#X3X#X5X#X#XwX6X#X6X#X#X3X#X3X#X#X6X#XuX4X5X5XyXqX8X[.|.Y.h.u.4.*.*.%.%.%.@.@.#.+.i k z z J P L R L T D D Z N m n } ; - $ # % @ @ 1   + + +   % o 5 7 8 w +.@.%.;.t.r.J.Q.~.-X#XaXpXfXjXPXCXVXVXCXCXPXNXjXzXsXqX9X|.H.t.e.-.#.@.+.r r | 8 0 0 0 8 4 4 7 7 3 . o o O X X X @ @ # % * - , n N F Q ' #XaXhXBXCXVXVXCXBXlXhXaXsXiXxX#X#XpX2X2X-X_.Q.F.t.h.;.*.%.%.@.+.+.r t e y k k K I W.!.$X$X=X#X#X#X^.' ' #X^.^./.-X#X#X/.-X^._ ~ ~ [ ! ! / ) ' #X#X*X7X#X*X*X+X] ~ ! R F D S N n n } > > > } s n M n n m B N ",
"R R R R R Y R T Q W o.o.( o.o.o.^./.#X#X:X:X3X3X5XyXwXxXxXyX5X5X2X2X<X%X=X&X$X' +X] ] ] ' @X+X+X$X$X%X_.Q.H.K.d.9.0.6.2.2.>.&.>.| | | 8 9 ..J X.X.Y o.W T T W Y F D H N } - * % # $ - M T o.1XaXPXGXSXSXGXVXPXlXfXaXsXpXiXiXiXiXsXiXiXiXiXpXsXiXiXiXsXwXwXwX5XqX3X8X8XqXqXqXwXwXiXsXsXeXiXsXiXiXwXyX5X2X7X*X=Xo.+X' ` ) ) / ! E L G d d a p 5 3 3 . . O O   X   @ @ @ # @ # % $ * - , } n m H D F R Q Q ) ^.#XqX5XsXjXBXGXFXLXKXKXKXJXAXAXCXnXlXcX.X.X XA.l.v.8.7.3.3.>.%.%.+.+.+.r r e e t w i j z K I ^ o.^.$X3X#X#XwX#XwXiX#XwXiX6X6X5XwXwX#X3X6XwX#X#XqX#X3X4XuX5XwXqXqX9X'.|.P.h.u.;.*.*.%.%.@.@.@.+.+.i k x x J P L F Y F D A Z Z B } } , - $ % # @ 1 1 1 + +   1 X % . 6 c w #.#.:.;.e.t.J.H.~.#XxX#XxXfXjXPXBXVXAXCXCXPXNXhXaXsX8X[.|.J.t.w.-.+.+.r r r 0 | | 0 8 8 4 4 7 3 3 3 . . O X X X 1 @ # % * - , n N F Q ' #XdXhXkXCXVXVXBXPXlXhXaXpXpXpXaXpXgX2X2X-X_.G.H.F.h.;.=.%.%.@.+.+.t t 0 t i z K G.o.^.%X%X=X&X$X#X#X' #X^.#X#X#X#X7X3X#X>X#X^._ ~ Q / [ ~ ) ^.#X:X:X2X:X:X#X^.] ) Q ! F G Z N n n > } > > > > n n M B N B N ",
"R R R R R R o.o.o.W o.( o.` +X$X#X3X,X3X2X2X5X5XwXyXxXwXwX5XyX3X6X2X2X7X%X=X$X$X+X' ' ' ' o.^.^.o.o.).Q.H.L.i.d.p.6.2.2.>.2.| | | | | 6 g g g X.{ o.o.T W T R T F S H B } : * % # % - M F o.2XaXPXGXSXSXGXVXBXkXhXzXaXsXpXiXiXiXiXiXiXiXiXiXiXiXiXsXsXwXwX8X8X8X8X;X8X9X9X9XtXeX9XeXqXeXeXiXwXwXwXyX3X6X2X*X&X$Xo.` ` ) / Q ! R L { C d a 5 3 . . . . O O O X   1 1 1 @ @ # % * * - - } n B H S F Y E [ ) ' #X#X#XaXhXBXGXFXLXKXJXJXJXFXAXCXnXbXcX.X.X Xx.l.k.8.5.3.1.%.%.@.+.| r e e e w w u j j l K I ^ _ _ #X#X5X#X#XxX5X3X5X6X6X3X5X5X6X6X6X#X#X5X5X5X3X6X#X3X3XqXqXeX9X[.'.Y.P.d.<.,.,.*.%.@.@.#.+.-.i i O.z z U P L R T F D S Z B B } } , - $ % % @ 1 X   + + + 1 % o 5 7 8 0 t #.:.e.r.F.F.W.).#X3XyXpXfXjXNXCXVXVXCXCXNXjXhXaXwX3X[.Q.F.r.w.#.+.r r r e | 8 8 8 8 8 4 7 7 3 3 . . O O O O   X @ @ * $ - } n N F ~ ' #XiXzXBXBXCXCXCXkXlXdXaXpXiXpXaXpX#X2X:X-X).H.F.h.h.;.;.%.%.@.+.r t e e y k z K I W.!./.=X=X&X$X$X#X#X#X#X-X:X#X3X:X3X#X3X#X#X$X_ ) ) ~ ` ' #X*X<X2X6X2X:X#X#X] / ! R F S H N n } > > > > n } n n B B m N B ",
"R R R R W ! W W ( o.( @X@X@X&X&X#X#X6X#X2X4X5X5XyXwXxXwXxXyXyX5X6X6X4X2X7X*X=X=X$X$X+Xo.o.^.(.~.).).Q.Q.L.K.i.p.9.9.4.>.>.| | | | | 8  . .d ..G X.L W o.W o.R Y D D H m } - * % # % - m T o.<XsXkXGXSXFXSXGXBXkXhXfXaXsXsXiXiXxXiX5X5XiXyXxXiXiXiXsXwXqX8X9X9X[.[.[.`.[.[.[.[.[.9X9X9X9X9XqXwXwX5X5X2X2X<X*X*X$X#X+X' ) ) / ! ! L G C d f 5 5 3 3 . O O O X X 1 @ 1 1 @ @ @ % $ $ - - > } B N S S Y R Q ) ] #X#XwXsXzXkXVXSXJXKXJXJXJXFXAXCXNXbXcX0X.XU.x.s.8.3.3.1.*.%.@.+.r r t t w w w y u h l K U I ^ _ _ #X#X#X#XxX#XwX#XsX5X5X5X5XwX5X5X5XiX5X5X#X6X#X3X>X,X8X8X8X[.[.}.Y.P.d.h.<.=.*.%.%.@.#.#.#.-.k k z l J P P L L F F D S Z B n } } ; - $ % % 1 1 1 1       1 @ o o 5 6 y i i -.w.w.D.G._.).>X#X5XpXfXkXPXBXVXVXCXPXNXjXfXpXwX;X).Q.D.r.w.-.r r r e q 0 | 0 0 8 8 4 7 7 3 3 . . . O O X   @ @ # % < < , n N F _ #X#XiXzXkXBXCXCXnXBXjXhXaXaXiXiX#X#XaX4X2X-X).Q.H.F.h.;.*.*.@.@.+.+.t t e w k O.z G.W.^.$X$X=X&X&X$X$X#X^.#X#X7X2X4X6X5X6X6X#X#X#X+X] ` ` _ +X#X*X7X3X6X2X3X#X#X_ ) ! R F S N N n n } > > > > n n n n B n B m ",
"R R R R R Q / / ] #X#X#X#X#XuX#X5X#XxXuX6XuX5XyX5XyX5XyXyXwX5X5X5X5X6X3X2X2X<X*X=X&X&X^.^./.~._.Q.H.H.H.K.i.p.p.9.4.>.>.>.$.$.| | 8 8  .9 g ..{ R o.Y R W W R Y D D H B v - $ % # $ : M F o.2XaXkXGXSXFXSXGXCXkXjXhXaXpXiXiXwXyX5X5X5X6X5XyXyXyXiXwXqXqX9X[.[.'.'.'.Y.'.].T.'.}.}.'.[.[.9X8X8X3X2X2X2X5X2X#X:X#X^.' ] ] ) / Q ! L G C d f 5 5 3 3 . . O O O   X @ 1 1 1 # # # # $ < - > } n N H D { Y ! / ] ^.#X#X5XzXkXCXGXDXLXJXJXFXAXAXCXkXbXrX{.R.E.g.s.4.3.1.*.%.@.@.r r t w t 0 y y h h x l U P I ~ _ _ #X#X#X#XqX#XwX#X5XsX#X#XwXaX#XaX#XiXpXpX#X#XwXqX#X>X;X[.[.}.'.T.I.d.p.p.<.*.*.=.%.#.-.-.i k O.z x J J P P L R F F D Z H B } } , - * $ @ @ 1 1           + 1 % 2 5 6 c y i O.O.r.D.G.W.).#X#XyXpXhXkXPXCXVXCXCXBXNXjXgXiXqX8X).Q.F..... .| | | | 8 0 0 0 8 8 4 4 7 3 3 3 . . O O O   X   1 @ $ $ - , n Z G E ' #XiXzXlXBXBXBXBXkXjXhXaXsXiXiXxXpXpX6X3X;X).|.F.t.h.;.*.*.%.@.+.r r e 0 i y O.z I o.^.$X%X=X&X$X$X$X#X#X*X#X<X2X2X4X5X6X4X2X7X#X#X^.' ^.^.#X#X2X6X5X3X6X2X*X#X_ / R R D S N B n n > > > > > } n n B n N N N ",
"R R R R ! Q / ) +X#X#X#XyX#X6X#XyX5X5XyX5X5X5X5X5X5X5X3X5X5X5X5X5X5X5X5X5X4X4X2X2X7X7X%X).~.Q.Q.L.L.K.i.d.p.p.9.9.4.2.>.>.$.$.| | | | 9 9 ..g X.X.! ! o.W W R Y D D H B v ; $ $ % $ - m T o.<XaXBXGXSXFXFXGXVXPXlXhXhXaXsXiX5X6X2X2X2X2X6X4X5XyX5XqX9X9X[.}.'.T.T.I.I.I.I.I.I.T.T.Y.'.'.[.).,X-X:X2X2X#X#X:X#X#X#X+X' ] ) [ Q R P G d d a 5 5 . . . . O O O X 1 1 1 1 1 1 1 @ % $ $ - ; } n B H S G Y ! Q ) ' #X#X5XsXhXBXAXSXDXJXJXJXAXAXCXnXlXcX0X].E.a.9.4.*.*.%.@.@.+.r e t w u u y h h l l J P I [ ~ _ ' ^.#X#X#X#X#X#XsXpXwXxXaXwXsXpXsXwXiX#XpXxXpX#X8X8X[.[.'.|.Y.I.I.d.a.p.9.,.,.=.%.=.-.-.-.O.k x l K U U P L L R F D S N N n } > ; - * $ % @ 1 1             @ X o 2 5 a c h k z K X.G.!.;X#XeXwXpXzXjXBXCXVXVXCXBXkXhXaXwX3X-X).X.X... . .| 8 | 8 | 0 0 0 8 8 4 7 7 7 3 3 . . . O O O X X 1 @ $ * - > } N F ! ' #XsXaXlXNXBXBXBXkXlXzXaXpXpXpXpXpX#XyX3X8X).Q.|.F.h.h.*.%.%.@.+.+.t e t i y z K I ^ !.^.$X&X&X&X&X$X%X#X*X*X7X7X6X6X5X6X4X2X2X:X#X#X#X#X#X*X:X3XyX5X5X6X2X*X^.' ) R F G S N B s n > > > v s v n n B N n N n ",
"L R R R Q / ) ] #X#X#X5X6XuX6X5X5XyXuX5X5XxX5X6X6XiX5X6X6X6X5X5X5X5X5XwX5X5XxX6X4X3X3X:X).).Q.H.L.K.d.d.p.9.9.9.4.2.>.>.&.$.@.| | | 8  . .g ..G X.R Q Q Q W W Y F S H B v - * % @ $ - n D ` 1XaXnXGXSXLXFXSXVXBXkXjXhXsXiXyX6X2X7X7X2X2X2X4X4X6X5XqX8X9X[.T.T.U.f.x.g.f.g.g.f.f.f.I.P.Y.L.Q.).%X#X:X4X2X2X#X#X:X#X^.+X] ` / Q ! L G C d f 5 5 3 . . . O O X   X 1 1 1 1 1 @ @ # % * < , } n B H S D Y L ! / ] ^.3XxXiXhXkXVXGXFXFXFXFXAXAXBXnXdXrX0X'.E.h.<.=.*.%.@.@.+.+.r e t w u h h l l l J U P I ~ _ _ _ #X#XqX#XwXwX#XwX#X#XaXaXpXpXiXiXxXpX#X#XpXiX#X8X;X[.`.'.E.I.f.a.p.p.9.4.,.*.*.;.#.-.-.O.z z K J J P P L L L F F F S N N n } > ; < $ % % @ 1 1           + 1 % & 2 p a a h l J K I ^ o.(.#X#XsXpXhXkXBXBXVXCXCXPXjXfXpX5X3X-Xo.X.X... . .0 | 8 8 8 0 0 8 8 8 4 4 7 3 3 3 . . O O O X   X @ # = * - } n N F Q ] #XwXaXlXBXBXBXNXkXhXzXaXsXpXpXxXpXpXwX5X>X;X|.|.h.h.;.*.%.%.@.+.+.t e t y k k K X.^ !.^.$X$X&X&X$X$X%X*X#X:X7X2X6X6X4X6X6X2X2X<X<X*X:X#X:X2X2X5X5XyXwX5X2X*X#X_ / R F D N N n n > > > > , v v n n n B B N N ",
"Y R W R R ~ ) +X#X#X#X6X5XyXyXxXyXxXiXiXxXxX5X5X6X#X6X6X#X3X6X5X5XwXiXyXxXxXxXxXxX5X5X>X9X).'.Y.K.p.p.9.9.9.4.4.2.,.>.>.$.$.@.| | 4 | 8 9 ..C X.P R o.Q W W W Y F S S B } - * $ @ $ : m F o.2XaXNXAXSXDXDXSXGXCXkXkXhXaXsX5X6X7X*X*X=X*X<X<X4X6X5X8X8X[.}.T.U.g.a.z.z.q.z.0.l.a.a.d.P.K.L.Q._.).-X#X#X#X#X2X#X2X#X#X+X' ` ) E ! L G C d a 5 5 3 . . . O O X X   1 1 1 + 1 1 @ @ % $ < - , } n N H D G Y R [ ) ' #X#XxXzXkXBXGXGXFXFXFXAXAXBXnXlXrX{.'.E.h.h.=.%.@.+.+.r r e q w u u h l l J J P P [ E ~ ] ] ' +X#X#X#X#X#XqX#XsX#XwX#XwXiXiXiXiXpXfXyXyXyXsX9X#X`.|.E.d.d.a.a.0.6.4.4.1.=.=.=.:.w.O.O.z J P P P L P R E R { F D S N n } } , - - $ $ @ @ 1               X X % & 2 s f d d J P I ^ _ $X#XsX#XpXzXlXBXBXVXCXCXkXjXfXiX5X>X).o.X.X...h 0 | | 8 | 8 8 8 8 4 4 4 3 7 3 3 3 . . O O O X X 1 @ % $ * - , } N D Q ^.#XwXaXhXkXkXBXkXkXhXzXaXaXpXpXpXpXpXxXxXqX9X|.|.F.h.h.;.%.%.@.@.+.t e 0 t y l z I G.^ ^.#X$X$X&X&X=X*X#X<X<X7X2X2X6X6X6X6X2X2X2X7X7X7X:X2X6X5XyXwXxXiX6X2X*X#X] ! L F S N N n v v > > > > > s n B B B B N N ",
"Y Y R R ! ~ ] ^.#X#XwXxXwXpXsXiXpXpXpXiXxXwX5X5X6X6X3X5XqX5X6X5X5XiXiXiXiXxXpXpXxXxXwXqX9X[.Y.Y.f.p.9.0.4.2.2.2.1.>.*.*.%.$.| | | | 8  . .g ..G X.R Q W Q W R Y F D H N } ; $ % @ $ - M T o.7XaXkXGXFXLXFXFXGXCXBXkXlXzXiXyX2X*X*X$X$X&X=X1X<X6X2X8X[.[.T.T.g.s.l.l.l.k.k.8.q.0.0.p.p.i.J.H.Q.o./.#X#X#X2X#X2X#X#X#X#X/.` ) / ! L G C d f 5 5 3 . . . . O X X X 1 1 1   + 1 1 @ # % < - > } n N H S F Y R Q / ] #X#XsXhXjXBXVXGXAXFXAXAXAXCXnXdXrX{.|.P.h.;.#.@.+.+.r r e e e w y y h l J P P E E [ / ) ] _ ' +X#X#X#X8XqX#XwX#XiX#XzXsXxXiXiXpXpXxX#XpXqX#X9X[.|.L.P.d.p.0.0.6.4.4.1.*.*.*.;.-.w.O.K J U P L R R E ! R R F F D S N n } > , - $ $ % @ @ @ 1 1     1 1 1 @ % % < & s s m C C L E ~ o.#X#X#XxXpXzXkXNXBXVXCXBXNXjXaXiX6X:X%Xo.X..... .y 0 8 8 8 8 8 8 4 4 4 7 7 3 3 3 3 3 . O O O X X 1 @ # $ * - > } N G W ] 5XwXsXhXkXkXkXkXkXhXzXaXpXsXpXpXpXpXsXiXqX9X[.|.h.h.*.*.*.%.@.+.r r e e i i k z I I _ ^.^.#X$X&X=X=X*X*X7X7X7X2X2X4X2X3X4X2X2X2X2X2X2X2X4X6XxXwXiXiXwX5X2X*X^.) ! R D S N n n > n > > > v s v n n n B B B B ",
"L R R R Q ) ] #X>X5XwXpXpXsXaXaXaXsXsXiXiXyX5X5X6XwX#X#X#XwX6X5X5XiXiXiXpXpXpXpXpXpXiXqX8X'.Y.P.d.a.0.2.3.2.2.>.>.*.*.%.$.$.| | | 8 | 8 6 ..C X.P R o.R W W W Y F D H B } , * $ # $ - M D o.7XsXkXGXSXFXLXSXZXVXBXkXjXhXsX5X2X7X&X$X$X$X&X<X1X4X3X>X;X[.T.I.g.z.l.k.j.j.j.j.7.5.6.9.<.t.F.J.Q.o.^.^.#X#X#X#X#X2X:X#X#X#X' ) / ! L G C f p 5 5 3 3 . . O O O X X   X     1 1 1 @ @ $ * - , } n B H S S D L R [ ) #XqX3XsXhXkXBXVXAXAXAXAXCXCXNXbXrXtX'.K.t.e.-.+.r r r e e e w u j h l l J P L E [ ~ ) ) ] ' +X^.#X#X#X#X#X#X#XwXyX5XyXiXiXpXiXwXiXxXyXwXeX#X;X|.|.K.d.p.p.4.4.2.1.1.1.*.=.;.;.w.O.O.K U P L R R R ! R R R R F D Z N B } > - < $ $ # @ @ X 1     1 1 1 1 % # $ & > ; } m H G { R [ o.-XqXwXwXiXzXlXNXBXCXBXPXjXhXpXyX2X*Xo.o.X.X...h 0 | | 0 | 4 8 4 4 4 4 7 7 7 3 3 . . . . O O O X % @ % $ < : } n N D W ] #X#XpXzXlXkXkXkXhXhXzXaXaXpXaXpXpXpXpXwXqX;X[.|.E.h.h.;.*.%.@.+.+.r t t y c k J K ^ ^ _ +X#X#X$X=X=X*X*X*X:X2X7X2X2X6X2X2X6X4X2X2X2X2X4X3X5XyXiXiXiXiXyX4X:X#X) ! L G Z B N n n > > > > > > v n n n m n B B ",
"Y R R ! Q ) #X#X#X5XiXaXaXhXhXzXaXaXpXiXiXwX5X6X3X#XwX6X5X#X6X5X5XxXiXwXpXpXpXpXpXpXwXqX9X[.Y.P.d.0.,.2.1.1.>.>.*.*.%.@.$.| | e | 8 8  .9 ....{ L o.o.Q Q W R Y F S H B v - $ % $ $ < M D o.7XpXkXGXSXDXDXSXSXGXCXPXkXzXsXyX2X7X&X$X$X$X&X1X<X<X2X>X[.'.T.I.s.l.k.k.j.j.5.7.7.5.4.,.<.u.t.J.o.o./.#X#X#X#X4X#X:X:X#X#X#X] ) / ! R G C d f 5 5 3 . . . O O O % % X X         1 1 @ % $ < , } n B H H S F F R Q ) #X#X#XzXaXkXBXVXAXAXAXAXAXCXnXlXrX9X'.L.t.w.#.r r e e e e y u y h x l J P P ! Q / ) ) ] ' +X#X#X#X#X8X#X#X5X#XsX#XxX5XwXzXaXsXsXwXqXqX#X#X[.Q.|.H.K.h.p.9.9.,.,.4.*.=.=.=.:.-.w.O.K K P L ! R W ! W W W R L F D S N n } , ; < * $ % @ @ 1 1 1 1 1 1 1 @ % % $ * - > } B N S F R Q ] #X#X#XsXiXzXhXkXBXBXBXNXjXfXpX5X2X%Xo.o.X...h  . .8 8 0 8 8 8 4 4 4 3 7 3 3 3 3 3 3 . . . O X % % # $ $ < - > n N F R _ #XwXiXzXhXkXkXlXhXhXfXaXaXsXpXpXpXpXpXwXqX9X|.|.F.h.;.*.%.%.@.+.+.r t e w i k J K ^ ^ ' ' #X&X&X=X*X<X7X<X7X2X2X2X2X2X2X2X2X2X2X2X2X2X2X6X5X5XiXiXiXiX6X2X#X^.) ! Y S S N n n } } > > > > } v } n n n B m n ",
"{ L R ! ~ _ #X#XqXyXaXzXhXhXhXhXzXaXsXxXwXyX5X5X5XyX#X6X3X3X6X6X5XwXwXyXyXiXxXpXxXiXwXqX[.`.Y.P.i.9.,.>.>.>.*.*.%.%.@.@.| | | | 8 | | 9  .g l X.X.! R Q ( W R Y F S H B } : * $ # = < M A o.*XiXkXCXGXFXDXFXSXGXVXCXkXhXaXwX6X7X%X$X$X$X&X1X=X2X2X>X).'.T.I.s.z.k.j.j.j.j.5.5.3.2.,.u.y...J.X._./.#X#X2X#X2X5X2X2X:X:X#X+X` [ ! P G C d f 5 5 3 3 . . . O O O O X X X   X 1 X 1 % % $ - , } } B N S V D F Y ! ~ /.#X#XsXaXjXnXBXAXAXAXAXAXCXBXlXrXtX|.F.r.-.-.t e e e e w y u h h l J P P ! Q / ( ` ` ] /./.#X#X3X#X#XqXwX#XwX#XsXaX#XwX#XwXwXeX#XtX#X9X)._.Q.H.F.F.t.e.e.;.;.;.;.;.;.;.-.w.w.O.z K U P L E W W W ! ! ! R R F F S N n } ; - < $ $ # @ @ 1 1 1 1 1 1 @ % # $ * - - b n M N S F R Q ) #X#X#X#XyXaXhXlXkXBXNXkXjXzXpX6X:X%Xo.o.X.X...y  .0 8 | 8 8 4 4 7 3 7 7 7 3 7 3 3 3 . . o o X % % % $ * < , } n N D R ) #X#XwXfXhXjXjXlXlXhXaXaXaXpXaXpXpXpXpXwXqX9X[.|.h.h.h.*.*.%.@.@.+.r r t i k k z K I ^ _ ' #X#X&X=X*X<X7X7X2X7X2X7X2X2X7X2X7X7X7X7X7X7X2X2X6X5XwXwXiXwX5X3X#X#X) W L D V N N n > > > > > > > > n n n n n n n ",
"Y Y R R / ] ^.#X6XiXzXhXkXkXhXhXzXaXpXiXyXwX5X5X3X5X6X6X3X6X6X3X6X5X5X5XxXxXuXxXxXxXwX8X;X`.L.K.u.<.,.>.>.&.&.%.$.$.$.| | | | q | 0 | 8  .g ..X.L R ! ! W W W Y F S H N v ; $ % # $ - n D o.&XyXhXCXGXSXDXLXSXGXGXCXBXlXfXiX5X2X%X=X$X$X&X=X1X2X:X8X[.`.T.I.s.q.j.j.7.7.7.5.3.>.*.=.;.t.t.G.G.o.^.#X#X4X#X4X2X2X4X#X2X#X#X+X/ E L G d d f 5 5 3 . . . . . . . O O O X     X   1 @ # * < , } } B N H S S D Y Y E ) ^.#XwXpXhXkXBXCXAXSXAXGXVXVXnXdX0X'.F.t.-.i r e w 0 w y h h l l J U P P [ / ) ) ` ' ' #X#X#X#XqX#XyX#XsX5XsXyXxXxXxX#XaXwX#XeX#X9X)._.Q.H.H.D.F.t.y.y.w.e.e.:.w.:.w.w.w.O.r.z K U P P R ! W W W Q ! ! ! R Y G S N n } > - - $ $ % @ @ @ 1 1 @ X @ # % $ * * - : b } M M A F T Q ) ` #X#XsXsXpXzXjXlXkXkXjXzXpXyX6X7X$Xo.o.X...g  .9 | 4 8 8 4 4 4 7 7 3 7 3 7 3 7 3 3 3 3 o o o $ $ * * < < , } n N D E _ #XwX5XaXhXhXlXjXlXfXzXaXaXaXpXpXpXpXiXwX3X;X|.|.t.h.h.;.*.*.%.@.@.+.r t i i k K K I ~ _ ' #X&X&X=X<X7X2X2X2X2X2X7X7X:X*X*X:X*X*X:X*X*X*X7X2X3XyXyXwXyX6X2X%X^.) R F S S N n n s > > > : > > > n n > s n n n ",
"Y L R Q / _ #X6XwXaXhXPXPXPXPXhXzXaXsXiXyXyX5X6X5X5X5X6X6X6X6X5X3X6X5X5X6X5XyXuX5X5X6X>X).|.L.t.u.<.=.&.%.$.$.$.| | | | | | | e 8 | 8  .y g J J P o.R o.Q W W Y F S H B v : < % % $ - n A W &X5XhXPXVXSXFXFXSXSXGXVXBXNXhXsX5X2X*X=X=X&X&X1X<X2X2X>X`.`.Y.I.g.q.q.7.7.7.5.2.>.>.=.;.;.y.r.D.W.~./.#X2X#XuX6X4X5X5X2X:X#X#X' ) E R G C d a 5 5 3 3 . . . . . . O O X X O X     X % % $ - , } n m N H H S D G Y ! ) ' #XxXiXzXkXPXBXAXAXAXSXGXVXnXdX0X[.F.r.w.i t t 0 y y h h l l J U P P [ / ) ) ` ' ' ' #X#X#X#X#X#X#XsX5X5X#XyX#XwXxXpXiX5X#X8X).).|.H.J.D.F.r.r.r.r.r.r.r.O.r.r.O.r.O.O.z z K K I P P R R R W W Q Q Q E R R D S N n } > : < $ # % @ 1 @ 1 @ @ # % # $ * < - ; , v n M Z S D W Q ) ' #X#X5XqXiXaXhXjXkXjXhXzXpXyX4X7X%Xo.o.X..... . .8 0 8 8 4 7 4 3 7 3 3 7 3 7 3 7 3 3 3 o o o % $ & < - : > } n N D R _ #X#X#XsXzXhXhXhXhXhXzXaXaXsXpXpXpXiX5XwX8X;X|.|.F.h.*.*.*.*.*.@.@.+.+.r i i k z K P ^ ] ' +X#X=X<X7X7X2X2X2X2X7X:X<X*X:X<X#X%X#X#X#X#X*X*X:X2X3XyXyXwX6X2X7X+X) R R S S N n n v n > > ; > > > > > n } v v n ",
"F F W R ~ ' #X3XyXzXkXBXBXBXBXkXhXaXpXwXwX5X5XwXwX5XyXwX5X5X5X5X6X3X6X6X6X6X2X4X4X4X6X-X).Q.H.F.y.;.=.$.$.$.@.| | | | | | e e e 8 | 0  .9 ..l J X.R ! o.Q W R Y { S H N } ; * % # $ - v Z o.$X5XzXkXVXGXSXSXFXFXGXGXCXnXjXaXyX6X7X*X=X=X1X<X2X2X:X>Xo.'.L.f.a.q.q.7.7.3.2.1.>.&.=.=.;.w.D.G.W.!.#X#X:X2X2X5X5XyX5X2X2X:X#X' ) ! L G C d p 5 5 3 3 . 3 . . . . . . O O O   X   1 @ % * - , } n B N N Z S S D { R [ ] #XwXxXaXjXkXBXAXAXSXSXSXGXnXbXtX[.F.r.-.t w w 0 y h h l J J J P E [ [ ) ) ] ' ' #X#X>X#X>X#X#XwXsX#X5XyXyXyXaX#XaXaX#XqXeX#X_.Q.J.F.r.t.r.w.r.O.r.r.O.K D.z K K z z K K K U P P P E R ! ! ! Q ( Q Q Q ! L Y S N n } , - < $ # % @ @ @ @ @ @ % % $ * < - ; , b v n M N S F Y ! [ ' +X#XwX#XsXpXzXzXhXhXzXaXaX5X2X=X$Xo.X.X.J ..y  .8 0 8 8 4 4 3 7 3 3 7 3 7 7 7 3 3 3 5 5 2 & & & - - - > > } n Z S R / #X#XpXiXaXzXhXhXhXzXaXaXaXsXpXiXiXpX5X3X;X).|.H.t.h.h.;.*.*.%.@.@.@.+.+.+.i k z K I ^ ] _ +X$X=X<X<X2X2X2X2X7X7X*X#X%X#X#X#X#X#X^.^.#X#X*X7X7X4X3X5X6X2X7X#X' ) ! L S S N B n v > > > : : > > > > > > n > } ",
"{ R R R / ^.#X6XsXhXPXCXCXCXnXkXhXaXwXyX5X5X5XwX5XxXwXxXyXwX5X6X6X6X7X2X2X2X2X2X2X2X:X-X~.Q.J.t.y.:.:.@.+.@.+.| | | q | e e e q | 8 | 8 ..g ..X.L o.R W Q W R Y F D H B } : * $ # % - } Z o.$X5XaXkXCXGXSXDXSXDXFXGXVXPXlXfXiX5X2X<X*X=X1X<X1X4X3X>X9X}.Y.I.f.0.6.5.3.3.1.>.&.&.$.#.w.w.r.G.W.~.-X:X2X4X6X5XyXxXwXyX2X#X#X^.) E L G C f f 5 5 . 3 3 . . 3 . . . . O O X O X X @ # % $ < , } n n N N H Z S S F Y [ ^.#X#X3XsXzXkXBXCXAXSXSXSXZXnXbXtX'.|.r.O.i w w y c h l J J L P E E / ~ ) ] ' ' #X#X#X#X#X#X3XwX#XyX5XwXwXwXiXaXxXiX#XiX8X#X[.Q.G.D.r.w.w.w.O.O.O.O.K K K U U K U I U U U P P P P L L R R ! ! W Q Q Q Q ! R F D H N } > ; - $ # % @ @ 1 @ @ @ $ $ $ < - - , > } } } M Z H F Y ! [ ] +X#X#XwXaXwXpXsXzXzXpXpXaX4X*X&Xo.o.o.X...l  .8 | 0 8 4 4 7 7 3 3 3 3 7 3 7 7 4 7 3 3 5 2 2 & - - - - > v } B N S L / /.#XyXsXaXzXzXfXzXzXfXsXpXpXpXxX#XgX6X3X-X).Q.H.t.h.*.*.*.%.%.@.@.+.+.+.t O.k z K I ^ ~ ] +X#X&X<X7X2X2X2X2X2X7X*X*X#X#X^.+X' ' ' ' ^.^.#X#X*X7X2X6X3X2X<X#X' ) W F S V N B n v > > ; > ; > > > > > > > > > ",
"{ Y R ! ~ ] #XwXsXhXCXGXGXGXCXkXhXaXiXwX5X5X5XyXyXiXiXiXwXyXwX6X3X2X2X<X<X<X<X<X<X<X7X%X_._.J.r.w.-.#.+.| | | r | q q q q q q q 8 |  .9 y ....{ P o.o.R W W W Y F D H N } , < % % $ - } H o.+X2XsXkXBXGXZXFXDXFXFXSXGXCXkXfXpX5X2X7X*X*X<X<X<X4X2X8X;X`.Y.I.d.0.6.3.3.2.1.*.%.%.:.-.w.w.D.G.W.(.7X2X4X4XuXyXxXxXyX5X4X2X#X] ) Q L G C f f 5 5 3 . . 3 . . 3 . . . . O O O X 1 X @ % * - , } n B N N N N H S D { ! ~ ' #X#XiXzXjXNXCXAXSXSXSXGXCXbX0X}.H.t.w.i w y y h l J J P L E Q [ ) ) ] ' ' $X#X;X#X#X#X3X#XwX5X5XwXxXwXiXiXxXpXxXsX#X#X9X).W.D.D.r.w.-.-.O.O.k K U U I P P E P P P P P P P P R R R R R ! ! ! Q Q Q Q ! L Y D Z B } > - * $ # % @ @ @ @ @ @ $ $ * - ; , > > } } n B N H F F W Q ) ' #X#XqX#X#XzXsXpXiXwXiX#X<X=X@Xo.( X.U ..h  .8 0 0 8 4 4 7 7 3 3 3 3 7 7 7 7 4 7 7 5 5 2 2 & ; , , , > v } B N S Y [ ' #X#XaXsXpXaXfXaXsXsXsXpXiXiXiXiXpX2X*X%X~.|.D.t.h.;.*.%.%.%.%.@.@.+.+.#.k k z K U E ^ ] ] #X&X%X<X2X7X2X7X<X*X#X#X+X' ' _ ` ) ` ) _ ` ' #X#X:X2X2X2X:X#X#X_ / R F S S N n n v s > , ; : : : > > > > > > > ",
"F Y R Q / ] #X5XaXkXCXGXGXGXCXkXhXaXiX5X5X5X5XyXwXiXiXsXiXxXwX6X2X2X7X7X7X<X<X<X<X<X7X/.~.G.D.r.w.-.#.+.| | r e q | q q q q q q 0 8 8  ...g J J X.R Q W W W R Y D D H B v , < % # % - } H T +X2XpXlXPXVXSXSXSXLXLXSXGXCXkXhXsX5X2X7X*X*X1X2X2X4X2X8X;X`.L.P.i.a.9.9.4.1.*.%.%.@.#.-.w.r.D.G.W./.-X#X2X4X5XyXxXwXwX5X4X#X#X+X) E L G C d f 5 5 3 3 3 . 3 3 . . 3 . . . O O X X X @ $ * < - } n n n N N N H H S Y R / ' #XwXxXsXhXkXBXVXAXSXFXGXZXnXrX[.|.r.O.k i u h h l J P L E Q / / ) ] ] ' ' ^./.#X#X#X>X#X3X#XsX5X5XyXxXwXpX#XaX#X#XwX#X/.~.G.D.r.w.O.-.i  .k z x J P P R ! R R ! ! R E ! R R R E R E R ! ! ( Q / Q Q ! R F S H n } , ; - $ $ # @ @ @ @ @ % $ * < - , , > } } n n B N S S F R Q ~ ] ^.#X#X#X#XyXyXwXpX#XwX#X=X#X@Xo.o.P J J ..9 0 0 0 8 4 4 7 3 3 3 3 3 3 7 7 7 7 7 7 5 5 2 & ; ; , > b v > } B N S Y Q ] #XwX#XxXsXsXpXpXsXpXwXyX5X#XpX#X#X<X%X/.W.W.F.r.h.e.;.%.%.%.@.@.+.+.i i i k z K I E ~ ) ` +X#X=X*X<X:X<X:X#X*X#X^.' ' _ ` ) ) ~ ~ ) ) _ ' #X#X*X7X*X*X*X^.` / R F S S N B n v v > > : : ; ; > - > ; : ; : ",
"F Y R R ) ^.#XsXaXkXCXGXSXGXCXPXhXaXiXyX5XwXyXwXiXpXsXpXiXwX5X6X6X<X<X*X*X<X<X<X<X<X7X/.~.W.D.r.w.-.#.t r r e e q q q w q q 0 w |  .9 9 h l J X.L R ! R Q W R Y F S H B } , < % # % - } Z ! o.2XsXhXkXVXZXFXDXDXSXSXGXCXNXzXsX5X2X<X*X*X<X<X2X6X3X8X;X`.'.K.d.d.9.9.9.<.;.=.:.-.-.w.O.D.D.G.~./.#X2X2X6X5XxXxXwXwX6X2X2X#X^./ Q L G C f f p 5 3 . 3 . . 3 . 3 . . . . O O X X 1 @ # * < - > } n n N N N N H S F R Q $X#X#XsXiXzXjXPXBXAXSXGXZXVXbXrX9X|.D.r.k k j l l J P P E Q / ( ) ] ] ] ' #X^.#X#X#X>X#X#XqXsX#X#XwX#XsX#XaXsX#X#XiX#X#X~.W.G.D.O.O.i  .i k z x J U L R W W ! W W W W ! ! R ! ! R R ! ! ! Q ! Q Q Q E ! Y F S H n } > , < $ % # @ @ @ @ # # $ $ & - ; , > } } n n M N H F F R ! Q ~ _ ' #X#X#XqX#XeX#XqX#X#X#Xo.o.Q E P J ..h  .0 0 8 8 4 4 7 3 3 3 3 3 3 3 3 7 7 7 5 5 5 p p ; ; > > > v v } m Z S { ! (.#X#XyXsXsXxXiXyXyXaXiX5XwXiX#X#X#X=X$X!.W.G.G.r.O.w.-.;.#.#.+.#.#.+.i i k k z U P P ~ ~ ` ] #X#X$X#X*X#X*X#X^.^.' ` ) ) ) / / / [ / / ) ` +X^.#X#X#X*X' ' ) [ R F S S N N n n v > > : - > : - > > : : : > ",
"{ Y R ! ~ #X#XwXaXkXVXSXSXSXVXBXkXzXpXwXyX5XwXyXsXpXpXpXiXiXyX6X6X<X<X<X*X<X<X2X<X<X7X%X(.W.G.D.w.i t r e r e e q q q q 0 0 w u 9 y h ..l ..X.{ E o.! o.W W R Y F S S B } ; $ $ % $ < v Z ! +X<XiXhXPXCXGXSXFXFXDXFXSXCXkXhXpX6X7X<X=X*X<X2X4X5X5X3X8X[.`.'.K.d.h.h.u.e.;.w.e.w.O.r.r.D.G.W.~./.7X:X2X2X5X5XyXyXyX3X2X#X#X+X) ! R { C d p 5 3 3 3 . 3 3 . 3 . 3 . . . O X X X 1 @ $ $ < - } } n n B N N N H S D R [ _ #X#XwXiXaXhXkXBXVXVXGXGXVXnXrXtX`.H.D.O.z z x K U P Q Q / ) ( ) ] ] ' ' ^.' ^.#X#X#X#X#X#X#X#XyXwX#X5XqX5X#XpXwX#X#X^.^.o.^ D.K O.O.O.k k x x J P L W T W W W W W W ! ! ! ! ! E ! ! ! ! ! Q E Q ! ! R F F S N m } , & - $ # % @ @ 1 @ % % $ * - ; , v > } } n n M N H S F Y R Q Q ) ) ' ' #X#X#X#X#X#X#X+Xo.( Q E P J J g h y 0 0 8 8 4 4 4 7 7 3 3 3 7 7 3 7 5 7 5 2 p 2 ; ; ; > > > } } n n N S Y E _ #X#X#X#XsX#XwXwX#X#X5X#XxX#X#X#X#X' _ _ ^ I D.D.O.w.-.-.-.-.-.i i k i O.k l J U P E E Q ) ` ] +X#X#X#X^.#X+X' ' _ ) ~ / E [ ! E ! ! ! [ ) _ ^.#X^.#X^.' ` ~ ! R F S S N n n n > > > ; > - : ; - - : ; ; - ",
"F F R ! / ^.#XyXaXnXVXSXSXGXGXBXkXzXpXiXyXwXwXiXiXpXsXpXiXiX5X5X4X<X<X<X<X1X1X1X1X2X7X7Xo.o.X..... .w e e e q q q q q 8 0 u u y  .g ....X.C X.{ o.Y o.T T o.o.F G D Z B } , * $ % % * } M o.o.<XiXhXkXVXGXSXFXLXDXSXGXCXkXzXiX6X7X%X&X*X<X2X2X6XyXqX8X8X`.`.L.K.K.h.t.t.y.y.r.r.D.D.D.G.W.W./.#X;X:X5X5X5X5X5X5X5X2X2X:X#X+X) E L { V f f 5 5 . 3 3 . 3 3 3 3 . . . . O O X X 1 1 # $ * - > > n n n B m N Z S D L Q ) ' #X#XsXzXzXjXNXBXVXVXVXnXnXrXtX[.Q.G.D.K K K I E [ ~ / ) ) ( ` ' ' ' #X' +X^.+X$X$X^.#X#X#X#X#XqX#XwX#XsXyX#X#XqX#X^._ o.I X.K z O.k z x z J P P R W W T W W W ( W Q ( W Q Q W Q Q E Q Q E W ! R R R F D S N n } , , - $ $ % @ @ 1 @ @ # $ $ - - ; > > } } n n N N H Z G F Y R ! ! ) ) ) ) ) ) ) ) ) / / W T L Y { J d g 9 9 8 8 8 8 4 4 4 7 7 3 3 3 7 7 3 5 7 p 2 2 p ; & ; ; > > b } } n B N V F R Q _ #X#X:X6X#X3X#X3X#X#X#X#X#X^._ ` ~ ~ ^ [ P X.U ........ ... . ...9 ..g ..g X.C X.X.R T o.o.( o.o.^.' _ ' ` ) ) ) Q Q E Q ! R R W R ! Q [ / ) ] ' ] ] ) ~ Q R L F S S H M B } } > > ; ; : : - ; : : : ; - ",
"{ R R ! ) ] #XsXaXkXVXSXSXSXGXBXkXhXsXiXiXiXiXiXpXsXaXsXiXiXyX5X4X<X<X<X1X1X<X2X4X1X7X7Xo.).F.X... .t e e e q q q q q q 0 u y j d ..C C X.X.{ o.Y o.T o.T T D Y G D H m } - * $ # % - } N Y @X<XyXhXkXBXGXSXFXFXFXSXGXCXkXzXiX6X*X%X&X=X*X2X4X6X5XwXqX9X9X`.o.L.H.F.H.F.F.J.F.D.D.G.G.W.W.~./.#X3X#X#X6X2X5X5X2X6X3X#X#X#X] / ! L G C d f 5 5 3 . . 3 . . . 3 3 . . . . O X X X @ # $ * - , > } n n n N N H S D Y ! ) ' #X3X#XsXaXhXkXBXBXCXCXBXnXdXeX9X).Q.G.G.G.^ I ^ ^ ~ ) ) ` ] ` ] ' ' ' ' +X' ' ' +X' ' +X/.#X#X#X#X#X#X#X#X#X#X#X^.^._ _ ^ I K K K K z J J J P P R W W W ( W ( W Q Q W / / Q Q Q Q Q Q ! E ! W R L F D S H B n } ; - - $ % % @ @ @ @ % # $ * - , > > } } } n n n N H S D F Y L L R R R R ! ! ! R R R Y T T T G V C d g g 9 9 8 8 8 8 8 4 7 7 7 7 7 3 3 5 5 5 5 2 2 p 2 ; ; ; ; > > } b v n n N Z D R Q ] ^.#X#X#X#X:X#X#X^.' ^.' ] / / / Q ! R P P U J ..x x x ....g g ......C ..C J { P F Y R W T ( T o.) ) ~ ) ~ / E ! ! R R R R R R R R R R ! E / [ [ / / / Q ! L F F D S H N n n } > > , : : ; : : ; ; : - > ",
"F Y R R ) ^.#X5XaXPXCXGXSXSXVXCXkXhXaXsXiXyXiXpXsXpXpXpXpXiXyX6X4X<X<X<X<X2X1X4X4X1X4X7Xo.Q.X.X...u | e e q q q q q 0 w u u j j ..C G X.G X.o.T o.Y T T o.T Y D F D S B } , * % % $ * } Z Y ` 1XyXzXkXCXGXSXFXDXLXSXGXCXkXzX5X4X*X=X$X%X*X2X6X5XiXyXqX3X8X8X}.`.Q.Q.H.Q.G.G.G.W.W.W.W.~.)./.:X:X#X3X2X2X2XwX#XyX:X#X:X#X^.] / E L G C d p 5 5 3 3 . . 3 3 3 3 . 3 . O O X X X 1 @ % $ $ * - ; > } n n B m N S G Y E ~ ] #X#XwXiXiXaXhXkXPXBXBXBXnXdXsXeX9X)._.W.W.W.o._ _ ) ] ] ` ] ' ] +X' ' +X' ' ' ' _ ] ' ' ' ^.#X#X$X^.#X#X#X^.#X#X] ] _ ~ ^ I I I U U J J P P P E R ! W W W ( W ( Q / / / Q / / / Q Q Q W W R R L Y G S V N B } } > - - $ $ % @ @ @ @ % # $ < - - , > v } } n n N N N Z S S F F Y L Y L Y L F D F D D S S Z Z Z H m d f a 6 6 4 8 8 8 4 4 4 4 7 7 3 7 7 5 5 p 2 p ; 2 ; ; ; ; > > > > } } n n N Z S L ! / _ ' +X+X^.+X^.^.) ) Q Q Q ! R R Y Y { { { J J J l l l l d l g g C d l C J C { { F F Y R T T o.T ! ! W ! R ! R R R R R F Y F F Y Y { Y R R ! ! ! ! ! ! R R Y F F S H H M B n } > > ; , ; : : : ; - > > - ",
"F Y R Q _ #X#XwXaXkXCXSXSXGXVXCXkXhXaXaXpXsXsXiXpXsXpXsXiXiX5X6X4X2X7X<X<X<X<X2X4X4X2X:X).o.H.....i w q q q q q q q q w u h j x C X.X.{ o.T T o.T o.o.T o.Y D o.F S H B } , * % # $ - } Z Y o.1XyXzXlXBXVXZXSXSXFXSXGXCXlXaXyX:X%X$X&X&X*X2X6XyXiXwXwXqX8X8X9Xo.).~.~._.~.~._.~.~.~.~.(.#X).#X#X>X#X#X5X2X#X2X2X:X:X#X#X] ) / ! L G C d f 5 5 3 3 3 3 . 3 . . 3 . . . O O X 1 X 1 # # $ - - , > } n n n B H S D F R / ] #X#X5X#XyXsXaXjXkXNXBXnXkXdXsXeXqX9X#X-X^.^.!._ _ ' ' ] ] ] ' ' ] ' ' ] ' _ ] ] ] ] ] ] ] ' _ /.] ' ' ' ] ' ' ^.] ] ~ ) [ ^ P P U U P P P L L R R ! W ! W W W ( / Q / ~ / ~ / / Q Q Q ! ! R Y F G D S Z N n n } , , < $ # # @ @ @ @ @ % $ & - - > > } } n n n n N N V Z S D G D F F D S S Z H H N N N B n M n n s p f p 6 6 4 8 4 4 4 4 4 7 4 7 7 7 5 5 2 2 ; ; ; ; ; ; ; - > > > } } } n m N Z D F R E / ] ] _ ] ) ) Q E ! R R Y F F D D G D G V G G C C C J J C C X.C C C J G C G G G D F F Y Y T { Y R R F R L Y Y F F F F F F F F G F F F F F Y Y L Y L Y F F F D D S S H B n n } > , : : : ; ; : : > - > : ",
"{ Y R R ) ] #XsXaXkXCXSXSXSXGXCXPXhXzXsXsXpXpXiXpXsXsXiXiXwX5X3X2X:X:X7X7X7X:X2X2X2X:X:X).o.X.X.j  .u w q q q q q 0 w w u j x U X.X.W o.W o.( T o.o.T o.T W T Y F S S B } , $ $ # $ * > Z Y o.&X5XzXlXBXCXGXFXFXSXSXGXBXlXaXyX2X*X$X$X=X*X2X3X5XyXiXwXwX3X8X>X:X#X;X).).-X;X#X>X/.#X#X,X#X:X:X:X>X#X3X#X#X#X3X#X#X:X#X#X' ] Q ! L G C d p p 5 3 . . 3 . 3 . 3 . . . . O X X X 1 @ @ $ $ * - - > } } n n N H S S Y R Q ) #X#X#X3XsXsXaXzXhXlXkXkXlXhXzXsXwX#X#XqX#X#X#X/./.' ' ] ' ] ' ' ' ' ' ] ] ] ] ) ) ) ~ ) ) ) ) ) ) ) ) ) ) ) ) ) ) / ~ Q [ E E E L L L L L L L L L R R ! W W Q Q Q Q / Q ~ / ~ / / Q E ! W L Y F D S Z N m n } > ; - < * $ % @ @ @ @ @ # $ $ - - , > > } } n m B N N H Z Z S S G G S Z H H N n n } } n v v v v s ; s p 5 5 7 4 4 4 4 4 4 4 7 4 7 7 3 5 p 2 ; ; ; ; ; : : , - ; > b } } } n n N H V D Y ! E Q ~ Q Q Q ! L R F G D S S S S H H H H H V V C G C C C C V G C C S C S S S S S D D D D D D D D G D G D D G D G D G S D S D S S D S S D D D D G D G D G D S S S S H N B n } } ; ; : - : : ; : ; : , ; ; ",
"F Y R Q / ^.#X5XaXkXCXGXSXSXGXCXPXhXzXaXsXpXsXsXiXsXpXiXiX5X3X3X,X,X-X8Xo.-X,X8X,X,X-X).o.Q.H.......u w w 0 q q q 0 w u h x x U X.T o.W o.o.o.@Xo.W ( T o.T T Y F S Z B } , & $ @ % * } N Y o.&X5XsXjXkXCXGXSXFXDXSXGXCXkXzXwX2X*X=X$X=X*X2X6X5XwXwXyXyXyX3X2X:X:X2X#X2X#X#X>X#X:X:X:X:X#X:X#X:X#X2X#X3X2X:X#X3X:X#X#X#X] ) Q ! L { V d f p 5 3 3 3 3 3 . 3 3 . 3 . . O O X   X @ @ # $ $ * , > } } n n N H S D F L ! / (.^.#X#X#XsXiXaXzXhXjXlXjXzXaXsXwXsX3XwX#X,X>X#X^.#X' ] ' ' ] ' ] ' ' ] ] ] ~ ) ) / Q [ Q [ [ [ [ / [ [ ~ / ~ Q Q Q Q E R R L L L Y L { G G L F L L L L L ! R ! Q Q Q Q / Q Q Q / E ! W L Y F G S S H B n n } , , - $ $ # @ @ @ @ @ @ # $ * - - , > > } } n n B n N N Z S S S S Z Z H N n n } v v > > > > > > > ; p p p 6 7 7 7 4 4 4 4 7 4 7 7 7 7 5 2 p 2 ; , ; ; : ; > > > > } v } } n B B N V D { F R ! ! ! R R Y F D S S Z N N B m B B B B B N N N V H H S Z Z H V V V H H H H V V Z H H H H H S V H S S V S Z H H Z H H H H S S H H V S H S H H S H V H S H S H H H N B B n } > , : ; : - - : : : ; , : , ",
"{ Y L R / ] #XwXaXkXCXSXFXSXGXCXPXkXhXaXaXpXpXpXiXiXiXwXwX3X>X8X;X).o.o.).o.[.o.).).)._.`.X.X.X...x ..u u w w u u u u h j x K U T o.o.@X` @X` o.` o.` o.o.T o.T { D H N } , * $ % $ * } A Y o.&X6XsXhXNXCXGXSXSXFXFXGXCXkXfXiX4X7X%X=X*X*X7X4X6X5XyXyX5X5X6X6X2X#X5X5X#X3X2X#X5X2X2X#X#X:X2X:X#X2X#X2X#X3X#X3X#X#X:X#X' ] ) Q ! L G C C f f p 5 5 . . 3 3 3 3 . . . . O O X X X @ @ # $ * - - ; > } } B B Z S D F Y R Q ~ ] /.#X>X#XxXzXsXaXzXhXzXzXaXpXiX5X#X#X3X3X#X#X#X' ' +X] ' ' ' ' ' _ ] ] ) ) / [ Q Q Q Q ! Q ! Q ! Q Q ! Q ! ! ! ! E W R Y Y D F D S G G G G G G G P { L P L ! E ! ! Q Q Q Q Q E ! ! R Y Y F S V H N B } } } - - - * % # @ @ 1 1 @ @ % $ < - - > > v } n n n B N N N Z V S Z S Z V N N n } v > > , , > > > > ; ; s p 2 5 5 5 7 7 7 7 7 7 7 7 7 5 5 5 p ; & ; , , , > , > > > > } } } n n m B N Z V S D F F F F F D S H Z m B n B n } n n } } } n n M M M B N B M N N N N M H B B B N B m N B B m B B B B B B B B B B N N N B B N B B m B N m B B B B N B B N N N B N B M B n } } ; > - - - - : - : : ; ; : : > ",
"F Y R Q ~ +X#XsXaXkXVXGXSXSXGXVXBXkXhXaXaXsXpXpXiXxXyXwX3X8X;X).).Q.'.L.L.Q.Q.Q.L.o.Q.Q.X.L.X.......k j ..j k j j j j x x U U ^ o.o.T @X@X@X@X@X@X@X@X( W o.T W F D H B } , * $ % % $ > M A o.#X2XiXfXkXBXVXZXSXSXSXGXCXNXhXsX5X2X7X*X*X7X7X2X2X6X3X6X6X6X6X4X4X4X4X5X4X4X5X4X4X2X4X5X4X2X#X#X2X#X:X#X:X#X2X#X2X#X#X^.+X] / Q ! R { C C d f p 5 5 5 3 3 3 . 3 3 . . . O O X 1 1 @ @ # $ $ - - , > } n n N N S S G F R R Q ~ ) ' #X#X#X#XiXpXaXaXzXaXaXiXiXyXpX5X6X#X#X#X#X^.' ' ' ] ] ' ] ] ] ] ) ) / [ Q ! ! ! ! ! ! ! W ! ! R ! R E R W R Y F F F D S S H Z Z H m C C C C C C G { L L L ! R ! E ! ! ! ! ! R L F F D S Z H B n } } - - - $ $ # % @ @ @ @ @ @ % $ $ - - ; > v } } n n n B N N H V Z S Z Z H N m n } } > > , > > > > > ; ; ; 2 p 2 5 5 7 3 7 7 7 7 7 7 5 5 2 p 2 ; ; ; , , , , > b > } } } } n n n B B B N Z Z S S S S S H N N B n n } } } > > } , , > > > > b v n n v M M M v n n n n n n n n n } } n n n } n n n v } n n } n } n } n n } n n n n } n n } n } } n } n } n n n n n } } > : - : - * - - & - - - : , : ; : ",
"F { R Q ) /.#XwXaXlXCXSXSXSXZXVXBXkXlXaXaXaXiXiXxXyX5X3X>X,X).`.Q.L.L.K.K.F.F.F.J.J.J.J.D.D.D...X...X...z z x x x x x J U U I ^ o.o.+X@X#X&X&X&X$X$Xo.o.` o.W T Y G Z B } , $ $ # % * > B F T @X2XiXzXlXPXCXGXSXSXFXZXCXPXlXaXyX6X2X7X7X<X2X7X7X2X2X4X4X4X4X4X6X4XyX4XyX4XyXyX4X5X5XxX#X5X#X:X#X#X#X:X#X:X#X:X#X:X:X#X^.] / Q ! L { G C C f f f p 5 5 5 3 3 . . . . . O O X   X @ @ # $ * * - > > } n N N N S D F F Y Y R ! Q / ] #X#X#XsXsXsXpXsXpXpXpXpXaXaX#X5X#X#X#X#X' ] ' _ ] ] ] ' ' ] ) ) ) Q Q ! R R R R R R R R R R R R L Y L Y { F D D A Z N M M M m m s d s d d d C C C G F F L Y R R R R W R T R F F F S S Z N B } } , - < $ $ % # % 1 1 1 @ @ # # $ $ - - ; > v } } n n B M N Z H Z Z V Z Z H N N n n } v > > > > v > > } > ; p p 2 p 2 5 5 5 5 7 5 5 5 5 2 2 p 2 2 ; : ; , , > > } } } } } n n n B B B m B B m N B B B B M n } } > > > - - - - - & - - - - , , , b b b b b v b b b b b > v > b > , ; > ; > > ; , , ; > ; > , > ; , > > > > > > > > > > > > > > , > > > > > > } ; > ; ; - - - < * $ & < - - - - - , ; : ; ",
"F Y R R / #X#XyXaXkXCXSXFXSXSXGXBXkXlXhXaXpXpXxXyX5X6X3X,X;X`.L.L.K.i.i.i.i.t.t.y.t.t.y.D.X.D.D.X.X.X.X.X.I K U K U U U U I [ _ @X( @X&X&X&X&X&X=X=X&X#X( o.o.T Y D S B } ; * % # % * > B G o.@X7XyXaXhXNXCXGXSXSXSXGXGXBXlXzXsXyX6X4X7X7X7X7X7X7X7X7X2X2X4X6X6X5XyXuXxXyXxXyXxX5XyXyX4X6X3X#X:X:X#X:X#X#X:X#X:X#X#X#X+X] ) Q E L Y G V C m d s p p p 5 2 3 3 3 . . . O O X X   @ # % $ $ * - , } } n n N H S S D D G F F L R E [ ] #X#X#X5XxXiXiXwXxXxXyX#XyXwX6X3X#X#X^.^.] ] ) ] ] ] ] ) _ ) ) Q Q ! ! R R Y Y R F R L Y { Y Y Y F F F D S S Z N M n v v } > s s s p p f f f d d C G G D F F F R F R L L F F G D S V N N B } > ; - $ $ % @ @ @ X 1 1 1 @ @ % $ & - - , ; > } n n m B m N N N S Z S S S V N N B n } } } } v } v } } } ; s s ; p 2 p 2 2 2 5 2 5 2 p 2 p p & ; ; ; , , , > > v } } v } n n n m B n B B m n M } v } > > > > : - - - - - - $ $ $ * $ $ * * * * < < - : - - - : < : - - : - - : - - ; - - - - - - - - - - - - - - - - - - - - - - - - - - - - - - - - - - : - - : - - < - * $ % % $ % $ < * - - : : ; > , ",
"Y Y Y Q ~ +X#XwXaXlXVXGXSXFXGXVXBXPXhXhXaXaXiXxXyX5X6X>X,X).Q.L.K.i.p.u.u.<.u.;.e.:.....w.r.D.D.G.X.X.o.o.X.I I U I P I [ ^ _ ] @X#X#X&X&X*X1X1X<X*X%X$X@Xo.o.T X.D A B } , - $ % $ $ , B D o.o.*X5XpXhXkXBXVXSXSXSXSXGXCXNXhXaXiXwX6X2X7X<X*X*X*X=X*X7X2X2X6XyXyXyXiXiXxXiXiXiXyXyX5X2X2X#X#X#X#X/.#X#X:X#X#X:X#X#X#X^.] / Q ! R { F G G V H d f f f 5 5 3 . 3 3 . . O O X X   @ @ # # * - - > > } n B N H H S S S G D D D F Y ! ~ ] #X#X3X5XwXyX5XaXwX#XwXeX#X#X#X#X^.+X] ] ] ) ) _ ) ) ) ) ~ [ Q ! R L Y Y F F F F F F F F F D G F D D V H Z M n v b : ; - & & 2 p 5 5 5 p f f m d V V S D G F F F F F F F D D S S Z B B } } , - < $ % % @ 1 1 1 1 1 1 @ @ % $ * - - ; > v } } n n n B N N H V S S S Z V H N B n n n } n } } n v v n } } > s ; p 2 ; 2 p 2 2 2 s 2 p ; 2 & ; ; : ; , > > v v } n n n n m n B B m B n } } } > ; ; - - - $ < $ $ $ % $ $ $ $ $ # $ # $ $ $ $ $ * $ * * * * * * * * * $ $ $ $ * * $ * * $ * $ $ * $ $ $ $ $ * $ $ = $ * $ * $ * $ $ $ $ $ $ * $ % $ % * $ * $ $ * % $ $ % % # # # % % $ * - - ; - > , > ",
"F { R Q ~ ] #X5XaXkXCXSXSXFXSXGXCXNXlXhXzXaXpXxX5X4X5X8Xo.Q.Q.K.i.d.p.9.<.<.=.=.:.:.:.y.w.r.D.G.G.o.~.~.o.o.) ^ ^ E I [ ^ ~ ] o.@X#X&X%X<X<X2X<X2X<X*X&X&X` o.T A D Z N } , $ $ $ % $ , B D Y o.%X2XiXzXkXBXCXGXSXFXSXGXCXPXlXzXsXyX5X6X:X<X*X=X=X%X=X*X7X2X6XyXxXiXiXiXpXiXpXiXxXxX5X3X6X:X,X#X#X-X#X#X#X#X:X#X:X#X#X^.] ) Q ! R Y { F G V V m m m f p 5 5 3 . . . . O O X X   @ @ # $ $ - - > } } n n N H S S S S S S S S D G Y ! ~ ] #X>X#X5XxX#X#X5XwX#X#XqX3X#X#X' ] ] ) ) ) ) ) ) ) ) / / Q E R R F F G F D G D G D F D F S D S S H Z N B } } : - < $ % & % o o 2 5 5 5 p p p s m H H H S D S S F S F D S S V Z H B B } } , - $ # @ @ @ 1 1 1 1 1 X @ # # $ * - - > > > } n n n N N N N H Z Z V Z Z Z Z N N m B n n n n B n n m n n n s s s ; ; ; ; ; ; ; & ; ; ; ; ; ; ; : ; , ; > > v v } n n B B B B B B n B n } } > , < - $ $ % $ $ % % % # # % @ # % % @ % @ % % # # # % # % # % # % # # $ @ $ # % $ $ @ % $ # % # $ % # # # $ % # % % $ % % % # % % $ # $ % % # % % # $ $ # % % $ # % # @ # # @ @ @ # # % * $ - - - > - > : ",
"Y L R R / ^.#XwXaXkXCXSXFXSXSXGXCXBXkXhXfXpXpXxX5X4X4X:X)._.L.K.d.p.9.0.4.,.=.=.=.:.-.-.w.r.D.G.W.W./.o.o.$Xo.o.~ ^ ~ ^ ^ _ _ o.%X:X%X*X7X7X<X2X2X2X7X=X@X` o.T X.D S m } , $ % % % * - M Z T ( &X2XyXaXjXnXCXGXSXFXFXGXVXBXkXzXaXiXyX3X2X7X=X$X$X$X=X=X7X4X6XyXiXiXaXsXpXsXaXpXsXyX5X3X#X3X#X#X^.^.^.#X#X#X#X:X#X#X#X^._ ) Q E R R L F D D V V C m f p 2 5 3 . . . . O O   X X @ @ # $ $ * - , > } n n N N Z S S S Z H H H H S F Y ! ~ ^.#X#X#X#XqX#X3X#X#X#X#X#X^.' ' ] / ~ / / ~ / / ~ / Q ! ! R Y F G D D S S S S S S S S S S V S Z N B B } } : - = % % % X X o . . . 5 5 5 p p s s m N m Z Z Z S S S S S S Z V N N B n } } ; < $ % @ @ @ 1   1 1 X @ @ # % $ & - - , > > } n n n n B N N H Z Z Z S S S V H N N B B B n m n B B m n n n } } > } ; ; ; ; ; ; ; ; ; ; ; , ; , , , ; > > v } } n n B n B B B N m B n n n > , - * $ % # # @ @ % # @ # @ @ @ @ @ % @ @ @ @ @ # @ @ % @ @ @ @ @ @ @ @ # @ @ @ @ @ @ @ @ @ @ @ @ @ @ @ @ # @ @ % @ @ @ % @ @ @ # % # @ @ @ @ @ @ @ # @ @ @ @ @ # @ # @ @ @ @ @ @ @ @ # % $ & - - - ; , > ; ",
"F Y R Q / ^.#XiXsXkXCXFXSXFXSXGXCXPXkXhXfXaXpXxX5X4X2X:X).Q.Q.K.i.d.p.9.9.1.,.=.$.:.-.-.w.r.D.G.W.~.%X%X*X$X$Xo.o.^ ^ ^ ^ o.o.!.o.o.o.-X-X-X,X:X7X7X7X%X#X@XW o.A F Z B } , - % # # $ : n Z T o.$X2XyXsXhXNXCXGXSXSXSXGXVXBXkXhXaXiXyX6X2X*X=X%X$X$X%X*X2X2X5XwXiXiXaXpXaXaXiXsXwXyX5X2X2X>X#X#X' +X' +X#X#X:X#X#X:X#X^.] ] / Q ! R Y Y F F D S V m f p 5 5 5 3 3 . O O O X X   @ @ # $ * & - , > } n B N H Z S H Z H N m N N H S F R Q ) ^.#X#X#X#X#X#X#X#X#X#X^.' ] ~ ~ / ! ! ! ! ! R ! ! ! R R { F D S S H H H N N S Z N H N N N B B B n } } : - < $ % @ X X O o o . . . . 5 5 p s n n B B N N Z Z Z V Z Z V V N N B m } } > - < $ % @ @ 1 @ 1 1 @ @ @ # % $ $ < - - , > } } } n n N B N N H V V S Z S Z Z H N N N B m B B B m B B B m n n v } > > > ; > ; ; > ; > > > b , ; ; > > ; v v } n n n B B B B N B B B B n } > , < $ $ % # @ @ @ @ @ # @ # @ @ @ @ @ @ # @ @ @ @ @ @ @ @ @ @ @ @ @ @ @ 1 @ @ @ @ @ @ @ @ @ @ @ @ @ @ @ @ @ @ @ 1 @ @ @ 1 @ @ @ @ 1 X @ @ @ @ @ @ @ X @ @ @ @ @ X @ @ @ @ @ X @ @ @ @ # % $ * * - - - > , > ",
"F { R R ) ] #X6XaXkXVXZXSXSXSXGXCXPXkXjXhXaXpXxXuXuX6X:X,X).Q.L.K.d.u.9.9.;.;.;.;.:.w.w.r.D.G.W.~./.%X%X*X$Xo.o.o.o.X.o.X.W.G.W.o.`.o.[.o.,X-X:X7X7X*X&X#Xo.T W T D H B } , * % % $ $ - } Z T o.#X<X6XsXhXkXBXVXSXSXSXSXVXBXkXhXaXsXyX3X2X7X*X$X$X=X=X*X7X6X5XiXiXaXpXsXsXpXiXiXwXyX5X#X#X#X#X' ' _ ' ' /.#X#X:X:X,X#X/.' ] [ / E R R Y Y F F S V C s f p 5 3 . . . . O O X X   @ @ # $ $ * - - , } n n N N H Z H H N N N B B N S S F R [ ~ ) ] ] ' /.^.] ] ] ) ~ / Q ! R R R R Y L R R L Y Y L F D S H N N B B B B B m B B m B n B n n } } } > : < $ $ @ @ X X O X O . . . 5 o 2 p ; s s n n B B N N N N N N N N N B n n } } , - < * % @ @ @ @ @ @ @ @ % % % $ $ < - - , > > } } n n n B N N N H Z Z H Z Z H N N m N m B B B B B n B B n n n n } } v > v , ; , > > > > > > > > > > > v v v n n n M B B N B B N B B n n n > , - * $ % # # # @ # % # @ % % % # # # % # % @ % @ @ @ @ @ @ @ @ @ @ @ @ @ @ @ @ @ @ @ @ @ @ @ @ @ @ @ 1 @ @ @ @ 1 @ @ @ @ @ @ @ @ @ @ @ @ @ @ @ 1 # @ @ @ @ @ @ @ @ @ @ @ @ @ @ @ # # % % * * - - - : , , > ",
"F Y R Q ) /.#X5XaXkXCXGXFXFXFXGXCXPXkXjXhXgXgXpXxX5X4X>X,X).Q.L.K.i.d.i.p.u.e.e.y.y.y.y.D.J.G._.(.%X*X*X*X/.~.W.G.G.G.D.J.D.G.J.L.X.L.o.`.[.o.o.-X%X=X#X@X` o.o.Y D S B } : - $ % % $ , n Z A o.o.*X4XiXzXlXBXAXSXSXSXGXVXBXlXhXsXiXyX5X2X7X*X=X%X=X*X7X2X3X5XiXsXiXaXaXaXiXiXwXyXyX3X2X#X#X^.] ] ) ' ' #X#X-X#X#X#X#X#X' ] ) [ Q Q ! R Y F F D V m m f 5 5 3 3 . . O O O X X 1 @ @ @ $ $ $ - - , } } n n N H Z N H H N n B B B N S S F R ! Q Q [ / ~ / Q Q Q Q R R R Y F F G D D G G F D G D S S Z N B B n n } } } } } n } } } } } } } } > ; : - $ $ % @ @ @ X X O X O . o o o o & 2 ; } } n M n M M N N n N N n n n n } } , ; - * * % # % % @ @ @ @ @ % $ $ $ $ < - - , > > } } n n n N n N N N H H H H N H N N N B n B B m n B m B n n n n v } } v > > v b v v > v > > > v , v v v v v v v n M M B B B B B B B B M n v > , - < * $ $ % $ $ # $ $ % $ $ $ $ $ $ $ $ % # # % # @ # @ @ @ @ @ % @ @ % @ @ @ @ @ @ @ @ @ % @ @ @ @ % @ @ # @ @ % @ @ # @ @ @ @ @ @ # @ @ @ @ # @ @ @ @ @ @ @ @ @ @ @ @ @ @ @ # # % % $ $ * - - ; ; - , > ",
"F R R ! ~ ' #XwXaXkXCXSXSXFXSXAXVXPXjXjXjXfXgXgXpXyXuX5X3X;X`.`.L.L.K.K.t.i.t.t.t.X.t.X.J.J.o.~.%X-X*X7X%X/._._.G.J.F.F.r.F.F.F.K.K.H.H.H.W._._./.#X^.^.` ) / R Y G H B } , $ $ $ # $ - } Z F W o.%X2XiXaXlXBXVXGXSXSXGXVXPXlXzXsXiX5X6X2X7X7X*X=X*X7X7X6X5XyXwXpXsXpXsXpXsXiXyX3XwX2X#X#X^.' ] ) ) ) ] ^.#X:X#X#X:X,X#X+X] ] ) / Q E W R Y F S S V d p p 5 5 . . . . O O X X     @ @ % $ $ * - - > } } n m N N Z N N B B B n B N N V D G F R Y R Y R Y R { F F F F D G Z H H Z H H S S N H H N N n n } } } , , , > , , , ; , ; } ; ; , ; , : - - $ % % % @ X X X X O o O o o & o & ; ; ; } } } n n n n n n n n } } n } } b > : - < < $ $ $ % % % % $ $ $ $ % < - $ - - - ; > } } } n n M B M B N N N N N N N N B m B B B B n B m n m n B n n n n v v v v v v v v v > v v v v v v v v v n v M M n M M M M B A M M M M M v v b b : - < < * * < < < < < $ < $ < - * * * * $ $ % % # % # # % # # % # % # @ % # @ % # # % @ # % # @ # % # % # # % # # # % # $ # # % # # # $ # # % # % % % # # @ $ # # % % % # % % $ $ $ $ $ - - - ; : , : : ",
"F Y R ! ) ] #X5XsXkXCXSXFXFXSXAXAXBXNXjXjXfXgXgXpXpXxXyX3X>X).).`.Q.L.H.H.H.H.J.H.J.H.Q._._.)./.%X*X*X*X/._.Q.H.F.t.y.e.y.u.e.i.i...t.F.J.J.G._.~.!.' ' ` / Q R Y D V B } > - $ % % $ - } N G o.o.$X2X5XaXlXPXCXGXSXSXGXCXPXhXzXiXyX5X6X2X2X7X7X<X7X7X2X6X5XyXsXsXpXsXpXiXyXwXyX6X#X3X#X#X] ) ~ [ ) ~ ] ' /.#X#X:X#X#X#X^.' ] ) / Q ! ! R Y F D V m m p 5 5 3 . . . . O O O X   X + # # $ $ * * - , > } n B N N N N N m B B B m m N N Z S S G D S G S S S S V H Z N N B B B n B n n n n N n n } } } ; , , - - - < < - - - - - < - - - ; - - < < - $ $ $ @ # # X X % % O o o % o & & ; ; ; > } } } } } } } } n } } } } } } > ; : - < & < $ $ $ $ $ $ $ $ $ * - $ - - - - , , > } } n n M m B m N N B N N N N m B B B B n n B m B n B B B n B n n n n } } v v v } v v v v v v v n v v v n n M M v M M M M B B M B M M M M M v } b : : : : - - - - - - - ; - ; - - - - - & & * * * * $ $ % % $ # $ # $ $ $ $ $ $ $ $ $ $ $ $ $ $ $ % $ $ $ % $ $ % % % % $ % % # $ $ % % % % % $ $ $ $ $ $ $ $ % % $ % $ $ $ $ $ < $ < - - - - - - : : ; : ",
"F Y R ! / ^.#XsXaXkXCXSXSXFXSXGXCXPXkXjXjXfXgXgXpXpXpXwX5X3X8X,X).Q._.Q.Q.Q.Q.Q.o.`.`.o._./.-X*X7X*X7X-X~._.J.F.t.i.u.;.<.u.<.<.u.e.u...t.J.J.W.W.o._ ) ( Q W R F D V B n > * $ # $ $ - > N S D o.@X7X5XpXhXnXVXGXFXSXAXCXNXhXaXwXyX5X6X2X2X:X2X7X2X2X6X5XyXiXiXpXsXiXsXiXwX5XwX6X>X#X#X' ] ~ / / Q ~ ] ' +X#X>X#X:X#X#X#X^.+X] ) / Q ! R Y F G V m f f p 5 3 . . . . O O X   X @ @ @ # # $ $ * - ; , } } n B N N B m N m B B B B B m B N N B N N N N n n n n n } } } } } } } } } } } } } } > > > : - - < $ % $ * % * % $ $ * * * < < - - - < $ $ $ $ $ % % # % % % % X X % & % & & - ; b ; b > } } } } } } } } } > > > ; , , : ; - - - & < - < $ - < < - - < - - - - ; , > > > } n n n m M M B B m N B B B N B B B B B n m B B B B B n B n n n n n n n } n } n n n n n n n n n n n n n M n M M n M B B B B B M M M M M M v v } v b > b > > > > > > > > > > > > > > > > , , - - * * $ & $ & * * * & * * * & $ * * * * & - $ $ - * * * $ * $ * * * - * < < * * & < & * * $ < < * < $ $ < < $ < < < * $ - < < - < - - - - - - ; : ; - > : ",
"F L R R / ^.#XwXaXkXCXSXSXFXZXGXCXNXkXjXfXzXzXaXaXpXiXiX5XqX3X>X,X).).).)./.)._.).).,X,X,X:X7X*X7X*X%X%X).Q.H.K.i.p.9.9.,.,.,.,.,.<.<.u.y.r.D.X.^ ^ ) ) / Q W T F D Z B } , - % % % % * > B S o.o.@X*X6XiXhXkXVXGXSXSXGXnXNXlXsXiXyX3X2X2X2X2X2X6X2X6X5X5XyXiXsXpXiXiXwXyX5X6X#X#X3X#X#X' ) ) Q Q Q / ) ] ' #X#X:X#X#X#X#X^.^.] ] ) / Q R Y F D V C m p 5 5 5 3 . . . O X X X   + 1 @ @ % $ $ * - - , } } m n B N N B B B B m B B B B B B n n n } } } } } > b > > ; > , - , - - - - - ; : - - - - * $ $ % # $ % % # @ # @ % % % % # $ $ $ $ - $ - $ $ $ $ $ % $ % % % & & & % & & - - : ; > > > , > , } , , } , } > > > > > ; , , - - - - - - - - - - - - - - - - , , ; , > } } } n n m M m B N N N B B B m B N m B B m B B B B B m B B B B B n M M B n n B B n M n n M M n n n M n M M n M n M B M m B B B B N N M M M B B n } n n n n v n n } n n n n n n M } n n } } } > > , , , - - - - - - - - - - - - - - - - - - - - - - - - ; - ; - - ; - - - - - : - - - - - - - - - - - - - : - - & : : - - - & - - - - - : - ; : - ; : ; : ; ",
"F Y R ! ) ^.#XyXaXkXCXGXSXSXSXZXBXkXlXhXdXzXsXsXsXsXwXwX5XqX3X>X:X,X7X-X%X7X-X:X7X,X2X,X2X:X7X7X7X-X,Xo.Q.H.K.i.p.9.9.4.2.2.1.1.&.&.=.:.e.r.D.X.I ^ ~ Q Q W T Y F S Z N n , - % % # $ * > B S Y T @X$X4XiXzXNXCXGXSXSXGXCXkXhXaXiX5X6X6X2X2X2X6X6X3X5X5XyXwXiXiXiXiXiXyX5X5X6X6X3X#X#X^.' ] / ~ Q / / ] ' ^.#X#X#X>X#X#X#X#X/.^.] ) ) Q W Y F S V C m f p 5 3 . 3 . . O O X X @ @ @ # # @ % $ * - - > > } n M B m B N N B B B m M n n n } } } } > > , , - - - - < < * - < * - * - - < - $ - < < * $ $ % % # @ @ @ @ @ @ @ @ % @ % $ % $ $ $ $ - $ < $ $ $ $ $ $ $ % % $ % & $ < - - ; ; > > > > } > } , > > } > ; > > , > > > > > > , , > , > , - , > - - > , , , ; ; > > > } } n m B m B B N N N N N N N N N N N N N N N B N N N N B N B N N N B N B N N N B B N B B N M N m m m m m m M n m m m m m m m m m m B m m m m m m m m m n m m m m m m n m N M N M M B B B B n } } v } > > , > , > > ; > > > > > > > ; > > ; > > > > > , > : ; > > > > > > > > > > , > , , , ; , > > > > > > > } ; , > , > > , > : : - ; : - : ; , > > > ; > ",
"F L R ! / ' #X5XaXkXVXSXFXSXZXnXnXbXdXrXrXeXeXrXtXeXeX9XqXqX>X3X>X7X7X<X7X7X7X7X:X6X2X2X2X2X,X-X-X-X).Q.H.L.K.u.9.9.3.3.2.2.2.1.>.&.=.=.:.w.r.X.I ^ / Q Q W W Y F D V B } , - $ % # % * , n H { W ` $X<XxXzXkXCXGXFXSXGXCXPXhXaXwXyX5X6X6X3X3X5X5X5X5X5XwXyXiXiXiXwXxXyX5X3X2X3X3X#X/.-X' ) / ~ [ / / _ (.#X#X:X3X#X#X3X:X#X#X^.] ] / Q ! Y F G V m f p 5 5 5 3 . . . O O X X @ 1 1 1 @ # $ % * $ - , > } n n n B B N B m B B B n n n n } > > > , : - - - * $ * $ * * $ $ & $ * $ $ $ $ < $ $ $ $ $ @ % @ @ @ @ @ 1 1 @ @ @ @ @ % # $ $ $ - $ < < < < $ < < < < - < - $ < < < - - : - ; > > > b > > > , > > } > } } } } } } } } > } } } > } > } } } } } } } } v > } } } } n n n B M M Z H Z H H H H H H Z H H Z H H Z H H H H H H H H H H H H N H N H H Z Z H H H H H H H H V m m m m m m d d m m m m d d m m d d m m m m d d m d m d m m m m H H H H H H S H H H H Z N N B n n n v } } } } } } v n v n } } v } n } v n n v } } n n v n v v n } } n } } n v } v n } n } n s v } } } } } } } } } } } } > > > > ; > > > > > > > > > > > > ",
"F L R ! ) ^.#XsXaXkXVXSXZXLXZXnXbXbXrX0X0XtX0X[.[.0X[.9X9X9X8X8X:X:X7X2X2X1X2X4X4X4X2X4X2X,X,X-X).o._.Q.L.K.i.u.9.0.3.3.3.1.1.1.>.&.$.:.w.w.D.X.I ^ [ Q W W R T F S Z B n , - $ # # % * , n H D T o.+X7XyXzXlXVXGXSXDXGXCXPXjXaXiXyXwX5X5X3X5X5X5X5XwX5XyXwXiXyXwXxXyX5X6X6X2X#X#X#X#X#X' ] ~ / ) ~ ) _ #X:X#X#X5X#X3X#X:X#X#X^.] ) / Q ! Y F D S m d p 6 5 3 3 3 . . O O X   X @ + @ @ # % $ $ < - , ; } } B B B m B m B B B n B n } } } > > , : - - * * * * # $ $ $ $ $ * $ * $ = * $ $ $ $ $ $ # # # @ @ @ @ 1 # @ @ # @ @ # # $ # < * < - - < < - - - - < - - < < - < - - - ; : > > > } } } } } } } } } } } } } n } } } n } } } } n n } } n } n n } } } } n n n n n m n M Z B Z H H H V H S S S S S S S S S Z S S S S S S Z S Z S S S S S Z S S S S S S S S D A D S V V V C d d d d d f d f d d d d d d d d d d d d d d d d d d d d d C C V V S S S S S S S S S S V H H N Z N N B B B B N N B B B N N B B B B B B B B B B B M B M M M M B B M M M M M N M N M N N M M N B N M B B n B B B B M B n n s > > > > > > > > > > n > n } } ",
"F Y R R ) #X#XxXgXNXVXSXSXZXZXmXcXcX0X{.}.}.}.].}.}.}.}.'.[.).[.,X:X2X4X1X1X4X1X1X4X4X2X,X,X,X).`.`.L.F.K.i.u.p.9.4.4.2.3.1.1.>.>.&.=.:.:.w.z K I E [ Q W W R Y G D H m n > - $ % # $ $ - > B S A o.o.*X5XaXkXCXSXFXDXSXVXBXlXzXsXyX5X5X5X5X5XyXiXyXyXiXyXiXyXyXyXyX5XyXxX#X6X3X3X#X#X#X' ] ] ] ) ] ' #X#X#X5X2X3X2X3X5X#X#X#X#X' ] ~ Q ! Y F D V d f f p 5 5 3 3 3 . . O X X @ 1 @ @ # @ # $ $ $ - , > } n n B B B N B m B B n n n } } v v b , - - - - * * * = * $ = $ * $ $ $ * $ * * $ * = = $ # = # # # # # @ # # @ # # # # $ $ * * - - : - : : : - - - - : : - : - - , - ; > > > } } } } } } } } } } } } } n n n n n M n M m B B M m n m B B B B m B B m B M N N N B Z H H H V S S D D D D D G D F D F D F F F F G D F F F F F F D F F F F F D F F D F T Y F F F D G G C C C g d g g g g g c d c d g a d g a g a g c g a g g g g d d J C C G G F F F F Y F F F D D D D D S S A Z A S Z A A S A Z Z S Z Z Z H H H Z H Z Z A Z S S S A S S Z A S S A S S S Z S S Z S S H S H Z V S S V S S S H H B B M n } > > > > > > } > n n n n n ",
"F Y R R ) +X#XxXzXNXAXSXLXZXmXbXvX0X.XR.R.T.E.T.E.T.T.T.Y.'.`.).;X,X2X2X4X1X1XuX1X4X1X2X:X,X).Q.L.L.F.K.i.u.p.9.4.4.2.2.1.1.>.*.*.%.%.-.w.w.r.K I ^ [ Q ! W Y Y D D H N } > - $ % @ % $ - , M Z T W o.@X4XgXkXCXSXDXDXFXGXBXlXhXpXiXyXwXwXyXxXiXiXyXwXyXyXyXyX5XxX5X6X5X#XyX5X#X#X,X#X#X+X^.' ^.' ' #X#X:X:X2X5X6X6X2X5X#X2X#X/.' ] / Q R R F S V V f f p 5 7 7 3 3 . . O X X X @ 1 1 @ @ % $ * - - ; > } n B B B B B B m B m B n n n n v v v b b : < < < < * * $ * * $ * * = * * * * * * = * * * # = = # # # # # # # = = # $ = = * < : : : : : b b b b b b , b ; , , , b ; b > } } } } } n n n } n n n n n n M M m B N N N N N H B H H N H B H N B H H H B H H H V H S S S S S D D F F F F F { Y Y Y Y L Y L R Y L Y L L Y L Y L Y Y L Y R L Y R Y L Y R Y R T W T R Y { G J J l g g g g 6 a 9 h h c h c h c c h c h c y h h c h h h h l l J G { L L Y R R R T L Y T T Y Y T T D D T D D T D T T T D T D D T D F D D D D F D T D T F D T D T T D T D T D Y Y T Y T D D F F D S F G D F G F F F D G S N N n n > > > } } } n n n n n n M ",
"F L R Q / #X#XpXfXPXAXSXZXZXmXvXoX{.R.E.I.f.f.f.f.f.f.I.I.Y.'.`.).;X>X2X4X1XuX1X1X4X2X7X,X).Q.L.K.K.d.u.p.9.9.9.4.4.>.2.1.>.*.%.%.%.@.#.-.O.z X.I E [ Q ! W R Y G D Z N n > - $ # # $ % - ; n N D Y o.#X4XpXlXCXSXDXDXDXGXCXNXzXaXiXiXxXxXwXiXiXwXiXiXyXyXyX5X5X5XxX#XyXxX#X#X3X2X#X:X#X^.#X^.#X^.#X#X2X:X2X2X5X5X3X3X#X3X#X#X/.' ) / / W R F G C m d f 6 5 7 7 3 3 . . o O X @ + 1 # @ # # $ $ $ ; - > } } n B m B m B B B B n B n v n n v v v b b b : < < < * * * * * * < < * * * * * * * * * * * * * * * * * $ = # * $ * * * < : : : b b b } b } } > v v } > b } } b b } > } } n M B m B N B B B M M m B B N N H Z Z S V S S S S S S V S S S S S S S S S D S D D D F F F F F F Y F L Y Y R R R ! E R ! E ! ! ! ! ! ! ! ! ! R ! ! ! ! ! R ! ! ! R ! ! ! ! ! W W W ! ! L P J J l j 9  . . .9  .y y y y y y y y y i y y u y u y u u j j l l J J P L E ! W ! W ! ! ! ! W R W T W W W T W W T T R W T T W W R T T R Y R T W R T T W T T W R R T R R W R Y W W R R R R W W R R R R R R R R R R R R R F D S N n n > > > > } n n n N N N N N ",
"F Y L ! ) ^.#XyXgXNXCXSXZXZXbXvXoXR.U.g.a.a.a.0.a.a.a.f.f.P.Y.`.`.;X:X2X4X1XuX1X1X2X7X7Xo.`.H.L.K.d.p.p.9.9.4.4.4.>.>.>.*.*.%.%.%.@.@.-.w.O.K K I [ Q Q Q W T Y F D H N } > - $ % # @ $ $ , } m S R o.+X2XpXjXVXSXDXLXDXSXVXnXhXzXsXiXiXiXiXiXiXsXiXiXiXyXyX6X6X6X#X#X6X6X#X6X#X2X#X#X:X#X#X#X:X#X:X#X#X#X6XyX5XyXyX5X3X3X#X#X#X' ) / Q W Y F G V V f a a 6 7 7 7 3 3 . O X X X 1 @ 1 # # % $ $ < - , > } n n B B B B m B B B B B n M M n n n } } } b , , - - - < < < < < - < - - < < < - - - - < < < < < < * < * * < < - * - - : , b b } v v v } } v } } } } } } } } v } } n n n B B N N N N Z N N N N N N H Z S S G S D D D G F D D F F D D F F F D D F D D F F Y L Y Y R R R R W R R W ! ! ! ! E Q ) Q ) Q [ ) Q ) Q / [ [ ) [ ) Q [ / [ [ ) ) Q ) / ) ) / / ( / Q ~ [ U K x ..h  .9 y 8  . .i w t i i i i i i i i i i t t i u w i i k z K U P E [ ( ( ( ( / o.W ( W / Q ( W ( / / Q / / ( / W W T o.W T ( T o.T W ( o.T ( W Q Q / Q / Q / / / / Q ( Q / Q Q Q / Q Q ! / [ [ Q / Q Q [ / / [ ! W Y D S N n v } > > n n n N N N N H H ",
"{ Y R ! _ #X#XwXgXkXCXGXZXmXvXvX.X Xs.s.0.0.6.6.6.0.0.9.p.d.P.Y.`.).,X3X4XuX1X1X4X7X7X-X).Q.L.K.i.u.9.0.4.4.2.2.>.2.>.&.*.%.%.%.@.@.+.-. .O.z K I I [ Q Q ! R Y G D Z N n > - % % # % $ $ - > n Z F T o.7XpXlXCXFXJXKXJXFXVXPXlXzXpXsXiXiXiXiXsXiXiXiXyX5X3X2X2XwX#X3X,X#X3X#X3X#X:X:X#X:X#X#X#X#X#X3X3XwX5XwXwXwXyX5X3X#X2X:X#X' ) / Q W Y F D C C d f 5 6 7 7 7 3 3 . o O X % 1 @ @ @ # # $ $ $ - , > } } n n B N B B m B B B B B B B N n n } } } } > ; , , ; , - ; , - ; , , , , , b ; , - , ; , - ; ; - - & - - - - - - - - , , } } } n M n B M n M n n m n M n n n n M B B N N N N Z S H V S Z S V S V S D D D F F L Y Y Y F L Y F R F L F F F R F L R L R R ! ! ! ! ! Q Q Q E Q Q Q / [ ~ ) ) ) ) ] ) ] ) ) ] ) ] ) ` ] ) ` ) ] ) ) ] ) ) ) ` ) ` ) ] ` ` ` ] _ ^ ^ I K z .. . .| | | | | #.t t t +.t t +.t t t +.t t +.t |  . .i k z K K o.[ o.o.o.o.@X( @Xo.o.( o.o.o.o.( ~ ~ ) ) ) ~ / ( o.o.o.o.o.o.o.o.o.( ( o.o.o.o.` ) ) ) ) ) ~ / / ) / ) ) ) ) ) ) ) ) ) ) ) ) ) ) ) ) ) ] ) ) ) [ Q ! { S N n } > > > } n n N N S H S S ",
"F Y R R ~ +X#XwXaXlXCXZXmXbXvXoXXXU.s.q.6.3.5.5.5.5.6.4.9.d.d.L.`.).,X6X6X4X1XuX1X1X*X/.).Q.H.i.p.9.9.6.2.2.2.>.>.>.&.&.%.%.@.@.@.+.+.-.i O.z K I E Q Q W W T T D D H B n > - $ % @ % $ $ - , n Z D T ` 7XiXjXVXFXLXKXLXDXVXPXlXzXaXiXiXiXsXiXpXiXiXwX5X3X6X:X:X#X#X;X#X,X#X:X#X2X:X#X:X:X#X2X:X2X#X#X3XyX5XyXwXyXyX3XyX2X>X#X^.' ) / Q W Y F D V m d f c 6 7 7 7 3 3 . o X X @ 1 @ @ # # $ $ % - - - > } } B B B m N B N B B N m N m m m m m m m s s } s ; ; ; ; ; & ; ; ; ; ; ; ; ; ; s ; ; ; ; ; , ; ; ; ; ; ; ; ; ; ; s ; s s } } n m m m m m m m m m m m m N m N m N N N N Z H S S S S D S S D D S D G G F L F Y R R R R ! R ! R E R R R E R R R R E ! E Q Q [ [ / ) / ) / ) / ) ` ) / ` ] ] ' ' ' ' ' ' ' o.' ' ' o.@X+X' @Xo.@Xo.o.+X' ' ' o.@Xo.+Xo.+Xo.' _ _ o.X.X.X...w. . .| | | | &.+.+.+.+.+.+.+.+.+.+.+.+.+.+.+.+.+.+.#. .w.O.X.X.o.o.o.+X#X+X+X#X` +X+Xo.o.#Xo.%Xo.o.o.o.o.o.o.o.o.o.o.o.o.o.+Xo.( o.@Xo.%Xo.o.o._ _ o._ _ _ _ o.o._ ^ _ ^ _ _ _ ) _ _ ) _ ' ' ' ' ' ' ' ' ' ' ] ` [ ! Y G N M } } > > n n N N S S S S S ",
"F L R Q ~ ' #XqXwXdXbXbXmXvXoXoX Xz.q.6.5.3.3.3.5.2.5.4.9.p.P.K.`.[.8X3X6X4XuX1X4X7X7X-X).H.K.K.p.9.6.2.2.2.2.>.>.&.&.%.%.@.@.@.+.+.+.i k O.z I I ^ Q Q Q W R Y F D H N } > - * # # @ # $ * , } B D W o.*XiXlXCXDXJXKXDXSXVXBXjXzXpXsXiXiXiXiXiXiXiXwX5X8X:X8Xo.)./.-X/./.;X#X,X:X#X2X#X#X2X:X#X#X2X5X2X5X5X5XyXwXyX5X#X#X#X#X#X] ) / Q R R F S C d d a 6 6 7 7 7 3 3 . o O X 1 @ 1 1 @ @ # $ $ $ - ; > } } } B B B B N N N N N N N m C C C C d m d f m f s s s s s s s s p p s p p p s p s p s s p p s s p s s p p s s s p s s s f d d d d d C d d d C d m m C V m V m H H S S S S S D F D F D F G F F F F Y Y R R ! Q Q Q Q Q Q Q Q Q Q Q Q Q Q Q ~ / ) Q ) / ) ) ] ] ` ` ] o.] ] ] ` ] o.@Xo.+Xo.#X+Xo.$X$X$X#X&X$X$X$X$X$X$X$X$X&X$X&X&X$X&X&X$X&X$X$X$X$X^.(.~.W.G.G.D.r.y.:.:.$.$.| | | &.%.@.@.%.@.%.@.%.@.@.@.@.@.@.+.+.+.r #.-.w.O.D.G.o.o.%X%X&X&X&X=X&X#X$X&X,Xo.o.o.o._.o.o.o.o.G.o.o.o.o.o.^.$Xo.%X#X&X$X#Xo.o.%Xo.W.W.W.o.W.W.W.W.W.W.o.W.o.o.^ W.o.^ o.!.!.^.$X^.$X$X&X&X$X$X#X' ] ) ! L D H B } } > > n n N Z H S S S G ",
"Y Y R R E ] (.#X9XrXcXbXvXoXoXXXx.z.q.6.5.5.3.3.2.2.2.4.9.u.K.L.`.).8X3X6XuX4XuX4X1X7X-X).H.L.i.u.9.4.2.2.>.>.&.&.%.$.$.@.@.+.+.+.+.r i i k z U U E E ! W W Y Y F S H N n > - $ $ @ @ % % - - } B S Y o.*XiXhXCXFXLXKXJXDXVXnXhXzXpXiXiXiXxXxXxXwXwX5X8XtXo.o.[._._._.W.~././.#X:X#X#X:X:X#X2X#X3X2X2X2X3X5X5X5X5X3X5XwX3X#X#X^.] ) ~ / W Y F G C V d f a 6 6 4 7 7 3 3 . O X X @ 1 1 # @ $ $ $ $ - & , } } } n n B N N N Z N H V V C C d C d d d g d a a d f f a a p f a f f f f f f f f f f f f f a f a f f f a f f f p f a d a d d d d d l d d d d d d d d C d C C G S D G D F F F F F L Y R Y Y L L R R ! ! Q Q [ Q ~ ) ) ) ) ) / ) ) ) ) ) ] ) ] ) ) ] _ ^.@Xo.o.#Xo.#X#Xo.o.#X#Xo.o.$X#X$X$X=X=X*X1X=X=X*X=X*X=X=X=X=X*X=X*X=X=X*X*X=X*X<X<X=X*X*X*X%X/.)._._.Q.J.J.t.t.e.;.;.&.&.&.&.2.>.%.*.*.%.%.%.%.%.%.%.%.%.@.@.@.@.+.+.#.-.w.r.D.W.o.-X7X<X2X1X1X<X<X7X<X7X-Xo.)._.`.H.H.H.Q.J.H.J.X.`.L.o.o.o.o.,X7X7X7X-Xo.;Xo.o._.Q.H.H.G.H.W.W.G.G.W.G.G.G.^ ^ G.o.o.!.^./.-X*X7X<X<X*X*X&X&X^.' ) Q R D H M v > } } n n N N S S S D D ",
"Y T R E [ ^ !.).[.9X0X.XoXoX X Xx.s.q.3.5.3.3.2.>.>.>.,.<.u.K.L.`.`.qX5XyXyXuX4X4X4X7X-XQ.Q.K.i.p.9.4.2.>.>.>.&.$.$.$.| +.+.| | r +.t t i k x K U E E ! W W R Y F D V N n v - $ % # @ # $ $ - > M S Y o.=XyXlXCXFXKXJXLXSXVXPXhXaXiXxXwX5XxX5XwX5X5X8X8X;X`.'.o.Q.H.G.Q.W._./.-X#X#X:X#X#X2X#X:X2X#X3X#X2X2X2X2X5X5X#X#X3X#X#X^.] ] / Q R R F D V C d f 6 6 4 4 7 3 3 o O o X @ + @ 1 # # # $ * - - - , > > } n n B B N Z S S S V C J d g l h h h c c h c c c c c c c c c c c c c c c c c c c c c c c c c c c c c c c c c c c c c h c h c h h h h g h c c d g d C C G G F F Y Y R T R R R R R R ! ! ! ! ! Q Q [ / ) ` _ ] ] ] _ ' ' ] ] ] ' ] ' +X' ^.+X#X#X#X#X&X$X$X&X=X=X=X=X=X=X=X=X=X=X=X*X*X*X%X*X7X*X7X7X*X*X7X7X7X7X7X2X7X2X2X2X2X2X4X4X4X6X2X2X:X,X).).Q.L.H.F.K.i.u.<.<.,.,.2.>.>.2.>.1.1.1.1.1.1.*.*.*.*.%.%.%.@.@.@.@.+.#.-.w.r.J.Q.).,X6X6XuXuXuXuX5X6X6X>X,X[.`.'.Y.Y.L.K.K.K.K.F.K.X.L.X.`.;X,X,X,X3X:X,X;X`.}.L.L.F.F.H.F.F.F.F.J.J.J.J.D.D.D.D.G.X.G.W.~./.:X6X3X6X4X6X2X7X&X#X' ] Q R F H B s } > } n N N H S S S D G ",
"Y Y Y F X.o.o.o.o.'.].]..XXX Xx.z.q.6.6.3.3.3.1.*.*.*.=.;.h.h.|.`.;X3XqXxXuXuXuX4X2X2X-X).Q.F.K.e.9.4.1.>.>.%.$.$.@.| | | | | | r r t t j k l K P P E ! R W T Y F S S N n > ; $ # @ @ # $ * - > n Z Y ) #XyXlXCXSXLXKXLXSXVXPXhXsXwXyXyX6XyX6X5X6X3X,X).).Q.H.F.J.F.G.H.G.W.~.^./.#X#X#X#X#X#XqX#X#XwX#XwXsX#XwXqX#X3X#X>X#X^.' ' ] ) Q R T { D V C d f 6 6 7 4 7 7 3 . o O X   @ 1 @ @ # % $ $ < < - - > > } } v M M Z Z S S D S J J l l j j k u i j u y 9 y  .i c i c y y i c i c y c c i y y i c y y y y i y y y y y y u j y c i k c i k k k i c k c h c l g l J P L L W W W W W ! ! ! Q E Q Q Q Q / ~ ) _ ' _ /./.#X-X#X#X#X/.#X/.#X#X/.#X#X#X#X#X#X#X#X#X3X*X*X7X7X7X7X7X7X7X7X7X7X7X7X7X2X:X2X2X2X2X2X2X2X2X:X2X6X2X6X2X2X5X6X3X5X5X5XuXuXuXuXyX5X3X>X[.[.|.|.h.E.h.p.a.9.4.3.3.3.3.3.3.3.5.3.3.2.2.2.2.1.1.1.*.*.$.%.$.$.@.+.#.-.y.t.H._.[.3XxXxXpXpXgXgXuXuXpXwX9X[.'.R.E.I.I.f.d.d.i.u.i.i.K.X.'.`.;X8XqXwXqX8X8X'.'.Y.P.P.d.d.d.i.i.K.t.t.t.t.y.r.r.D.D.D.G.G.Q.).>X5XwXxXyXuXpX#X8X#Xo.] [ Y D H n } v > } n B N Z S V D D F ",
"T T R o.o.o.X.X.T.Y.I.U.x.x.z.z.q.q.8.8.3.3.1.1.*.*.%.;.;.e.F.H.Q.[.qXxXxXgXuXuXuX6X2X,X).Q.L.i.p.9.,.>.&.&.%.$.| | | | e | q q e e e u i j x J P P R ! R R Y Y F S Z N n } - * # % @ % % $ - ; B H F ) *XwXhXCXFXKXKXJXSXVXkXhXpXyX5X3X4X4X6X4X2X>X;X).Q.H.F.F.t.t.t.D.H.G.W.!.^.#X#X#XqX#XyX#X#X5X#X#X#X#X#X#X#X#X#X#X#X#X#X^.] ` / Q ! R F D V d d a a 6 4 7 7 3 3 . o O X @ @ @ @ @ # % $ $ $ * - - , , > } n M N Z S D F { { J J l k k i i  .i  . . . . . .t i i i i i i i i -.i i i i i i i -.i i i i i i i i i i i i i i -.i -.-.i i i i i i i i i i c l l J J L ! Q ! ( ( ( / Q Q Q ) / / ) _ ] ] ] ' /.^.#X#X#X#X#X#X#X#X#X#X#X#X>X#X#X#X3XwX#XwX6X5X#X2X6X2X2X6X2X4X2X2X6X6X6X2X6X6X6X2X6X5X6X5X5X5X5X5X6X6X5X5X5XwXyX5XwXyXyXiXiXxXpXpXiXiXwXqX9X[.|.E.E.h.a.a.q.8.q.q.8.8.3.8.8.8.8.7.7.7.8.8.5.5.3.3.1.1.1.>.&.$.$.$.+.:.-.y.D.H.`.8XwXsXaXgXgXgXgXgXgXsXeX0X{.R.R. Xx.z.s.s.0.0.a.u.u.i.K.Y.`.[.9XeXeXeXtX}.}.T.I.f.f.a.a.p.p.u.u.i.i.e.y.y.y.w.w.O.r.D.H.Q.;XqXeXpXpXpXxXxXiX#X#X@X` [ Y D H m n } > } n n N Z S D V D V ",
"R W R R { X.X.X.X.f.f.f.s.s.l.q.q.8.8.3.3.3.1.*.*.*.%.%.-.e.F.H.`.8XqXwXxXpXxXuXyXuX2X;X).|.F.i.t.9.,.*.&.%.$.@.| | | q e e q | e e e u i h x J P P R R R R Y Y F G H N n > - $ # % @ % # $ - > n H Y ) #X5XhXCXFXLXKXLXSXCXkXzXiXwX5X4X4X4X2X2X2X:X)._.Q.F.t.t.e.e.t.r.D.G.W.o.).#X#X#X5X#X#XwX#X#XqXqXqX#X#XqX#X#X#X#X#X/.^.+X' ) ) Q W Y F G V C d a 6 6 7 4 7 7 3 3 o o X @ 1 @ @ @ # $ $ % < & & - - , > } v M N A A D F { P J z z O.-.-.-.-.#.#.#.|  .|  .+.#.-.-.#.#.-.#.+.#.-.#.@.-.-.#.#.#.-.#.#.#.-.#.#.#.-.#.#.#.-.#.#.#.#.-.#.-.-.-.#.+.i i i i i k z K I I [ ~ ) ) ( ( ) ) ) ) ) ] ] _ /.^.' #X#X#X#X#X#X#X#X3X#X3X#X5X#X3X#X3X#X5XwX5X6X6XwX5X5X5X5X5X5X5X5X5XyX5X5X5X5X5X5X5X5XyXwXyX5XyXwXyXwX5XyXwXwXyXyXwXxXwXiXaXiXaXaXgXgXgXgXgXpXsXeXtX}.].E.g.z.s.q.q.8.j.8.j.8.j.j.8.j.j.7.7.7.7.8.7.8.5.5.2.2.>.>.&.%.$.@.+.#.-.y.F.|.[.9XsXzXhXjXNXgXjXjXdXdXrX0X{.XXXXZ.Z.M.l.l.6.6.0.9.a.d.d.Y.}.[.tXeXdXrXtX0X].R.g.s.s.0.0.q.0.0.0.9.<.<.;.:.:.:. .w.w.r.H.|.;XqXsXsXzXaXpXxX6X#X#Xo.` ! L D N B } > } } } B m H H D V D D ",
"T T T R T X.X.X...p.p.0.q.0.6.6.8.6.5.3.3.1.*.*.%.%.%.#.-.t.F.H.|.;XqXpXxXpXgXuXuX5X3X;X).Q.L.K.h.;.=.&.&.$.@.+.| | | e q q q q q q w w u j l l U L R R Y Y Y F D S H B n > - * # # @ @ % $ * , n N F ~ %XwXhXCXSXJXJXDXSXCXkXzXiXyX4X2X<X4X2X2X7X-X~.Q.H.t.t.e.;.;.e.e.r.J.G.W.~.#X#X#X#X#X#X#XqX#X#X#X#X#X#X#X#X^.$X#X#X-X' ' ] ) / Q W Y F G V C d f a 6 6 4 7 3 3 . O O X @ 1 + @ # @ # $ $ $ * < - - - > > } B N Z S F { L P z z O.w.-.:.=.=.*.&.$.&.&.,.| %.%.%.%.%.%.%.*.@.%.%.%.%.%.%.*.%.@.#.%.=.%.%.%.%.%.=.%.%.%.%.%.%.%.;.%.%.%.%.%.#.#.+.#.+.+.#.O.O.z K I ^ ) ) ] ] ] ] ] ] ' ^./.^.#X#X#X#X#X#X3X5X#X6X#X3X>X5X#X#X3X5X#X3X5X6X6X6XwX5X5XwXwXxXiXiXiXiXiXiXiXiXyXiXiXiXwXiXiXwXiXiXiXiXwXxXiXiXiXwXiXiXiXiXiXaXaXaXaXzXzXaXzXzXzXfXzXsXdXtX{.].E.E.x.l.k.k.j.v.j.j.j.j.j.j.j.j.j.j.j.c.7.7.7.7.5.5.5.3.1.>.>.%.$.@.@.-.:.t.J.|.[.tXdXlXlXNXNXNXNXlXlXdXcXvX.XXXA.A.N.N.b.j.j.k.k.6.0.a.f.I.}.0XrXdXdXcXrX.X.X Xx.z.l.q.k.k.6.6.6.6.4.,.,.,.$.$.#.-.-.w.F.|.[.9XrXdXzXzXaXzX#X3X#Xo.( ! L D H n n } > v } m M Z H S D D S ",
"W T W R L X.X...i.u.9.6.6.5.7.7.8.5.3.3.3.1.*.*.%.@.-.-.e.r.F.H.).8XwXwXiXxXpXxXyX5X2X,X).`.H.F.t.e.;.=.$.$.+.| | e q q q q 0 q q q w w y h x J P L L R R Y F D S S N B } : ; $ % # % @ # $ * ; n N F ~ #XwXhXBXFXLXKXDXSXCXkXzXiXyX4X6X2X<X<X<X,X#X_.Q.F.t.e.e.;.;.:.e.r.D.G.^ !.^.' #X#X#X5X#X#XqX#X#X#X#X>X#X^.' ' ^.' ' ' ' ] ) / Q W Y F D V C d a 5 6 4 7 4 3 3 . o o X X 1 @ 1 # # # $ $ $ $ < & - - ; > } n B Z D G { P U z O.O.w.=.=.*.*.*.*.1.| 2.>.&.%.*.*.*.*.*.*.*.*.*.*.*.*.*.*.*.*.*.*.*.*.*.*.*.*.*.*.*.*.*.*.*.*.*.*.*.*.*.*.*.%.%.%.@.#.#.-.w.O.O.D.I ^ o._ _ ' ' ' ' /.^.#X#X#X#X3X#X#X3X#X#X3X#XwX5X#XiX5X6XwX6X5X6X6X5X5X5XwXwXxXxXiXpXsXsXsXpXpXpXsXpXpXsXsXpXsXpXsXsXpXsXpXaXiXaXpXsXaXaXaXpXaXpXaXaXaXfXzXzXzXhXhXzXhXhXdXdXdXrX0X0X]. Xx.M.l.v.j.j.j.j.j.j.j.j.j.j.j.j.j.j.j.j.j.7.7.7.7.3.5.>.>.>.%.$.%.#.:.w.t.L.`.9XrXdXkXkXNXPXPXnXlXbXcXcXoXoXOXA.N.B.n.n.j.j.j.k.6.q.a.I.T.{.0XrXdXbXcXcX.X.X Xz.l.k.j.j.j.5.7.5.6.2.4.>.&.&.$.$.%.-.e.F.L.|.tXtXdXsXzXsX5X#X#X#X@X/ ! F S N n } > > } } n m H H S S S S ",
"T W T X.F X.X.....0.<.6.5.5.5.5.3.3.3.2.4.*.*.%.@.#.-.-.w.r.F._.).9XqXwXpXpXpXxXyX5X5X>X).).|.F.t.h.;.;.:.#.#.| | q q q q q q 0 q 0 0 w y h l J J P Y L F Y D D H N B n } ; * $ # % # % % $ - , n N F ) *XyXhXCXFXKXJXDXSXCXkXzXiXwX6X2X2X2X<X<X#X/.~.W.D.t.e.;.=.:.:.w.r.r.X.^ _ ' #X#X#X#X#X#X#X#XwX#X#X#X#X#X+X^.' ' ' ' ' ] ) ) Q ! R R F S V H d a a 6 4 4 4 3 3 . o X X 1 1 @ # 1 @ @ # $ $ * * * < - , ; } n m H V { J J K z O.w.;.=.*.1.1.1.1.1.2.>.2.2.*.*.1.1.1.1.1.1.*.1.1.1.1.1.1.1.*.1.1.1.1.1.1.1.1.1.1.1.1.1.1.1.*.*.1.1.1.1.1.*.*.*.%.%.%.=.#.-.O.r.D.G.G.o.W._ !.^.^.^.#X#X#X#X#X#X#X3XwX#XiX5X5X3X5X5X5X5XwX5XiXwX5XwXyXwXwXxXxXiXiXiXiXsXpXpXpXaXaXaXaXzXfXaXaXpXaXpXpXaXaXpXaXaXaXzXaXaXaXaXaXaXaXaXaXzXfXhXhXhXlXlXhXlXdXdXdXdXrX0X0X.X X Xx.M.k.v.c.j.j.j.j.j.j.j.j.j.8.j.j.7.7.j.7.7.7.5.5.3.2.>.,.>.,.:.:.:.y.t.F.Q.[.tXrXdXkXPXPXnXnXnXbXbXvXoXoXXXA.A.B.n.m.n.n.j.k.l.q.s.g.U.]..X0XdXcXlXbXcX0XXXXXz.l.j.c.j.j.5.j.5.5.5.2.2.>.&.$.$.=.-.e.h.L.|.[.0XtXeXeXqXqX3X>X#X` / ! F D B n } > > > } n n Z H V S S S ",
"T T T R L X.X.....9.,.6.5.5.5.5.3.2.2.>.*.*.=.@.-.-.-.w.r.D.G.Q.).>X5XwXiXxXxXyXyX5X3X2X;X).Q.H.F.t.e.e.:.-. . .| e q q q 0 0 q 0 q 0 w y h l l J L Y Y F F D Z N B n } ; - * $ # % # # $ $ ; ; v N F ~ #XwXhXBXSXLXLXDXSXVXlXzXpXyX3X6X4X2X1X<X3X/.~.H.D.t.e.:.=.=.;.w.w.D.X.^ _ _ ' #X#XxX#XxXsX#X#XqX#X8X#X-X+X' ' ' ' ] ] ) ) / Q W R F F G V C d f 6 6 7 4 7 3 3 3 O X X X 1 1 @ @ # # @ $ $ $ * * - - , ; } n m m C C J J z O.w.e.;.4.1.3.3.3.3.3.5.5.5.5.3.3.1.3.1.3.3.3.3.3.3.3.3.3.8.3.3.3.3.3.3.3.3.3.3.3.3.3.3.3.3.3.3.1.3.1.1.3.3.1.1.1.*.*.*.*.*.;.e.w.r.D.D.G.W.W.~.~./.^.#X:X4X#X5X#XiXiX5XyX5X5X5X5X5XyX5XwXwXxXiXiXiXiXsXiXsXiXiXiXsXiXiXpXaXpXaXfXzXfXzXfXfXfXfXaXaXaXaXaXaXfXfXzXzXhXzXhXhXzXzXzXhXhXhXhXhXhXjXjXlXlXlXlXdXcXrX0X0X.X.X X Xx.z.l.v.v.j.j.j.j.8.8.8.8.8.8.8.8.7.7.7.7.5.5.5.2.2.2.>.,.,.;.;.;.e.t.t.H.H.[.9XtXdXlXkXkXnXbXbXbXcXvXvXoXXXXXA.A.B.N.B.n.n.k.l.l.g.g.U.R..X0XcXbXnXnXcXcXvXXX XZ.M.k.j.j.j.j.j.5.j.5.2.2.>.>.&.&.%.%.;.h.K.E.'.[.[.9X8X8X#X;X/.' ] [ W F Z B n > > > > } n B m Z H S S S ",
"T W R R X.X.X...u. .<.2.2.5.2.2.2.1.>.>.*.=.-.;.w.w.O.r.r.G.W._.;X>X3XwXxXxXxXyXyX5X5X>X,X).Q.|.H.F.F.r.y. . . .w 0 q q 0 q 0 0 q 0 0 w j j l J J L Y Y F D S N B n > > - < * % % # % $ $ * - : n Z F ~ #X5XhXCXFXJXKXJXSXVXPXhXsXyX5X4X2X1X2X<X#X/.~.G.F.r.e.:.:.=.#.w.w.z I ^ ~ ) ] #X#X#XwX#X#XsXwX#XqX#X#X#X#X^.' ' ' ] ) ) ) Q Q ! T Y F D V d f a a 6 6 7 7 3 3 . o O X   1 1 @ @ @ @ # % % $ $ $ < - - ; } s s d d d l x z O.w.;.;.4.3.3.8.8.8.8.7.5.5.5.3.8.3.3.8.8.3.3.8.3.8.3.3.3.8.8.8.3.8.8.3.8.8.3.8.3.8.8.8.3.8.8.8.8.3.8.8.3.8.3.8.3.3.1.1.1.*.;.;.e.e.t.F.D.H.G.W.~.).#X>X#X6X4XwX5XyXiXwXiXiXiXiXiXiXiXiXxXxXsXiXsXpXaXaXpXgXsXpXsXiXiXiXsXpXaXfXzXfXjXjXjXjXfXfXfXfXgXfXfXfXzXzXhXhXhXhXhXhXhXhXlXhXhXhXlXjXkXkXkXkXlXlXlXcXcXvX0X.X.X.X Xx.z.Z.l.v.j.j.j.8.8.8.8.8.3.3.3.3.3.5.3.3.3.3.2.2.1.>.>.>.,.<.;.e.e.t.F.F.|.[.9XtXsXdXlXlXnXnXbXbXvXoXoXoXOXOXA.C.N.N.n.n.k.N.l.z.x.x. XR..X{.cXdXbXlXnXbXcX.X.XXXz.l.k.j.j.j.5.j.5.5.5.5.2.2.>.>.>.*.=.;.h.h.P.E.Y.}.[.`.)./.~.!._ ~ E Y D H B n > , - , } } B M Z H H H H ",
"W T R R X.P X...e.<.9.2.5.5.2.2.>.>.&.&.=.:.:.-.O.r.r.X.D.W._.~.#X8X3XyXwXyXyXyXuX5X3X3X,X-X).).Q.H.J.D.r.O.O.i i w q q 0 0 q 0 q 0 w 0 y h l J P { L F D S Z M } > : - - $ $ # % % $ $ $ * - > } N F ~ %XyXzXCXSXKXJXLXSXGXPXhXaXiXaX#XyXpX#X5X3X/._.G.J.r.e.-.:.#.-.w.k z K I [ o.o.+X&X*X7X6XsX#XsX#X#X#X5X3X#X#X/.$X] ] ) ) [ ! ! W Y F D S V C d a a 6 7 7 7 7 3 . o O X X @ + + + @ @ @ @ $ $ * * * - - ; } s s f d g h j k -.:.;.1.4.5.8.7.7.j.7.7.7.7.7.8.8.8.8.8.8.8.8.8.8.8.8.8.8.8.8.8.8.8.8.8.8.8.8.8.8.8.8.8.8.8.8.8.8.8.8.8.8.8.8.8.8.3.8.3.3.3.9.*.h.h.e.t.r.F.G.G._.).#X8X3X6X5XiXiXiXpXaXpXaXsXsXiXiXiXiXiXiXpXaXaXzXzXzXzXzXaXiXpXiXiXxXiXpXaXzXfXjXjXjXjXjXfXjXfXfXfXgXaXzXfXhXhXjXjXlXlXkXlXjXlXjXlXjXjXjXNXkXNXkXlXlXcXcX0XvX.XXXE. Xx.Z.Z.l.l.k.j.j.8.8.3.3.1.1.1.1.1.1.1.1.1.1.>.>.>.>.*.&.>.,.,.<.p.p.X.H.|.|.[.9XtXeXzXhXlXlXbXbXvXvXoXoXOXOXA.A.N.N.N.N.k.k.M.l.z.x. XR..X.X0XcXcXbXkXkXnXbXcX0X X Xz.l.j.j.j.7.7.7.7.5.5.5.2.2.>.2.>.*.=.=.9.h.h.h.P.L.H.H.Q.W.W.^ ^ [ R Y D Z n v : - - ; > } n m M Z Z Z H ",
"W W Y F { X.X.....<.<.2.5.2.5.>.>.>.&.$.:.#.w.w.r.z X.X.G.W.).;X:X>X3X5X5X5XyXyX5X3X6X3X:X,X-X)._._.H.J.J.r.O.O.i w q 0 0 q q 8 0 q w y y j l l J L Y F D S B } : ; - $ $ % $ # $ $ $ $ * < , > n Z F ~ #X5XhXCXFXLXKXKXFXGXnXjXaXsXsX5X#X#XiX#X#X/.~.G.D.t.e.-.:.#.#.-.O.z U I Q ( ` +X&X*X6X6XiXxXiXsXqX5X#X#X#X#X^.^.] ) ~ Q ! ! R Y Y F F G V m d f 6 6 7 4 7 3 3 . o O X @ 1 @ + + 1 @ @ @ @ % % = * - , ; ; p f f g c h i i -.:.=.4.6.8.8.j.j.j.j.j.j.j.7.8.8.j.8.j.8.j.j.j.j.j.j.j.j.8.j.8.8.j.8.j.8.j.j.j.j.j.j.j.j.j.8.8.8.j.8.8.j.j.8.8.j.8.8.8.8.3.3.1.4.*.h.e.e.t.F.H.Q.).,X3XwXwXiXpXpXaXzXzXzXfXaXaXaXpXsXsXpXsXaXfXzXfXhXhXfXzXaXsXsXiXwXxXiXiXpXgXfXjXjXNXNXjXjXfXjXfXfXfXfXfXhXhXjXjXlXkXkXkXkXkXkXkXkXNXNXNXNXNXNXnXkXlXcXvX.X.X X XXXx.z.l.l.l.j.8.8.8.3.3.1.1.*.*.*.*.*.*.*.*.*.*.*.&.&.%.%.| >.| <. ...i.L.|.`.[.qXeXsXzXhXjXjXjXbXcXvXoXoXOXXXA.A.A.N.N.n.n.k.l.l.z.x. X.X.X.X0XcXcXlXlXnXnXkXbXcXoX.XU.z.q.7.7.7.7.5.7.5.7.5.5.5.5.5.2.>.1.4.4.;.<.h.h.h.t.F.F.D.G.I ^ ~ ! R Y S N n } : - - , ; > n n B M Z Z H ",
"T W T o.{ X.X...e.u.,.2.2.5.>.>.>.&.@.$.-.-.w.w.K D.I W._ !./.#X:X3X3X5X5X5X5X5X5X6X6X6X3X:X,X-X).).~.W.G.D.z O.i i q q q q 0 q q q q 0 u j x J P { Y D A Z M } - * % # # @ # @ $ $ $ $ - - - > n N F / #XwXhXCXSXJXJXLXFXGXBXjXfXpXxX5XaX#X#XwX3X#X).W.J.r.w.-.-.#.-.k O.x J U E [ ( @X$X1X2X6X5XyXiX5X5X#XwX#X#X/.+X' ] ) [ Q ! ! W Y Y F D S V C d a 6 6 6 4 7 7 3 o o X X @ 1 1 1 + 1 @ @ @ @ # $ * * - - ; p s p a 6 9 u u i #.%.,.3.3.j.j.j.j.c.j.j.j.j.j.8.8.c.j.j.j.c.j.j.j.j.j.j.j.j.8.8.j.j.j.j.j.c.j.j.j.j.j.j.j.j.j.8.j.j.j.j.j.j.j.j.j.j.j.8.j.8.8.3.4.4.9.;.e.h.t.F.|.`.;X>XwXiXpXaXfXhXhXhXjXhXhXzXaXpXsXpXpXaXaXzXhXhXhXlXhXhXzXaXpXxXwXwXwXiXpXzXfXjXjXjXjXkXjXjXzXfXaXaXfXzXhXhXlXjXkXkXkXkXkXkXkXkXkXkXNXNXNXNXNXNXlXbXcXoX.XXXXXZ.Z.M.l.l.v.j.8.8.3.3.3.3.1.*.*.%.%.%.@.@.%.%.@.%.%.@.@.%.@.&.| 4. .u.i.X.T.'.9XeXeXsXzXzXhXjXjXdXcX0XoXoXXXA.A.B.B.B.n.n.j.j.k.l.l.x.U. X{.0XcXcXcXnXkXBXBXkXnXcXcX0XR.U.z.q.7.7.7.7.5.5.5.5.5.5.5.5.2.5.2.3.4.1.9.,.;.;.w.e.w.O.D.K X.I E E Y F S B n > : - - - , > n n m N N N N ",
"T W W R L X.X... .u.9.4.2.2.2.>.&.%.$.@.#.-.w.z D.I G.o._ $X#X#X#X3X2X5X6X5X5X5X6X6X3X6X2X6X2X:X:X%X/.~.W.X.D.z k u w w q q q q 0 q w u j h x J J L L G S N v : - $ # % % @ % % # $ = & $ - ; > n Z F / #XwXzXBXFXDXKXKXFXVXBXlXfXsXpXxXpXpXpX#X#X,X_.H.D.r.w.-.#.#.i i k x U P E [ o.@X&X<X6X5XwXiXwXyX5X5X3X#X#X#X$X' ] ) Q ! ! R Y Y F D G G V C d a a 6 4 7 7 3 3 3 o O X X 1 1 + + 1 1 1 1 @ # $ $ * - - ; ; p p f 6 9 u q +.#.%.,.3.8.j.j.c.c.c.c.c.c.c.c.c.c.c.j.c.j.c.j.j.c.c.j.c.j.c.c.c.c.c.j.c.j.c.j.c.j.c.j.j.c.c.c.j.c.j.c.c.j.c.c.c.j.j.j.j.j.8.8.8.3.1.*.*.;.e.h.F.|.`.;XqXsXpXfXfXjXjXjXlXjXlXhXhXzXfXaXaXsXaXzXzXhXlXkXkXjXhXzXsXpXxXxX5XxXiXsXaXhXhXlXlXkXlXdXzXaXaXsXsXaXaXzXhXjXlXkXkXNXNXkXkXNXkXkXkXNXNXNXPXNXkXnXbXcX{..X Xx.z.M.v.v.8.j.8.8.8.3.3.3.*.*.*.%.@.@.@.@.@.@.@.#.@.@.@.@.@.+.| &.|  .p...K.`.[.9XeXdXdXhXhXhXdXdXdXrXvXoXXXXXA.B.B.N.n.c.j.j.j.6.0.s.g.U..X0XcXcXlXkXkXBXBXkXnXlXcXcX.XR.f.s.0.6.5.5.5.7.5.5.5.5.5.5.5.5.5.2.3.1.1.1.*.=.%.:.-.-.O.z K K P P L F D H B v > < - * - , > } n B m M N N ",
"W T R E X.J X...y.;.9.4.3.2.1.>.%.%.@.#.-. .O.z X.I W._ #X#X#X#X#X4X2X3X5X5X5X6X6X3X3X2X4X2X2X2X7X*X%X(.o.G.K K k k i w w q q q q w u u j j l J J L Y D S M } : $ % # @ 1 @ @ # % $ * * - - ; > n H F ~ #X5XhXCXSXLXJXLXFXGXBXlXaXsXxX5XyX#XiXyX8X#X~.W.G.r.w.w. . .i i x x J P E [ o.` $X1X4XyXxXwXxXyX5X#X#XwX#X#X#X' ] ~ Q Q R Y Y Y Y D D S V C d f 6 6 7 7 4 3 3 . o o X X 1 + + + + + 1 X @ @ $ $ * - - ; p p p 6 9 8 w e | @.%.1.3.8.j.c.c.c.n.c.c.c.j.c.c.c.j.c.c.c.c.j.c.c.c.c.c.j.j.c.j.c.c.c.c.c.c.j.c.c.c.c.j.c.c.c.c.c.c.j.c.c.j.c.j.c.c.c.c.c.j.8.8.8.3.1.*.*.h.h.F.|.|.9XqXsXgXfXjXjXkXkXkXkXkXlXhXhXzXaXpXaXaXzXfXhXjXkXkXlXhXfXaXsXiXwXwXwXwXsXsXdXdXlXlXlXcXdXdXsXsXeXeXsXsXsXzXdXlXlXkXkXNXkXkXNXkXkXNXNXNXNXNXkXkXlXcXcX{..X Xz.M.v.8.j.8.8.8.8.3.3.1.4.*.%.;.%.%.-.-.-.#.-.#.#.-.#.#.@.| $.&.| ,.:...i.Y.'.[.tXrXdXdXdXdXhXdXdXrX0X{.oXXXXXA.B.N.N.v.v.k.j.6.6.0.f.I.R.{.rXcXlXNXnXBXPXkXkXlXcXrX{.].R.f.s.0.6.5.5.5.5.5.5.5.5.7.5.5.3.3.3.3.4.1.*.*.=.#.-.-. .O.O.z J U P L F S Z n v : - * * & , , } } B m N M N ",
"T R R R L X.X...y.<.4.4.3.2.1.*.*.%.+.#.i -.k D.X.^ _ _ #X#XpX#X5X4X6X6X3X6X6X5X6X6X2X2X2X2X2X2X<X7X*X%X!.W.G.K z k i u i u i i i u u k j x J P P L { S Z M v < = @ @ 1   @ @ @ $ $ $ $ * - - > n Z F / #X5XzXCXFXKXKXKXFXVXPXlXaXiXxX5XiXpXyX#X#X#X).W.G.D.O.O. . .k j x x J P R ! ( @X#X*X2X6XyXxXiXsXwXwXyX#XqX#X/.$X) ) Q ! R L Y F F D D S V V d a a 6 4 4 7 3 3 . O X X 1 1 + + +   1 1 1 @ # # * * - - ; ; p 5 6 6 8 0 e | @.*.1.5.j.j.c.c.n.c.c.c.c.c.c.j.j.c.c.c.j.c.c.j.c.j.c.c.c.c.c.c.c.j.c.c.j.c.c.j.c.j.c.c.c.j.c.j.j.c.c.j.c.c.c.c.c.c.c.j.j.j.8.8.3.1.1.*.;.;.h.h.|.[.9XeXsXfXjXjXkXkXkXNXNXkXlXhXhXzXaXaXaXaXzXhXhXlXlXlXjXhXhXzXpXpXiXxXwXsXdXrXrXcXcXcXrXrXrXtXtXtX9XqXtXeXeXdXdXhXlXlXkXkXkXkXkXkXkXkXkXkXjXNXkXlXlXcX0X.XXX Xz.l.v.j.j.8.8.8.3.3.1.1.*.;.;.-.;.w.-.w.-.w.-.w.-.-.-.-.-.$.#.| &.$.<.u.i.P.T.}.0X0XrXrXrXrXrXrXtX0X0X.XR. XA.A.Z.N.M.k.k.6.0.0.a.a.P.T.].0XrXcXnXkXBXnXkXnXcXcXcX0X.X].U.g.a.6.2.5.5.5.5.5.5.5.3.3.5.3.3.3.3.3.1.1.*.=.=.%.-.-. .k k x U P { F D S Z n v : - * & - - > } n n M M m N ",
"T W R R { X.X...y.<.,.4.3.2.1.*.%.%.@.+. . .O.K X.^ ~.#X#X#X#XxX2X6X5X5X5X5X5X2X6X6X2X2X2X2X2X1X2X<X*X=X^.W.G.X.K z z k k k k k k O.z x x J U J P G F S N B b < $ @ 1 X @   @ % % $ - * * ; ; > n N { ~ #XwXzXCXFXLXKXLXFXVXkXhXaXsXyX5X5X#X5X5XwX>X;X_.G.D.D.O...j j x l l J L R ! / o.#X1X2X6X5XwXxXsXyX5X#XqX#X#X#X).) [ Q ! R Y Y F Y D D S V C d a a 6 7 4 7 7 3 3 o O X X + + + +   + 1 1 @ # # $ * < ; ; ; p p 6 9 8 0 e +.@.*.1.8.8.j.c.c.c.c.c.c.j.c.j.j.c.j.j.j.c.j.j.c.j.j.c.j.j.c.j.j.j.j.j.j.c.j.j.j.c.j.c.j.j.j.j.j.c.j.c.j.c.j.c.c.c.c.c.j.j.j.8.3.3.1.*.*.;.;.h.t.|.`.9XwXzXfXjXjXNXkXNXkXBXNXkXjXhXzXzXaXsXaXzXzXhXjXlXjXkXhXhXzXfXsXpXsXsXeXeXrXrX0XcX0XoX{.{.{.}.}.[.[.9XtXeXeXsXdXzXhXjXjXkXjXjXkXkXjXjXjXjXjXjXhXdXrX0X]..Xx.z.l.k.j.8.8.8.3.4.1.1.*.;.;.;.e.w.w.r.r.r.r.r.w.r.r.w.w.:.:.#.:.$.&.<.<.p.f.T.]..X{.{.0X0X0X0X{.{.}.].R. X Xx.x.z.q.s.s.0.a.0.a.d.P.I.T.}.0XrXlXkXNXnXlXbXcXcXvX0X.X].U.f.a.0.0.2.2.5.2.5.5.5.5.5.5.5.3.3.3.3.1.*.*.;.=.-.-.-.w.k k x z U J { F G Z N n > : < - * - - > } } M m M B N ",
"T W R R P X.X...e.u.,.2.2.2.1.>.%.@.+.+.-.w.O.z K W.~.#X#X#X#XpX4X5X5XwX5X5X5X5X6X2X2X<X2X1X2X<X1X<X*X=X/.!.W.^ X.K D.z z z z z z z K z K K U P L F G S B } > < $ @ 1     @ @ # # $ * & - - : } n N F ) *XyXhXCXSXKXJXDXSXCXkXzXpXiXsX#XwXpX#XsX#X3X#X/.W.G.X.z z j x x x C J { L W ( ` o.&X<X2X#XsX5X#X#XwX5X#X#X#X#X#X] ) Q ! R R Y F D D G S V d d a a 6 7 4 7 3 3 . o O X 1 + 1     1 1 1 1 @ @ $ % * - - ; p p p 6 9 0 q r | $.*.1.8.j.j.c.c.c.c.c.j.j.j.c.j.j.j.j.j.j.j.j.j.j.j.j.j.j.j.j.j.j.j.j.j.j.j.j.j.j.j.j.j.j.j.j.j.j.j.j.j.j.j.8.j.j.j.j.j.j.8.8.8.1.*.%.*.%.;.h.F.|.[.qXeXaXfXjXjXNXNXBXBXBXkXkXlXhXzXaXaXaXaXaXzXhXhXhXhXjXhXhXfXfXfXfXsXeXrXrX0X0X.XoX.XoX.X].R.'.'.Y.'.`.[.[.9XeXsXzXzXzXfXhXlXhXlXlXjXjXjXjXjXfXfXzXeX0X].E.x.s.l.8.8.8.3.3.1.1.*.*.=.;.e.e.t.t.F.F.F.J.D.D.J.D.D.D.y.y.e.;.,.,.,.4.9.a.f.U.E..X.X.X.X]..X].].].R.R.E.E.E.U.f.s.f.a.a.d.u.d.i.K.K.Y.[.tXrXdXlXnXkXnXlXcXcX0X.X].R.U.f.f.p.0.4.2.2.2.5.5.2.5.5.5.3.3.3.3.4.1.*.*.%.=.;.;.w.O.O.z z K J P P { G D Z B n } - < $ * - , > > n n m M M m ",
"T W W R P X.X...y.<.<.2.5.2.>.&.%.%.@.#. . .O.K K ^ o._ #X#XyX#X4X5X5XxX5XyX5X5X2X4X2X:X#X#X6X4X#X4X<X:X#X/.!.W.^ G.I X.K X.X.X.X.X.I X.I I P P L G D H N n , < $ 1 1 1 1 1 @ % $ $ * * - - : > n H { / #X#XhXCXSXKXDXDXSXCXkXaXwXsXyX#XsX5XyX#XsX3X#X;X_.W.I K J l l J J C { { L E [ o.o.#X1X7X6X6X6X4X4X2X<X7X=X&X+X@Xo.Q Q W R L Y F F D D G V d d a a 6 6 4 7 3 3 3 o O X @ 1 1   +   + 1 1 @ @ $ = * < - ; p p p 6 9 y 0 | | &.,.2.5.7.c.c.c.c.c.c.c.7.j.7.8.8.j.8.j.j.j.j.8.j.j.j.j.j.j.7.j.j.j.8.j.8.j.j.j.8.j.j.j.8.j.j.8.j.j.8.j.8.j.j.j.8.j.j.j.8.8.5.3.1.*.*.%.=.:.t.F.|.`.8XeXaXhXjXjXNXNXNXBXBXkXkXkXhXzXaXaXaXaXaXaXzXzXfXhXhXhXhXjXfXhXfXdXdXrX0X.XoX.XR.XX XU.U.E.E.E.E.E.F.|.|.9XqXqXsXsXaXaXhXhXhXfXhXhXfXhXfXfXaXaXsXeX}.}.R.g.s.q.8.8.5.3.3.1.*.*.=.=.:.e.t.F.J.|.H.Q._.Q.W.W.J.W.J.J.i.y.u.9.9.6.6.0.0.s.g.x. X X X X X XU.U.U.I.I.I.I.I.I.I.i.i.K.K.K.K.K.K.L.L.`.[.tXeXdXkXkXkXbXcXcX.X.X]. XI.f.a.a.0.4.4.2.2.2.2.5.5.5.5.5.2.2.2.2.>.&.*.=.:.:.:.w.O.r.K K K K U P { { G S N B } > - < * * - - > } n n B M M m ",
"W T R R P U X.....<.,.6.2.2.2.>.%.@.@.+.i -.O.K X.^ o.^.#X#X#XiX6X5XwXxXxXwX5X3X2X2X2X2X2X2X4X#X7X7X<X#X%X%X/.!.W.W.^ W.o.G.G.W.W.W.G.^ ^ I E R L F D N n } ; * $ @ @ 1 1 @ @ @ % $ $ * - - : } n Z F / #XqXhXCXFXDXDXDXGXBXhXsX5X#X5XiX#X5XyXwX5XwX3X8X/.W.I I X.J J J J { L L R E ( ( @X$X=X<X7X2X2X2X2X:X7X*X=X=Xo.+X( o.Q R R Y Y F F D D S H C d f a 7 7 4 7 7 3 . o X X X   1 + + +   1 X 1 # # $ * - , ; ; p p 7 8 8 0 | | ,.>.2.5.7.j.c.c.c.c.j.j.j.7.7.8.8.8.8.8.8.8.8.8.8.8.8.5.7.7.7.8.8.8.8.8.8.8.8.8.8.8.8.8.8.8.8.8.8.j.8.8.j.8.8.8.j.8.8.8.8.8.3.3.1.*.%.%.@.;.t.F.H.).9XwXaXfXjXjXNXNXPXkXBXkXkXhXhXzXaXaXsXaXsXaXaXzXzXzXzXfXhXfXjXjXhXdXdXrX{..X.XXX XXXx.x.s.s.h.h.h.h.E.F.|.|.9XqXwXiXsXpXgXfXaXaXzXfXaXaXgXaXpXiXeX9X[.'.I.f.s.0.8.3.3.1.1.*.*.%.$.:.e.t.F.J.|.|.).).).).).)._._.Q.J.K.i.u.0.6.6.6.k.k.l.z.z.Z.x.x.x.x.g.x.g.g.f.f.f.d.d.I.L.L.L.L.L.J.L.X.Q.Q.).`.8XeXdXdXlXnXlXbXcX0X.XR.U.g.s.a.0.0.6.,.2.2.>.2.2.2.2.5.2.5.5.2.2.>.&.&.%.=.:.-.w.r.r.X.X.I I P E P L { D S B B v > - - * & - - > } n B m N N N ",
"T W R R P X.X...y.<.<.2.2.2.2.&.*.%.@.#.-.O.O.r.X.^ _ _ #XyXxX#X6XyXxXxXxXwX5X3X2X2X2X2X#X:X#X2X#X:X*X*X*X#X-X/./.~.~.~.(.~.~.(.!.~.!.o._ ^ ~ E L F S N n } - < $ @ 1 @ @ 1 @ % $ $ $ $ & - : > n H F [ #XdXhXCXSXKXJXDXGXBXhXsXwX5X#XwXsXyX#XwXxXwX#X#X/.^.o.I { J P { { P L L R W Q ) o.@X$X*X7X<X2X2X<X:X7X*X=X=X#Xo.o.( W W ! Y Y F F D D S V C d a c 6 7 4 7 7 3 . o X X @   1 + + + + 1 1 @ # $ $ * & - ; ; p p 6 6 8 0 | | | | 2.5.j.c.c.c.c.j.j.7.7.7.7.8.8.8.8.8.3.8.8.8.8.8.8.7.7.8.8.8.3.8.8.8.8.8.8.8.8.8.8.8.8.8.8.8.8.8.8.8.8.3.8.8.8.8.8.8.8.3.3.1.*.%.%.@.@.:.w.F.H.|.8XwXsXaXhXjXkXNXNXkXkXkXkXlXhXzXaXaXaXpXsXpXaXsXaXzXaXfXhXjXjXjXlXlXcXcX0X.XXXx.Z.z.z.q.q.q.h.1.h.h.h.F.|.|.;X;XqXwXxXpXpXpXaXaXaXaXaXaXpXpXpXiX3X9X[.'.I.f.a.0.6.3.3.1.1.*.%.%.:.;.y.t.H.|.`.;X;X8X3X3X#X,X,X).).L.L.f.a.0.0.7.k.j.k.k.M.M.M.Z.z.z.z.s.q.0.q.a.a.i.i.K.X.X.H.o.Q.Q.o.o.).o.`.).>XqXwXzXhXlXlXlXcX0X.XR. Xf.a.0.6.6.4.2.>.2.5.2.>.2.2.5.2.5.5.2.>.>.>.&.&.@.#.-.-.w.r.X.G.I ^ ^ E E L Y G D Z B B } , - < * * - , > > } n M B M N ",
"T R R ! P X.X...y.<.0.2.2.2.2.>.%.@.@.+.#.i O.z X.I o.^.#X#X#XpX5X5XwXiXxXxXwX5X2X2X:X#X2X2X#X:X7X*X*X7X*X%X%X%X%X%X/.#X/.%X%X%X/.#X/.^._ ~ [ E L F S N n n - < % @ @ 1 1 @ @ @ % $ - - < - ; > n N { ] #XsXhXCXSXLXDXFXGXNXhXpX#XiX#X5X#XiXaXiXiXyXwX3X#X^._ ~ o.E L R L R R R ! W ( o.+Xo.$X*X*X7X:X<X:X<X7X7X%X=X$X@X` ( o.! R L Y F F F G S C H d f a 6 4 7 7 3 3 . . X X X 1   + + +   1 1 @ # # = * - - ; p p p 6 6 8 0 0 | | >.2.5.7.j.j.c.c.j.7.7.7.5.5.3.8.3.8.8.3.8.8.5.5.8.3.5.5.5.5.8.3.8.8.8.8.3.3.8.3.8.3.8.3.3.8.3.3.8.3.3.3.8.8.8.3.8.8.5.5.3.1.*.*.%.%.@.-.w.e.D.H.|.;X9XsXaXaXhXjXjXjXkXkXkXlXhXhXfXfXaXaXsXpXsXaXpXaXaXfXzXhXjXjXjXkXlXcXcXoXoX XA.z.l.k.j.8.8.3.3.h.;.h.h.H.|.).;X3X5XxXxXpXpXpXsXpXpXpXpXpXxXyXyX3X8X`.|.P.f.p.0.6.3.3.1.*.%.%.#.#.-.r.F.H.Q.;X9XwXwXwXwXeX3X>X,X`.`.L.I.f.s.k.k.j.j.c.c.c.v.l.k.k.k.k.k.q.0.0.0.a.f...K.T.o.Q.o._.o.%Xo.%X%X-X,X3X5XsXzXhXlXlXcXcX0X].R.I.a.0.0.6.2.,.,.,.,.| >.>.2.2.2.5.5.2.2.2.>.>.&.| @.-.-.O.r.K X.^ o.~ ~ ~ E R Y F S V B n } ; - < * & - - > } n n n m N M ",
"W T R ! X.P X...y.<.<.2.2.2.2.>.*.%.@.#.#.O.O.K X.^ o.' #X#X5X#XuX5XxXxXwXwX5X5X5X2X3X#X2X#X2X:X#X2X7X2X#X7X2X#X*X7X<X<X*X7X*X7X*X*X:X#X^.) ~ ! R G S N n > ; * % @ @ @ @ @ @ % $ $ & * - - : } n H F / #XwXhXCXSXDXDXDXVXNXzXiXsX5X#XwX5XyXyXiXiXwXsX#X#X#X#X~.W ( W T W W W W Q ) ( o.@X@X$X$X=X*X7X:X2X<X:X<X*X=X$Xo.` ( ( W R R Y F D D D G V C d a a 6 4 7 7 3 3 . o X X X 1 1 1 + 1 1 1 1 @ # $ $ * - - ; ; p p 6 6 8 8  .| | | >.5.7.j.j.j.j.j.j.7.7.7.5.3.3.3.3.8.3.3.3.5.5.5.5.3.5.5.5.8.3.3.3.8.3.8.3.3.3.3.3.3.8.3.3.3.8.3.3.8.3.3.8.5.5.5.5.5.3.3.1.*.*.%.@.@.@.-.w.t.J.Q.).8XqXsXsXfXzXhXhXlXlXlXkXhXhXzXaXaXaXaXpXsXpXaXaXsXaXfXhXfXjXkXkXlXcX0X.XXX XZ.l.k.j.8.8.3.3.1.1.=.h.h.F.|.|.;X>X3XxXxXxXpXiXpXsXsXiXpXxXyXyX5X3X;X[.|.Y.d.f.a.0.0.4.,.=.=.$.:.-.y.t.H.Q.).8XqXwXsXiXwXwXqX8X8X`.`.T.I.g.z.k.k.c.c.c.c.c.c.c.k.j.k.k.7.7.6.0.9.u.p...L.X.o.o.#X#X*X$X&X$X*X7X:X6XwXpXfXhXhXlXdXcX0X].R.f.a.9.9.,.,.,.,.,.,.| ,.,.2.2.2.5.5.2.2.>.>.&.|  .-.i w.r...X.X.o._ _ ) / Q R Y G S V B n } - - & * < - - > } } n n M M M ",
"T W R R { X.X...y.<.9.2.2.2.2.&.%.%.@.+.i -.O.r.X.G.o.^.#X#X#XiX6X5XyXwXyXyX5X5X2X2X6X2X2X:X2X#X7X*X7X#X2X7X7X2X<X2X2X2X7X2X<X2X7X:X*X#X#X` ) ! Y F S N n > - $ % @ @ 1 1 @ @ $ $ $ < - - - ; > n Z F [ #XwXhXBXSXDXDXFXGXPXhXsXaX#XwXwX#XwXxXiXpXpXiX5X5X#X#X^.o.o.( o.( ( o.o.( o.o.+Xo.+X&X%X*X*X7X<X<X:X2X<X7X*X&X#Xo.( / W R Y Y Y Y D D S C m d f 5 6 7 7 7 3 3 o o O X     1   + + 1 1 @ @ @ # * * - - ; ; ; p 5 7 6 8 8  .| | >.2.5.7.j.j.j.j.7.7.5.5.5.8.3.3.8.3.3.3.3.2.5.2.3.3.3.3.3.3.3.3.3.1.3.3.3.3.3.3.3.3.3.3.3.3.3.3.3.3.3.3.3.3.5.5.3.3.3.1.1.*.%.%.@.+.#.-.O.r.D.H.Q.[.#X8XqXsXsXzXzXhXhXhXhXhXhXzXfXaXaXaXsXaXpXsXpXaXpXfXfXjXjXjXjXlXdXcX.X].x.z.l.j.8.8.5.3.3.1.*.*.;.h.t.H.|.;X>X5XxXxXxXpXiXiXsXpXpXxXxXyXuX3X3X,X[.`.'.E.I.f.p.a.9.<.;.:.e.w.y.r.J.H.).9XqXsXiXiXsXiXqX8X9X`.}.T.T.f.s.q.l.k.c.c.c.c.c.c.c.j.j.k.7.6.6.6.9.<.u.f.X.X.o.o.o.#X@X&X&X&X=X<X<X2X4XyXpXgXhXhXlXdXtX{.].T.f.p.9.<.<.,.,. .<. .9.:.=.,.,.4.2.2.5.2.2.&.=.=.=.-.-.k z K I ^ o._ ) ( / W R Y F S H B } } > - * & * < - ; > } n n n m m ",
"W W W R E X.X...y.<.4.6.2.2.2.&.%.%.@.#.#.-.O.D.X.W.o.^.#X#X5X#X4X6X5XwX5X5X5X5X5X5X2X2X4X:X2X2X7X*X7X*X7X2X7X2X2X4X4X4X4X4X4X4X2X2X*X#X#X] ) ! L D S N n > - * $ @ @ 1 @ @ # $ $ * - - - : , } n H F / #XsXzXBXGXDXLXFXGXPXhXsXsX#XiX#XsXwXiXsXsXpXiX5XiX#X#X#X@X@X` o.o.` o.` o.@X+Xo.$X&X&X=X=X7X<X:X:X2X2X2X<X7X*X$X@Xo.o.W R R Y F F D D S V C d d a 6 7 7 3 3 3 . o X X 1   1 + + + 1 1 1 @ # % % * < - ; 2 ; p p 5 6 6 8 | | | | >.5.7.j.j.j.7.7.7.5.5.5.3.3.3.3.3.3.3.1.2.2.3.2.2.3.2.3.3.1.3.3.3.1.1.1.3.3.3.3.3.3.3.3.3.3.3.3.3.3.3.3.2.3.3.2.3.2.1.>.*.%.@.@.@.#.-.-.w.t.D.H.|.).).8X8XwXsXsXaXfXzXzXhXhXhXfXzXzXzXfXaXsXpXsXsXpXaXfXfXjXjXjXdXcX0X.XR.x.s.q.8.8.5.3.3.1.1.1.;.h.h.F.|.Q.;X3X3XxXxXpXiXpXsXiXiXiXxX5XyX5X6X3X>X;X[.'.Y.E.I.I.E.h.h.h.t.y.r.r.D.H.Q.).>XwXsXsXpXsXeXqX[.[.}.T.I.I.g.s.l.k.k.j.c.c.c.c.c.j.j.j.7.6.6.0.9.u.u.....L.X.o.o.%X@X&X&X&X&X1X1X<X2XuXxXpXgXfXhXdXdXtXtX}.L.K.d.u.<. . .u.y.:.u.u.<.<.<.<.4.5.6.2.2.,.,.=. . .k O...K I I ^ ~ ) ) ) / W W Y D S H B n > > - * * * & - , > > n n n n n ",
"T W W R P X.X...y.<.<.2.5.2.2.>.%.@.@.+.#.O.O.K I W.!.^.#XqX#XyX4X2X2X5X5X5X5X5X5X5X5X3X2X2X2X2X2X2X#X*X<X2X2X4X6X5X5X5X5X5X6X6X4X<X<X#X#X] ) ! R F V N n > ; $ $ @ @ @ @ @ # $ * < - - - ; , } n H F [ #X#XzXBXGXFXDXSXGXBXjXaXpXwXiXyXpXiXpXiXsXiXiXiXyX5X5X#X1X&X@X&X#X@X$X$X#X&X&X&X&X=X=X*X*X7X<X2X6X4X3X6X6X2X7X$X` o.( Q R R Y F F F G S V H f a 5 5 7 7 3 3 . . O X X X 1   + + +   1 1 @ @ # * * - , ; ; ; ; 2 p 5 5 6  .|  .,.| 5.7.7.j.j.j.7.7.5.7.5.3.3.3.3.3.1.1.3.1.2.1.2.1.1.2.1.3.1.1.1.1.3.1.1.1.1.1.1.1.3.1.1.1.1.1.1.1.3.1.1.2.2.2.2.2.1.1.*.*.%.%.@.@.+.+.-.-.r.r.D.J.G.Q.).;X;X8XwXsXsXaXfXfXzXhXhXhXhXzXzXzXaXaXaXpXaXpXfXfXjXjXfXdXrX0X{.R.U.s.0.8.8.3.3.3.1.*.*.*.;.h.F.|.).;XqXwXxXxXpXpXpXpXpXiXiXxXyX5X5X3X2X>X;X9X[.}.].].R.E.Y.E.P.F.F.F.J.H._.).,XwXwXpXpXsXeXtX{.}.}.T.I.g.g.s.q.l.k.k.j.j.j.j.j.j.j.k.7.6.0.0.<.u.i.i.K.L.X.`.o.o.$X@X&X&X&X&X1X<X<X4XuXuXpXgXfXzXzXdXtX9X`.L.K...i.y.u...............u.;.<.,.4.4.6.,.,.<.:.e...r.z K I I ^ o.) ) ) ( / W W Y D S H B n } - - < & * * - , , > } } } n n ",
"T W R E U I X...y.<.,.6.5.2.2.&.%.%.@.#.#.O.O.D.G.W.~.-X4X#X4X#X#X4X2X3X5X5X5X5X5X5X5X5X6X6X4X:X7X<X*X<X7X2X2X6X5X5X5X5X5X5X6X6X4X7X#X<X^.` ) ! R F H N n > - * % @ @ @ @ @ $ $ * - ; - , , > } n Z F Q #XwXzXBXGXSXFXSXGXBXlXfXpXwX5XwXwXiXpXpXsXpXiXiXyX5X#X5X<X7X7X*X*X*X*X7X7X<X7X*X*X*X*X*X7X7X<X2X6X6X5X5X5X6X*X=X$Xo.W W R Y Y F F D D S V m d f p 7 5 3 3 3 . . O X X X 1 1 + + + 1 1 X X # $ $ < - - ; ; ; ; 2 2 2 5 6 9 y  .| &.4.6.7.j.j.7.7.8.8.5.5.3.3.1.3.1.3.3.1.1.1.1.1.1.1.1.1.1.1.1.1.1.1.1.1.1.1.1.1.1.1.1.1.1.1.1.1.1.1.1.1.1.2.1.1.1.1.*.*.%.%.%.@.+.+.-.-. .-.w.O.r.D.J.W._.).;XqXwXiXpXaXfXzXhXhXhXhXhXhXzXfXsXpXsXpXaXfXfXfXzXhXdXeX0X}.E.f.a.0.8.3.1.3.1.1.1.*.;.h.h.F.|.|.>XwXwXiXpXpXpXpXpXiXiXiXiXwXuX5X6X3X3XqX9X9X0X{.{.{.{.}.'.|.|.|.H.Q._.).-X3X5XxXpXsXeXtX0X}.].I.U.g.s.s.q.l.k.k.j.j.j.j.j.j.j.7.7.7.0.0.u.u.i...K.L.X.o.o.o.%X$X$X&X&X1X1X1X1X2X4XuXyXpXaXaXfXzXsXeX8X[.Q.L.J.J...X...X...X.X.........<.<.6.2.4.9.,. .u.....z K I I I ~ ~ ) o./ / Q ! Y F F V H B n } , - * $ * & < - , > > } } } } ",
"T W R L E U X.y.y.u.<.2.5.2.2.>.%.%.@.#.-.-.O.D.G.W.(.#X#X#X4X2X2X2X2X2X2X2X5X5X5XwXyXwX5X5X2X2X2X7X7X7X7X2X6X6X5XxXxXxXxXyX5X6X2X<X7X#X#X] / ! R D S N n > , $ $ 1 @ @ @ @ $ $ * - ; : ; > > } n H F Q $X#XaXNXGXSXFXSXGXBXkXzXsXpXiXiXiXiXiXsXsXpXpXiXiX5XyXwX6X6X4X6X4X4X6X6X6X2X2X:X<X7X7X7X*X7X:X2X5X5X5X5X5X5X:X=X@Xo.o.Q R R Y F F D G S V V f f a 5 3 3 3 . . O O X X 1 1 1 + +   1   1 @ # # $ < - - - ; & & & ; & 2 p 6 9 |  .| ,.5.7.7.7.7.7.8.8.5.5.3.3.3.3.1.1.*.1.1.1.>.1.1.*.1.1.1.1.1.*.1.1.1.1.1.1.1.1.1.1.*.1.*.1.1.1.1.1.1.1.1.1.1.1.1.1.*.*.%.%.%.@.@.+.+.+.i -.i O.O.O.D.D.G._.).#X#X3XxXsXaXhXhXhXkXlXjXhXhXzXfXsXpXaXpXaXfXfXfXaXsXrX[.}.E.E.p.9.4.1.1.1.1.*.1.*.*.;.h.E.|.|.;XwXiXiXpXpXpXaXpXsXiXiXxXxX5X5X6X3X3XqXqXtXtXtXtX0X0X0XtX[.).)._.).).,X>XqXxXiXsXsXeXtX}.]. Xg.x.z.l.l.k.l.6.7.7.7.7.7.7.7.7.7.6.6.0.p.u.i.P.X.X.o.o.o.o.o.$X%X=X=X*X<X*X<X2X4X6X6XyXpXpXaXaXsXsXqX8X)._.o.X.X.X.X.X.X.X.U X.X.X.i.u.u.<.,.4.6.,.<.p.......X.I I E [ ~ ~ ~ / / / ! W W F D S H B n ; , , * * * * * - , ; > > > > } ",
"W T W E P U X...y.<.,.6.5.2.>.&.%.%.@.+. .-.O.D.G.o./.#X2X:X#X6X4X2X2X2X2X2X6X5XwXwXxXwXwX5X5X2X2X7X<X7X2X2X4X5XxXxXxXiXxXxX5X6X2X7X*X#X' _ ~ ! L D S N n > ; $ $ % @ @ @ % $ $ - - - ; , > > } B N F Q #X5XsXkXVXSXSXSXGXBXkXhXaXpXiXiXiXpXiXsXaXiXsXsXiXiXxXwX5XyX5X5X5X5X5X5X5X5X5X6X6X7X<X<X7X7X:X6X5X5XwXyX5X5X2X*X@X@Xo.W R R Y F D F D S V m f f 5 5 3 3 . 3 . O O X X 1 1 + + + +   1 @ @ # $ $ - - ; : ; ; - < < & & 2 5 9 y | ,.2.2.5.7.7.8.7.5.5.3.6.3.3.1.1.1.1.*.*.*.>.>.>.1.*.*.*.*.1.*.*.*.1.*.1.*.1.1.*.*.*.*.1.1.*.*.1.*.*.1.*.*.>.>.1.1.*.*.*.%.%.@.@.+.+.+.r r t t i i k k z D.W._.).8X5X5XpXpXfXhXjXjXlXkXhXhXhXzXaXaXpXaXaXgXgXfXaXsXtX[.'.E.d.p.4.1.*.*.*.*.*.*.*.%.h.h.E.|.|.9XwXsXpXpXgXpXaXaXiXpXiXxX5X5X5X5X5X5XwXwXsXrXdXdXrXrXrXeX9X8X;X-X;X,X>X3X5XxXiXsXqXtX{.].E.g.x.z.l.k.k.6.7.7.7.7.5.7.7.5.7.5.5.7.0.u.u.y.J.L.o.o.o.o.o.%X$X$X*X*X*X<X<X7X2X2X2X6X5XyXiXiXaXaXsXiXwX8X-X-Xo.o.o.X.X.X.[ P o.X.X.X.....u.<.9.4.4.4.<.p...X.X.I [ ~ [ ~ ~ ) ) / [ Q ! W Y F D S H B n } , - & $ * $ & - - , , ; > > > ",
"T W R E P U X.y.y.<.,.,.2.2.2.&.%.%.@.#.-.O.r.D.G.W.).#X2X#X4X#X2X#X2X#X4X3X5X5XyXxXxXiXyXwX5X6X2X7X7X:X2X2X6X5X5XxXwXwXxX5X5X6X2X:X*X#X' ` / ! Y F H N n > - $ $ @ 1 @ % $ $ $ - - , , > > > n n H F Q /.#XpXkXCXSXSXSXGXBXkXhXaXpXsXiXiXiXiXpXpXpXpXiXiXpXiXpXiXiXsXiXpXiXsXiXiX5X5X3X6X2X:X7X<X<X2X4X5X5XwXiXwX5X2X*X&Xo.( W ! L Y F F F D S V V s f p 5 5 3 3 . . O O X X 1 1 + + + 1 1 1 1 @ # $ $ $ - - - - - - * $ * & 2 p 6 9 u  .,.4.5.6.5.8.8.5.5.3.3.3.3.1.4.4.*.1.=.*.*.*.*.*.1.*.*.*.*.*.*.*.*.*.*.*.*.*.*.1.*.*.*.*.*.1.*.*.*.*.*.*.>.*.*.*.*.*.%.%.%.@.@.+.+.+.r r r e t w i k z K X.W.;X#X#X5XxXpXaXhXhXkXkXkXkXhXhXzXaXaXsXaXgXpXaXpXsXsXeX9X[.|.d.h.;.4.*.*.*.*.*.*.*.;.h.h.F.|.[.9XwXiXpXaXgXaXpXaXaXsXiXiXwXyX5X3X5XqXwXsXsXzXdXlXhXdXaXsXsXwXqX3X3X6X3X5X5XwXeXeXeX0X{.].E.g.z.l.l.k.7.k.7.7.6.6.5.5.5.5.6.5.6.6.9.u.u.K.J.X.o.o.o.`.-X=X*X%X*X*X<X:X<X2X2X6X6X5X5XwXiXiXpXpXiXwX5X2X7X%Xo.o.o.) / ~ [ ~ / o.o.o.X...u.<.4.4.4.9.<.u.i.X.X.X.~ [ [ / / / ~ / / Q ! R L { D V Z B n } ; - * * & * * - - - , , > > > ",
"T Y Y L P U K ..y.:.,.,.2.2.&.&.%.%.-.-.-.O.K D.W.W./.#X2X2X#X2X2X#X2X2X2X5X5X5XyXwXiXxXxXyX5X6X2X2X:X2X2X2X5X5XwXxXwXxXxX5X3X2X7X#X#X#X' ) / R R G S N n , - * # @ @ 1 @ $ $ - - - ; , > > > } B N F Q +XqXaXkXCXGXSXSXVXBXkXhXaXsXpXxXiXiXiXiXpXiXsXiXsXsXpXsXsXpXsXpXsXpXpXiXiX5X5X5X6X2X:X<X<X<X:X6X5X5XiXwXyX5X2X*X@X` o.Q R L Y F F F G S V m s s p 5 5 . . . O O O X X 1 1   + +   1 1 @ @ % $ $ - - - - - : < * * $ < & 2 a c  . .:.9.4.6.0.6.0.8.9.0.4.9.4.9.;.=.<.=.,.<.*.;.*.*.*.*.*.*.*.*.*.*.*.*.*.*.*.*.*.*.*.*.*.*.*.*.*.*.*.*.*.*.*.*.*.*.*.%.%.%.@.@.+.+.+.r r r e e e e w i k z K G.o.#X#XqXxXxXaXfXhXlXkXkXhXjXhXfXzXaXaXaXpXfXfXpXsXeXqX9X|.|.h.h.h.;.=.=.%.*.=.=.;.;.h.h.|.|.9X9XwXsXpXaXaXaXaXaXpXaXsXiXiXyX5X5X5XyXyXsXsXjXhXjXjXhXhXzXpXiXyXwX3X5XqX5XeXwXeX9XtX}.].T.E.g.z.q.q.k.q.6.6.0.6.6.0.6.0.6.6.6.0.0.u.u.i.X.J.o.o.-X$X#X$X&X<X*X7X7X<X2X2X4X6X6X5X5XyXyXiXiXiXiXiXwX5X2X*X%X+X) ~ ( ) / ` ( ` o.o.o.X...i.u.9.4.4.0.<...X.X.X.[ [ [ ) ( ) ( ~ [ [ Q ! R Y F G S Z B n > ; - - & $ * * & - - , , ; , , ",
"T T Y F { J x ..y.:.<.,.,.&.,.&.%.-.-.w.O.r.D.G.W.~.-X#X#X2X2X2X2X2X2X2X2X2X2XwX5XxXwXxXwX5X5X5X6X6X6X2X6X3X5XyXxXwX5XxX5X6X2X7X7X*X^.+X` ~ [ R Y D S N n } ; * $ @ @ @ @ $ $ $ - ; > > > } } } B N F Q +X#XpXjXBXGXGXGXVXBXlXzXsXiXxXwXxXxXwXxXiXiXiXpXpXiXsXpXpXsXpXaXpXsXpXiXiXiX5X5X4X2X2X<X7X<X:X4X6X5XyX5X5X3X2X*X$Xo.( W ! Y Y F D G D S V V d s p p o 5 . O o O X X X 1   1 1   1   1 1 @ @ $ $ $ - - ; : : < * * $ < & p p g .. .y.<.u.p.9.a.0.p.9.9.p.h.9.h.;.e.;.;.;.;.;.=.*.*.*.*.*.%.*.*.%.%.*.%.%.*.*.*.*.*.*.*.*.*.*.*.*.%.*.%.%.%.*.%.%.%.%.%.%.@.@.@.+.+.r r r e e e e q w y k z K I o.).#X#XiXyXpXfXhXhXkXlXkXlXhXhXzXzXaXfXfXfXpXgXsXsXqX[.`.|.H.t.t.e.;.;.;.;.;.;.;.e.t.F.H.|.;X>XwXsXpXpXaXaXaXaXaXaXpXpXiXyXuX5X5XuXyXpXpXgXfXjXjXjXhXfXgXpXiXxX5X5XqXqXqX9X9X{.{.}.R.E.U.g.a.q.q.0.0.0.0.0.u.<.<.<.u.<.<.<.<.u.u.i.F.J.o.o.o.-X*X&X1X1X1X<X<X2X4X6X6X6X6X5X5XyXwXyXwXiXiXiXiX5X5X2X*X&X#X` o.` ` ` ( ( ` o.o.X.X.K...u.0.4.6.<.a.d...X.X.o./ ( ( ( ( ) / / Q ! ! R { F D S Z N n } , - < * * $ * * - - , ; - , ; ",
"D D F F { J x .. .:.,.&.,.,.&.:.:.-.w.O.r.D.X.W.W.~.#X;X2X2X#X4X2X2X3X2X2X5XuX5X5XwXwX5XwX5X5X5X3X6X6X3X5X5XqX5XxXxXwX5X3X6X2X:X#X#X^.' ) / ! R F G S H n > - * $ @ @ @ @ @ * * - , , > > } } n n H { Q #X#XsXhXBXGXGXGXCXNXjXaXpXwXyX5XwXwXiXsX5XwXwXiXiXpXpXaXaXaXaXpXsXiXiXiX5X5X5X5X6X:X<X<X7X<X:X2X6X3X5X5X5X6X<X=X@Xo.( W R R F F F F D S V m d s p 2 2 2 2 o o o X X X 1 1 1 + +   1 1 1 @ # % $ * - - : - < < * * * $ & p f g ....y.y.i.p.d.u.i.h.h.h.h.h.h.h.h.e.t.t.e.e.;.;.=.=.=.*.*.*.*.%.%.%.%.%.%.*.%.*.*.*.*.*.*.*.%.%.%.%.%.%.%.%.%.%.%.%.%.%.@.@.+.+.+.r r r e e e q q 0 q i u x K I ^ ^.#X#XpX5XiXsXfXhXkXjXlXhXjXhXhXzXzXzXfXfXfXaXsXsXwX8X[.|.|.F.t.t.e.w.e.e.e.e.t.r.t.H.Q.|.;XqXqXiXsXgXfXfXfXzXzXzXaXpXpXyXyX5X5XuXyXxXgXgXgXjXjXfXgXgXgXgXpXiXxXqXqX9X9X{.}.].].R.E.U.E.f.f.f.a.a.u.u.u.u.i.u.i.u.u.u.u.u.y.i.y.K.J.L.o.o.*X&X1X1X1X1X1X4X4X4X6XuX6XyXuXyXyXyXxXxXxXiXxXwXyX5X6X2X*X&X#X@X` @X` ` ` @X` o.o.o.X.i.i.u.9.0.4.0. .p.X.X.o.[ / ( ` ( ) ~ ( [ Q Q ! R Y F D V H B n } , - * * $ $ & & - - , , , , , ",
"A D S G G J x j .. .:.$.$.&.:.:.w.w.r.z D.X.G.W.~./.,X#X#X4X5X2X6X2X5X5X5X5X3X5X5X5X5X5X5X5X5X5X5X5XyX5X5XyXxX5X5X5X5X3X2X2X7X#X#X#X_ _ ~ Q ! R Y F S N n } - < % @ @ @ @ $ $ * - - , > > > > } B N Y ^ #X#XsXhXBXVXGXVXBXkXhXsXiXiXsX#XiX#X5X#X5X5X5XxXwXiXpXsXaXpXsXsXiXiXiXwX5X5X3X6X2X:X7X7X7X7X<X:X6X6X5X5X4X2X7X=X#X` o.W R R Y F F D G S V H m s s p 2 & o o % X % X @ X X + + + +     X @ # $ $ - - - - - : * * * $ $ - ; s d x ..X.t.K.K.i.K.K.K.K.F.F.F.t.F.F.F.F.r.t.t.e.e.;.=.=.*.*.*.*.%.%.%.%.%.%.%.%.%.*.%.*.*.*.*.*.*.%.%.%.@.@.%.%.%.@.%.@.@.@.@.+.+.r r r e e e q q q q w y h j K I ^ ).#X#X#X#XyXpXfXzXhXhXjXlXhXlXhXhXhXhXfXzXfXzXpXwXwX9X;X).|.H.F.D.F.t.r.r.r.D.r.D.H.G.|.-X;X>XwXiXiXpXzXfXhXhXhXhXfXaXpXiXyXuXyXuXuXuXpXgXgXgXgXfXgXgXgXpXpXiXwXeX9XtX}.}.].R.R.E.g.E.g.f.f.d.i.i.i.i.i.K.y.K.y.y.J.y.K.y.K.F.J.J.J.Q._.o.%X*X1X1X1X4X4X4XuXuXuXyXyXyXxXyXxXxXxXxXiXxXwXyX5X5X2X2X<X&X&X#X@X@X' @X@X@X@X&Xo.o.o.X.i.u.9.9.4.0.0...K.X.X.o.~ ( ( ( ( ( ( [ Q ! ! E Y Y D S H B n } > - & * $ * * * - - - - , ; , ",
"A A S S C J l j .. .| |  .|  .<.....X.X.X.o.o.o.~.(.%X*X7X2X2X6X5X5X5X5X5X5X5X5X6X5X6X3X5X5X5X5XxX5XxX5XwXxX5X5X5X5X6X2X7X#X#X#X+X] ) [ Q E R L F G S N B > ; * $ @ @ @ 1 $ $ & & > > > > > } } n H G Q ' #XdXkXBXCXVXVXBXlXzXsX#XaX5X#X#XwX5X#XsXyXsXxXiXwXsXpXaXpXsXpXiXwX5X5X6X3X2X2X7X7X<X7X*X<X7X:X2X2X4X6X6X7X=X$Xo.o.W W L Y F Y F D G S H H m s s ; 2 2 2 % % o X @ @ 1   1           @ @ @ $ $ < - - ; - - < * $ $ < - ; s d J P X.X.H.K.L.H.L.H.L.X.L.H.H.H.H.G.H.F.D.F.t.e.;.;.*.*.*.%.%.%.%.@.%.%.@.%.%.%.*.*.*.*.*.%.%.%.@.@.%.@.@.@.@.@.@.@.@.+.+.+.+.r r r e e e e 0 q 0 q w y i x K U [ _ _ #X#XwXiXpXsXaXhXhXjXhXjXjXjXhXjXhXhXzXzXfXaXsXwXqX8X;X`.'.o.L.X.X.K.X.X.X.J.J.X._.).).,X8X5XiXiXaXfXhXhXlXhXhXhXfXpXiXxXuXuX5XuXuXyXxXpXgXgXpXgXgXpXgXpXxXiXeXtX}.].R.U.U.x.g.g.I.d.P.K.K.J.F.J.F.F.J.J.J.J.J.J.J.X.F.J.X.H.X.o.).o.%X*X7X<X4X4X4X4XuXuXuXxXxXyXxXpXpXxXxXiXiXxXwXyXiX5X6X2X7X<X*X&X#X#X+X+X@X@X@X@X$Xo.o.L.K.i.u.0.6.,.<.<.y.y.X.^ ^ / / ( ( ) ( / / [ Q R R { F D S Z N n } ; - - $ $ & * & - - , , , ; , ",
"Z A H H V d g j 9  . .| | <.u.....X.J.X.o.o.o.~.o.%X%X*X7X2X2X5X3X5XxX5XwXwX5X5X6X2X2X2X2X5X5X5XxXwXxXxXwXxX5X5X5X2X:X7X7X7X^.+X] ) [ Q ! ! Y Y F D S N n } - * % @ @ 1 # % $ * - - > > > , v } B N D Q ' #XiXjXBXCXCXBXBXjXzXwXsX#X#X5XwX#X#XwXwX#X#XwXxXxXiXiXsXpXiXiXyX5X6X3X2X2X7X<X<X7X7X*X*X7X<X7X2X2X2X:X7X*X%X$X@Xo.o.Q R R R F F G D S S H m m n s ; ; & & & % % X @ 1 @ 1       @     1 % $ $ $ - - - - - - * $ * $ - s m C J X.X.o.`.o.Q.).Q.o.L.Q.Q._.Q.W._._._.Q.G.F.F.t.e.;.=.*.*.*.%.%.%.@.@.@.@.%.%.%.%.*.*.%.*.*.%.%.%.@.@.@.@.@.@.@.@.@.@.+.+.+.+.r r e e e e e q q q q 0 u h h K U I ^ ] #X#X#XpXyXpXaXzXhXhXjXlXlXjXlXlXjXjXjXzXaXaXsXiXeXqX8X[.o.).o.L.o.o.H.H.X.o.o._.o.o.%X,X2X5X5XiXpXaXzXhXjXhXjXhXzXaXpXiX5X5X4XuX5XyXyXxXuXpXpXuXpXpXuXgXsXwX9X9X}.R. X Xx.s.g.a.d.P.K.J.J.H.H.W.W.W.X._.Q.X.X.o.X.Q.o.X.Q.o._.).o.,X-X7X2X4X4X4X5XyXyXxXxXxXpXpXpXiXpXpXxXiXiXxXyXwX5X5X6X2X<X<X*X*X*X&X&X#X&X&X&X&X=X%Xo.L.K.i.u.9.9.6.9.u.y.J.X.X.^ ) ) ( ( ) ) / [ [ Q R R R F D S H M n v , - < $ < $ * < - - - ; - , , ",
"Z Z M H H d g g  . .| |  . . ...X.X.X.o.o.o.o.$X=X%X=X*X<X2X6X5XyXxXwXxXxX5X5X5X2X2X2X2X2X2X3X5X5XwXxXwXxXxX5X5X6X2X3X#X#X#X^.] ) / Q R R L Y F F S H N n } - * $ # @ @ @ % $ * - - > > > > > n n H D ! #X#XwXhXnXCXCXBXkXhXsXxXsX#XwX#X#X3X3X#X#XwX5X5X3XxXwXpXsXiXiXiXwX5X6X2X:X7X7X<X7X*X<X*X*X7X*X<X7X<X<X7X7X=X$X+X@Xo.W W R R F F F F D D V H m B s } ; ; & - $ % % % @ @               @ @ # % $ < - : ; - - - $ * * * - } m G P o.o.o.o.).,X).).;Xo.o.;X)./.;X#X/.).~.|.G.F.t.e.;.*.%.*.%.%.%.@.@.@.@.@.@.@.%.%.*.*.*.*.%.%.%.@.@.@.@.+.+.@.+.+.+.+.+.+.r r r e e e e e 0 q 0 q q w u y k l U I ~ _ #X#X#XxX#XzXpXzXzXhXhXkXkXkXkXlXlXjXhXzXaXaXsXwXwXsX8X,X,Xo.;Xo.o.o.o.o.o.o.o.o.%X%X%X:X2X3XwXiXaXaXhXhXjXkXlXjXzXaXsXyXyX5X3X5X6X6X5X5X5XwXyXyXxXiXpXpXiXeXtX{.}. Xg.x.z.z.s.f.d.P.H.H._.o.o.o.o.o.o.o.o.o.o.o.o.o.o._.o.).o.o.,X-X7X2X2X6X4X5X5XxXiXiXpXiXiXpXpXpXpXpXsXiXxXwXyX5X5X6X6X3X2X2X7X<X*X*X&X*X1X&X&X*X%Xo.o.o.L.i.p.p.0.,.,.u.y.D.X.^ ~ ~ ) / ( ( / [ / Q Q ! R Y { D S H N n > , - * * $ < & - - - - , - ; , ",
"M M N N m C g h 6  . . .<. .i...X.X.o.o.o.+X&X&X=X%X*X*X:X2X2X5XyXwXxXxXxXxX3X3X2X2X7X7X2X2X2X5X5XxXwXxX5X5X3X3X3X2X#X#X#X^.] ) / E ! R Y F F F D S H B n > - & % @ @ @ # $ $ * - : > > > > } } n H D Q /.#XyXzXkXBXBXBXkXhXaXyXyXwX#X3XwX#X#X3X5X#X#XwX#X3XxXiXiXiXiXyX5X5X2X2X<X<X7X7X*X7X*X*X*X*X7X*X7X7X7X*X=X&X#X@X( ( W W R R L F F D G S S N N B m } > ; - * * $ % @ @ 1 @     @       @ @ % $ $ $ - - : - - - - $ $ $ ; } m D L o.o.,X7X>X,X,X7X>X:X:X>X>XqX#X5X#X;X#X)._.H.t.t.h.;.*.*.%.%.@.@.@.@.+.+.@.@.%.%.%.%.%.%.%.%.@.@.+.+.+.+.+.+.+.+.+.+.+.+.r r t e w e 0 w q q q q w w y k x J U E ~ ] ' #X#X#XyXsXpXaXzXhXlXlXkXkXkXkXkXlXhXhXaXpXpXiXyX#X5X2X:X:X,X,X%Xo.-Xo.$Xo.o.).o.%X%X7X2X3X5XyXiXaXzXhXjXlXlXhXhXsXsXqX3XqX3X>X2X>X>X3X>X3X5XwXxXxXxXiXiXeX9X{.].U.x.z.z.q.s.a.d.F.F._.o.o.o.o.o.+Xo.o.o.o.o.o.o.o.o.o.o.o.%X%X*X7X7X2X3X6X5XwXwXwXiXeXeXeXsXeXeXiXwXeXwXwXiXwXwX5X5X5X6X6X2X2X7X7X<X*X*X1X&X1X*X*X*X%X[.Q.K.i.u.0.6.6.<.<.u.y.X.X.^ / ) ( / / ) ) [ / Q W R Y { D Z H N n } ; - - & * $ * - - - , , , ; > ",
"M M B m m d d g .. . . . .....X.J.X.o.$X#X$X#X&X=X=X*X7X<X2X6X6X5XwXxXwXxXyX5X2X2X7X2X:X7X7X2X6X6X5X5X5X3X6X2X7X7X#X#X^.+X] ) [ Q R R Y { F D S V N N n } > - * $ @ @ @ % % $ < - , , > > > } n n N G ! ' #XsXhXkXBXBXBXkXhXsX5X5X#X#X#XqX#X3X#X#X3X#X5XiX5XwXyXiXyXwXyX5X5X3X2X2X7X<X7X*X7X*X*X*X*X*X7X*X*X*X=X&X$X$Xo.o./ Q W R R F F F D D S S Z N m n } } , - - $ $ % # 1 @   @       @   @ 1 % $ $ - - ; - ; - < $ $ $ - - } N D W o.@X=X<X3X6X6X6X5X3X2X6XuX5X#X#XwX#X#X).Q.|.F.h.h.;.=.*.%.%.@.@.+.+.+.+.+.@.@.@.%.%.%.%.%.@.+.+.+.+.+.+.+.+.r +.+.+.+.t t t t w w y w w y t u t y y i j l U I I ) !.#X5XyX#XiXpXsXaXzXhXjXkXkXkXNXkXkXlXjXzXaXsXiXiXzX#X5X6X6X2X7X7X*X&X*X$X$X+X$X$X$X=X*X<X2X3X5XyXiXaXfXhXhXlXlXdXzXdXeXqX8X8X;X[.;X).;X;X;X8X8X8XqXwXwXiXiXeXtX[.].U.g.x.z.s.a.d.d.F.H.o.o.+X` ` ` ` o.#Xo.` ` @Xo.@Xo.+X+X+X=X=X=X7X7X2X6X6X3XwXqXtXtXtXtXeXtXtXtXtXtXeX9XeXqXqXwXwXqX5X5X5X6X6X2X2X7X<X7X<X1X1X<X<X*X-Xo.H.K.i.p.0.,.6.<.u.y.r.X.^ ^ [ / ( ) / ) / [ Q Q ! R R F D S Z N n v > - & $ * * * - - - , , ; , , ",
"M n B m d d C g g l ........J.X.X.o.o.o.#X&X&X&X=X=X*X*X2X2X6X6X5XyXwXxX5X3X6X2X6X#X#X7X2X#X7X2X2X2X3X6X2X7X2X#X#X#X^.^.) ) Q Q R R L F D S S H N N n n > - * $ $ # # % # $ $ < - - > > > } } } B H D ! ' #X5XzXhXBXBXkXlXzXaXxX5XwXwX#XwX#X#X5X#X#X3XwX5X5X5X5XyXwX5XwX5X6X4X2X2X2X2X7X7X<X7X7X7X*X=X*X*X=X%X=X$X$Xo.+X( o.Q R R R R F F G D S H H N B n n > > : - - $ % # @ 1             @   @ @ $ $ $ - - - - - < $ - $ $ : } N F Q ` &X2X6XuXyXiXxXyXiXxXyXgX#XgXgXiX5XwX;X).Q.H.h.h.=.=.%.%.@.@.+.+.+.+.+.+.+.@.@.@.@.@.@.@.@.+.+.+.+.r r r r r +.r t r t t t i i i y y k y y y y y k k l x U I [ ~ /.#X#X#XsX#XxXpXaXfXhXjXlXBXkXkXkXkXjXhXaXsXpXiXiXiXwX3X6X6X6X4X2X<X<X*X&X$X$X#X&X$X=X*X<X2X6X5XyXiXaXfXfXhXhXzXzXeXtXtX[.[.[.'.`.'.'.'.'.'.[.[.[.9XqXwXwXwXeXtX[.'.R.I.g.a.a.a.d.K.H._.o.o.#X@X@X@X@Xo.@X( @Xo.@X@Xo.@X+X#X&X=X*X*X<X2X2X2X8X8X9X9X9XtX{.tX{.tX{.tX}.tX[.tX9X9XqXqXqX5X5X5X5X5X6X6X6X2X2X2X2X<X1X<X<X7X,X).Q.L.i.p.9.0.6.9.<.u.y.J.I ~ [ / ) ) ( / / / [ Q ! R R F G S H N } v - - - $ * $ & & - - ; , , , ; ",
"M M M m m C C l l ..X...y.X.X.J._.o.o.$X$X&X&X=X=X*X*X<X7X2X6X6X5XyX5X5X5X3X5X2X:X#X:X:X#X#X:X>X#X2X,X7X7X#X#X#X+X' ) ) [ Q E ! R L F D D S H N B n } } > - $ $ $ % @ % $ $ $ & - > > > > > } } n H D ! /.#X#XhXjXkXBXkXjXhXaXxXxXiX3X5X#X5X#X#XwX#X3X#XwX#X#XsX5X5X5X5X5X5X6X6X4X2X2X2X7X7X7X<X*X*X*X%X%X=X=X$X$X#X@X` o.W W R R Y F F F F D S S H Z M n v > , - - $ $ % @ @ @ X       1     @ @ % $ $ < - , - - - & $ $ $ $ ; n Z Y W @X1X4XyXpXpXgXgXgXgXaXgXgXpXgXgXgXxXiX8X).|.|.t.h.*.*.*.%.@.@.+.+.r r r r +.+.+.@.@.+.+.+.+.+.r r r r r r r r r r r t t i i i h j k h h h k j h x h l K U I ^ ^ _ ' #X#X#X#XaXpXpXaXfXhXjXlXBXkXNXkXlXjXzXaXsXxXyX#XaXiX5XyXyX6XuX4X4X<X1X*X&X&X&X&X=X=X*X<X<X3X6XyXyXpXgXaXfXfXsXdXtXtX}.}.}.T.T.Y.Y.T.T.Y.Y.T.'.'.[.9X9XqXwXqX9X9X}.'.E.I.f.f.d.K.H.J.W.o.o.@X` @X@X( @X( @X@X@X` ` @X#X#X#X&X&X=X=X<X7X<X2X8X8X9X[.{.}..X].].].].].].}.}.'.}.[.9X9XqXwXwXwXiXyXyX5X6X5X6X6X2X4X2X2X<X7Xo.`.`.L.i.p.a.0.,.0.<.y.J.X.X.^ ~ / ( ( ( ) ) [ Q Q R R R F D S H m n > ; - < * * * < * - - - , - ; , ",
"M M M B m C C J ..X.X.X.X.J.W.W.o./.*X*X&X=X=X=X=X*X*X7X7X:X2X2X2X5X5X5X3X2X2X2X#X7X#X#X#X7X#X#X#X#X#X#X#X#X^._ ) ) [ Q Q ! R R Y F G D H N N n } > , - - < $ $ # # % $ $ $ < * - - > > > , } } n N G Q ^.#X#XzXzXlXkXkXjXhXaXsXwX#X5X#XwX#XqX#X#X3X#X5X#XwX#X5X6X6X3X5X5X5X5X5X5X5X3X2X2X2X<X7X*X*X=X*X=X=X$X$X@X@Xo.o.( ( o.! R R Y L F D G D S N N B B v v > : - * $ % # @   @           1 1 1 # $ $ < - - ; - - < < $ $ < : n Z R o.&X2XyXpXfXfXfXjXhXjXhXhXjXjXgXfXgXgXwXwX[.|.E.h.;.;.*.*.%.@.+.+.r r r r r r r r +.+.+.+.+.+.r r r r r e e r e e r e t t i y h k h x l x l l x x l K l U U I ^ _ ' ^.#X#XpXxXiXpXpXaXfXjXjXkXkXkXNXkXlXhXaXsXxXwXiXsX#XyXyXyXxXxXyXyXuX4X<X1X*X&X&X=X=X=X7X<X2X4X6X5XyXxXpXgXaXpXsXeXtXtX}.}.I.I.I.U.f.I.f.U.I.I.T.'.'.[.9XqXqXqXqX9X[.'.Y.Y.P.P.L.H.H.W.o.o.` ` @X` @X` ( @X( o.` @X@X@X#X#X&X&X&X&X&X<X7X2X,X;X;X}.}.]. X.X X X X XU.I.I.T.T.'.}.[.tXqXeXiXsXiXiXiXiXiX5X5X6X6X4X4X1X1X7X,Xo.`.K.i.u.0.6.6.<.u.y.y.J.^ ~ ~ / / ( ) / / [ / Q R R Y F G Z H N n v > - < & $ $ < < - - , , ; , , ",
"v M n B H V G J U I X.o.W.W._._.(./.$X=X=X&X=X=X*X*X*X*X:X7X2X2X6X6X2X2X2X2X:X#X-X#X#X#X#X^.#X^./.^.+X] ] ] ) [ Q ! ! ! R R L Y F F F S N N n } > > - < $ $ $ $ $ % $ $ $ $ < - - , , > > > v } B N D R ) #X#XsXzXjXlXjXhXhXzXpXiXxXsX#XwX#X#X3X#XwX3X#X5X#XxX3X4X6X6X6X5X5X5XwXwX5X5X3X4X2X2X<X*X*X%X=X&X$X$X$Xo.@Xo.` ( W W W R R Y F F G D S S H N B n v } , : - * $ $ # @ 1             1 @ # % $ $ < - - ; - - * $ $ < - ; v D T ` =X4XpXzXjXjXNXNXNXNXNXNXNXNXjXjXjXgXsXeX9X'.|.h.h.<.*.%.%.@.+.+.r t t t t t t r r r r r r r e r e e e e e e e e e e t w i k j x z J K J U J K J K U U I I ~ _ _ ^.#X#XwX#XpXxXpXpXaXzXhXkXkXkXNXkXkXlXzXaXiXwX#XwX#XsXpX5XxXiXiXiXxXyX6X4X2X<X=X=X=X*X*X<X2X2X2X6X5XyXyXxXpXpXiXeXeX[.}.T.I.U.g.g.s.s.s.s.s.g.g.g.T.T.}.[.8XqXqX3X8X8X`.`.|.L.L.H.Q.W.W.o.o.#X@X@X` ` ( ( ` ` ` o.@Xo.@X#X&X&X&X&X<X1X<X<X7X,X,X[.}.R. X X XA.x.A.x.x.g.g.I.I.I.T.}.[.tXeXsXsXpXaXpXiXiXiX5X5X6X4X4X1X2X7X-Xo.L.K.i.a.a.0.6.<.<.y.y.X.X.~ ~ ) / ( ) ( [ / [ Q R R { F D S H N n v > - < < $ * & < - - - , ; ; , ",
"M n B B H V G P E I o.W.(._.(.(.%X%X%X&X*X*X*X*X*X*X*X*X<X7X7X2X2X3X2X2X:X7X:X:X#X#X#X^.' +X] ] ' ] ) [ [ Q ! ! ! R Y Y F Y F F F D S H N B } , - < $ % % $ @ % # $ $ $ $ < * - - : > > > } } } n H G R ~ $XwXiXaXhXjXlXjXhXzXsXiXiXiX3XwX5XwX#X3X#X#XqX#X3X3X#X2X2X2X3X5X5X5XyXyXyX5X5X5X2X2X7X*X*X=X=X&X$X$X$X#Xo.` o.o./ ! W R R R F F F G D S Z N B m v > > - - $ $ % @ @ 1 @         @ 1   @ @ $ $ $ - - ; - - - $ $ $ < ; B D W o.<X5XaXjXNXBXBXCXCXCXCXCXCXCXPXNXNXNXhXrX0X[.E.P.h.<.*.%.%.@.+.+.r t e e e e e t t t e r e e e e e e e e e e e e e e u i j j x U U U P I P I P P P I P ~ ^ _ ] ^.#X#X#XwXsX#XyXaXpXgXzXhXjXkXkXkXkXkXjXzXaXxXiXiXsX#X#XaXyXiXpXsXaXpXiXyX6X2X<X*X*X*X*X*X:X<X2X4X6X5X5XuXuXyXyXyXqX9X}.}.R.g.z.z.l.l.M.l.M.l.l.s.g.I.T.'.[.9X>X3X3X>X>X;X).`.)._.)._.~.~.$Xo.+Xo.` ` ` ` ) ) ) ) @X` @X#X$X&X&X&X=X&X&X1X*X*X-X).`.'.R. Xx.Z.A.N.Z.M.l.z.s.a.f.I.T.'.}.tXeXsXzXaXgXgXaXpXiXiXiX5X5X4X4X2X7X-X).`.L.d.u.0.6.,.4.u.u.D.X.^ ^ / / ( ( ( ) / / Q ! ! R R { D S H M n v ; - & $ * $ < - - , , , - , > ",
"n M B N H S { L [ ~ o.o.(.%X%X*X%X*X*X%X*X=X=X*X*X*X*X*X*X*X<X*X2X#X:X2X#X#X:X#X#X#X^.' ' ] ) ) / [ / Q E ! R Y F Y G F F D D D D D S H B n } - < $ % % # @ % # $ % $ $ * * & - - ; > > > } } n n N S Y ] $X#XwXsXzXhXjXjXzXaXaXsXiXiXyX5X#X#X5X#X3X#X#XwX#X#X3X7X:X:X6X5X5XwXwXiXiXiX5X5X2X2X7X*X*X=X$X&X$X$X#X@X( ( o.W Q o.L R Y L F F F D S S Z N B n } } , - - $ $ % % @ 1             @ @ @ @ $ $ < - - , - - $ $ $ $ < > n D T @X7XxXzXkXPXCXVXGXGXGXSXAXAXAXAXCXPXNXjXrXtX}.E.P.h.4.=.%.%.+.+.r t e e e e e 0 e t t e e e e e q e e e e 0 e e q q q i u j l x U I E E [ ~ E [ [ [ ^ ^ ) ] !./.#X#X#X#X#X#XaX#XzXsXaXzXzXhXlXkXkXkXkXjXzXaXiXyX#X#XsXsX#XyXiXaXaXaXsXpXyX6X4X2X7X*X*X*X7X<X2X2X3X6X5X5X5X5X5X5X5X9X[.}.T.U.g.z.l.M.k.v.v.v.k.M.q.s.g.E.T.`.[.8X3X6X2X7X2X>X,X).)././.(.(.o.$Xo.@X` ` ) ) ) ) ( ] ` ` o.&X$X&X*X*X*X1X1X1X<X7X-X).`.T. Xx.A.N.N.N.N.v.k.k.6.0.a.f.I.'.}.tXeXzXzXfXfXfXaXpXsXiXiXyXuX4X4X<X7X-Xo.L.J.i.u.0.0.6.<.u.i.r.X.^ ^ [ ) / ) / / ) / Q Q W R R F D S H N n v , : < & $ $ < < & - , - , , ; ",
"n n B B H S F R [ ] o.%X%X%X*X*X*X*X=X%X*X*X*X*X*X=X*X=X*X*X*X*X7X:X#X#X#X:X#X#X#X(.' ] ) ) ) / [ ! ! R R Y Y F F D D G D S G G S S V H M n , - $ @ @ @ @ @ # % # $ $ $ $ < - - - ; > > > > } } B N G Y _ #X#X5XpXzXzXhXhXzXzXaXsXpXwXxXiXiX5XwXwX#X5X#X#X#X3X#X<X<X:X6X6X5XyXiXiXwXyX5X6X3X2X7X*X*X%X$X$X$Xo.@X` o.( @Xo.Q T ! R L Y F F D G S H H N m n v > > : - & $ % @ @ @ @             X @ # $ $ * - ; - - - - $ $ $ $ ; B D o.o.2XiXdXkXBXVXGXSXSXFXSXFXDXAXAXAXCXPXkXdXtX{.E.E.h.;.=.%.@.+.+.r t t 0 e 0 0 t 0 0 t 0 e w 0 t 0 w w 0 e e q e 0 w t y y j x K U E [ / ) ~ ~ ~ ~ ~ ) ) _ ^./.#X5X#X9XwX5X#XwXqXwXwXsXaXdXdXlXkXkXkXlXhXfXsXwXiXwXwX#XyXyXiXsXaXaXfXaXsXiX5X3X2X7X7X<X<X2X2X3X6X6X5X6X5X6X5X5X8X8X;X`.T.T.f.g.z.l.l.M.v.v.v.M.M.l.z.g.E.Y.`.[.>X>X6X6X4X4X7X7X7X*X%X%X%X$X$X+X@Xo.o.@X` ) ) ) ` ` ` o.+X$X=X=X=X<X<X<X1X1X<X7X-X[.'.I. Xx.M.N.N.n.n.c.j.7.6.6.0.a.I.T.}.tXrXzXzXzXfXfXaXaXpXiXiX5X5X4X4X2X7X7X).Q.L.i.d.<.<.<.<.u.y.y.X.I ^ / / ) ( ( ) / [ [ Q W R Y { D Z H N n > ; - * $ * $ * - - - ; ; , > , ",
"n m B B H S F ! / ] +X&X*X*X*X*X*X*X%X=X*X%X=X=X=X*X&X%X%X&X%X&X#X#X-X#X#X#X^.+X^.] ] ) ) / ! ! ! R R Y F F F G G G S D S S D D S S S N m } : - $ # 1 1 1 @ @ # % $ $ $ & * - - - , > > > > } n n H D Y [ ' qX5XwXaXzXzXzXzXzXsXpXsXxXxX5X3X#X#X#XwX#XwX3X#X#XwX*X7X7X2X3X5X5XiXyXiX5X5X3X6X:X7X*X*X=X$X$X$X+Xo.` o.( ( / W ! ! R L Y F F D G S H Z N B B v > ; - - * $ # @ @ 1 @               @ @ $ $ - - - : - - < $ $ $ < ; B D ! o.2XpXhXkXCXGXSXSXDXFXFXDXFXFXAXAXVXCXnXdXrX{.E.E.h.;.*.%.@.+.+.t i y i y y y i y y t y i y w y w y w y w 0 u w y w y h k x J U E ! / ) ( #X#X#X#X] ] ] ' #X#X3X#X#X8X#X9XeX8X8X9XqX9XeXeXdXdXlXlXlXjXhXaXpXxXwX#XpXwXaXiXiXsXaXaXfXaXsXiX5X6X2X2X7X7X<X2X2X3X5X5X5X5X3X3X8X8X;X[.`.`.T.I.g.x.z.l.l.l.M.k.l.l.l.s.s.f.I.Y.'.9X,X3X2X4X4X4X4X1X7X1X7X*X*X&X$X+Xo.+Xo.@X` @X` ` ` o.@X+X+X$X%X=X7X<X<X<X1X1X2X7X,X).'.T.g.z.M.n.n.c.c.c.j.7.5.5.9.a.f.T.}.{.tXdXzXhXfXfXfXgXsXiXiXiX5X5X4X2X7X-Xo.`.L.K.i.u.<.<.u.u.y.X.X.^ ~ ~ ) / ( ) / [ [ Q Q ! R Y F G Z H N n > , - & $ $ * $ & - - - , , ; , ",
"n n B N H S F R / ] #X$X&X*X*X*X*X*X=X*X=X=X%X&X%X$X$X$X$X$X$X$X#X^.#X^.^.' ] ] ) ) ) ~ [ / E R R Y Y F F F D D S S S S S S S S S S H N n } > $ % @ @ 1 1 1 @ % $ $ $ - < < & - - , , > > > v } n N S Y [ ' #X#XyXpXaXzXzXaXaXpXiXiXwXxXxX5XsXyXsX#XwX#X#XwX3X#X7X7X<X6X6X5X5X5XwXyXwX5X5X2X2X<X*X*X%X$X$Xo.@X` ` ` o.W o.Q ! ! R R Y L F F D S S H N B n v } , : - * $ $ # @ 1 1 1         @ @ @ % $ $ $ - - ; - - < < $ $ < , m G o.#X2XpXhXPXCXGXSXSXDXDXDXDXJXFXDXAXAXVXnXlXrX{.E.K.h.;.=.@.@.+.+.t i i y k i y y h i c y i k y k y j y j y y y j y h k j x K U U ^ ( W ` ` #X#X#X#X' #X#X#X#X#X#X#X#X#X8X#X;X;X;X[.[.9XtXtXeXdXdXdXlXhXhXaXsXiXfX#XsX#X#XwXiXaXaXzXzXaXpXiX5X4X2X<X<X<X<X2X4X5X5X5XqXqX8X9X8X[.`.'.}.T.T.U.U.g.x.z.z.z.l.z.l.s.s.s.f.I.Y.'.).).,X:X4X1X1X4X4X4X4X1X<X<X*X=X&X$X&X+X@Xo.` o.o.` ` @Xo.+X$X$X=X*X7X<X2X2X4X4X4X4X>X[.}.R. Xx.Z.v.n.c.j.j.7.5.5.5.<.u.i.L.}.9XeXzXzXfXfXfXgXaXiXiXyXyXuX6X4X2X:X7X-X`.H.J.K.i.y.u.y.y.D.X.X.^ [ / ) / ( ) ) / / [ Q ! R R F D S H M } > - * * $ $ $ $ < < - - - , , , ",
"n M B m H D F W Q ] +X$X=X*X*X*X*X*X*X%X=X%X$X&X$X$X$X$Xo.+Xo.@X+X' ' _ ] ] ) ) ) / Q ! E R R Y Y Y F F G G D S S S S S S S G S D S H N m } - * % # 1 1 1 @ @ # % $ $ $ * * - - ; : > > > } } } n N S { Q ] #X3X5XsXsXsXaXsXaXsXiXiXiXwXwX5X5X5XxX3X#XxX#XxX#XwX7X<X7X2X2X3X5X5X5X5X5X5X6X6X2X7X*X=X%X$X$X#Xo.` o.@X( o.W / W ! R R R F F F G S S Z N B n } > > - - * % % @ @ 1     1         @ @ @ % $ < - - - - - $ $ $ $ & > B D T ' 2XiXhXkXCXGXSXFXDXDXDXLXDXDXFXFXSXVXnXbXrX{.'.E.h.;.:.%.#.#.i i k k c h l k h h l l k l h x h k j x h h x x j k h h x J U I E ~ ( #XT @X@X@X#X#X#X#X#X#X#X#X#X5X3X#X#X;X).Q.|.|.|.'.[.[.0XtXdXdXhXhXhXzXpXpXiXwXpXwXxXiXpXaXzXzXzXaXsXxX5X3X2X<X7X<X2X4X6XyXyXwXwXqX9X9X[.'.T.T.T.I.I.U.U. Xg.x. Xx.g.g.g.f.f.f.I.Y.Y.'.`.-X,X:X4X4X1XuX4XuX1XuX4X1X1X<X=X&X$X#X@Xo.o.@Xo.@Xo.@Xo.&X$X%X*X7X7X2X4X4XuXuXuXyX3X9X[.T. Xx.M.N.c.c.c.7.7.2.2.,.<.u.i.Y.'.tXeXzXzXfXfXaXaXpXiXiXyXyX5X6X4X4X7X:X-X)._.J.J.K.K.y.y.J.X.X.^ ^ / / / ( ( ) ) / [ Q ! ! R Y F D S H N } > ; * $ $ $ $ $ $ - - ; ; , , > ",
"n n m B H D F R / ) +X#X&X=X=X*X=X=X&X$X=X$X$X&Xo.#X+X+X#X@X@Xo.] ] ] ) ) ) [ / ! ! E R R L Y Y F F { G G D S S S S S H S S S D S S H N n } - - $ @ 1 1   X @ # % $ $ $ - - < - - - ; , > } } } B N S Y ! ] #X#X#XzXpXpXpXpXpXiXiXiXiXxXxXwXxXyXwXxX5XwXsX#XwX#X<X7X<X7X2X2X4X3X5X6X5X4X4X2X2X7X7X*X=X$X#X+X+Xo.( o.W ( W W W R R R Y F F F D S H H N m n } } ; - - * $ $ % @ 1 @ 1       1   @ @ # $ $ < & - , ; - $ $ $ $ - > B D ! @X7XiXdXkXCXVXSXSXFXDXDXDXDXJXFXFXSXVXBXbXrX0XE.K.h.;.=.#.#.i i O.h z z J l J J z l x l l l x x J l x x K x l l J K J U U P E ~ ~ ( @X#X@X#X#X#X#X#X#X#X#X#XwX#X#X#X8X/.).Q.H.H.|.L.Y.Y.'.[.tXtXzXzXzXzXaXfXpXpXwXiXiXpXsXaXaXaXzXaXaXiXyX5X3X2X7X7X2X2X6X6XyXiXiXeXqXtX}.}.T.I.I.I.I.I.U.U.R.R.R.R.R.R.I.T.E.E.Y.Y.L.Q.Q.).-X:X2X4X1XuX1XuXuXuXuXuX4X<X<X*X=X$X$X#X#X+X#X#Xo.+X+X$X$X=X*X*X:X2X4X4XuXuXuXyXwXwXtX}.].U.x.z.k.c.j.7.5.5.2.&.,.<.u.i.L.'.9XtXsXaXaXgXaXpXiXiXiXyX5X5X5X6X2X2X:X-Xo._.Q.J.X.X.D.X.X.X.X.^ [ / ) ( ( ( / / [ / / [ R R R F G S H M } > - * $ % % $ $ * - - - , ; ; , ",
"n n m B N D F Y Q ) @X#X$X$X&X&X$X$X$X$X$X$Xo.#X#Xo.o.` ` ] ] ] ) ) ) ) / ! E ! E R R Y Y F F F F G D G S D S D S S S S S S S S D S V N n } : $ % @   1 @ @ @ @ $ $ $ $ < & < - ; ; ; > > } } n B N S Y Q _ #X#X#X5XiXiXiXiXiXiXxXwXyXwXwXxXiXxXxXxXwX5X#X#XwX#X7X7X<X7X7X2X2X6X2X6X2X2X4X7X<X7X*X%X=X$X@X@X( o.( o.o.T ! Y ! ! R R L F F F D D H Z N B n n > > - - $ $ % # @ @ 1 1       @   @ # % % $ * & : - - - - $ % * * > m G ! o.7XiXhXjXBXVXGXSXDXDXDXDXDXJXFXFXSXAXCXbXcX{.'.K.e.;.#.#.|  .....g X.X.C C X.G X.C X.C X.J { X.{ J { X.J X.J J G P { X.{ E [ ~ ~ ` ' #X@X#X#X#X1X=X<X<X<X1X1X<X=X*X%X~.Q.Q.F.F.F.h.K.K.Y.}.[.tXeXzXfXfXfXaXaXsXaXsXpXsXsXaXaXaXaXaXpXiXyX3X6X2X7X7X2X2X4XyXxXpXsXeXtX0X}.R.I.U.g.g.g.g.U.R.R.].}.}.}.}.'.'.'.L.'.`.`.`.).-X-X*X:X<X4X6XuXuXuXyXyXuX4X4X<X<X*X=X$X$X$X$X+X$X$X$X$X&X=X*X*X7X2X2X2XuXuXxXxXpXpXsXtX}.].U.x.l.k.7.7.5.5.>.>.&.&.,.u.i.L.'.[.tXsXsXaXaXpXpXiXyXwX5X5X6X6X6X4X4X:X%X-X(._.W.X.X.X.X.X.I ^ ~ ~ ) / ) ) / ) / [ / / Q ! R Y F G S H m } > - * % % @ $ $ & * - - - : > > ",
"B B B B V S F Y ! / ` o.+X$X$X$X$X$X$X$X#X+X@Xo.` @X] ] ) ) ) / / ) [ ! ! E R R Y Y { F F G G F D D D D G S G S S S S S S D G S S S H N m } : - $ @ @ @ 1 @ @ % % $ $ < * < - - - , , > > } } } n m S F E !.#X#XwX5X5XwXxX5XwX5XwX5X5XyXiXiXiXwXiXwXxXiXiX5X#XwX7X*X*X7X7X7X7X2X2X:X2X:X:X7X7X<X*X*X$X$X#X@X` ( o.( W o.! o.! R R Y Y F F F G H S H N B n } > ; - - & $ % @ @ 1               X 1 % % * - - - : : & $ $ $ % - ; n S W @X7XyXaXlXPXVXGXSXSXDXFXDXDXJXJXFXSXAXCXbXrX{.T.K.h.:.-.#. . .....X.X.{ o.X.Y X.Y X.Y X.L X.X.{ X.X.X.L L L R X.X.X.X.R o.^ ~ ~ _ ] ' #X#X#X#X*X<X<X<X<X2X2X<X<X<X%X-X~.Q.J.F.t.h.h.h.d.Y.'.[.9XeXsXaXfXfXfXfXaXaXaXaXaXaXaXaXaXaXsXsXiX5X6X2X2X7X<X2X4XuXyXpXaXsXsXtX{.].R.x.x.z.s.x.x.R.R.}.}.}.9X[.9X[.;X`.).[._.;Xo.,X%X-X7X7X7X4X6XuX5XyXxXxXyX5X6X4X:X*X*X=X%X=X%X$X%X$X%X=X*X*X*X7X:X2X6X5XyXuXpXgXaXsXsXeX{.].R.g.s.q.7.5.5.2.>.&.$.$. .u...L.`.[.qXsXpXpXgXpXiXyXyX5X5X6X5X6X6X3X3X:X:X%X(.(.W.o.o.I ^ ^ ^ ^ [ [ [ / / / / ) ) / [ Q Q ! R L F D Z H B v , - $ $ @ # @ $ $ < - - > ; : : ",
"n n B m H S G Y W [ ) ` o.@X+X+X@Xo.o.@Xo.` ] ] ` ) ) ) ) / [ Q ! ! ! E R R L Y Y G F G D D G S S G S G D S S S S S G D S D D D S S S N M } > * $ @ @ @ @ # @ @ $ $ $ $ < < - - - ; > > > > } } B B S D ! ) ' #X#XwXsXxX5X5X5X5X5XxX#XsXaXiXxXwXwXxXwXaX5XwXwX#X7X*X*X*X<X*X*X*X7X*X*X<X7X*X*X*X*X=X&X#Xo.+X( o.( W ! ! ! ! ! R R R R F F D G D H Z N B n n } , : - - $ $ @ @ 1             @   @ # % * * - - ; : - - $ $ * - : M S R o.*X5XaXjXPXCXVXGXSXDXFXDXDXDXDXDXFXAXVXnXrX{.'.K.e.w.-.#.9  ...C X.G o.W W o.T o.W o.T o.W o.R ! W o.W o.o.{ o.Y R o.o.X.~ _ ) _ _ ' ' ^.#X*X*X*X7X2X2X2X2X1X2X7X*X%X_.W.H.t.t.e.h.h.h.K.L.'.[.eXeXaXfXfXfXfXfXzXfXhXhXzXzXaXaXsXsXiXwX5X6X2X2X7X7X2X6XyXxXpXaXzXdXrX{.]. Xx.z.z.z.z.x.R.].}.9XtXtXqX8X8X;X;X;Xo.o.;Xo.,X*X-X*X:X7X6X3X5X5XwXiXwXwX5X6X4X:X7X*X*X=X*X=X=X*X*X=X*X*X7X7X2X2X2X6X5XyXiXpXsXsXaXrXtX{.}.R.a.0.0.6.5.2.>.&.&.$.$.:.....L.`.;XqXeXsXpXpXpXyXyX5X5X6X5X5X6X5X4X4X2X:X7X%X(.o.o.o.^ ^ ^ [ ^ [ [ ~ ~ / ~ ) ) ) [ [ Q Q R R Y F G S N n } , - $ @ @ @ @ $ $ < - - - > ; > ",
"n B B B H Z D F W ! [ ] ` ` ` o.` ` ) ) ) ) ) ) / ) [ / [ Q Q ! ! E R R Y Y Y F G D D D S D S D S D S D S S S D S S S S S S G S D S S N m } - - $ @ @ @ @ @ @ @ % $ < $ & < - - : > > > v } } n m N S G R / _ #X5X#X#XwXiX#X5X3X#XxX#XwX#X5XwXxXwXyX5X#X#XwX#X5X*X=X=X=X=X=X=X*X%X*X=X*X*X*X=X=X=X$X#X' @Xo.@Xo.Q ( R o.! ! ! R R Y L F F G D S S Z N m n v > > : & $ $ # @ @ @ @ @           @ 1 % % $ * - - - - - * * % * * , n D W ` *X5XsXhXPXBXVXZXSXSXFXDXDXJXDXFXFXGXCXbXdX{.'.K.e.w.-. . .....X.Y X.T o.o.T o.W o.W o.o.o.W o.W o.W W o.! o.W X.o.R o.o.^ ^ ^ o.o.o.(.(.%X/.-X-X-X:X:X7X7X2X2X7X:X-X).Q.J.F.e.u.;.h.h.i.L.'.9X9XwXaXaXaXfXfXfXhXfXhXzXzXzXaXaXaXiXiXyX5X6X2X2X:X2X6X4XyXpXpXzXzXrXrX.X.X Xx.Z.z.z.z.U.R.}.0XtXwXqXwX3X3X,X,X8Xo.-X,X%X7X*X*X<X:X:X3X3X3XwXqXqXwXeX5X>X3X2X2X7X<X*X*X*X*X*X*X*X*X<X7X2X2X2X5X5X5XiXiXsXaXsXdXeXtX}.T.U.f.a.6.2.2.>.&.&.$.$. . .i.X.L.o.[.qXwXpXpXiXiXiXyX5X5X5X6X6X5X6X5X2X3X:X7X%X(.o.o.^ ^ I [ I [ ^ [ ^ ~ ^ ~ ~ ~ [ ) / / Q ! ! Y F D Z Z m } - < % % @ @ @ $ $ * - - - > , > ",
"n B m m N S S F F W ! [ [ [ / ~ [ / [ Q Q Q Q Q Q [ Q Q ! ! ! R R R R Y Y F F F D D D S S S S G S S S D S S S S D S S D D S D S D S S N B } ; < $ @ @ 1 1 @ % @ $ $ & < - - - , , > v v > } } n n N H F R / ] #X#X#XwX3XwX3X#X5X3X#XwX3X3X#X5X5X5X5X5X5XxXwX#X3X=X$X$X&X$X$X$X&X$X$X@X$X&X&X&X$X$X$X#Xo.( ` o.W o.( W ! ! R R Y Y L L F F D D S S H N B n } > > - - * $ % # @ @     1         @ @ # % * $ - - : - - * $ $ * - ; n S T ` &XuXsXhXkXBXVXGXZXFXFXDXDXJXDXDXFXSXVXnXcX0X'.F.t.w.O.O.h ..X.J Y o.W T ( ( ( ` o.o.( ( ( ( ` ` o.o.o.( o.o.L X.o.X.o.X.^ G.G.^ W.W.W._._._.~.).).-X-X,X:X:X2X7X2X-X).Q.H.F.t.e.e.e.t.F.X.`.[.8XwXwXaXaXfXfXhXhXzXhXzXfXzXaXaXiXwXiXyX5X3X2X2X2X2X6XyXxXpXaXfXzXdXrX0X.XR. Xx.x.z.x.U.R.}.tXqXwXwX5X3X3X,X).).o.-Xo.8X-X-X:X2X:X3X>X>X8X9X9X9X9X9X8X8X>X>X2X:X:X<X<X<X<X*X7X7X7X2X2X2X6X5X5XqXyXwXwXeXeXeXtXtX{.}.E.f.a.0.4.,.,.>.&.$.$. .;...i.P.L.`.8XqXwXsXsXpXiXiXyX5X5X5X5X5X5X6X6X4X2X2X%X%X(.o.o.X.o.X.^ X.X.^ X.I ^ ^ ^ ^ ~ ~ ~ [ [ ! ! R R F G S H n v - - $ % @ @ @ $ $ * - - > > ; > ",
"B n B B B H S S F F R R R W W Y R Y Y Y Y Y R R R R ! ! ! W R R R L Y { F F F G G D S S S S S S S S S S D S G S S G S S G S G D D S H H n n - - $ % @ @ @ @ # % $ $ < - - - , > > > } } } } n n B B S D R Q ) ^.#X3X5X#X#X3X3X#X#X3X#X#X#XwX3XqX#XwX#X3X#X#X#X#X$X$Xo.$X#X+X#X@X#X$X@X@X#X+X@X@Xo.#Xo.@Xo.( @XW W W ! W ! R R L Y F F F F F G S S Z N B n n > > - - $ $ % @ @   @     1   @   @ @ % $ $ - - - ; - - - $ $ $ $ ; n S T o.=X4XaXhXkXBXVXGXSXDXDXDXDXJXDXDXFXZXCXnXdXtX[.|.J.r.O.O...J X.P o.o.o.o.( @X( @X@Xo.( @Xo.( @X` @X` ( o.o.o.X.o.X.X.X.X.D.G.G.G.J.G.G.G.Q.G._._._.Q.).).,X,X>X3X2X>X,X).H.H.F.t.t.e.t.F.Y.`.).8XwXiXiXgXfXfXfXhXhXhXhXaXaXaXaXiXiXiXwX5X6X6X6X6X6X5XxXiXgXaXfXdXdXcX0X.X.X X Xx.U.U.T.}.}.8XqXwX5X5X3X,X-X).`.`.`.o.).).,X-X:X:X3X,X8X8X9X[.[.[.[.[.8X8X>X>X2X2X:X4X:X2X<X:X2X2X2X6X6X5XyXyXwXwXwXeXeXtX0X}.}.].T.I.d.p.<.<.,.&.,.$.<. .e...t.X.X.'.;X8XwXwXpXpXpXiXiXyX5XwX5X5X5X5X5X5X3X3X,X-X(._.W.J.X.X.X.X.X.X.X.J.X.X.X.X.X.^ ~ ~ [ Q Q W R Y F D Z H m v , * $ @ @ @ @ # $ * - - - > > : ",
"m B B B B H H S S D F F F F F G D S S S D G D F F Y Y R R R R L Y Y Y F F F D D D S S S S S D S S S S G S S D S G S S G D D D G D D V N B } : - $ @ @ @ @ @ @ $ $ < < - - ; > > } } } } } n n n n N H D R Q !.#X#X#X#X#X>X#X#X#X#X#X#X#X#X#XqX#X#XwX#X#X#X#X#X#X@X+Xo.@Xo.@X@Xo.o.` @Xo.o.@X@X` ( o.` o.( o.Q o.o.! ! ! R R Y Y F F F F G D G S S H N m n v } > - - * $ % # @ @   1         @   @ @ % * * - - - : - & $ % * * ; n S R o.=X6XiXhXkXBXVXGXSXSXFXDXJXDXJXDXFXZXVXnXbXtX[.Q.J.D.z z ..J U P o.T o.` ` ` @X@Xo.@X@X' +X+X@X@X+Xo.o.o.o.X.X.X.X.X.K.X.F.D.F.F.F.F.F.J.F.J.H.J.G.H.Q._.).;X,X3XqX3X>X).`.|.F.F.F.F.F.H.L.`.).8X3X5XiXpXaXfXzXhXhXhXhXzXaXsXiXiXyXwX5X5X5X5X3X3X5XyXxXpXgXzXhXdXdXcXrX{..X].R.R.R.R.}.}.9X8X5X5X5X3X>X).Q.Q.`.L.L.Q.`.;X,X,X3X3X>X8X[.[.'.'.'.'.'.'.[.[.8X>X3X6X6X4X4X<X4X2X2X2X6X6X5XyXyXiXwXeXeXtXtX{.}.].].T.I.p.p.9.,.,.&.,.:.:.y.y...i.X.L.`.o.;X8XwXwXpXpXpXpXiXiXyXwX5X5X5X5X5X5X4X3X,X-X_._.J.J.J.J.y.y.y...y.D.y.J...X.X.o.^ ~ [ / Q ! W Y F G Z H n } - - $ @ @ @ @ % $ * - - - > > > ",
"B n B B B B N H V Z S V S Z H B N m M m m N H S G F F L Y Y L Y F F F F F G G D S D G D G S S S G D S D D G S S D S D D G S D D G S S H B n > * $ @ @ @ @ @ @ $ $ - - - , > > > } } } } n n n n B N S G L Q ) /.#X#X#X3X#X#X#X' #X#X/./.#X#X#X#X#X#X^.#X/.' ^./.` ` ( ( o.o.( o.o.o.o.@Xo.` o.o.` ( @Xo.o.Q Q ! T ! ! R R Y L F F F F F D D D D S Z N N n n > ; : < * $ % @ @ 1 1             @ @ # $ $ - - ; : - - * $ * % - : n S R o.=X3XiXzXkXBXCXGXSXSXLXDXDXDXDXFXDXSXGXnXdXeX8XQ.G.X.K K U X.P o.o.o.( ` @Xo.@X@X+X#X#X#X+X#X@X@X+X$X^.`.o.o.X.X.K...u...e.t.e.t.t.t.t.t.t.t.t.r.F.F.J.Q.).).8XqXwXqXqX8X).).Q.H.J.J.J.H.o.o.-X2X3X5XyXiXpXaXfXhXhXhXzXzXaXiXiXiXyXyX5X5X5X5XwXyXyXxXiXaXaXfXhXzXdXdXrXrX{.{.].].}.}.[.[.8X8X6X6X6X>X).Q.`.L.L.K.L.L.L.`.;X8X>X3X8X8X`.'.Y.T.I.I.Y.'.'.`.;X8X3X5X6X6X6X6X6X2X2X6X6X5XxXxXiXpXsXeXeXtX}.}.T.T.I.f.f.p.<.<.,.,.$.:.:.:.y.y.X.J.L.o.`.;X8XqXwXsXsXsXpXsXpXiXiXiXyXiXyXyXyX5X6X3X,X).`._.J.y.y.y.y.y.y.u.y.u.i.y.y.J.X.X.X.^ [ / ! W W Y F D Z H m } - < $ @ @ @ @ $ $ & - - - : ; , ",
"n B B B m B m B m B B B m B B n n > } > v } m B H D D G F F F F F F D G F D D G G S S D S D S D D S D D S D S G S S D G D S G D D S S H M } : & $ # @ # @ # @ $ $ - ; - , > } } } n n m n n n n B N H D Y ! ~ ] ' #X#X#X/.#X' ] ] ] ] ) ] _ ] _ ^.' ] ] ] ] ) ) o.W o.o.W ( o.W ( o.o.! W o.o.! ( o.o.W Q o.T W ! ! R R L F L F F D G D D G S G S H N m M n > > - - $ $ % % @ 1             1   @ @ $ * * - : - - - * $ $ * * ; n Z T o.$X3XiXfXlXPXCXGXSXDXDXDXDXDXDXDXDXSXVXnXlXsX8X).o.X.I X.P I E o.~ o.@X` @X' #X#X#X$X$X$X&X#X&X#X&X^.o.o.X.X.T...d.u.u.<.u.<.<.u.u.u.u.u.e.w.e.y.r.y.F.J.Q.).9XqXwXeXwXqX8X).`.o.Q.`.o.).).).-X7X:X3X5XxXpXsXfXfXzXzXfXaXaXsXiXwXyXyX5X5X5XyXyXiXiXpXpXaXaXhXhXhXzXdXrXrXtXtX0X0XtX[.9X8XqX6X6X2X,X,X`.L.L.K.d.d.i.P.L.`.[.8XqX8X8X9X'.'.I.I.I.f.P.I.Y.[.9X8X3X5X5XyX6X6X6X6X3X6X6XuXiXpXpXaXsXrXtX{.}.T.T.f.f.p.9.9.,.=.=.%.$.:.:.y.r.D.H.Q._.).;X>XqX5XiXsXiXpXaXpXpXsXpXiXiXyXiXyXuX5X3X>X,X`._.L.K.y.u.u.<.<.<.<.<.<.u.u.y.y.J.X.X.^ ~ Q Q W W Y F D Z H n v ; < $ @ @ @ @ % $ < - - > > , > ",
"m B B B B B B B B n B n n } > ; - - - - - > } n B H S D F F F F F G D S S D D D D D S D S S S D S S S D S S S S D S S S D G D D S S S N m } : - $ @ @ @ % @ $ $ < - ; , > } } } n } B n n n B m B N S S F ! Q ) ' ' ^.' ' ] ] ) / / Q [ / / / / ) ~ ~ / / [ [ Q R o.T ( / W T o.W ! T o.( Q T o.W W T o.W ! ! W R ! R L Y F F D D S D D S D S S H H N B n v > > - - * % % % @ @ @ @         1 @ @ % % $ * - - : - - & $ $ $ - : n A D ( $X2XyXaXhXPXCXVXGXSXFXDXDXDXDXDXFXGXVXBXlXsX8X-Xo.o.[ E o.E ~ ) / o.@Xo.o.#X#X$X&X$X$X=X&X&X=X=X&X$X;Xo.'.X.K.i.u.0.9.<.9.0.9.9.9.<.<.<.;.;.:.:.-.y.r.F.H.`.9X8XsXsXsXwXwXqX;X).o.o.`.o.-X-X-X7X2X2X5XyXiXaXaXhXzXhXfXaXpXwXyXyX5X5X5X5X5XiXiXiXwXsXaXaXzXfXhXhXhXdXdXeXrXtXtXtXtX9XqX3X3X6X:X:X-X).L.J.i.d.p.p.d.I.P.'.[.9XqXqX9X[.'.Y.P.d.p.a.f.P.Y.'.[.eXwXwXxXxXyX5X6X6X6X6X5XxXpXpXsXzXsXeXtX{.].T.g.a.a.0.4.,.&.&.%.@.:.:.y.r.F.J.Q.).;X,X>X3XwXiXiXsXpXsXpXsXpXsXpXiXpXiXyXyXyX5X6X>X,X`.L.L.i.u.u.<.,.,.6.,.,.<.<.u.u.y.y.X.X.^ ~ [ ! W W Y F D Z H m v - < $ # @ @ @ $ $ < - - > - ; > ",
"B m B m B B n n n n } } > > - - * & $ $ < - > } m N H S S D D V D D D D S S S S H S H S S S H S S S S H S S S S S S S S S D S S S S H N n } : * $ @ @ @ @ @ $ $ - - , > > } } n n B n B B m B B B N H S F R ! ~ ) _ ] ] ] ~ / [ E ! ! ! R E E ! ! Q ! ! ! ! ! R ! ! ! ! W ! R R W W R ! T W ! ! T ! W L R ! W R R Y Y F F D D S G S G S S S S S S H N B B } } , : - & $ # @ @ 1           @   @ @ # $ $ & - - ; : - * * * $ - ; v S Y o.$X2XwXaXhXkXCXVXGXFXFXFXDXDXLXFXSXSXCXnXlXsX5X:X%Xo.[ ~ E Q ~ ( o.o.` @X#X$X$X&X=X%X=X*X1X<X<X=X*X*Xo.`.X.T.i.u.9.9.6.5.5.5.4.4.2.4.4.>.*.%.$.#.-.-.w.t.H.`.[.qXsXsXaXpXyXqX2X,X8X-X%X%X%X%X*X7X7X2X3X5XiXsXaXzXhXzXzXaXsXiXyX5X5X5XyX5XyXwXiXiXiXpXaXaXaXhXzXhXhXdXzXdXsXrXeXeXeX8XqX3X>X:X:X-X).Q.H.K.i.u.9.0.p.f.P.'.[.9XqXeX9X[.'.I.f.p.a.a.p.I.I.'.[.tXwXiXiXiXxXuX5X6X6X5XyXiXpXpXfXaXzXrXtX}.T.I.f.a.9.4.4.>.=.&.@.:.:.w.y.r.J.Q.).,X,X3X5X5XwXiXpXsXsXpXsXsXpXpXsXiXiXiXiXyXuX5X6X,X,X`.L.K.i.u.0.0.6.6.6.2.6.6.<.<.u.u.J.X.X.^ ~ Q Q W W Y F D S H n v ; * % % @ @ @ $ $ & - - - : > : ",
"B B N B n m B n n v } > > - - < $ $ $ $ $ * - } } B Z Z V S S S H Z V H V V Z H Z H H H H H H Z H H H H H Z H H Z H H S H H S H V H N M n > : - % @ @ @ $ % $ - < ; , > } } n n n B B n n B n n m n N S D Y R Q / ) ) ) / Q Q R R L R Y L Y Y Y L Y Y L L Y R Y Y Y L Y Y Y R L Y Y R Y R Y L Y T R Y R L Y R Y Y F L D D G G S S Z Z S S S S Z Z N m B n v > > : < * $ $ # @ 1 @             @ 1 % % = * - - - - * & * % * * - n H F o.#X7X5XaXhXkXnXVXGXZXSXDXDXDXDXLXSXGXVXPXlXsXyX2X*Xo.@Xo.) o.o.o.@X+X#X$X$X%X=X*X*X*X*X<X<X<X1X<X7X7X,X`.'.X.d.p.0.9.5.5.5.5.j.5.5.5.5.>.*.*.%.@.#.#.w.t.F.Q.[.qXeXsXaXpXiXyX5X4X,X7X7X*X*X*X*X7X7X7X6X5XyXsXaXfXhXfXzXsXpXiXwX5X3X5X3XyXyXwXyXwXiXpXsXaXaXaXzXaXzXaXsXdXrXsXeXtX9XeX8X8X,X,X-X)._.H.J.i.u.<.9.9.9.p.P.Y.`.9XqXeX9X9X'.T.I.a.a.a.f.f.T.}.[.eXeXsXpXiXxXyX5X6X6X5XyXiXpXaXaXzXdXeXtX{.].I.f.a.9.9.,.>.=.$.#.:.-.w.r.J.Q._.).,X6X5XiXxXiXiXiXiXsXpXpXpXsXpXpXiXiXiXyXyXuX5X6X8X,X`.`.L.f.i.u.0.0.6.6.6.6.,.<.0.u.y.y.J.X.^ [ [ ! ! W Y Y D Z H m } : - $ @ @ @ @ @ $ * - - > ; > > ",
"N N N N m B m B n n } } > , - - * $ $ $ * - - > } n M B N N N N N N N B H m N B N N B N m N m N N B N m N m N N B N N m N N N H N N B n } > - $ $ # % @ @ $ $ $ - ; , > } } } n n B n n m n B n n B N H S F Y R E Q Q Q ! ! L Y Y F F G F F F F F F D Y F F F F F F F F F D F F F F F G F F D F D F F F F F F F F F D G S S Z V H H Z H H H H N N N B m } } > ; : - $ $ % @ @ @         1 1 @ 1 1 @ $ $ $ - - - - & % $ % * - ; v H F o.o.1X4XaXzXkXnXCXGXSXFXFXFXFXFXSXGXGXCXPXhXpX5X3X=X#Xo.o.` o.@Xo.#X$X=X*X%X*X<X*X7X<X7X7X<X4X4X2X2X:X;X`.X.T.f.p.0.6.5.5.5.5.j.5.5.5.2.>.*.%.@.@.+.-.-.r.F.Q.`.9XeXsXgXpXpXxXyX6X6X2X2X7X<X<X<X<X7X2X6X5XiXiXzXzXhXhXfXsXiXiXyX3X6X5X5X3XwXyXyXiXiXiXiXsXpXaXaXaXzXsXsXsXeXrXtXtXtX[.9X[.`.).)._.Q.J.K.y.u.<.,.<.<.u.P.'.`.9XeXqXqX9X}.T.I.f.p.f.f.I.T.}.0XeXsXsXaXpXpXxXyX5X6X5XyXiXpXgXfXzXfXrXtX{.'.I.f.p.p.9.<.=.;.;.:.:.y.r.J.J._.).,X3X5XyXxXxXpXiXiXsXiXiXiXiXiXpXiXiXyXyXyX5X4X5X3X2X,X`.`.L.I.f.a.a.a.0.0.0.0.0.0.u.u.y.J.X.X.^ [ Q Q W R Y F D S Z n v - * $ @ @ @ @ $ $ & * - - > : > ",
"N H N N B B B B n n v } > > > - * - - * < - - ; > n n n B B B m B M m M M M M } n n n n n n } n n n n n n M n M m M M M M n m M n n } } ; - - $ $ % # @ $ $ $ - - , , > } } n n m B B B B B n n n n n N H S G F Y R R Y Y Y { D D S D S S S S S S S S S S S S S S G S S D G S D S D D S G S D S G D S G D D S G S S S S Z H H N N N N N N N N N N B n n n } > , - - - % % % @       @         @ @ # % $ * * - - - - * $ * % * - n H F W @X1X6XiXaXhXNXCXVXSXSXFXLXFXSXSXGXVXBXkXhXaXyX4X=X$X@X@X@X+X&X&X1X*X7X7X7X2X7X2X2X2X2X2X4X4X4XuX5X3X8X;X'.Y.f.a.6.6.7.7.j.5.7.5.5.5.5.>.>.%.@.+.+.#.-.O.J.Q.).8X5XiXpXpXpXxXxXyX4XuX4X2X7X7X7X7X7X<X2X5XyXsXaXzXzXfXzXaXsXiXyX5X3X3X6X6X3X5X5XyXiXiXxXpXpXpXpXpXsXsXeXtXtX0X0X{.{.}.}.}.`.`.L.L.K.F.y.u.<.6.,.,.<.u.K.L.`.9X9XqX9X9X'.'.Y.P.f.f.I.T.}.{.tXeXdXfXgXpXpXiXiX5X5X5XyXiXpXaXaXzXaXrXtX{.}.T.P.d.p.p.h.e.e.w.y.r.r.D.J.Q._.,X3X5XxXxXiXiXpXxXiXiXiXiXiXiXiXyXyXyXyXyXuXuX4X4X2X>X,X`.`.T.L.I.I.f.f.a.a.a.u.u.u.u.y.J.J.X.X.^ ~ / Q W W F F D S N n } ; - $ % @ @ @ # $ < - - > - > > ",
"Z H H N H N B B m B n n n } > > > ; ; - ; - , > > } } } } n } } } } } } } } } } > } > > > > > > > > } > } } } } } n n } } n } } } > > , : - $ $ $ @ @ $ $ $ $ - - , > > } } n B B B B m n n n n n n B n N H S D G F G D D S S S Z H H H N H H H H H H H H H S H H Z Z Z H H Z Z Z Z H H H H Z Z Z Z H H Z Z H Z H H H N N N B B B m B B B B B B B n n n v > > > - - * $ $ # @ @ X         1 1 1 @ @ % $ $ - $ - - $ * $ % $ $ : v N D ! o.@X2XwXsXhXkXBXVXZXSXSXFXFXSXGXGXCXBXkXhXaXyX2X<X&X$X#X&X&X*X<X2X6X6X6X3X6X6X:X2X2X6X6X6XuXyXyXyXwX9X[.'.Y.I.a.0.6.7.7.5.7.7.7.7.3.5.>.*.%.@.+.+.#.O.O...L.).,XwXwXpXpXpXpXxXxXyX5X5X4X4X<X<X7X7X7X3X4XwXpXaXzXhXzXzXaXaXiXyX5X6X6X6X6X6X3X3X5X5XyXyXuXuXyXxXyXwXeXtXtX{..X.X.X X.XR.T.T.Y.K.K.K.y.u.:.4. .| 6. .i.P.L.`.;XqXqXqX9X[.'.Y.T.T.T.T.}.}.tXrXdXdXzXfXfXpXpXiXyX5X5X5XiXpXpXaXaXzXeXtXtX'.}.Y.P.P.i.i.t.t.F.D.D.H.H.Q._.).,XqX5XxXpXxXpXxXiXiXyXiXyXyXyXuXyXuXuX5X4X4X4X4X2X2X2X,X;X[.`.'.T.T.I.I.I.K.f.i.i.i.y.y.J.J.X.X.^ [ [ ! W W Y F D S H n } : - $ @ @ @ @ $ $ * - ; - > ; > ",
"S Z Z H H H H N H B m n B n n n } > n > > > > > > > > > > > > > > } > > , ; ; : ; : - - : - - - - - - - - : : > > > > > > > : ; : : - - - < $ $ % $ $ $ $ $ $ - - - : } } } } n m n n B n n n } n } } n n B N H Z H S S H S H N N N B B N B B N n N B B N N n N B N N m B m N m N N B m B N N N B m N N N m N N N m B B B B B n n n n n n m } n n n n } } } > > : - * * % @ @ 1 @         1 1 1 @ @ % % % $ $ * * * * $ % $ - : v N D ! o.&X7X5XaXfXkXPXCXGXSXSXSXSXGXGXVXBXBXjXzXpXyX6X<X*X&X&X=X<X2X2X3X5XxX5X5X5X5X6X6X6X6X6X5XyXxXiXiXwXeX9X}.T.f.a.q.6.5.7.7.7.7.5.7.5.2.1.*.%.@.+.t t  .O.X.J.o.).3X5XxXxXxXpXpXpXpXxXxX5X6X4X2X<X7X2X6X5XiXpXaXzXhXhXhXaXsXwXyX5X3X6X6X2X4X6X6X2X6X6X4X4XuX4XuX5XwX8XtX}.}..X X X X Xx.U.f.f.f.i.i.u.u.:. .4.|  . .....L.o.;X8X3XqXqX9X9X[.'.'.}.}.}.tXrXrXdXhXhXhXfXsXiXiX5X5XwX5XiXpXsXaXaXsXsXeXtX[.`.'.|.L.L.H.F.F.H.H.H.Q._._.;X>XqX5XiXxXiXpXiXxXxXyXwXyXyX5X5X5X5X4X4X4X4X1X4X<X2X2X,X,X;X8X[.[.}.}.}.T.T.L.L.K.K.J.J.J.X.X.o.~ ~ [ [ Q ! R Y F F Z H m } - * $ # @ @ @ % $ * - - - > : > ",
"Z S Z S Z H Z Z H N N N B B B B N n n n n } } } > , , - ; - - - , ; - : - - - < * * $ * * $ $ * $ * $ * * * < - : - : : - - & < $ - $ $ $ $ $ % $ % $ $ $ - - - - : > > } } } n n B m B n n } } > } } s n n n n N N N B B B n B n n n n n n n n n n n n n n n n n n n n n n n n n n n n n n n n n n n n n n n n n n n n n } } n } } } } } n } } } } } } > > > - - - - $ $ @ @ @ 1 1       1 1 1 1 @ # $ $ $ * & $ $ $ $ $ $ $ - } H D o.o.#X*X4XiXaXjXNXCXVXGXGXSXAXGXVXCXnXkXjXzXsXiX2X2X*X=X*X7X2X2X5XyXiXiXpXiXyX5X5X6X3X6X5X5XxXpXpXsXsXeXtX}.T.I.a.0.6.7.7.7.7.5.7.5.5.2.2.&.| $.| | w  .....X.W._.:X3X5XyXiXpXpXpXpXpXiXxX5X2X2X2X2X2X2X5XwXpXaXzXhXzXzXaXsXwXyX5X6X2X2X3X2X2X2X2X2X2X4X2X4X4X4X2X>X8X[.}.]. XXXA.A.A.z.z.s.a.a.u.u.<.:.$.$. .| |  .y.y.J._.).,X5XqXqXqX9X9X[.[.tX9X0XrXrXdXdXlXjXhXfXaXpXwXyX5X5X5XwXiXpXaXaXsXsXeXqX9X9X`.`.`.Q.Q.Q.Q._.Q._.).).;X,X8XwXwXiXiXpXiXiXiXwX5X5X5X5X5X4X4X4X4X2X2X2X<X<X<X2X2X7X:X>X8X9X9XtX{.0X[.}.'.Q.Q.H.G.G.G.o.I ^ ^ ~ ~ Q ! ! W Y F D S H n } , $ $ % @ @ @ # $ < - ; , > ; > ",
"V S S S S V S V S Z H H S H H H N N N N N n } } > > - - < * < - < < - & < < $ $ $ $ % % % % $ % # % % $ $ $ $ * & - * * - $ * $ $ % $ % % # # % $ # $ $ $ $ & - - : > > } } n n B B n n n n n v v > , v > } n } > n n n s v n v } } } } } } > } } } } } } } } } } } } } } } } } } } } } } } } } } } } } } } } } } } } } } } } > } > } } } > } > > > > > > > > > - - * $ $ # @ 1 1         X 1 1 1 @ % @ $ $ $ $ $ $ $ $ $ $ $ - > B A T T ` %X4XwXaXhXkXnXCXGXGXGXVXCXCXPXkXjXhXaXiX5X6X2X7X*X<X7X2X6XiXiXsXsXpXsXxXiX5X5X6X6X5XyXxXpXgXaXsXeXtX}.T.I.a.0.6.5.5.5.5.5.7.5.5.2.2.| &.| | e  .u ..X.X.W.(.:X2X5XyXiXpXpXaXaXaXiXiX5X5X4X7X7X7X4X5XiXiXsXzXzXzXfXaXaXiXyX5X3X5X6X2X2X2X2X2X7X2X2X<X1X1X2X:X,X[.'.R. Xx.Z.N.N.N.N.M.l.q.0.6.<.,.&.$.$.| |  . .....W._.).:X3X5X5X5XqXqX9XtXtXeXrXdXdXhXlXlXlXhXzXaXpXwX5X5X5X5X5XxXiXiXaXiXsXiXeXqX8X8X8X;X;X;X).).;X).,X-X,X,X3X3XwXwXiXiXiXiXiXiXyX5X5X5X6X4X4X2X2X2X7X4X7X7X<X<X7X7X7X:X3XqXqXeXtXeXtXeX9X9X).)._.W.!.W.^ ^ _ ] ~ ) Q E ! R Y F D S N B } ; < $ @ @ @ % # $ * - - - > : > ",
"V S S S S S S S S H S S Z H S S N S S N N N n } > - - < & * < * & * * $ * $ $ $ % # # @ # @ @ @ @ @ @ @ % $ % $ $ $ * * * % % $ % # @ # # @ % % $ $ $ $ $ - $ - - ; ; > } } n n n n B n n v } } > > , , > > > > > > > > > > > > > > > > > > > > > > > > > > , > > > > > > > > > > ; > > > > > > > > > > > > > > > > > > > > > > > > - > > - > > > > > > > > - > - - * $ @ @ @ 1 1         @ 1 @ @ @ @ % @ $ $ $ $ $ $ # # $ & - } B D T o.' =X2X5XaXfXlXPXBXCXCXVXCXCXNXkXjXhXaXsXiX6X2X7X7X7X7X2X6X5XiXsXaXaXsXsXiXyXwX3X6X6X5XyXxXpXpXaXsXtXtX}.T.I.a.0.6.5.5.5.5.5.5.5.2.2.2.&.$.| | | w u  ...X.o._.%X7X4X5XxXpXaXaXzXaXaXiXyX6X2X7X7X<X2X3X5XiXaXzXzXaXzXaXsXyX5X5X6X2X2X2X2X2X<X:X<X<X<X<X<X<X7X,X).`.T.T.x.Z.N.N.N.n.v.k.k.k.6.6.2.&.&.| | | | w j ..X.X._.).:X3X5XwXwXwXwXeXiXeXsXdXdXhXjXlXkXjXjXhXaXpXiX5X5X5X5X5XyXwXiXiXsXiXiXwXwXqX3X8X>X>X,X>X>X,X2X3X:X>X3X3X5XiXiXiXiXiXiXiX5X5X5X3X6X2X2X:X:X:X:X,X7X:X%X7X*X7X*X7X2X6X5XwXeXsXsXsXeXqX3X>X%X/.(.!._ _ _ ~ ~ ~ Q Q ! ! R Y F G S N n } ; * $ % @ @ % % $ * < ; ; , : ; ",
"S S S Z Z S S S S S S Z S S S S S S S S N N n } } ; - - * * * * $ $ * $ $ $ % % % @ @ 1 1 1 @ 1 @ 1 @ @ @ @ # % % $ $ % % % % # @ @ @ @ @ # # # $ $ $ $ $ - - - ; : : > } } n n n m B n n s v > > , > > - > > ; > > > > > ; : - - - : - - > - - - - - : - > - - - : : - > - - - : : : - - - - : - > - - > - - - - > - - - - - - - : - - - : - - - - - : > - - - - & $ $ % % @ @   1   @     1   1 @ @ @ % # $ # $ $ # % $ $ $ - > N S X.o.o.&X2X6XiXzXjXNXnXCXCXCXnXNXkXhXhXaXsXyX5X6X2X<X<X*X*X2X2X5XiXiXpXsXpXiXwXyX6X6X6X6X6XuXxXxXpXiXsXeX0X}.T.P.f.9.4.5.5.5.2.5.5.2.>.>.| $.$.| | e w u j x X.o.W.%X7X4X5XyXpXaXzXzXaXaXiXwX5X2X7X7X<X7X4X5XwXiXpXaXaXaXpXiXyX5X5X2X6X2X2X2X2X<X2X:X:X7X7X:X,X-X).`.'.T.U.g.Z.N.n.n.n.n.j.7.5.5.2.,.,.$.$.|  . . .....X.J.o.).:X2X5XyXyXiXiXiXpXaXaXzXhXjXlXlXlXjXhXzXsXiXyX5X5X5X5X5X5XyXiXiXiXiXiXwXiX5XwX5X3X6X6X6X2X4X3X:X4X6X5X3X5XiXiXiXiXiXyXyX5X5X6X4X4X>X,X:X-X-Xo.8Xo.,X-X%X%X7X7X7X2X3X5XiXpXaXsXsXpXiX3X6X7X&X$X+X_ ] ] ] ` ) ) / E ! R R F D S H n } , < # @ @ @ @ # $ $ - - - , > , ",
"Z S S Z S S V Z V S Z S S S S S S H S S N N n n > , - < * * * = * * $ * $ $ # # # @ @ # # 1 1 1 1 1 + + # 1 # # % % % % # % # @ 1 @ 1 1 @ @ @ # # % $ - $ - - - - ; > > > } } n n m n B n n n > > > : ; - , - : - > - ; - - - - - - & - - < & - - - - * & * & < - * & * - * & * - - - - - & - * & < - - * & * & * - - * & < & * - - - & - & - * & - * < - - - & * * $ $ % @ 1 1 X         @     @ @ @ X @ # % $ % # $ % # $ * - > M M o.T @X&X1X6XiXaXhXjXkXNXnXNXkXlXhXzXaXpXiX5X4X2X7X7X*X*X*X7X2X6X5XiXiXiXsXyXyX6X6X:X2X2X2X6XuXyXxXpXiXqX9X'.T.P.a.9.6.2.2.2.2.2.5.2.2.&.&.| | | e e w u ..x X.X.(.%X7X2X5XyXpXaXaXzXaXsXiX5X2X7X*X*X*X7X7X4X5XiXiXiXiXiXiXyX5X5X4X4X2X4X4X2X2X2X2X2X,X:X,X;X;X).`.'.T.I.g.z.M.N.n.c.c.j.7.7.5.2.>.,.$.:.:.:. . .....X.J.W._./.:X3X6X5XyXyXpXpXpXaXzXfXfXhXjXjXhXhXhXaXpXwX5X5X3X4X5X5X5X5X5XiXwXiXiXxXiXyXyXyXyXyXuX6X4X4X4X4X2X4X5X5X5X5XyXiXwXiX5XyX6X4X4X:X7X:X,X).).).).).`._.).o.,X,X7X:X2X6X5XxXxXpXaXaXpXxX5X2X<X*X&X+X+X' ] ] ` ) ) ! ! ! R L F G S N B } , * $ # @ @ @ % $ < - & ; : > > ",
"S H H S H H S Z Z Z H Z H H Z H S S N N N M M v v , b < - < < * * = * = $ # $ # # # # 1 1 # 1 1 1 1 # 1 1 # 1 # # # # # # @ @ @ @ 1 @ @ @ @ # % $ $ $ $ $ - < - - : , > } v n n B n n n n n > > > : , : ; - ; : : - - - - - < $ * $ $ $ $ $ $ $ $ * * $ * * * $ * $ * * $ * * * $ $ $ $ $ * * $ * $ $ $ $ * * * * $ * $ * * * * $ * $ * * * * * * $ * & * $ * * * $ $ # @ @ @ @ 1     @     1 X 1 1 1 @ @ @ @ # % @ @ # @ $ * - > M Z Y o.( $X1X4XiXsXzXhXjXkXjXlXhXhXaXsXwX5X6X2X2X7X7X%X&X&X%X*X<X2X6X6X5XyX5X5X3X2X2X2X7X7X1X2X4X4X4XyX3X8X8X`.L.i.u.<.,.>.>.>.2.| 2.&.>.| &.&.| e | e w u j ..X.o.o.(.7X2X5XiXpXaXaXzXaXaXiXyX2X7X*X&X$X=X7X7X2X6X5X5X5X5XyX5X4X4X4X2X4X4X4X4X6X6X5X3X>X8X[.`.`.'.T.I.I.g.z.l.N.N.c.c.j.7.5.5.2.2.>.,.$.:.:.......X.X.X.W.W.(.-X:X2X5XyXyXiXpXpXaXgXfXfXjXhXhXhXhXzXsXaXpXwX5X3X4X4X:X6X4X5X5X5X5XyXyXiXxXiXpXxXxXxXyXuX4X4X<X2X2X4X4X4X6X5X5X5X5X5X5X5X4X4X2X2X,X,X-X`.`.L.L.L.L.`.`.Q.).,X7X3X6X6XyXxXpXpXpXxXxXyXuX4X2X1X=X&X#X+X' ] ` ) ) Q E ! R Y F D S N n v ; < $ @ @ @ # $ $ * - , - > > > ",
"H Z H Z H Z H Z H H Z H H N H H N N N N N M n n v > b : < < < < * * = * * = = # # = = 1 = # 1 # # + # + # # 1 # @ # # % % @ @ @ @ @ @ X @ @ # % % $ $ $ $ < - - - , : > v } } n n B n n n } } > > , - ; : - - : : - - - < < $ $ $ $ $ $ $ $ # $ $ # $ $ $ # $ $ % $ $ # $ $ % $ % $ $ $ % $ $ $ $ $ $ $ $ $ $ # $ # $ $ $ # $ $ % $ $ $ $ $ % $ $ $ $ $ $ $ $ $ % # # @ @ @ 1 1 1 1       1 1 1 1 @ 1 @ @ @ @ % @ # @ % @ $ $ - v B Z T o.@X&X<X6XwXiXaXzXhXhXhXfXaXsXiX5X6X2X2X7X7X=X$X$X&X&X$X%X*X7X7X2X2X2X2X2X7X7X7X%X*X=X*X<X<X<X4X2X>X,X`.`.K.i.u.<.,.&.>.>.>.>.>.| &.| | | | e e e w  .j x X.X._.%X*X2XuXyXpXaXaXaXaXsXiX5X7X7X$X$X$X$X$X*X*X2X2X2X6X5X2X4X4X4X2X4X4X4X4X4X5X5X5XqX8X9X[.}.T.T.U.U.g.z.z.M.M.k.k.c.j.5.5.2.>.&.$.:.:. ...y.y.J.J.J._._.(./.:X7X2X4X6XyXiXpXpXgXaXaXzXfXfXzXzXzXzXpXpXwX5X5X4X2X2X2X2X:X4X3X5X5X5X5XiXiXpXpXpXpXxXyXyX4X2X<X<X<X<X<X2X4X4X3X5X5X5X6X4X4X2X2X:X-X).`.`.L.Y.T.K.K.Y.L.`.`.,X:X:X4X6X4XuXuXxXxXxXxXyXuX4X2X1X<X&X&X#X+X' ] ) ) Q Q ! R Y F D S N B v , < $ % @ @ @ # $ $ - - - > : > ",
"N N H N N H N N N N N N N N N N N N N B N M M n v v b b b : b < < * < * * * = * $ = = = = # # # # # 1 # # 1 # # # # @ % # # # @ @ @ @ # @ % # # # $ $ $ < < $ ; - : > > } } n n B n B n n } } v > ; > - - > > - - ; - & $ < $ $ $ # @ % # @ % % % % # % % % % # % # % % % % # # # # % # # @ % % # @ % # % # % @ % % % # % % # % % # # % # % # % $ # % # % $ # $ % % % @ @ @ 1 1 1 1   1     1 1 1 1 @ 1 @ @ 1 X @ @ @ @ % # $ - } B A T o.o.%X7X4X6XiXsXsXaXaXaXaXiXyX6X2X1X7X%X$X$X$X$X+X#Xo.$X$X$X$X=X*X7X*X*X*X=X=X$X$X$X$X$X&X&X*X*X*X*Xo.).L.X...u.:.$.&.&.2.| | >.| | | | | | e e e w u ..x X.o.o.%X7X2X5XyXpXpXaXaXaXiX5X3X<X=X$Xo.#X+X+X$X%X*X7X7X2X<X2X2X<X1X1X4X1X4X4XuXyXxXiXwXeXtX}.].R. Xx.z.Z.Z.M.M.k.c.c.j.5.5.2.>.&.$.$.| :.y.y.J.J.J._.(._._.-X-X7X:X4X6X6XyXiXxXpXaXgXfXgXaXaXaXpXpXiXiXwXyX6X:X2X2X7X2X2X2X:X2X4X6X5X5XyXiXpXpXaXpXpXxXyX4X4X<X<X=X*X<X7X7X2X2X4X4X2X4X4X2X4X:X:X-X).`.L.K.I.f.f.I.I.T.L.`.;X:X3X4X6X4XuXuXyX5XyX6XuX4X2X4X1X<X*X=X$X$X' ] ) ) [ E R R Y F G S N n s ; $ $ @ @ @ % % $ * - - > - > ; ",
"N N N N N N N N N B N B N N B N N N N n N n n n n v } v b > : : b < < : - < < < < < < = $ $ = $ $ # # # % # # % % % % $ % $ # # % # % # # % $ % $ $ $ $ $ $ < - - - ; ; > } n n n B m n n } } > > - > - > - - > : - - - * $ $ % @ @ @ @ @ @ @ @ @ @ @ @ @ @ @ @ @ @ @ @ @ @ @ @ @ % @ @ % @ % @ @ @ @ @ @ % @ % % @ @ @ X @ @ @ # @ @ @ % @ @ @ @ @ % @ @ % @ @ @ @ X @ 1 1 1 1 1   1 1   1 1 1 @   @ @   X @ @ @ @ @ @ @ # $ - > N D o.T @X&X1X2X6X5XiXsXiXpXsXiX6X2X1X1X@X@X@X#Xo.@X@X` ( @X` @X` @X#X#X$X@X#X@X@X@X@X@X@X` @X+X$X#X$X&Xo.(.o.X.X... . .2.| 2.$.@.| | | | | | | | q q | w u j ..X.X.(.%X7X2X5XyXpXpXaXsXaXiX5X2X*X$X#X' ] ' o.o.#X&X=X*X*X*X*X<X<X<X<X2X4X6X5XyXyXiXsXsXtX0X.X.X XA.Z.M.M.M.M.k.c.k.7.5.5.2.>.&.$.$.|  .:...D.J._.`._.,X,X,X:X2X7X7X2X2X6X5XyXiXpXpXpXaXpXpXsXpXiXwXyXwX5X3X4X4X2X2X7X7X<X7X<X<X2X4X5X5X5XiXpXaXaXaXpXiXyX6X<X<X&X$X&X&X=X*X7X7X2X2X4X4X<X<X<X7X*X-X`.'.P.I.f.g.s.g.f.I.Y.`.;X;X2X6X4X4X4X4X4X6X6X4X4X4X2X2X2X<X<X*X=X$X+X] ) ) Q E ! R Y F D S H B } , * $ % @ @ @ # $ < - ; , ; > > ",
"N N B N B N B N N B B B B N N N N N N N N N B B B B n n n n v v > > > : ; ; : - - - - - - - * * $ $ $ # $ $ $ % $ $ $ % $ $ $ $ $ % $ $ $ $ $ $ $ $ $ & - - - - ; : > } } } n n B n n n n } } > > > > > ; , > - , ; - - < $ $ % % @ @ @ @ @ @ @ @ @ @ @ @ @ @ @ @ @ @ @ @ @ @ @ @ @ @ @ 1 @ @ @ @ @ @ @ @ 1 @ @ 1 @ @ @ @ @ @ @ @ @ @ @ @ @ @ @ @ @ @ @ @ @ @ @ @ 1 1 @ 1 X 1 1   1 1 1 X 1 1 1   1     1 1 1 @ @ @ @ @ @ % $ - } B Z D o.@X#X*X2X4X5X5X5X5X5X6X2X2X2X&X#X@Xo.o.` o.T o.o.o.( o.( o.o.` ` o.@X( o.( o.o.o.( o.o.` ` ` ` ] ] o.X.X....... .| | | | | | | | | | q q q q q 0 w u ..K X.o.o.(.*X2X6X5XyXiXiXiXiX5X6X7X&X$X' ] ` ` ] ] +Xo.+X$X$X&X&X*X%X*X%X<X2X6XyXxXpXaXsXdX0X0X.X X XA.N.N.N.n.c.c.j.7.7.5.2.&.&.$.| | |  .....J.J._.,X8X3X3X3X2X2X7X7X7X2X4X6X5XyXiXsXsXpXpXsXiXwXwXyX5X3X4X4X2X2X7X7X<X*X7X7X7X7X7X7X4X5XyXiXiXaXaXaXaXiX5X4X7X*X$X$X$X$X&X=X*X7X7X<X<X7X<X<X<X7X-X-X`.L.L.f.s.s.s.z.f.I.T.'.`.;X3X6X2X4X2X2X2X<X2X2X2X2X2X6X2X2X7X*X=X$X+X' ` ~ Q ! ! R Y F G S N n } ; - # % @ @ % # $ * - - : : : > ",
"m B B B B N B N N B H N N N N H Z N N Z N H H N m m H m m s n s s } ; ; ; ; ; ; ; ; ; ; ; & & - & - - & $ & < < * & * < * & * * $ < $ * $ $ $ $ $ $ $ $ < - - - : , > > } } n n n m M B n n } > > > > - : > : > ; , - - - $ $ # @ @ @ 1 1 1 @ 1 @ @ 1 @ @ @ 1 @ @ 1 @ @ @ 1 @ @ 1 @ @ 1 @ 1 1 1 @ @ @ 1 @ 1 @ 1 @ 1 1 @ 1 @ @ @ @ 1 @ @ @ 1 @ 1 1 @ 1 @ @ 1 1 @ @ 1 @ 1 @ 1 1 @ @ 1 1 1 1 1 1 1 @   1 1 @ 1 1 1 @ @ @ @ % $ * ; > M S o.T ` &X@X7X2X:X4X4X2X2X2X7X%X&X@Xo.o.T o.o.o.o.o.T o.o.T o.T T o.o.T o.o.o.o.o.W o.T o.T / / / / ) [ E I X..... . . .| | | e | q q q q q 0 0 0 w w w i j ..X.X.(.%X*X7X4X5XyXxXiXiXyX5X4X<X=X#X' ] ) ) ] ] ] o.+X#X$X$X(.*X%X%X-X7X:X2X5XxXpXaXzXrXrX.X.XXXx.Z.N.n.c.c.j.c.7.7.5.2.&.&.$.| | |  . .....J._.,X8X3XwX5X5X2X2X7X7X7X7X7X4X6X5XyXiXiXiXiXyXyXyX5X3X6X4X2X2X7X7X7X*X*X*X*X*X*X*X7X7X2X6X5XiXsXpXaXaXiXiX5X2X7X$X$X$Xo.$X$X$X&X*X*X*X*X<X1X<X<X7X7Xo.[.L.Y.f.s.s.l.s.s.f.T.'.`.;X:X2X2X1X2X<X<X7X7X7X<X2X2X2X2X2X7X<X*X$X^.] ` ) [ ! ! R F F D H N n } , * $ @ @ @ @ # $ $ < ; > ; , > ",
"B B m B B m B B H N H H H S Z S S S S S S S C C C C d C d d d f f f f f s f f p f f f f s p p 2 2 2 2 & & & & , ; : , , , : : - - : : - - $ - - - - < < < - - - : , > } } n n n B B B n n n } } > > > - > - ; > : - - - $ $ % @ @ @ 1 @ 1 @ 1 @ 1 1 @ 1 @ 1 @ 1 1 @ 1 @ 1 @ 1 @ @ 1 1 @ @ @ 1 @ 1 @ 1 @ 1 @ 1 @ 1 @ @ 1 @ 1 @ @ 1 @ 1 @ 1 @ 1 @ @ 1 @ 1 @ 1 @ 1 1 @ 1 @ 1 @ 1 @ 1 X 1 1 @ 1 1 X 1 @ 1 @ 1 @ @ @ @ @ @ @ # $ * - v n H A o.o.@X@X&X*X7X7X<X*X*X&X&X$X@X` T o.o.o.T T T T T T o.T D o.T o.T o.T T T T T T o.W Y o.Q Q ! ! ! ! P P X...g  . .| | | q q 0 0 0 0 8 0 0 8 0 0 0 u j j x X.o.o.(.*X<X2X4X5XyX5X5X5X3X7X*X$Xo.] ] ) ) ) ] ] @X+X+Xo.$X(.o.-Xo./.).,X8X5XiXaXzXzXrXrX0XXXXXA.M.N.c.c.j.7.7.5.5.2.2.&.$.$.| | w u j ..X.W._.,X8X5X5X5X5X6X7X7X*X*X7X7X7X6X5X3X5X5XwX5X5X5X6X6X2X2X2X2X2X<X7X7X*X*X*X*X*X*X*X<X7X2X6X3XiXiXsXaXaXpXwX5X2X*X&X$X+X#Xo.$X$X^.&X=X*X*X<X<X<X<X<X,X-X`.'.P.f.a.s.q.s.s.I.K.'.).,X7X<X7X<X1X<X*X=X*X7X7X7X<X2X2X2X:X*X=X$X^.] ) ) Q R ! R L F D S H B } ; $ $ @ @ @ % % $ * * - - : ; , ",
"B B B B B N N H H S V S D D F F Y Y F Y { { { { J J l g g l g g g g a g a g a a g a f f a a f a p p p p 2 p s s } n v n v v v v b > , b : : : : < - < : : - : ; , ; > } } n n m B B B m } } } > > > ; : > - > : ; - ; - - $ $ # @ @ @ 1 1 1 1 1 @   @   @ @ @ @ @ 1 @   @ 1 @ 1 1 @ 1 @ 1 @ 1 @ @ 1 @ 1 1 @ 1 @ @ 1 @ @ @ @ @ @ @ @ @ 1 @ 1 1 @ @ 1 @ 1 @ @ @ 1 @ @ 1 @ @ @ @ 1 @ @ @ @ @ @ @ 1 @ @ @ 1 @ @ @ @ @ @ % @ % $ * : > B S F o.o.o.( $X$X&X&X$X$X@X@Xo.o.T o.Y Y Y F o.F F Y T Y Y Y Y Y L Y L Y F L T Y F F L F Y L Y Y Y Y Y { { J J l h y 8 w 0 0 0 0 8 8 8 6 8 8 8 8 8 y y y j x U I ^ o.(.&X*X<X<X2X5X2X5X4X7X7X%X$Xo.` ) ) ] ) ] ] ' +X+Xo.$X(.o.Q._._.).`.;X9XeXsXzXdXcXrX0X.X Xx.M.k.k.j.5.7.5.5.2.2.&.$.$. . . .u ..x X.X.W._.,X3X5X5X5X4X2X<X7X&X=X=X*X<X<X2X2X2X6X6X4X2X2X2X<X2X7X7X7X7X<X7X*X*X*X*X*X*X*X*X7X7X7X2X5X5XiXiXaXiXiXwX4X7X*X$X$X+Xo.#X#X$X$X$X%X=X*X*X<X2X4X2X>X,X`.`.T.I.f.s.a.a.f.P.K.`.o./.7X*X=X=X*X=X%X=X=X%X=X7X7X<X<X7X<X*X&X$X' ] ) Q ! R ! L F F G S H B } , - % @ @ @ % # $ $ ; - , ; , > ",
"n m m B B B H H S S D F F F Y R W W ! ! [ [ U X.X.x x ..k ..k k j j h ..j j h ..h .. ...h y 9 9 9 a 6 6 a f f m V H Z A Z B Z M M v v v b b : : , : : : : : : , > > > } } n n B B B B m n n } } > - - - - , - ; - - - $ $ $ $ % @ @ @ 1 @ @ @ @ @ @ @ X @ @ X @ @ @ @ X @ @ @ @ @ @ @ @ @ @ @ @ @ @ @ @ @ @ @ @ @ @ @ @ @ @ @ @ @ @ @ @ @ @ @ @ @ @ @ @ @ @ @ @ @ @ @ @ @ @ @ @ @ @ @ @ @ @ @ @ @ @ @ @ @ @ @ @ @ @ # % $ $ & - v m Z F D T o.o.o.o.' @X` o.T o.o.o.T T o.F F D M D G S D D S S S S S S S S S S A A D S S S D S S D S S S S C C d g a a 9 9 9 9 6 8 4 6 6 6 7 6 6 6 9 9 h h l x U I ^ o.o.$X&X*X<X7X7X7X7X<X*X*X$X$X' ' ] ] ] ] ' ' +Xo.o.%X(._._.Q.L.H.L.'.`.9XtXsXdXdXdXrX0X.XR.x.z.6.7.5.5.5.2.>.&.&.$.$.$. . .u ..j x X.X._.(.-X2X4X4X4X4X<X<X=X$X$X$X$X=X=X7X*X7X7X7X<X7X7X7X7X*X7X7X7X*X*X*X7X<X*X*X*X*X*X*X*X<X7X2X5X5XwXiXiXiXiX5X4X7X*X&Xo.+X@Xo.+X+X$X$X&X*X*X7X2X4X4X5X3X8X8X'.'.Y.I.I.f.d.d.K.L.`._.(.%X=X&X#X&X#X=X=X%X%X=X*X7X7X7X*X*X%X$X^.' ) ) / E ! R R Y F D S N B } ; $ $ # @ @ @ % $ - - - - > > > ",
"m n B B B H H S V F F Y R W Q ( ( ` @Xo.o.o.X.X.X.........-. .-. . . . . . . . . . . . . . . . .u y y c g g d C J G F D T D A A Z Z M M M v v v b , , , , , > > > } } } n n M B m N N B B } } > > : > - : - - : ; - - - < $ % # @ @ @ @ @ @ @ @ @ @ @ @ @ @ @ @ @ @ @ @ @ @ @ @ @ @ @ @ @ @ @ @ @ @ @ % @ @ @ @ @ @ @ @ @ @ @ @ @ @ @ @ @ @ @ @ @ @ @ @ @ @ @ @ @ @ @ @ @ @ @ @ @ @ @ % @ @ % @ @ @ % @ @ @ @ # # # % % % * - - > n H S Y o.Y o.o.o.o.( o.o.o.o.D o.T T S S S Z N N Z H H N H H N N N N N N N B N B H N B N N N N B B Z B N m d s f f 6 6 6 7 7 6 5 7 5 5 7 5 6 6 6 a 9 g g l J U I ^ o.o.#X$X$X&X=X*X=X*X*X$X$X$X+X' ' ] ] ] ' @X+X$X$X$X(._._.Q.J.K.K.K.L.'.[.tXrXdXdXdXtX0X].T.f.a.,.2.2.2.&.&.&.&.&.$.|  . ...x x K X.X.o.o.%X7X7X2X2X2X<X=X$X$X+X+Xo.+X#X#X$X$X$X&X&X&X=X=X*X*X*X*X*X*X*X*X*X7X*X7X*X*X*X*X7X*X7X2X:X6X5X5XwX5X5X5X6X2X7X=X&X$Xo.o.@Xo.#X#X$X^.=X*X<X4X6XyX5XwXwX9X9X'.L.K.K.K.K.K.L.L.X.o.!.' ' #X#X#X#X$X#X%X&X=X%X=X*X*X*X%X$X$X' ] ` ) Q ! ! R R Y F D S H B } , - $ # @ @ @ # $ $ - - ; , ; > ",
"B B n B N H Z S F F Y W Q / / @X@X@X#X=Xo.o.W.H.F.t.u.<.;.<.<.;.<.;.;.;. .,.<.<. .,. .<. . .|  . .u  .u h ..l X.P R ! W T T T D A A A Z Z M M M v v v v v > v v } } } } n M N N N N N B B n } > > ; > - ; - : ; : - - < < $ $ $ # % @ % @ @ # @ % @ # % $ @ # # # % % # % # # @ % % # % # % @ % % # @ # % # % # @ % @ % @ $ @ # @ % % @ # % # % % @ # % @ % # % # # % % # % # $ @ $ @ # $ % # % # % # # @ % % # % $ $ $ * * - , } n H S D Y Y Y T T T T T T A T D D D A S H B M M M n n n n n n n } n n } n } n n n n n n n n n n n n n n } n } s s p p p p 5 p 5 5 2 5 2 2 2 p p f a d d g J J U E [ ~ ' ' +X+X$X$X$X$X$X$X$X$Xo.+X' ] ] ' ' +X+X#X$X$X%X%X_.J.J.K.K.i.K.I.T.}.}.tXrXdXdXtXtX'.Y.i.u.,.&.$.$.$.$.| | |  . . .......K X.X.^ o.!.(.%X*X<X=X=X&X&X$X' $X@Xo.' o.' ' ' +Xo.o.$X$X#X$X$X$X$X&X=X*X*X*X*X7X*X7X7X7X*X*X<X7X7X7X4X4X6X5X5X5X5X:X7X*X=X$X+X+X+X' +X' #X$X$X&X*X<X4X5XyXiXsXwXeX9X[.`.`.L.L.J.L.o.X.o.o._ ] ' ' ' #X' #X^.#X$X$X#X%X=X=X=X$X$X+X' ` ~ Q Q ! R R Y { F G S N B } , * $ @ @ @ % % $ * < ; - > > > ",
"n n B m N H S D F R ! [ ) ` @X#X&X1X*X:X-X).Q.L.P.p.p.0.9.6.6.4.4.4.4.4.4.4.4.4.4.9.4.,.,.*.=.%.@.#. . .O.O.z X.^ ^ ) / ( ( W W Y F D S A Z N B n n n v } } n n n n n M m N N N H Z N N m n n v > : : - - - > - ; - - - - * $ $ % % % $ % % # $ % @ $ @ $ $ % % # $ $ % # % # $ $ % $ # # % % # % % $ # # % # % $ $ % # % $ $ # $ % % $ % # % % $ # $ % % # $ % $ % # % # $ $ % # % % $ % # $ % $ % $ % # $ % $ $ $ $ $ - - - , > n B H S F Y { R Y Y Y F F F S A S H H B n n n n } > > > > > > > > > > > > > > > > > > > > > > > > ; > > > ; ; ; & p 2 2 & 2 2 2 o o o 2 2 2 ; p s f d C C J { P E [ ~ ( o.` o.o.@Xo.@X@Xo.o.@X' ' ' ' ' ' ' +X#X$X&X=X%X_._.L.Y.d.d.u.a.f.I.T.{.0XrXdXdXtX9X'.Y.i. .| | | | | | | | | |  .....x X.X.^ ^ o.o.^.$X$X$X&X&X$X+X+Xo.@Xo.` ` o.) ` ) ) ] ` ] o.o.' o.+X$X$X$X&X&X*X*X*X%X*X*X*X*X*X*X*X*X2X*X2X2X2X4X2X2X2X7X*X=X$X#Xo.+X` @Xo.o.+X+X$X$X*X7X6X5XiXpXsXiXeX8X8X`.o.`.X.o.X.o.X.! o.~ ) ) ) ) ' ' ' ^.#X#X#X#X&X#X#X#X#X^.' ] ) ~ ! ! ! R L Y F D G S H B } , < $ @ @ @ # # $ * - - , ; , > ",
"n B B m N S D F Y ! ~ ] o.+X$X1X<X2X6X3X8X[.'.I.I.a.q.6.8.7.8.7.8.8.8.8.8.8.k.8.8.8.8.8.6.4.1.1.>.$.%.:.-.r.D.D.G.o.!.^.] ) ( Q ! L Y G S S V H N n n B n n n n n B B m N Z H H H S H Z N n n n > > ; > > > ; > , , , - - * * * * $ % $ $ % $ $ $ $ $ $ % $ $ % $ $ $ % $ $ % $ $ $ $ $ $ $ $ $ $ $ $ % $ $ $ $ $ $ $ $ $ $ $ % $ $ $ % $ $ $ $ $ % $ $ $ $ $ $ $ $ $ $ $ $ $ $ # $ $ $ $ $ $ $ % $ $ # % $ $ $ $ * * & * - - ; } n B N S S D D F G F D S S S H H B B n n n n > > > > > - > - - - - - - - - - - - - - - - - - - < : - - - - - - - & & - & & & & & & & & - & 2 ; s s s m C C G { { E ! [ / ( ` o.` ` ` o.` ` ` o.] ] ] ] ' ' +X#X#X$X$X=X(./._.H...i.u.a.a.d.I.T.}.0XrXeXsXeX8X`.X..... .| | | | | | 0  .w u j ..x X.I o.~ o.' ' +X+Xo.$X#Xo.@Xo.o.` ) ) / / / / Q [ Q [ / / ) ` o.' +X@X$X$X$X$X*X*X*X*X*X*X*X*X*X*X*X*X*X:X*X<X7X7X7X7X*X&X$X$X+X+X+X@Xo.@X` @Xo.+X^.=X7X2XyXiXsXsXsXiXwX3X,X-X).o.o.o.o.o.o.R [ [ [ / / ) ) ' ' ' ' ^.^.^.^.^.' ' ] ] ) / Q ! R R Y Y F F F S Z N n } , & $ @ @ @ @ $ $ < - - , , ; , ",
"n n m N H S D F R / ) o.#X$X*X:X4X3X3X9X9X}.].U.x.z.l.k.j.j.j.j.v.c.c.j.k.v.c.j.k.c.j.j.j.5.3.3.1.1.>.=.e.e.t.F.W._.~.(.^.] ) ^ E E P { { G C C C m m m B m N H N N H H S S S A D D S H Z N M n n > > > > > , , > > , , ; - < < * * $ $ $ $ $ $ * $ * = $ $ $ $ $ $ $ $ $ $ $ $ $ $ $ $ $ $ $ $ * $ $ $ $ $ $ $ $ $ $ $ $ $ $ $ $ $ $ $ = $ $ * $ $ $ $ $ $ $ $ $ $ $ $ $ $ $ $ $ $ $ $ $ $ $ $ $ $ $ $ $ $ $ $ * $ * - - , ; > } n M m H S D D S S S Z H H N N M n n n n > > > : - - - - - - - * & * - * & - $ & * $ & * & $ - < < * - * < - $ * & $ & * & $ & $ $ $ $ $ & - - > } n m H S V { L R ! E / / [ / ( / ) [ / / ) ) ) ) ] ] ] ' ' +X#X#X&X$X%X_._.J.K.i.u.a.9.a.f.I.T.tXtXeXeX8X[.X.X... . .| 8 | 8 8 0 | w u u j x U I ^ ~ ] ' ' ' o.' @Xo.' ` ` ` ) / / [ [ Q ! ! ! ! ! Q ! Q / ~ ` ` o.o.+X+X$X$X&X$X&X&X*X*X*X%X*X=X%X&X*X*X*X%X*X=X*X&X$X&X#X+X+Xo.` ` ` ` ( ( +Xo.#X&X<X2X5XyXiXsXpXwX5X>X*X%X%Xo.o.o.! o.T R ! ! ! ! / / ) ] ] ] ' ' ' ' ' ' ' ] ] ) ~ ~ Q ! R L Y Y F G D S H N n v , * $ % @ @ @ $ $ & < - - , ; > ",
"n B B B N S F Y Q / ` #X$X*X:X3X8XqX9XtX{.}. X Xz.z.N.c.b.b.b.b.b.c.c.c.c.c.c.c.c.c.c.c.j.j.j.5.3.2.4.,.<.h.t.F.H.|._._.~.W.W.o.^ I U U J J C C d C d C d C V C S G D D D F F F F F F D S Z N M n n n v n > v n v v v b , ; ; < - - - * < < < * * * * < * * * * $ $ * * * $ * $ * $ * * $ * $ * $ * $ * * $ * $ $ * $ * $ $ * * $ = * $ * $ = * $ * $ * $ * $ * * * $ $ $ & $ * $ * * $ * * $ $ $ * $ $ $ * * $ & * - - - , > > } n M N N H H S V S H H N N B m n n n } > > > > : - - & - $ $ $ $ $ $ $ $ * * $ * * $ * * * $ * $ * $ * $ $ & $ $ $ * $ $ * $ $ $ $ $ & * * - , > > n M N H D D F Y R R ! ! Q Q Q Q Q Q Q / / [ / ) ) ) ` ` ' ' +X+X#X$Xo.W._.J.i...u.9.<.u.i.L.'.[.9XqXqX8X;Xo.X.X.g  .9 | 0 0 8 0 0 y u h ..J U I ~ _ ) ] ` ] ` ` ) ] ` ) ) ~ / / / Q Q ! ! R R R R R ! ! Q Q ( ` ` ` o.' o.$X+X$X$X@X$X$X$X$X$X$X$X$X$X$X$X&X$X$X$X#X+Xo.o.@X` ` o.` ( o.o.( o.` o.+X=X7X2X6XyXyXyX5X6X7X=X&X+Xo.o.( W Q ! R R R ! R ! [ [ ) ) ) ] ] ] ) ] ] ) ) ) / Q ! ! R R R F F D G S H N B } > - * $ @ % @ @ % $ - - - ; , , > ",
"n n B N V S F W ( ` o.&X%X,X,X8X9X9X9X{.{..X Xx.A.N.N.n.b.b.b.b.b.b.b.c.b.c.b.b.b.b.b.c.c.c.j.7.7.5.3.4.9.p.d.P.P.L.|.|.|.H.G.G.G.X.K K K x l l l g l d C J C { { F R R T T W R R Y Y Y F D A N M M M M n M v M n n v b v b b b : : : b - : < : < < < < < < < < < = = < * * $ * < < = * < $ < < * = < < * * * * * * * * * * * * * * * * < < < < * * * * * * * * * & * * * & $ * $ $ * * $ $ * * $ * $ * $ * & * * - - - , ; > v } n B N N H Z S H H Z N B B M n n } n > > > > > : - - - - * & $ $ $ $ $ $ * $ $ $ $ $ * * $ & $ * $ $ $ * - $ $ * * $ * $ * * * $ $ * = * < - - > > v n M N H Z S D Y Y R R R R W R ! ! ! ! Q E / [ [ / ) ) ` ] ' ' ' ' ^.o.W.J.....i.9.u.f.f.X.L.).,X,X:X-Xo.o.X.....g y 9 8 8 8 9 y y h l l U U E [ ) ) ) ) ` ) / ) / / / [ Q Q Q ! ! ! W R Y Y Y L Y R R ! ! Q [ / ) ` ` o.` ' ' +X@X+X@X' @X@X@X+X@Xo.@X' @X@Xo.@X` o.o.o.( o.( o.( o.W o.o.o.o.( @X@X&X*X4X6X6X4X4X<X=X@X@X( o.( o.W W R R R L R W R Q ! [ ~ / / ) ) ) / ) ~ / ~ Q ! E ! W Y F F G G Z N N B } > , - $ $ % % @ $ $ $ < - - ; , , ; ",
"n n B B H D F W ( o.&X*X:X,X8X9X[.{.}.]. X X Xx.Z.N.n.n.m.m.m.b.b.b.b.b.b.b.b.b.b.b.b.b.c.c.j.j.7.7.8.8.0.q.p.f.d.P.Y.K.K.H.F.F.D.r.r...z z k x j x h l l J U P o.L W o.( o.( / / Q W W T T F D A A Z B Z M M M M M M M n n v b b b b b , , : : : : : < < < < < < < < < * * < * < = < * * < < < * < < = * * * * * * * * * * < < < * * * = < = < * * * * < < < * < * * * * * * * - * & $ & * * & * * & * * * * * & - - : > > } } } n m N Z H H Z H H N N m M n n n n n } n > > > > - - - * $ * $ & * $ $ $ * $ & & $ $ * * $ $ $ & $ * $ $ $ $ * * * * * * * * * * * * * * < - : : b b n n B B Z H D D { Y Y R R R R R R R R ! ! ! Q Q [ [ / ) / / ` ) ] ) o.I X.X.............X.L.o.%X&X*Xo.o.o.X.X...g h g 9 h 9 h 9 h g g l J U E E [ / / / / / / Q Q Q Q ! Q ! ! R R L R L Y Y L { Y L Y R W ! Q Q Q / / / ` ( o.o.o.o.( o.o.o.o.o.o.o.` o.o.( o.o.( ( ( ( o.o.W ( W W o.T ( W ( ( o.o.@X$X=X*X7X&X&X&X#X@X` ( ( W W R R R Y Y L F R R R Q Q Q ~ [ / Q ~ [ / ~ Q ! ! ! R R L F F D S Z H M n } ; , - $ $ $ % # @ # $ & * - ; - , , , ",
"n n B m H D Y Q ) +X*X:X>X8X9X[.}.].R. X XA.A.N.N.B.n.m.m.m.m.m.b.b.b.b.b.b.b.b.b.b.b.c.b.c.c.7.c.7.7.8.8.q.q.s.g.f.f.E.P.d.i.h.t.e.y.w.w.-. . .i i k k z K U I o.o.o.o.` ` @X( o.( o.W T T T D D D A A A Z A A Z Z A M M M M v n v b b v b b b b b b < : < < < < < < = < < < < < < < < < < < < < < < < < < < < * < < < < < < < : < * < < < < < : < < < < < < < < - < < * * - * * - * - - * * & & * * * & * * - < - - > > v } } } M M N H H H S H H Z N B M n n n n } } n > > } > > - - - & * * * * * * * * * - * * * * & * * * * * & * - $ - $ * * * * * * * * < < < < < < < - : : > > v v n M N H S S D { { Y F Y L Y Y R Y R R R R ! ! Q Q Q / / [ / [ [ I I X...X.........X.o.X.o.o.o.o.o.o.X.C d g g g g g g g g g l l C J { P R ! ! ! W Q W W ! ! R ! R R R L L R Y Y Y F F F F F F Y Y L R R ! ! ! Q [ / Q Q o./ ( / o.Q ( ( Q Q o.Q ( ( o.W o.Q ( W Q Q o.W W W ! R ! ! W W T o.o.( ` o.o.@X@X@Xo.( ( ( W W W R R T Y F F Y Y Y L R R ! ! R Q R Q R Q R ! ! ! W R R Y Y F D G H N n n > , - - * $ $ # % % $ $ $ * * - - - ; ; , ",
"n B B B S F Y / ` $X*X2X8X8X[.}.].R. Xx.x.z.Z.N.N.n.m.m.m.m.m.b.b.b.b.b.b.b.c.b.b.b.c.b.b.c.c.v.c.j.j.k.k.q.q.l.l.s.s.s.a.a.a.h.p.;.e.;.:.:.:.-.-. .-...r.r.G.W.o.$X&X@X&X&X@X@X@X@X@X( o.( W T Y T D T D T D D A A A Z A A Z B M M M M v v v v b b b b b b - : : < < < < < < < < < : < < < - - : < < < : < < - : < : < < < - : < < < < < < < < < < < < - < - - < < < : - - - & < & * & - - * < * - - & * - - - - , > ; > } } n M m N N H Z H Z Z H N N B m m M n n n n n n n } > > > : - - - - * - & * - & * - - * & - * - - - - - - $ - - - - < - - - * - - - < - < : - - - - < : : : > b } } n B H H S D S D F F F { Y F L Y Y R R R R R R R W W ! R E E E U G X.......X.X.X.X.o.o.o.o.o.T R D X.C C d g d d g d d d d l G { { L R R R R W W R R L L Y L L Y Y Y Y Y { F F { F D D F F { Y { Y L L R R R R ! W W W ! ! ! ! ! W W W W W W W W W W T ! W W ! L T R R R R R Y R R W T T ( T o.o.o.o.o.( o.W o.T W T Y Y Y Y Y D F F F F F F Y Y R R R R R R R R R Y L Y L Y Y F F G Z N n } > - - * $ $ % $ $ # % $ $ $ * - - , - , , , ",
"n n m B Z D W / @X&X:X6X9X9X}.}.R.U.x.z.M.N.N.N.n.m.m.m.m.m.m.m.b.b.b.c.b.c.b.c.b.c.c.b.c.c.c.c.c.j.c.7.v.k.v.q.l.q.l.q.q.q.0.9.9.9.,.;.=.=.=.$.$.#.:.w.y.D.J._.o.2X:X<X<X<X<X&X$X$X+X@Xo.o.o.W W W R Y Y Y Y F F D D D S Z Z Z Z Z B M B M n n n n v v > > : , : < : < - - - - - - - - : - : - < : < : - - - - - : - - > ; - - : < < - : - - : - - - - : - : - : - - ; - - - - - - - - - - - - - - - - - - : - , > > > } } n n B B N H H H Z D Z S H N N B B M n n n n n n n n } > > > > - - - - - - - - - - - - - - - - - - - - - - - - - - - - - - - : - - - : - : - - - , - - - - - - , ; > v M n H H H S S D D D G { F { F F F F { F L Y { F Y Y Y L { { { X.C C X.C X.X.C F X.F o.W W X.L G G G C C C C C C C d C C C C G { { F F { Y Y { Y { { Y { Y F F { F F F D F D G D G D D F D { F F F { Y Y { Y Y Y Y Y L Y R Y R Y R L R R L L L R L Y L { L Y Y D F { Y { { F Y { Y Y L R R ! ! ! ! ! ! R R R Y T T F F D F F D D D F F F F F F F F F F Y F F F F F F F F F F D G S N M } > ; < $ $ # % # $ # $ $ $ $ * - - - - > : , ; ",
"n n B N S F R / +X=X4X5X9X9X{.].U.x.z.l.M.v.b.n.m.m.m.V.m.m.b.b.b.b.c.c.c.c.c.c.c.v.c.c.c.c.v.v.v.v.v.v.j.k.v.v.v.k.l.k.q.q.q.8.0.0.4.4.4.1.=.=.=.=.;.e.t.K.Q.Q.;XqX5X5X5X4X2X<X=X%X$Xo.@X( o.o.) Q E ! ! E R L R L { Y G G G S Z Z H H m m N m n n n } n } > > : , > > ; - : ; : > ; , ; ; ; ; > : ; - ; ; : : ; : : ; ; ; ; : : > ; : ; : ; : ; ; ; , ; : : ; ; - > > > ; > ; : > > , > > - > , , > - , ; > ; > > } } n n M m N N H H Z D S S S H H Z N N M m m M B B B n m n n n v > > > > ; - ; > - - : > - > - ; > > - - > - - , ; - , ; , , , - , > - - , : - , , - , - - : - - * < - - , > v n n B H H H H S S S S D D D D D D D D D D D F F F F F G { { G G G C C m G G D G D F F D A G G V C V C C C C V C V C C G G S G G G F D D D D D D D D D D D S D S D S D S S D S D D S S S D S D D S D F S D G G F D F G D G D D D D D D D D D D D D D F D D D D D D D D D D D D D D D D F F F { F F F F F F D D D D D D S D S G S S S S S G S F D D G G D D G G G D G D G D S S H N n } , - $ % % @ @ @ % % $ $ $ < < - - - , , ; > , ",
"n n n N Z F W ` @X*X3XqXeXtX{.R. Xx.l.N.b.b.b.b.m.m.V.V.V.m.m.b.b.b.c.c.c.c.v.c.k.v.k.v.v.M.v.v.j.k.v.M.M.8.v.k.l.l.k.l.q.8.q.6.6.6.4.4.4.,.,.,.,.;.;.h.i.L.'.[.9XwXwXwX5X5X6X:X,X%X,Xo.o.o.o.o.^ ^ ^ ^ [ E I E P Y P P C { { J C C C C m m C C d V d m s s s s p s s ; ; s p ; s ; ; s ; ; p ; ; ; s ; ; s s ; p ; s ; ; ; s ; ; ; s s s ; ; s ; ; ; ; ; ; ; ; ; ; > ; > > > > > > > > > > > } } > > > > > } > } } } n n B B N N H H H S S S S S H H H N N N N B B N B M B B n n } n > > > > > - : : ; > ; > > - : > > - > > > , > ; , > , > , ; > ; > ; , , > , , ; , - ; ; - - * * $ * * - - : > v n n M N N H H H H H S S S S S S S S S S S H S S S S S H V V S V V H V S S S V S S V S S V H H H H H H H H H H H Z V V S V V V S S S S S S S S S S S Z S H S S S S S S S S S H V S H S S S H S S S S S H S S H S S H S S S S S S S H S S S H S S S S H S V S H S H S H H S S H H S S S S H S H S S S S S V S S H S H H H S V Z Z S S V Z S S H H S Z S S S Z Z S S S S S S Z N n } > - $ # # @ @ @ % # $ $ $ $ & < - , , ; , > > > ",
"n n m N S F W ( #X<X6XwX9XtX{.].x.z.l.v.b.b.n.m.m.V.m.V.V.m.m.b.b.c.c.c.k.k.k.k.k.k.l.l.q.l.q.l.l.q.q.M.q.l.l.l.l.l.l.q.q.q.q.q.a.0.0.0.9.9.9.<.9.u.u.i.K.Y.'.9XeXeXsXsXsXwXqX;X).).).o.o.o.Q.o.W.G.G.I X.X.X.X.X.X.X.X.J X.X.X.X.J C X.X.C l d d d g d g d f f f f f f f f f f f p f f f f f f f f f f f f p f f f f f f f f p f f f p f p f f f f f p p f p s p s ; s s } } n n n n n n n n n n n n n n n n } n n n m B N N N H H Z D S S S S S D Z H N N N B B B m H m H B B n n n n } > > > > > > > > > > > > > > > > > > > > > > > > > > > > > > > > > > > > ; > , , , , - - < & - & * * - : ; v } n n n M M B N H N H N N N H N H N N H H N N N N N H H N N Z Z Z N H N N Z N N N N B B N N N N N H N N N Z N H Z Z N Z N H H H H N N N H N H N N H N H H N N H N H N N H N H N H H N N H H H N H H B H H B H B B N N N N N N m N N m N N N N N N B N N N N N N B N N N N N N N B N B N m N N N N B N B N N N N N N N N N N N N N N N N N N N N N N N B N N N N N N N N N B n n > - < $ % % @ @ @ @ # % $ < * - - - - ; > > > > > ",
"} n m B S F W ` #X1X6XwXtX0X{. X XZ.M.v.b.n.n.V.V.V.V.V.V.m.m.b.b.c.c.j.j.k.l.q.q.s.s.s.s.s.s.s.s.s.s.s.s.s.s.s.0.s.s.s.s.a.a.a.a.p.p.p.p.h.p.h.h.h.d.P.Y.'.}.tXeXrXaXsXeXqX9X[.`.Q.Q.H.H.J.H.J.J.J.J.J.J.F.X.F.X.X.X...X.....X.........X...............g g ..a ..a a g g a g a g a g a a g g a g 9 a g a g g a g a a a g g a g a a a g a a a a a a a a a a f p f f f s n m m M N B B Z Z N N H N N m B N B B B B N N N H Z H H H H S D G G D D S S H H H N N N N B B H B B B B m n n n > > > > > > > > > > > > > > > > > > > } > } > > } } > } > } } > } > > > > > > > ; , - - - < & * * $ & < - ; > > v v n v n n n n m M m n n n N n n n m M n n n n M B B B M M M M M M M M n n n n n } M n n n n M n M M M N M N M M N B B N N B m m n n m M n n m M m n m n M M n N n n m M M n m M m M M M M n m n M n n n n n n n n n n n n n n n n n n n n n n n n n n n n n } n n n n n n n n n n n n } } n n } n n n n n n n n n n n n n n n n n n n n n n n n n n n n n n n n n n n n } } ; - < # % @ @ @ @ $ $ $ & & < - - , ; > > > v v > ",
"n n B N S F W / #X<X5XwXeXtX}. X Xz.M.v.b.n.n.m.m.V.V.V.V.m.b.b.b.c.j.k.8.q.q.s.a.g.f.f.f.I.d.f.f.f.f.I.f.f.f.f.f.f.f.f.f.f.d.f.d.d.E.d.d.d.d.h.d.P.P.L.'.[.tXtXdXzXdXrXeXtX9X`.L.L.K.K.K.K.K.i.K.d.i.i.i.i.i.i.i.u.d...i.i............................... ... ... . . .h  .h  .h u j u h u h u 9 ..u j h y j u h u u j h u u j  .9 .. . .h h  .h 9 9 h 9 a 9 a a f f d d V H S A S A A S D S S S D S H H S H H H H Z H Z H Z D D S D G D D G S D D S H H N N N B H B N B H N B B M n n > n > > > > > > > } > > > } } > > n > } > } } } } } } } } } } v } v } > v > > > ; , , ; - - - - * - < - - - : ; ; > ; v } v v n n v n n n n n n n n n v n n n n v v v v v n n v v v v b b > > > , , , > > > v b v v v v v v v n n n v n n n n n n v n n n n n n v n n n n n n n n n n n n n n n n n n n n n n n } n } v ; v ; v > > ; v > ; > > > > > > > > v > > > > v v > } v > v ; v ; v v ; > > > > v > > > , v v > } > > } } v v > > } } > } } } ; > > > } } ; > } } > } > } > } } > ; ; < < $ # @ @ @ # @ % $ $ < * - - , > > > v > } } } ",
"n n B N S F W ` #X<X6XwXeX0X]..X XZ.M.M.b.b.n.V.V.V.V.V.m.m.b.b.c.v.j.8.8.q.0.p.d.d.P.P.Y.P.P.Y.Y.P.P.K.P.Y.P.P.P.P.P.P.P.P.P.P.Y.K.Y.Y.Y.Y.L.Y.Y.Y.|.'.[.tXeXrXdXdXdXdXrX9X}.Y.Y.K.i.d.p.d.p.f.a.a.a.f.a.a.a.a.a.p.p.p.p.u.u.u... .p. . . .u... ... . . . . . . . . . . . . . . . . . . . . . . . . . . . . . . . . .u  . . . . . . . . . . . . . . .9  .9 6 9 9 g g d d C S F D F Y D Y D F Y D D F F F D F D D D D S S G S D S G G D D F D F D G D S H Z Z N H B B H H N N N B n n n n } > > } > > > } > > > } > } > } > } > } } } } } } n } n } n } n } } } > > > > , , - - - - - - - - & < - - - - : ; ; : > > > > > > > } > > > > > > > > > > > > > > v > v > v > b b , , : : - - - - - - - - : : , , , > , v v > v v > v n > > v v > > > > > > > > > > > > > } > } > > > > > > } v > v > > > > > > : ; : ; : - ; - : - ; < ; - ; - - - ; : ; - - ; ; : - - - - ; - - - - - ; - : - - - - - ; - - ; - - - - - - - - ; ; - ; : - ; - : ; - - - : - ; - - : - : ; : : ; ; - - - - $ $ % $ % # % # % # $ < $ - - - > > v } } } n } n ",
"} n B B Z F W ` #X1X6XwXtXtX{. Xx.z.M.v.b.b.m.m.m.V.V.V.V.m.m.b.c.7.7.8.q.a.p.d.K.Y.L.Y.Q.Q.|.|.Q.Q.|.|.H.|.|.H.|.|.H.|.|.|.|.|.|.|.|.`.|.|.[.|.'.[.[.9XtXeXrXdXhXlXlXrXtX{.}.Y.d.f.p.9.a.0.z.l.l.z.z.l.l.z.l.z.l.l.z.q.0.0.0.0.0.0.0.9.0.0.0.9.<.<.0.0.9.<.0.9. .,.4.<. .,.:.:. .$. .:. .$.:. . . . .&. .$. .:. .$.:.:. .:.$. . . .,. . .|  . . . .|  .|  . .9  .g g ..C S X.Y Y R T W R Y Y o.F o.R R R Y { Y F { F F D G F F F D F F F F F F D G S D Z H Z H H H H H H H N N N m B n n n n n n } n n n n n n n n n } n n n n n n n n n n n n n n n n n n n } } } > > > , , - - - - - - - - < - - - - - - - - - - ; : ; : : > : ; : ; : ; : : ; > : ; > ; > ; : : : : : : - - - * * * * $ $ * * * * * * * - - - : : : : : , : ; > > ; ; ; > : ; : > : > : > > ; : : ; ; : > > > ; > : : ; : ; : ; : : ; - - - - < $ $ < $ $ $ * $ * $ * * $ < * $ * $ $ $ $ * & $ $ - $ - $ < < $ * & $ $ < $ $ $ $ $ $ $ * * & $ - $ < $ < $ $ < $ - $ $ $ - $ < < $ $ < $ - $ $ $ < $ $ < $ < $ $ $ $ $ # % % # $ $ * $ - - - ; > > > } } } n n n n ",
"} n B N Z D W @X#X<X3XwXtXtX.X]. Xz.M.v.c.n.n.m.m.m.m.m.n.n.n.c.c.7.7.8.0.a.u.K.L.L.o.o.[.`.o.[.o.o.[.`.o.`.`.o.'.`.o.[.`.[.`.).).).[.[.).;X[.8X9X9X9XeXeXdXzXdXlXlXdXcX0X{.].E.f.a.0.0.q.k.l.k.M.N.M.N.N.M.v.N.M.M.v.M.l.l.q.8.8.q.8.0.8.0.0.8.q.6.0.6.6.6.6.8.6.3.4.4.1.4.4.*.*.;.;.*.;.*.;.*.=.=.=.=.*.=.;.*.;.*.;.*.;.*.;.*.,.| ,.,.&.,.,.$.=.=.#.#.#.#.t i i k j l J J P E E W ! Q / / / [ o.T T o.T o.T T T Y Y Y T Y D D Y Y A T Y D Y Y Y F D D S S H H H S S S S S Z H H N N M B n n n n n n n n n n n B n n n n n n n n B n n n n n n n n B n B n n n n > > > > : ; - : - > - - - - - - - $ - - - - & - - - - - - ; - - - - - - - - - - - - - - - - - - - - - - * * * * $ $ $ # $ # % # # % $ $ $ $ * * - < * - - - - : & - - - < - - - - - - - - - - - - - - - - - - - & - - - - - - - & - - & < $ * $ % % % % # # % % $ $ % $ $ # % $ $ % $ % $ $ % $ # % # # # % $ % $ % $ # $ % % # $ $ % $ % $ $ % # $ % $ $ # % % # # % # $ % # $ % # % # % # % # # # % # # $ $ $ # # # $ % % # $ $ $ $ $ * - - : , > } } } n n n n B n ",
"n n B N Z T W ( #X<X6XwXqX0X{.R.U.x.M.M.n.n.n.m.m.m.m.m.n.n.c.c.c.j.8.6.9.p.i.K.L.'.`.;X-X-X%X-X8X;X-X-X-X-X-X-X-X-X-X-X,Xo.,X8X,X;X>X3X8XqXqXqXqXqXeXsXaXzXhXlXkXkXlXrX0X{.T.I.f.0.0.6.6.k.k.l.v.n.n.N.n.B.m.N.n.n.N.v.v.v.v.l.k.l.8.8.8.k.8.8.8.j.8.j.8.k.8.8.8.8.8.3.6.3.4.3.4.3.1.1.1.1.1.1.1.3.4.1.4.1.3.1.3.1.1.1.1.1.1.1.2.6.,.2.,.2.2.,.1.*.*.%.@.@.+.+.t i k z z J E E Q Q / / / ) ) ] o.o.` ( o.T o.T o.T T o.T T o.D A o.T o.o.T o.Y Y Y F F F F D S S S S S S S S S S S Z H N N N M B m B B B B m B m B B B B m B m m B B n B M m B B M m m B n n n n n } > > > > > > ; : - > : ; - - < - < $ $ < * $ < $ - $ $ $ - $ < & $ $ - $ - & $ * * $ - - $ * & * < $ * * % % % # @ @ @ % @ % @ @ @ # # $ % % * * & * * & * * < $ - * & < * < $ * * $ - $ * < $ * * $ - $ < * < $ < * & < * * < $ * $ * % # # # # @ % @ @ @ @ @ @ @ @ @ @ % @ @ @ @ @ @ @ @ @ @ % @ % @ @ @ @ @ @ @ @ @ @ @ @ @ @ @ @ @ @ @ @ @ @ @ @ @ @ @ @ @ # % @ @ @ @ @ # % # @ @ # % % # @ % % @ @ @ @ % % # % # $ $ $ $ $ $ - - - - , > > } } n n n B n B m ",
"} n B N A F T ( +X<X6X5XtXtX{.R. Xx.Z.M.M.n.n.B.m.n.N.n.n.n.v.c.j.7.8.6.0.p.i.K.L.o.o.*X7X2X7X2X2X7X,X7X7X:X7X7X:X7X:X7X:X2X2X3X3X6X5X3XwXyXwXiXiXsXsXzXfXjXjXjXkXkXlXcX0X{.R.E.g.a.0.q.l.l.k.N.N.B.B.B.B.B.B.B.B.n.N.N.N.v.M.v.l.k.v.k.k.k.8.v.j.j.j.j.v.j.j.j.v.j.j.8.8.8.3.3.3.3.3.1.3.3.3.3.3.3.3.3.3.3.3.3.3.3.3.3.8.1.3.3.5.5.5.2.5.2.6.5.1.1.1.*.%.%.@.#.#.i i O.K U I I [ ~ _ _ ] ' ] ' o.` ` o.( ( o.o.T o.o.W o.o.T o.o.T T T T T Y o.T T T T { D F F F F F F F F F F D G G S S S V S S H Z Z S S H S S Z H H Z H N Z H B m M B B m B B B B B m M m n n } > } > > > > ; : - > > - - - - < & $ $ $ $ $ * $ < $ $ * $ $ $ < * $ - $ $ * * * $ & - $ $ $ * $ * & $ $ $ # # % % @ @ @ @ @ 1 @ @ @ @ @ # # % * $ * $ & * * $ $ $ $ $ $ $ $ $ $ $ & $ $ $ $ $ $ $ & $ $ $ $ $ * $ $ $ $ * $ * $ * $ % $ # % % @ @ 1 1 @ @ @ 1 @ @ @ 1 @ @ 1 1 @ 1 @ 1 @ @ @ @ @ @ 1 @ @ @ @ @ @ @ @ @ @ @ @ @ @ 1 @ 1 @ 1 @ @ 1 @ @ 1 @ @ @ @ @ @ @ @ @ @ @ @ @ @   @ @ @ @   @ @ @   @ @ @ @ @ @ % # # $ $ $ - < - - - ; : , ; } } n n n n B m B B ",
"n n B N S F T o.+X<X6XwXeXtX0X.X X Xx.Z.Z.M.Z.N.N.N.N.N.N.M.k.k.8.7.8.6.9.u.i.L.'.o.>X7X7X1X1X4X2X2X6X6X6X2X6X4X6X6X6X6X6X4X5X5X5XuXwXxXxXiXsXpXaXzXfXfXjXfXNXNXkXlXlXcXcX{.].R.g.s.s.z.l.l.l.B.Z.B.N.B.B.B.N.N.N.N.N.N.M.M.M.l.l.l.q.l.l.k.v.v.v.j.c.j.j.j.j.j.j.j.j.8.8.8.8.8.3.8.3.3.8.3.3.3.3.8.3.3.3.8.3.3.3.8.3.3.3.8.3.3.5.5.5.5.5.5.5.5.3.3.1.*.*.%.@.@.#.#.O.O.O.K I I I ^ ~ _ _ !.' ' +X' @X@X` ` ( @X( ( o.o.` ` ( o.o.o.o.( o.o.o.T o.W o.W o.T W W W R W R W R R R R Y Y { Y F F F F F F G F F F F D G D G D D S S S Z H H N N N B m H B B H B B B n n n } > > > > > > > > : ; > - - - < < - - $ $ & $ $ $ & * $ < & $ $ * $ $ * & $ $ * $ $ $ - $ $ * $ $ & $ $ $ % # @ @ @ @ @ @ @ @ @ @ % % # % % $ $ $ * $ % * $ $ $ $ $ $ $ $ $ $ $ $ $ $ $ $ $ $ $ $ $ $ $ $ $ $ $ $ $ $ $ $ * % $ % # # # @ @ @ @ @ 1 1 1 @ 1 1 1 1 @ 1 1 @ 1 1 @ 1 @ 1 1 1 @ @ @ @ 1 1 @ 1 1 @ 1 1 1 1 1 @ 1 1 @ 1 @ 1 @ @ 1 @ 1 @ @ @ 1 1 1 @       @   @     @ @   @   1 @   @   @ @ @ @ @ @ # % % $ $ $ & $ < - - ; ; , } } } } n n m n B B N B ",
"n n B N S F o.W +X<X6XwXeXtX0X{..X X XXXA.x.A.A.A.A.x.A.z.z.l.k.k.5.6.6.9.p.K.L.o.`.-X2X1X1X4XuX4XuXuXyXuX5XuXuX4XyXuXyXxXyXuXxXxXxXpXiXpXpXgXfXfXfXjXfXNXjXNXjXkXlXlXdXcX{..X].U.U.g.g.x.x.Z.A.A.Z.A.A.A.A.Z.A.A.Z.z.Z.z.z.z.z.s.s.q.q.q.8.l.8.j.j.j.j.c.j.j.j.j.j.j.8.8.8.3.8.8.3.3.3.8.1.8.8.3.3.3.8.3.3.3.8.3.3.3.8.8.3.3.8.5.5.5.5.5.5.5.2.3.1.1.1.*.%.%.@.#.-.-.w.O.O.K X.I I ^ _ _ !.^.#X$X$X#Xo.@Xo.' o.@X@Xo.#X+X$X$Xo.#X#Xo.+X( ` o.( o.o.o.( ( o.W o./ / ( / ( / / / Q Q ( W Q ! ! ! R ! ! R R ! R R R R R R R Y F F D S S H H B B B B B N N N N B B B n n n } > > > > > > > > - > - - - - $ $ - $ $ * $ < $ $ $ - $ * $ * * $ $ * $ $ * - $ $ * $ * * $ & * $ $ $ $ $ # # % # % % @ @ % @ % # # % $ $ $ $ * $ * & $ $ $ $ $ $ $ % $ $ % $ $ % $ $ $ $ % $ $ % $ $ $ % $ % $ $ $ $ $ % $ $ $ % # % @ @ @ @ 1 1 @ 1 1 @ 1 @ 1 1 @ 1 1 @ 1 @ 1 1 @ @ @ @ 1 1 @ @ 1 @ 1 @ 1 @ 1 1 1 1 @ @ 1 @ 1 @ 1 1 1 @ 1 1 1 1 @ 1 @ @ @ 1 @   @   @ @ @ @   @   @ @   @ @ @ @ @ @ % @ % # # $ $ $ $ < - - - : , > , } } } } n m n B m B B B ",
"} n B N S F T o.#X*X6XwXsXrXtX0X{..X.X XXX X X X X Xx.U.x.z.s.q.6.l.6.6.0.u.i.K.`.[.,X2XuX4XuXuXuXxXxXpXpXxXpXpXpXpXxXpXpXpXxXpXpXpXpXgXgXfXfXfXhXjXjXjXjXNXNXjXkXlXlXbXrX0X{..X.XR. X X X X XXXXXXXXXA.x.XXA.x.x.x.U.g.g.E.f.f.E.g.f.s.a.q.q.8.8.8.8.8.8.8.8.j.8.8.8.8.8.8.3.3.3.3.3.3.3.3.1.3.3.3.3.3.3.3.3.3.3.3.3.3.3.3.3.3.5.2.5.5.2.5.5.2.3.3.1.1.*.*.*.%.%.@.-.-.O.O.O.z D.I G.^ !.!.^.^.$X$X$X$X#X+X#X#X#X#X$X=X%X*X*X7X*X*X*X%X&X&X#X&X#X+X@X` ` @X` @X@X` ' @X@X@X` @X` ' ` ` ) ) ) ) ` ) ) ) ) ) ) ) ) Q [ Q E R R R { F S Z H B B N B H H H H H H B m n n n n > } > > > > : > - - - - - - < - $ $ - & $ $ - - - $ $ - * & $ * - $ * * * & $ - & $ - * * * * * & * $ * % % % # # % # # # # % # % % * $ $ & * < * $ $ $ $ $ $ $ # $ # % $ $ $ $ $ # $ % $ $ $ $ # $ # $ $ $ $ $ % $ % $ % % # # # # % @ @ @ @ @ @ @ @ @ @ @ @ @ @ @ @ @ @ @ @ @ @ @ 1 @ @ @ @ @ @ @ @ 1 @ @ @ @ @ @ @ @ @ @ @ @ @ @ @ @ @ @ @ @ @ @ @ @ @ @ @ @ @ @ @   @ @ @ @ @ @ @ @ @ @ @ @ # % # % $ $ $ $ $ - < < - - ; , > } } } } n n n B B B B B B m ",
"n n m N Z D T o.#X*X6XwXsXeXrXrX0X.X.X.X.X.X.X].].R.R.T.I.I.f.a.0.6.6.6.0.u.K.K.`.o.7X1XuXuXuXuXpXpXgXgXgXgXfXfXfXgXfXgXgXfXgXpXgXpXgXfXfXfXfXjXjXjXjXjXNXNXNXNXkXlXlXdXdXrXcX{.{..X].oX.X XoX X X.X X.XR. XR.U.R.E.E.E.E.Y.Y.E.E.P.E.h.g.a.0.6.3.8.8.3.3.8.8.8.8.8.8.3.3.3.3.3.1.3.3.3.1.3.3.3.1.3.3.3.3.3.3.3.1.3.1.3.1.1.1.1.2.2.2.2.2.2.2.2.1.1.1.*.*.*.*.%.=.-.#.-.-.w.O.O.O.K D.G.W.!./.#X$X=X&X$X&X$X$X$X&X=X*X7X2X4X6X6X4X2X:X2X<X<X=X*X=X=X=X=X@X1X&X&X1X#X#X#X=X#X=X#X#X&X#X$X#X$X#X#X#X^.^.#X^.' ^.' ' ' ] ` ) ) Q ! Y Z F S Z H N N N N N H H Z Z N N B M n n } n > > > > > ; : > - - - - - < & - - $ - < < & < < - - $ - - - - & - - - - - $ - - - - - * & - * * * * * $ * $ $ $ $ * % $ * $ $ * * * < & < & * * * $ $ $ $ $ % # $ $ $ % $ $ # $ $ $ # % $ $ $ # % $ $ # $ $ % $ $ $ % $ $ % $ % # # % @ @ @ @ % @ @ @ @ @ @ @ @ @ @ @ @ @ @ @ @ @ @ @ @ @ # @ X @ % @ @ @ @ % @ @ @ @ @ @ @ @ @ @ @ @ @ @ @ @ @ @ @ @ @ @ # @ @ @ @ @ # @ % @ % @ @ # % # # % % # $ $ & $ < & < < - - : , > } } } n n n n B n n m m B B B ",
"n n n N A T T o.o.*X6XxXsXdXrXrXcXcXcXcXvX0X{.0X{.}.}.}.Y.I.f.a.a.9.0.0.9.p.i.L.'.o.:X4X4XuXxXpXgXfXfXfXhXhXhXfXhXfXhXfXzXfXfXzXfXaXzXfXfXhXlXjXjXkXNXkXjXjXjXjXjXlXlXlXdXcXrXcX0XvX0X0X0X0X{.{..X{.{.].}.].'.'.'.|.|.|.|.|.|.|.|.|.L.P.h.h.h.9.4.3.3.3.3.3.3.3.1.3.1.3.1.3.3.1.1.1.1.1.1.1.1.1.1.1.1.1.1.1.1.1.1.1.1.1.1.1.1.1.>.>.>.2.2.2.>.2.1.1.1.1.1.*.*.%.%.%.%.-.-.-.-.O.O.D.K G.W.~./.#X&X*X&X&X$X$X$X&X=X7X2X6X6XiXiXiXsXiXiX5X6X4X4X2X2X1X4X1X1X1X<X2X1X2X1X4X1X4X1X<X2X<X<X2X7X7X7X7X7X*X<X:X<X*X*X*X*X#X#X^.' ' ` ~ o.o.F S Z H B B N N N H Z H Z H H N m B n n n n } > > > > > - - - ; - - - - - - - - - - - - < - - - - - - - < - - - - - - - - - - - - - - - - & - & * < & * * - * - * & - * - - - - < - - < < * - $ $ $ $ $ $ % $ $ # $ $ $ % $ $ $ $ $ $ $ $ $ $ $ % $ $ $ $ $ $ $ # $ $ % # % # % # # % # @ # $ # % % # % $ # % # % % # % # % % # % # % @ % # # @ $ % # # % @ % % # # % % # % % $ % $ # % @ % % # % % # % % # % # % # @ # @ % % % % $ $ $ $ < < $ < < < < - - - ; ; , } } } } n B n n n B B B B B m B ",
"} n m B S F o.o.+X*X6XiXsXsXdXdXdXcXcXcXcXrXrXrXtX9X9X[.'.L.I.f.a.0.0.4.9.p.d.K.Q.).8X6X5XxXpXgXfXhXlXlXjXkXkXlXjXkXjXjXjXlXhXfXfXhXfXhXhXhXjXjXkXkXkXkXkXkXkXkXjXjXlXhXdXdXlXcXdXdXcXrXrXrXrXrXtXtXtX9X9X[.[.[.[.).).[.).).[.)._.Q.Q.H.F.h.h.9.4.1.1.1.1.1.1.1.1.1.1.1.1.1.1.1.1.1.*.1.1.*.*.*.1.*.1.1.1.*.1.*.*.*.*.*.*.1.*.*.>.5.2.2.1.1.*.1.1.1.*.*.*.*.*.*.%.%.%.@.#.-.#.-.O.O.r.G.G.!./.#X&X*X&X&X&X&X*X*X7X2X6X5XiXaXaXzXaXaXaXiXiX5XyX6X5X6X6X5X5X5X5X5XyX6X6X5X5X5X6X5X5X5X3X6X3X6X3X6X3X6X6X6X3X2X6X2X2X2X*X#X%X#X' ] T o.Y G S N B B B H H H Z S H H H N B B M n n n n > > > > > ; : - : - ; : - - : : - - : : - - : : - - - - - : : - - - - - - - ; - - - - , - - - - - - - - - - - - - - - & - - - , - - - - - - * $ < $ $ $ $ $ $ $ $ $ $ $ $ $ $ $ $ $ $ $ $ $ $ $ $ $ $ $ $ $ $ $ $ $ $ $ $ $ % $ # % % $ $ $ $ $ % % $ $ $ % # % $ % $ # $ # $ $ # $ % $ # $ $ % # $ % $ # $ $ $ $ # $ $ $ % $ # $ $ $ # $ % $ $ # % $ $ % % $ $ % $ % # % $ % # $ $ $ < & $ - - - - - - - - - : , , > } } n n n B m m n B B m B B B m ",
"n n B N H G T T +X*X6XiXaXdXzXlXlXnXbXlXlXdXdXsXsXeX8X9X`.'.K.P.p.0.0.0.0.p.K.Y.`.`.>X5XyXpXgXfXhXhXkXkXkXNXlXNXkXkXkXlXlXjXhXlXhXhXhXhXhXlXlXjXkXkXkXkXkXjXlXjXlXlXhXlXlXlXlXlXlXbXlXbXdXdXdXrXdXsXeXqX9XqX3X:X>X8X#X;X;X#X8X#X#X).Q.Q.F.t.h.h.=.,.,.1.1.1.1.*.*.1.1.*.*.*.*.*.*.*.*.*.*.*.*.*.*.*.*.*.*.*.=.1.*.*.*.*.*.*.*.*.>.| ,.>.*.*.*.*.*.*.*.*.*.*.*.%.%.%.%.%.@.+.+.-.-.w.r.D.G.!.).#X*X*X*X*X*X*X%X7X2X3XxXsXaXzXhXlXjXjXhXzXaXaXsXsXsXiXwXiXwXsXwXwXwXyXwXqXwXwXwXwXyXiXyXwXyXiXyXiXiXiXyXiXiXiXwXyX6X3X2X2X<X%X' ' o.T F D Z H N B B H N Z H S S S Z H H B B B n n n > > > > > > > ; , , : : , ; ; : , ; ; : , ; : ; ; , : , , - : : ; : ; > , ; : , - ; ; , , , - , ; - - , - , - , - , - , , : - , , - , ; - - & * & * $ $ $ $ $ $ $ & $ * $ $ $ $ $ $ * $ $ $ $ $ $ * $ $ $ $ $ $ $ $ $ $ $ $ * $ $ $ $ $ $ $ % $ $ $ $ $ $ $ $ $ $ $ $ $ $ $ $ $ $ $ $ $ $ $ $ $ $ $ $ $ $ $ $ $ $ $ $ $ $ $ $ $ $ $ $ $ $ $ $ $ $ $ $ $ = $ $ $ $ $ $ $ $ $ $ $ $ < < < < - - - ; > : : ; , ; , , > } } } n n n B B B B B B B B m B m ",
"n n B N A F T o.#X*X6XiXpXzXjXlXkXlXNXkXkXkXhXfXaXpXwX3X8X`.`.P.d.p.p.p.a.d.P.L.`.;X8X5XxXgXfXfXhXjXkXkXNXNXNXNXNXNXkXkXkXkXjXjXhXhXhXjXhXhXjXjXjXkXkXkXkXjXjXlXjXlXlXhXlXkXkXkXkXkXjXlXlXhXhXfXsXsXiXiXwXqX5X2X6X#X3XuX>X#XyXwX#X9X#XQ.H.F.t.h.u.<.,.,.=.,.=.*.;.*.;.;.;.;.;.;.;.=.;.;.h.*.=.=.;.=.=.=.;.*.;.;.%.;.;.*.h.*.;.*.,.,.&.=.*.*.=.*.*.*.*.*.*.*.*.*.%.%.@.@.@.+.+.#.#.-.O.D.G.W./.#X%X*X*X*X1X7X7X<X2X6XiXpXzXjXlXkXkXkXkXjXhXfXaXzXsXaXsXeXeXeXeXeXtXtXtXeXeXeXtXeXeXeXeXiXwXiXiXiXpXpXsXaXsXpXpXiXiX5X3X6X<X*X#X^.T o.A D S B B m B B H Z Z S H H Z H H N B m B n n } } > > > > > , > ; > , , > , > > > : , , > , : , , ; , ; : : - , ; : : : : : , , ; ; , , , , ; , , , , - - ; , , ; , - ; , , , , ; , - - - - < - $ & $ * $ * $ $ * $ $ $ * * $ $ < $ * $ * $ & $ $ $ * $ $ $ * $ * $ $ $ $ * $ * * * $ $ $ $ $ $ * $ $ $ * $ $ * $ * $ $ $ $ * $ $ $ $ $ $ * * $ $ $ $ * $ $ $ $ $ $ $ $ $ * $ $ $ $ $ * $ $ $ * < $ $ $ $ * $ $ $ $ $ * $ $ # & < & - - ; - ; > > > > > > > > > } } n n n n n B B B N N N B B B N B ",
"} n B N S A T o.o.*X6XiXaXzXjXlXkXkXNXNXkXjXjXjXfXpXpXwX8X[.'.L.P.d.f.p.d.P.P.'.[.8XqXsXsXgXfXhXjXkXkXkXPXkXNXNXNXkXkXkXjXjXhXlXhXjXhXjXhXjXjXlXjXlXjXlXkXjXjXlXlXlXjXjXjXkXkXkXkXkXkXjXjXjXhXgXzXaXaXpXiXyXyXyXxXiX#X#X#XiXuX#XqX#X9X[.Q.|.F.t.e.p.e.e.;.e.;.h.;.h.;.;.;.;.;.h.;.e.;.;.;.h.h.;.h.;.h.;.h.;.;.h.;.;.h.h.h.;.h.;.;.:.;.;.=.=.%.%.%.%.*.%.*.%.%.%.%.%.%.@.@.@.@.+.-.O.r.D.G.Q.).#X7X<X1X<X*X1X<X2X6XxXiXaXhXlXkXPXNXnXNXkXkXlXjXdXdXdXrXrXrX0X0XrX0X0X0X0X0X0X0X0XtXtXeXeXeXsXiXsXpXsXaXaXzXzXzXsXpXwXyX6X7X*X#X_ o.T T A H H B n m B B H H S S Z Z H H H H B m B n n n } > > > > > > > > v > > v > > > > v > > b , , , , , : : : > : : : : ; , : , , , - - ; , ; , , , , ; ; , , ; ; - , , ; , , ; , ; , , - - - - $ < $ * $ & $ $ * $ $ * $ & $ * $ & $ * & $ < $ * * * * $ < * * * * $ * * $ * $ * * * * * * * * * * $ * * $ * * * * * * * * & & * * * & * * * & * * * $ & * $ * * & * * $ $ * * * & $ & * * $ $ $ & $ < & $ * < * = & < $ = & < < < < - : : > > > > > > > > > ; } } } n n n N m N B B B m N B N N N N ",
"} n B N Z F o.o.o.1X6XiXgXfXjXNXNXNXNXNXNXNXjXjXjXgXgXpXwX9X`.'.Y.P.P.d.P.Y.'.`.[.9XeXsXaXfXfXjXjXkXkXkXNXkXNXNXjXNXNXjXjXjXjXjXfXjXfXfXfXjXhXhXhXjXjXhXjXjXlXjXjXjXlXjXjXkXkXjXjXNXNXjXjXfXNXgXfXfXgXgXpXpXxXxXxXuXxXuXgX#XgX#X6X6X#X;X).|.|.F.i.t.i.t.e.i.y.i.w.e.t.t.h.h.t.w.t.t.t.e.t.w.t.t.w.h.t.h.h.h.t.e.h.w.h.w.r.h.r.h.y.e.e.:.;.=.=.%.%.%.%.%.%.%.%.%.%.%.%.@.@.+.+.#.-.w.w.D.G._./.#X%X<X<X<X<X7X2X2X3X5XsXaXhXkXNXPXPXCXBXPXPXPXkXnXlXcXcX0X0X.X.X.X.X.X.X.X.X{..X0X{.0XtXtXeXwXwXpXpXpXfXhXhXhXfXzXaXiXyX6X:X*X#X_ o.T F S H B n n n m B H H Z S Z H Z Z H H N N M n n n n v > > > v > v v v > v v v v v v b v v b > > : : = b b : : : : : : : : : , - , , , ; , ; , ; , , , ; , ; , , , , , ; , ; , , ; , , - - - < & - $ * < & * $ - $ & * * - $ * * < $ $ < $ - * < < * < * * * * * * * * * * * = < < * * * * * < < < < * * * * < < < * < < < * * * * * * - < * * * < * * - * - & $ - * * * - * * * * * * & * * < & $ * < * < < < $ * < & $ < < < - - - ; ; > > > v } } } } v } } } n n n n n B B B N H N N N N N N H N ",
"n n B N S G T T +X*X6XiXaXgXjXjXNXNXPXNXNXNXNXjXjXgXgXpXsX9X9X`.'.L.K.L.Y.Y.'.[.9XeXsXzXzXhXhXlXkXkXkXkXkXkXkXjXjXjXjXjXjXjXjXfXjXfXjXfXfXfXfXfXfXfXfXhXhXjXhXjXlXkXkXjXkXjXjXjXjXjXjXjXNXfXfXfXfXgXaXgXgXgXgXpXpXpXxXpXgXxXgXxXxXwXeX>X;X`.|.|.L.L.F.K.F.t.F.K.F.F.r.t.F.D.F.F.F.F.D.F.F.F.F.F.F.F.D.D.t.D.F.D.F.r.F.F.F.F.t.t.F.t.y.e.:.:.:.$.%.%.@.%.%.%.@.%.%.@.@.@.@.@.@.+.#.-.r.D.G.~./.-X7X<X1X<X<X<X2X2X6XiXpXzXjXkXnXPXBXCXCXCXCXCXBXnXnXbXvXvXoXoXXXoX XoXXXXXXXXXXXoX.X{.}.9XqXwXwXiXpXaXfXfXhXhXjXzXaXsXwX6X2X*X#X] o.o.F S N M n n n n B B H H H Z S Z H H H N N N B n n n n n n v v v v v v v v v v v v v v v b b b > : : b : < b : : : : : : : : , - , - , - , - - ; , , , , , , , ; ; , , , , ; - , , , ; - , - - - - < - $ < * - $ - < < & < < * & - < - * < < < < < < < < * < < < * * < * * * < < * < < < < < < < < < - < < - < < < - - < < * < < < < < < < < * - < - * - - * * - * & & * * & - & - & - * * - < - < - - < & < - & < - < < < < < & - : : > } } v } } } } } } } } } n n n n n B B B B m N N N N Z N H N ",
"s n B N Z D T o.#X*X2XiXaXfXgXNXNXNXNXNXNXNXNXjXjXjXhXfXsXeXqX9X`.`.`.`.`.`.[.tXeXsXdXzXhXhXjXjXhXkXlXjXjXjXjXjXjXjXjXfXfXjXfXfXfXfXfXfXfXfXfXgXaXaXfXfXfXzXhXhXjXkXkXlXkXjXjXjXjXjXhXfXgXfXfXjXfXfXfXfXfXgXgXaXgXgXgXgXgXgXpXpXiXiXwXwX8X9X;X[.`.|.Q.L.H.H.H.X.G.H.G.J.G.H.G.G.H.G.H.G.G.H.H.G.H.H.H.H.H.J.H.G.H.H.H.G.G.H.G.H.J.F.r.r.y.:.:.$.@.@.@.@.@.@.%.@.@.@.@.@.@.+.+.+.-.-.r.D.G.W./.#X7X<X2X<X2X2X2X4X6XiXsXzXhXlXPXBXCXCXAXAXAXAXCXnXmXbXvXoXoXXXXXXXXXA.XXA.A.XXXX X X].].[.9X8X5XwXiXaXfXhXhXjXjXhXzXpXyX3X7X#X#X` T T F H B n n n n n n B N N H N H Z S H Z H H N m M B n n n n n n v n v n v M v v v v v v v v b b b b : : : : : : < : : : : : - , , - , - , , , , , , ; , ; , ; , ; ; , , ; , , ; , , ; , , - - - - - - - * - & - - < < - & & * - - - * - < - - - < : < - < < < < < < < < < - < < < b < < b < < < < < < - < - - < < < < < - - - - < < - - < < - - - - - - - - - - - - - - - - - - - - - - - - - - - - < - - - - - - - - - - - - - - ; : > > } } } } n n n } n n n n n n n n m n B N N N N Z N S S H H Z ",
"n n B N A D T o.o.7X6XiXaXfXjXjXjXNXNXNXNXNXNXNXkXkXjXhXzXsXeX9X9X[.`.[.[.8X9XeXsXdXhXhXjXkXkXjXkXjXkXhXhXjXjXjXjXgXjXfXgXgXjXgXfXfXaXaXgXgXpXpXpXpXpXpXaXzXhXjXjXkXkXkXkXjXlXhXfXfXzXfXfXfXfXfXjXfXfXhXfXjXfXjXhXhXfXjXfXfXfXfXpXpXsXwXwX9X9X9X;X[.[.`.).`.).`.Q.W.Q.W.Q.W._._.W._._._._.~._._.W.~._._.W.Q.W.Q.W.Q.~.Q.W.Q.Q.Q.G.J.J.t.y.-.-.#.@.+.@.@.@.@.@.@.+.@.@.+.+.+.+.+.-.w.r.D.G._./.,X7X<X1X<X<X2X2X3X5XiXpXaXhXlXNXPXCXCXCXAXAXGXZXZXmXvXvXoXXXXXA.A.B.A.B.A.S.A.A.A.XXR.].[.[.;X3X6XyXgXfXzXlXlXjXhXzXsXyX6X<X%X' ) o.D D H m n n > n n n M B N H H H H Z H S Z H Z H H B n n n n n n n n n M v M v M M v M v v v M v b b : : : : : : : : - : : : : - , , , ; - ; - , ; - , ; - , , , - , , - ; , , ; , , - , - - ; - - - - - - - - - - - - - - - - - - : & - - - - < : - < : - - : * b < : < < : - : < < < < < : < : : - - - - - : - : : : - - : - - : : : : - : : : - < : - - : - - - - - - - - - - - - - - - - - - - - - & - - - - - - & - - - - - - , > > } v } n n n n n n n n n n n n n N n N B N N N H H H H Z S S H ",
"n n M B Z F o.o.( &X6XiXsXzXhXlXkXkXNXNXPXPXkXBXkXkXkXkXhXzXsXeXqX8X8X8X8X9XeXsXzXdXlXlXkXkXkXkXlXjXhXhXhXhXzXzXzXzXaXaXaXaXaXaXsXaXaXsXpXpXiXiXyXwXiXiXpXaXzXhXlXkXkXkXkXjXhXfXzXzXaXfXfXzXzXzXfXhXhXhXhXjXlXlXjXlXlXhXjXlXzXhXzXaXaXsXsXsXeXeXqX8X8X8X;X;Xo.o.~.~././.~./.~.~.).~.~.~.~.~.~.)././.)./.)././.)././././.~./././.W.Q.G.F.r.w.-.#.@.+.@.+.+.@.@.+.+.+.@.+.+.+.+.+.-.O.r.D.G.W./.-X7X<X<X4X<X4X2X5X5XiXsXaXhXlXNXPXPXAXAXAXSXSXGXmXmXvXvXOXOXA.A.B.C.B.B.m.B.B.B.z.x. XT.'.`.;X,X4XyXpXaXfXjXjXjXzXzXpX5X2X*X#X_ ~ T F A B n n > > } } n n n N H N H Z Z S S H S H H B N B m M n n n n n n n n m B M n M M n n n M v v > > > ; > > ; : > > ; > : > ; : > , ; - : , , : , ; , , , , ; , , , , , , , , , , , , , ; , , - - ; , - , - , - , - , - , - : : - : - : : - : : - - - , , - : , - , ; - ; , - ; : - ; : - > , - ; , - , ; , , - - , - - , - - - ; : , - - : ; - ; - - - - , - - - > - - > - > - - > - > - - : : : ; - : : ; ; : : ; ; - - - , , , , } } n n n n N n N n B n n n n m n n N N N N N H H H Z S S S S S ",
"n n n N S F F o.@X1X6XxXaXzXhXhXkXkXkXkXBXkXBXkXBXkXkXkXlXhXdXsXwXwX3XqXwXwXsXsXdXhXkXkXkXkXkXjXjXlXlXhXhXzXzXzXsXsXsXsXsXeXeXsXsXsXeXiXwXqX3XqX3X3X5XqXwXsXzXhXjXlXkXkXkXjXhXhXzXaXaXaXaXzXzXhXhXhXhXjXlXjXjXNXNXjXkXlXjXjXjXhXhXhXhXdXdXsXaXsXsXeXwXqX3X3XqX>X:X-X-X-X-X/.-X/./.-X-X).-X/.-X/./././././././.%X/.-X%X-X7X*X-X/.~.~.G.D.r.w.w.-.#.@.+.+.+.+.+.+.@.+.+.+.+.+.+.-.-.-.r.D.G.~./.*X7X<X2X2X2X4X6X5XiXiXpXzXzXjXkXnXPXPXAXAXAXSXGXZXMXMXoXOXA.S.C.V.V.V.V.V.m.m.N.N.x.x.I.'.`.,X:X2XuXxXgXfXhXhXhXhXaXiX5X2X*X^.` Q Y D H B n > > > > > } n n B N B N Z H Z S S Z H H H H B B m m M B m m m m m m m m m m M m m m m n s ; s ; ; ; ; ; ; ; ; ; ; ; ; > > > > > > > > ; > > , , ; ; , - , ; , ; , ; > ; , ; , , ; , > , , , ; , > , , > ; > > , ; , ; > , ; > , ; > ; ; ; ; ; ; ; ; ; > ; ; ; ; ; ; ; ; ; ; ; ; ; ; ; ; ; ; ; ; ; ; ; ; ; ; ; ; , ; ; ; ; ; : ; ; ; ; ; - ; ; ; > ; > > > - > > > > - > > - > > - > > , , ; : ; : : , - , : - : : : ; , > > } } } n n N N n n N n N n B B B N N n N n B m N N Z Z S S S S S S ",
"n n B N Z F T ( o.<X4XiXpXzXhXjXlXkXkXkXkXBXBXBXBXBXBXBXkXlXhXaXsXiXiXwXiXiXaXfXhXjXkXkXkXkXkXkXjXlXhXlXdXdXdXrXrXeXrXtXtXtXeXtXtXeXqXeX9XqX8X8X;X,X,X>XqXeXsXzXlXlXkXkXlXlXhXzXzXaXaXaXzXzXzXhXlXhXjXkXlXkXkXkXkXkXkXkXkXlXkXjXlXjXjXzXhXzXzXaXsXaXsXiXyX5X5X4X2X:X:X:X,X-X-X-X).-X)./.~./.~./.~.)././.-X%X-X7X*X<X7X<X<X<X*X*X%X~.~.G.D.r.O.-.-.-.+.#.-.#.-.-.-.-.-.#.#.-.-.-.O.w.r.D.G.W./.%X7X<X2X4X4X6X5X5XyXiXaXzXhXjXlXNXPXCXAXAXAXAXGXmXmXvXoXOXA.S.B.V.V.V.V.m.m.n.n.k.z.x.P.L.`.;X,X2X4XuXpXaXzXhXhXaXsXiX3X7X#X' ) Q o.D H m } > > - > > > n n n m B H H H S Z S S S Z H N B B B m m m m m m m m d m d d C d d d C f d s f s f s f p f p f f f s s s s n } } } } > > > > > > > , > , > > > > ; , > > ; , > > ; > > > > > > > > > > > > > > > > > > > > v > > ; ; ; ; ; ; s ; ; s p s p s s p p s s p s p s p p p s ; p ; ; ; p ; ; ; ; ; ; 2 ; ; p ; ; ; ; p ; ; ; ; ; ; ; ; ; ; ; ; ; > > > > , > > > - > > > > > > > > > : > > , > > > ; , , > ; > > > } } } n n N n N N N N n N N B m N B N B B N N N N H H H H S S S S S ",
"n n B N A D T o.@X=X6XiXaXzXhXhXjXlXkXkXkXBXBXBXnXBXBXBXPXkXhXhXaXaXpXpXpXaXfXfXjXkXkXkXPXNXNXkXkXkXlXhXdXdXrXrX0X0X0X0XtXtX}.tX[.tX[.[.[.).).).).).).;X8XqXsXrXhXlXkXkXjXjXhXhXzXaXzXzXzXfXhXlXjXlXkXNXkXkXkXkXkXkXkXkXkXBXkXkXkXkXkXkXjXhXjXhXfXaXgXaXpXpXyXuX5X6X>X,X;X).).[.Q.Q.Q.Q.Q.Q.Q.Q._.~.)././.7X*X*X*X<X2X1X<X<X1X*X%X/.~.G.D.D.r.O.-.O.O.-.-.O.-.w.-.-.O.-.-.w.-.O.O.r.D.G.W.~./.*X<X<X2X6X6X6XwXxXiXsXaXzXhXhXlXkXNXPXPXCXCXCXCXnXvXvXoXOXA.S.V.V.V.m.m.m.m.b.k.l.l.f.P.L.`.o.:X<X4XuXxXpXaXaXpXsXyX6X2X*X#X] ~ Q A S N n > > - - - > > } n n B B N H H Z S S S H Z Z H N B m m m m f C f d g d d d g l C g g g g g g f g a f f f f a f f f f f f s s s s n } } } } > > > > > , > ; > , > > > ; > > > > > > > > > v } } } } } } } } } } } } } } } v } v } } } s ; p ; p p p p p p f f f a f a f f f f p f f p f f f p p p p p p p p p p p p p p p p p ; p p 2 2 p ; 2 ; 2 ; ; ; ; > > > > > > > > > > > > > , > > > : v b > > > > > > > > > > > > } ; } } n n n N N N N N N H N N N N N N N N N N N N H Z Z S S S S D S S ",
"} n m B S F W o.o.*X6XwXaXzXhXhXlXlXkXkXkXBXBXCXBXCXBXCXBXkXkXjXhXfXgXfXfXfXaXhXjXkXkXkXNXNXkXkXkXkXlXlXcXcXrX0X{..X.X.X].].].].}.}.'.'.`.|.|.Q.H.Q.Q.Q.).9XqXsXdXlXlXlXkXlXhXzXzXzXzXzXzXjXjXkXNXkXBXkXkXkXkXkXjXjXkXkXkXkXBXkXBXkXPXkXkXjXjXjXjXhXgXgXgXgXgXxXxXxXqX;X;X[.|.|.|.H.E.F.H.H.H.H.G.Q.W.W.~.-X%X*X7X2X1X1X1X1X<X*X*X%X~.W.G.D.D.O.O.O.O.O.w.O.r.w.O.O.O.O.w.r.O.r.O.D.D.G.W././.%X7X2X4X6X5XyXiXiXpXaXaXzXhXhXjXlXjXNXjXNXNXNXkXbXvXvXoXA.S.S.B.V.V.m.m.b.j.j.k.0.a.d.K.L.Q.).7X:X4XuXuXpXpXiXiXiX5X2X7X%X' ] / R S Z B n ; - - - - - > > } n n B B H H S Z S S S Z Z Z B N B H m C f d d g g g g l j j x x j h g h h g g h 9 h h 9 g h h g g g g d d m m n M n n v } > > > > > > , > > > > > > > > > > > > v > } } } } n n n } n n n n n n n n n v M v v } } s s p p p p 6 f a a c c g h 9 g 9 g c c a a a a a a a a p a a f 5 p p a p 5 p p p p p p p p p 5 p 2 5 5 2 2 ; ; ; ; ; > > > } > > > > > > > , , v > b v b v v > > > > > > > > > > } > } } } n B N n N N N N N H N H H N H N H N N N N H H H S Z S S S S D G ",
"n n B N H F T T #X*X6XxXsXaXzXhXhXlXjXkXkXkXPXnXBXCXCXCXCXBXPXkXjXjXfXfXfXhXhXjXjXlXkXkXkXNXNXNXNXkXlXlXlXcXcX.X.X.X.XR. X XU.R.I.T.T.P.K.K.K.J.F.J.J.H.Q.[.9XeXsXlXhXjXjXjXhXfXfXzXfXfXhXlXkXkXBXPXkXBXBXkXkXjXlXlXlXjXkXkXnXBXBXBXBXBXBXPXPXjXjXjXjXjXjXfXgXgXaXwXqX9X[.|.|.E.E.E.K.E.h.F.t.F.F.H.H.Q.Q./.-X7X2X1X4X1X4X1X1X*X*X%X/.W.W.G.G.D.D.D.D.D.D.D.D.D.D.D.D.D.r.D.D.D.D.G.W.W.~./.%X*X<X2X6X6XxXxXsXsXaXaXzXfXzXhXhXhXjXjXjXjXhXhXdXcXcXoXXXOXA.B.B.V.m.b.b.j.j.j.k.6.p.i.K.H.o.).:X<X<X4X4X6X5X5X5X6X2X7X#X^.' ) E L D H B > - - $ $ * - - > > } n n B H H Z S S S S S Z Z N N m m f f d g g g h j j j j  .j  ..... . ... . .u  .u  . . .u u u j j g l d C m H N M B n v v > > > > > > > > > > > > > > > > v v } } n n n n m n m M m B n B m B M M M M M M M s s s f p f f 6 6 6 9 y y j y  .y  .h  .h y u y 9 y 9 9 9 9 9 9 6 6 9 6 6 7 6 6 6 6 5 6 6 5 6 7 p 5 7 2 5 2 2 2 2 p p ; > > > > } > > v > > v > v v v v v b v v v v v > > } } > > } > } } } } n n n N N N H H H H H Z Z H Z Z H Z H H H Z H Z H S S S S S S D S ",
"n n B N S F o.o.#X*X3XiXpXfXzXhXhXhXjXlXkXkXkXBXCXCXVXCXCXCXPXkXkXjXjXjXhXjXjXjXhXkXkXkXNXNXNXNXNXNXkXlXcXcX.XoXXXXXA.A.A.x.x.g.f.I.f.f.i.i.i.y.y.t.t.J.Q.Q.[.eXeXhXlXjXjXjXjXhXzXhXhXhXlXkXNXnXBXnXBXBXkXkXjXlXhXhXhXjXlXkXNXPXBXCXCXBXBXPXPXkXkXkXjXjXjXjXgXjXzXsXeXtX{.].E.E.h.f.h.h.h.h.h.h.t.r.F.H.Q.~.-X-X2X2X1X1X1X1X1X<X=X&X^.~.~.W.G.G.G.G.G.G.G.G.G.G.G.G.G.G.G.G.G.G.W.W.W.~.~./.%X*X7X2X6XyXxXiXpXaXzXzXzXhXzXhXzXfXfXgXgXgXgXaXsXeX0X.XXXXXS.B.m.V.m.m.j.j.j.5.2.<.<.t.K.Q.o.,X%X7X<X2X2X2X2X2X2X7X<X#X#X' ) Q R Y S H n > - $ $ $ $ & - - > } } n B B H H H S S Z Z Z H N N m m m f g g h u u u  . . . .:. .:. .:. . . . . . .:. . .:. .:. . ...j x J C G S H Z B B n v } } > } > > v > v > } v } v } } } } n n n m m M M B N N m m M B B B M M M M B N N B s s f a 6 6 6 y y w w  . . . . . . . .i i u i u w u u y y w 9 9 8 9 9 6 9 6 9 6 6 6 6 4 6 6 7 6 7 7 7 7 5 5 5 p 2 2 s s > } } } v } } } } v v v v v v v v v v v v v v v } } } } } } } } B n n n N N N H H Z S H H H S Z H Z H Z H H S S S S S S S S S S S D S ",
"} n B N Z G F o.#X*X6XiXaXaXzXhXhXhXhXlXkXkXBXBXCXCXVXVXVXCXCXPXNXNXkXjXjXjXlXlXjXkXjXkXjXNXjXNXkXNXlXbXbXvXoXoXXXXXA.A.Z.Z.z.z.z.a.a.a.u.u.;.;.y.w.r.t.F.Q.[.9XeXdXhXhXjXjXhXhXhXhXhXjXkXkXkXBXCXCXCXPXBXlXlXhXhXzXzXlXjXkXBXBXBXVXCXCXCXBXBXBXNXkXkXjXjXNXjXjXlXdXrX0X{.R.E.x.s.q.q.0.4.9.;.e.e.h.t.D.|.Q.).:X7X4X2X4X4X1X<X<X*X%X%X%X/.~.~.~.W.W.W.W.W.W.W.W.W.W.W.W.W.W.W.W.W.~.!./.$X/.*X*X7X6X6X5XiXsXaXfXzXzXzXzXzXfXzXaXaXpXgXgXxXiXwX9X9X{. Xx.x.B.m.m.n.j.j.j.2.2.,.:.u...F.X.`.o.%X*X<X<X<X<X<X7X*X#X#X^.^.] ) ! R Y S B > - $ $ $ $ # $ * - ; > } n n B H H S S S S Z H N B m m d d g g 9 u u u  .|  .:.:.:.:.,.<.,.:.,.,.,.<.:.&.&.,.&.$.<.:.:. ...z x J { G S H A Z M B n n } } } } } } } n } } } } } } n n n n B M N Z N Z H Z Z H H Z Z Z Z Z A Z Z N H m d d a a 6 6 0 0 w t  .|  .$.=.| ;.| =.#.#.#. .|  .t  .w  .w u w w 8 6 8 8 8 8 8 8 8 8 9 9 4 9 4 4 6 7 7 7 7 5 5 5 s s s n n n n v n v v n n v n v M v M v M n n n n n n n v n } n n } n n n n N N N H Z H S Z S H S S S S S S S S S Z H S S S S S S S G S S S ",
"s n B N A F T ( o.<X6XwXsXzXzXzXhXhXhXhXlXkXBXBXnXVXVXVXVXCXCXBXBXNXkXkXlXjXjXkXjXlXjXlXjXjXjXNXNXNXlXnXcXvXoXXXA.A.N.N.N.v.M.k.l.0.0.0.<.,.=.:.:.-.w.y.F.H.'.9XeXdXhXjXlXjXhXhXhXhXlXjXkXBXBXCXCXVXCXCXBXkXlXhXzXzXzXhXjXBXBXnXCXVXVXCXCXCXBXkXPXNXkXNXNXjXNXkXlXdXvX0X.XR.x.x.z.l.q.8.3.4.9.;.;.h.h.F.H.|.).>X>X4X4X2X2X<X7X7X*X%X%X%X%X/././././././.~./././.~././.~.~.~./.~./.%X/.%X%X%X*X7X7X2X5XyXiXpXaXzXzXzXzXzXaXzXaXpXpXpXxXuXuX5X3X8X[.T. Xx.Z.B.m.m.b.c.7.5.1.*.=.:. .t.J.G.~./.%X*X<X=X=X<X*X#X#X^.' ] ) ) [ ! Y D H B > - $ # @ % $ $ $ - : > > n n m N Z S S S Z Z N Z N B m f d g g y  . .| |  .$.$.,.,.,.,.,.,.,.,.,.,.,.,.2.,.,.,.,.,.,.:.:.y...K U L { F D A A Z N N N m n n m n m N n m N n n B B n B N B N N H H Z S Z Z Z H H H H S H Z Z S V V V C d a a 9 9 0 q t | +.@.%.=.=.*.=.1.=.*.=.%.$.#.#.#.#.+.| | |  .| | 8 | 0 0 0 w 0 0 0 0 0 0 8 8 8 8 8 4 4 7 7 5 a p s s s n B B M M M M B B B B n m B B m B m m B m m m B n B n B n B n n N B N N N Z S S S S S S S S S S S S S S H S S S S S S S S S S S G S S ",
"n n B N Z D T o.o.<X6XiXpXaXzXhXhXhXhXlXlXkXkXBXCXCXVXVXVXVXCXCXBXBXnXkXkXkXlXhXhXhXhXhXhXjXjXjXjXlXlXcXcX.XoXXXA.B.B.m.n.n.c.j.j.6.2.,.>.&.$.$.@.#.-.w.r.F.Q.9XeXdXhXhXjXjXjXjXhXhXhXjXkXBXBXCXCXVXCXBXBXNXjXhXzXzXzXhXjXkXPXBXCXVXVXCXVXnXBXPXkXNXkXNXNXNXNXkXnXdXcX0X.XXX Xx.l.l.k.8.8.4.1.9.;.h.h.F.H.Q.).;X3X4X4X4X4X2X<X7X7X7X7X*X7X*X7X7X%X7X%X-X%X7X%X%X7X%X7X7X7X7X7X7X*X%X7X7X*X*X*X2X2X6X5XwXiXaXaXaXzXzXzXzXaXaXaXpXiXxXxXuXyX6X>X;X[.'.R. Xx.N.N.m.c.j.7.3.>.%.:.-.y.X.D.J._./.%X*X<X=X#X#X#X^.' ' ] ) ) / E R Y G H n > - $ % @ @ % # $ & - > > } n B B H Z H S S Z A M N N B d d g h 9  .| | | | &.&.,.>.2.2.2.2.5.2.2.2.2.2.2.2.2.2.2.2.,.,.:.y...K U P L Y Y Y D S S V Z S Z V Z Z Z Z Z Z Z V Z H H H H H H H S S Z V S S S S S S S V S S D D S V V C d d g h y u w t r +.@.%.*.1.3.3.3.1.1.1.1.*.*.%.*.%.@.@.| | | | | | | 0 w w w q w w w q q q w w q 0 8 8 4 6 9 6 6 f f d V N H Z Z Z Z Z Z H H N H m C m m V m m m m N N H H H H H N H H N H H H S S S S S S S D S S S S S H S S S S S S S S S S S S S S S D S S ",
"n n B N S F W o.#X*X6XxXpXaXzXzXhXhXhXhXkXkXPXBXCXVXVXVXVXVXCXCXBXPXkXkXlXjXhXhXhXzXzXzXzXfXjXjXjXjXdXdX0XoXoXXXA.B.B.n.n.c.j.j.7.5.3.>.>.$.$.@.+.+.#.-.y.F.Q.[.9XsXlXhXjXjXjXhXhXhXlXkXkXBXBXCXVXVXVXCXBXkXkXlXhXhXzXlXlXkXPXBXCXCXCXCXBXBXBXnXPXkXNXNXNXNXNXkXlXbXcXcXoXoX XA.Z.M.l.q.q.0.q.h.h.h.h.E.|.|.;XqX5X5XuX6X4X4X2X2X2X7X7X7X2X2X2X2X2X2X2X2X2X<X2X<X:X<X2X2X2X2X2X6X6X2X2X2X2X7X2X2X2X6X5XwXiXsXpXaXaXfXaXaXaXaXaXsXpXiXxXuX6X5X6X8X[.}.R. XA.A.B.N.M.q.6.9.;.:.-.w...X.J.W.o./.%X=X*X#X#X#X' ' ] ) ) ) ~ ! ! Y F S N n > * $ % @ @ @ % $ * - > > } n B B H H S H Z Z Z Z M m m m g g u  .| | | >.>.&.>.>.2.2.2.2.2.5.2.5.2.2.2.2.5.5.5.2.2.,.,.<.y.r...U U L L R T Y Y Y Y Y F Y F L Y F { F Y Y F F F F D D D D G S S G S S S S D D S S S V G G C C G J C l l h u u t r | +.@.%.1.1.3.3.8.8.3.3.3.4.1.1.1.*.*.%.%.| | | | |  .| | w u w u w w w | | | e | q q w u 9 9 9 g g d C C C S S D Y D T A F A A V S V C C C d d C J C G S G D D D D D S S S S D G D G G D D D D D G S S S H S S S S H S S S S S S S S S S S S S S ",
"n n B N Z F T T +X<X6XiXaXfXzXhXhXhXjXjXkXNXPXBXCXCXVXVXVXVXCXBXBXPXkXkXkXlXhXhXzXfXaXaXaXfXgXfXfXaXzXrXrX.X XXXA.B.N.n.c.c.j.7.5.5.1.>.&.$.@.| | r  . .r.J.Q.[.eXdXhXlXkXkXjXhXhXhXhXjXkXBXBXCXCXVXVXCXBXBXkXlXjXlXjXjXjXkXBXBXBXCXBXBXBXBXPXkXkXkXjXNXjXNXNXkXlXlXcXcXoX.XXXXXXXA.Z.x.s.s.s.a.h.E.E.|.|.9XqXqXwXiXxXxXyX4X6X2X2X4X6X6X6X6X6X5X6XuX6X6X6X4X2X6X2X6X6X6X5XyXyXxXyXyX3X6X3X6X2X6X6X3X6X5XwXiXiXsXsXpXaXsXpXsXsXpXpXiXpXxXxXiX5X8X9X}.]..X XXXx.A.Z.q.9.p.;.y.w.r...J.X._.~.%X%X*X*X#X#X' ' ] ) ~ ) E [ R R Y F S B } ; * # @ @ 1 @ # $ - - > > } n n B H H Z Z Z Z Z N M N d d d h u  . .,.>.| >.>.>.>.2.2.2.2.2.2.2.2.2.2.2.2.2.2.5.2.2.,.<.<. ...X.I E E ! W W ! / [ ~ / / ) Q ) ) Q / [ Q [ ! E ! R R R Y { Y F F D D S S S S S S D D V G G C C J l l x j k i  . .#.@.%.*.*.3.3.5.8.j.8.8.8.8.5.5.3.1.1.*.*.*.2.| ,.|  .|  . .u  .u  .u  .|  .| | | |  . . .u  .g ..g l J J { Y X.T T T o.T o.o.o.o.F X.S X...J x x U J { P P L R R R L Y Y Y Y F F F F Y F Y Y { G F D S S S S H Z H S Z Z S Z S S S S S S S S D S S ",
"} n M B S F o.o.o.*X6XiXaXaXzXhXhXlXlXkXkXkXBXCXCXCXVXVXVXCXCXBXnXPXkXkXjXhXzXzXaXpXsXsXpXpXpXpXpXpXsXtXtX].R.x.z.N.c.n.c.c.7.7.5.1.>.&.%.@.+.r r e t  .r.J.Q.;XeXdXjXlXkXjXjXjXhXhXhXjXkXkXnXBXVXVXVXCXCXnXPXkXNXjXkXkXkXBXkXBXBXBXBXPXPXkXkXkXkXkXlXjXkXkXkXkXlXlXbXcXvXoXoXoXXXXXXXx. XE.E.E.E.E.|.'.[.9XeXsXiXiXsXpXxX5X5X5X5X5X5X5XxXxXxXxXiXxXxXyX5XuX5X6XuX5XyXxXiXpXpXpXpXpXpXxXyXyX6X6X5X6X5X5X5X5XxXwXxXiXiXsXsXpXpXsXaXaXpXaXpXaXsXeXtX0X{..XXX XXXXXg.f.d.d.t.r.r.D.D.G.W.~./.%X*X*X%X#X#X' ) ) ) / ! E ! R Y { G Z B } - & $ @ 1 @ @ % $ & - : > > n n B B Z Z Z N M M M M H m d f .. . .| | | 5.2.>.>.>.>.>.2.>.2.2.2.2.>.2.2.>.2.2.2.2.2.,.,.:.y...K U U E ! / ( ` ' +X+X$X$X$X$X$X$X$X$X$X$Xo.+X' ] ) ) ) Q ! R Y F G D S S S S S S S V G J C J l l x k k  . . .@.@.$.&.1.1.3.3.7.7.j.7.j.j.8.j.8.8.8.3.3.1.1.*.&.$.$.&. .:. . ...j .... . . .$. .$.$.$.:. . .....X...X.X.G X.o.o.o.W ( o.@X( @X' +Xo.o.o.X.X...O.z z z K I I ^ ~ ~ ) ) ) / Q ! ! ! R ! R R R R L Y Y G D S S Z H Z H N Z H S Z S S S S S S S S S S G S ",
"n n B N Z F F o.#X*X6XiXsXzXhXjXjXjXkXkXBXkXBXBXCXCXVXCXCXCXBXBXNXkXjXhXhXzXaXsXsXiXiXyXyXyXuXyXyXyX5X8X[.'.R.x.z.M.k.j.j.7.5.5.2.*.*.%.@.+.r e e q u k ..G.Q.[.eXdXlXkXNXjXjXjXhXhXhXhXkXNXPXBXCXCXVXVXCXCXCXBXBXnXBXkXBXkXBXkXkXkXkXkXkXkXkXjXlXjXjXjXjXjXjXjXlXlXdXcXcXvXoXoXoXoXoXoX.XXXR..X].{.{.0X0XrXeXdXzXzXaXpXiXiXxXiX5X5XxXxXiXpXpXpXpXaXpXiXxXxXxXyXxXxXpXpXgXfXfXhXhXfXaXpXiXwXxXyX5X6X5X6X5X6X6X6X5X5XwXxXxXsXpXaXaXaXfXfXzXzXzXzXrXrXcX.X{.oXR.R.R.T.P.F.F.D.J.G.W.G.~.~.%X%X*X%X#X#X^.' ) ) Q E ! R R R Y F S N B > : $ # 1 @ @ @ # $ * - > > n n n B m N N N Z Z A M N m m d .... . . .2.2.>.2.>.2.>.>.&.>.&.&.&.&.&.&.>.&.&.>.>.>.&.&.,.$.:.....K U E E / ) +X+X=X<X2X6X5X5X5X5X6X5X6X2X2X2X<X%X=X$X$X] ) ) E R Y G D S S S D D S S G G C J l x k k O. .-.:.:.=.,.>.>.3.3.8.8.j.j.j.c.j.j.j.j.8.8.8.8.5.3.3.1.>.&.&.| :. .........x ....y.:.:.,.,.,.<.:.u.y.y.K.X.X.o.o.o.o.o.o.( @X@X&X=X1X1X<X:X,Xo.o.X.X...y.y.r.r.D.G.W.!./.#X#X#X#X#X] ] ) ) ~ / [ Q ! ! R R Y F G S S H N N N N N N H H H Z H S S S S S S D S S ",
"} n B N Z F T o.#X*X6XwXpXzXhXhXlXkXkXkXkXBXBXBXCXCXnXCXBXBXBXPXkXkXhXhXzXaXaXpXiXyX5X5X5X4X4X4X4X2X>X,X`.'.I.f.s.q.k.j.7.5.5.5.1.*.%.@.+.r e e q 0 w k ..D.Q.9XeXdXkXNXNXkXjXhXhXzXhXhXlXjXBXBXCXCXCXVXCXVXCXCXBXBXBXBXBXBXlXkXkXlXjXlXhXhXhXhXhXzXhXzXhXhXhXhXlXdXdXbXcXbXvXvXvXvXvXoX.XvXoX0X0X0X0XrXrXdXdXhXhXhXzXzXaXpXiXiXiXiXiXsXaXfXaXfXfXfXfXpXpXiXiXiXiXpXpXfXhXjXjXkXjXjXhXfXaXpXiXwX5X5X3X6X:X2X2X2X2X6X6X5XxXiXpXaXaXfXhXhXjXlXlXlXlXcXcXcX0X.X{.].].'.'.Q.Q.Q.G.W.W.~.~.%X%X%X%X=X#X#X' ] ) Q Q Q R R R Y F F S N n } - $ % @ @ @ @ # $ - - > > > n n n B N N N Z Z M A M m m d g .. . .6.,.>.>.2.2.&.>.&.&.&.$.&.&.$.&.&.&.&.&.&.&.&.&.&.&.$.:. .z z U E [ / ` #X=X6XyXiXsXaXzXzXaXzXaXsXsXsXiXxXwX6X4X7X=X$X] ) E R F D D S A S S S S G C C l l j k  .-.:.:.,.,.,.2.5.5.3.8.8.j.7.j.c.c.c.c.c.j.c.j.j.8.8.8.3.1.>.&.,.$.:. ...D.X.X.X.....y.y.<.,.2.6.<.u.u.K.J.X.o.o.o.o.o.%X%X%X*X1X<X<XuXuXyXpXyXwX8X`.Y.U.d.h.e.h.h.K.H.Q.).>X#X#X#X#X5X#X#X' ' _ ] ) ~ ~ / Q ! L Y F S S N N N N N N N N H N H H Z H S S S S S S S ",
"n n B N A F T o.o.*X6XiXaXaXhXlXlXkXkXkXPXnXBXBXBXBXCXBXBXBXlXjXlXhXhXaXaXsXiXyX5X6X4X2X2X2X<X<X1X7X*X).).L.K.f.a.0.6.7.7.5.2.>.*.%.%.+.| r q 0 0 0 0 y z X._.8XeXdXjXkXkXkXjXhXzXzXzXzXhXlXlXkXBXBXCXnXCXVXCXVXCXCXCXBXkXkXjXlXhXhXzXzXzXzXzXzXzXhXaXhXaXaXhXaXzXhXdXdXbXbXbXbXmXvXbXbXcXcXcXcXrXrXrXdXdXdXdXhXjXhXhXfXaXaXaXiXpXsXpXaXfXfXhXfXhXhXfXfXaXpXpXiXpXaXfXhXhXkXNXNXNXjXjXhXfXaXpXwXwX6X6X2X<X7X*X*X7X2X2X6XwXiXsXpXfXhXjXkXkXNXNXnXkXbXdXcXcXrX0XtX[.[.[.)._.)._.~.(.(./.%X%X*X*X$X#X#X' ) ) Q E R R R Y F D G S N n > - * $ @ 1 @ @ $ $ * - > > } } n B B B B N M M M M M N m C g g  . .| ,.>.2.>.>.>.&.$.$.$.$.$.$.$.$.$.$.$.$.$.$.$.$.$.$. . ...z x U P E ) +X=X6XiXaXhXkXNXPXnXPXPXNXNXkXjXhXzXaXpXiX5X2X%X$X) ) R Y G S Z Z S A S S G J J l j k w.-.:.=.&.,.2.2.2.5.j.j.j.j.j.c.c.c.j.j.c.c.c.c.j.j.8.8.3.3.3.2.&.&.:.:.y.....X.X.X.X.J.y.u.<.0.6.6.0.a.f.I.L.`.;X9X:X:X1X:X2X2X2X6XuXxXpXgXfXhXzXrX0X}.T.I.g.a.a.p.h.E.Y.`.9X9XwXxXiX#X3X3X#X#X#X#X#X' ' ] ] / [ Q R Y D S H N B N B B N N N N N H H H S S S S S S G ",
"n n m B S F o.o.#X<X6XiXpXzXhXjXlXlXkXkXPXPXPXnXPXPXNXPXlXkXkXhXhXzXaXsXiXiXyX5X6X6X7X7X<X=X=X&X&X&X@Xo.o.X.I.d.a.0.5.5.5.2.>.>.$.$.@.| r q q 0 8 0 8 y ..X._.;XeXdXlXkXNXjXhXfXzXaXaXzXzXhXlXjXkXBXBXBXBXCXVXVXCXCXCXBXkXkXkXhXzXaXaXaXsXaXsXaXaXsXsXsXaXaXsXaXaXaXzXdXlXlXnXbXnXnXmXnXbXlXbXlXdXdXdXlXlXlXlXkXlXlXhXzXzXaXpXpXsXpXsXaXzXhXhXkXhXlXhXzXaXaXpXpXaXaXzXhXkXkXBXCXPXnXkXkXhXaXpXsXyX3X6X#X2X#X:X#X#X:X2X3X5XwXiXsXzXhXjXkXNXBXBXBXnXlXlXdXrXrXeXeXqX8X;X;X).%X%X/.%X-X%X%X%X*X*X%X#X^.] ) / ! R R L Y Y F F S S N n > - & # @ @ @ @ # $ * - - > > > } n n B B B B B M M M B d C ..k i -.;.1.1.1.1.*.*.%.@.@.@.@.+.@.+.@.+.@.@.@.@.@.+.@.@.+.-.i k k J P P [ ) #X<XuXaXjXBXCXVXGXGXGXGXGXCXCXBXBXkXkXhXzXsX5X#X#X#X/ E Y D S S S A S S S G J l l k O.-.-.=.*.1.4.3.3.8.8.j.j.j.j.j.c.v.v.c.c.c.c.j.j.j.j.7.7.7.5.3.1.1.=.:.-.r.r.X.I W.^ G.J.F.h.9.0.8.q.s.s.E.E.'.;X8XqX5XyXuX5X5X5XwXwXpXaXzXjXkXlXlXcX0XoXR. Xs.q.q.s.g.E.E.{.tXeXiXiXxXxXuX6X2X2X<X%X=X$X$X+X+X] ) Q ! R F D Z N N N B B B N m B N H H H S S S S S S S ",
"} n B N S F Y T o.*X6XxXaXzXhXjXjXlXlXkXkXkXlXNXkXlXkXlXlXhXhXzXaXaXiXiXyX5X6X2X:X7X*X*X&X&X&X#X#X#X` o.o.K...i.u.,.4.2.2.>.>.$.$.| | | e q 0 8 8 8 y h X.X._.;XeXzXhXjXjXhXfXaXaXpXpXsXaXaXzXhXhXkXkXkXnXBXBXCXBXBXnXPXkXkXzXaXaXaXiXpXpXiXiXpXiXpXpXpXiXiXiXpXiXsXaXzXhXlXkXnXnXBXnXnXkXnXlXlXlXlXlXlXlXhXkXhXlXhXhXzXzXaXpXsXpXsXaXzXzXhXhXjXkXhXhXhXzXaXaXsXaXzXhXkXPXPXBXBXCXBXkXjXhXzXaXiXyX4X3X3X#X#X#X#X#X#X#X2X2X5XxXiXaXzXlXjXkXBXPXnXPXkXlXhXzXsXwXqX3X3X:X:X:X#X%X%X%X#X#X*X*X%X#X#X' ' ) ~ E ! R R Y Y F G D S Z B n } - * $ @ @ % % $ $ - - ; > > > n n n n B B B M M M B N m d d x -.:.;.=.4.1.1.*.*.%.@.+.+.+.+.+.+.@.+.+.+.+.+.+.+.+.+.+.t i k x l J E E ] #X4XxXhXkXVXGXSXFXFXDXSXSXSXGXGXVXBXBXkXhXzXpX5XqX#X] E Y F S S H A A H H G C J x z O.-.;.=.;.3.4.8.8.8.k.k.k.k.v.j.k.j.k.v.k.k.k.v.k.j.k.k.8.8.3.4.1.=.;.;.e.r.D.G.^ o.W.W.H.F.d.p.s.l.l.z.x.E.].}.9XeXwXiXxXxXxXiXiXiXsXzXzXjXkXkXnXmXbXvXoXXXx.Z.M.l.l.s.E.E.}.tXeXsXpXpXxXxXyX5X6X2X2X<X7X*X%X$X$X' ) ~ ! L F S S N N B N n B N n B B N H Z H S S S S S ",
"n n n N Z F Y o.#X<X6XiXsXzXzXhXhXjXhXlXhXjXlXhXlXhXhXhXzXzXaXpXsXyXyX5X5X2X2X7X*X*X%X$X#X@X@X@X@X( o.o.X.L.K.i.<.<.,.>.>.>.$.$.@.| | e q 0 0 4 9 9 9 h x X.o.8XqXsXzXhXhXzXaXsXiXiX5XiXiXsXaXaXzXzXhXhXkXkXNXkXkXPXNXlXhXzXaXsXpXiXwXiX5XwXwX5XwXyXiX5X6X5X5XyXxXxXiXsXaXhXlXjXjXNXkXNXkXlXjXhXhXhXhXhXhXhXhXhXfXzXzXaXsXpXsXiXiXpXsXsXzXzXhXjXhXhXhXhXzXzXaXaXzXzXhXhXkXPXBXBXBXkXkXhXzXaXpXwX5XqX#X#X#X^./.^.+X^.#X#X#X5X5XxXiXsXzXhXjXlXkXkXlXjXhXaXpXiXxX5X5X4X2X2X*X:X#X7X#X%X%X#X%X#X#X^.' ] ) / ! R R Y F F F F G S Z N n } - * $ % # % % # $ * - - : > > } } n n n n M M M M M N m m ..x O.w.;.;.=.,.*.=.=.%.@.+.+.+.+.+.+.+.+.+.+.+.+.+.+.+.+.+.t i k l l P P Q ) #X4XiXhXBXVXSXFXDXDXDXDXFXSXSXGXGXCXBXPXlXhXaXwX#X#X' / R F D S H H S H S G C J l O.O.e.;.;.9.4.9.q.q.q.q.q.q.8.l.q.q.q.l.q.l.q.q.l.l.l.q.q.0.0.6.9.,.;.;.e.y.D.G.I W.!.!.W.Q.H.P.f.s.z.z.x. XR.].0XtXsXsXaXpXpXpXpXiXpXsXsXdXdXnXbXmXbXvXoXoXXXA.Z.M.l.l.g.E.E.}.0XeXsXpXpXpXxXxX5X5X5X6X2X2X2X<X:X*X$X+X' ) ! R L G S H N n B n n n n n B N N H S S S S G ",
"n n B N Z A T o.o.*X6XiXpXzXzXzXzXhXhXhXhXhXzXzXfXaXaXaXsXiXiXxX5X3X6X2X2X7X*X*X%X$X#X#Xo.@X@X` o.o.o.o.X.X.....;.<.>.>.&.&.$.@.| | r q w 0 0 0 9 c h x U X.o.8XqXsXaXaXaXpXiXxXxX5X5X5X5X5X5XiXiXpXaXaXaXzXzXhXhXhXhXzXaXaXpXiX5X5X5X6X5X6X5X6X6X6X2X4X2X3X2X2X6X3X5XyXiXpXfXhXjXfXjXfXfXfXfXpXgXaXaXsXaXaXaXfXaXaXpXpXiXwXwXyXxXiXiXpXaXzXzXhXhXhXhXzXzXzXaXaXzXzXhXhXkXlXkXkXkXkXhXhXaXsXiX5X6X#X2X#X#X_ ' ' ' ^./.#X#X3X2X3X5XyXsXaXzXzXfXhXzXaXpXiXxXyXxX#X1X4X#X<X#X#X#X#X#X%X#X#X#X#X' ' _ ` ~ ! ! R L F F F G D G S Z N n } > - $ $ # # $ % $ $ * & - - > > > } n n n M n M v M m m m d l k O.w.e.;.;.;.=.#.@.#.+.+.+.r +.+.+.+.+.+.+.r +.r r r t i i j h l J P [ _ #X4XxXhXPXVXSXFXDXDXDXDXDXSXSXGXGXVXCXBXkXjXaXsX5X>X!./ R F F S D A S S S G C J K z O.w.y.e.h.h.9.h.9.a.s.s.s.s.s.s.s.0.s.0.0.s.0.s.q.a.a.0.p.9.p.;.;.e.e.r.D.D.X.W.^ _ ^.!._.H.|.E.E.U.x. X X].{.0XeXsXsXgXgXpXpXpXpXiXsXsXdXdXcXbXvXvXvXoXXXXXA.l.l.l.q.s.U.E.'.9XqXwXpXpXxXpXxXxX5XiX5XwXwXxX5X6X3X2X*X$X' ] Q ! Y F D H H n } } } } n n B N H S S S D D ",
"} n B N D F o.o.o.1X5XiXsXaXzXzXfXaXaXaXaXpXpXsXsXiXxXwX5X5X3X2X1X<X1X*X=X$X&X@Xo.@X@X` ` ` ` ` o.W o.o.o.X.....;.;.&.&.%.@.@.+.r e e w 0 8 y c h g l J U o.o.-X>X5XwXiXiXxXxX6X6X2X2X2X6X2X6X6X5X5X5XyXiXiXpXpXaXaXaXpXiXwXwX5X6X4X2X4X2X2X7X2X2X<X7X7X7X<X*X1X7X3X2X3X6XyXxXpXpXpXpXpXxXxXxXxXyXyXxXxXxXyXiXxXwXyXxXwXyX5X5X3XsXyXwXxXpXpXaXzXzXzXzXzXaXzXzXzXfXzXzXhXhXlXhXlXjXhXzXaXpXxXyX5X3X3X#X^.^.' ) ) ] ] ] +X#X#X#X:X#XwXwXiXiXsXiXiXiXiXxXxX4XuX#X4X#X#X#X#X#X#X+X#X#X#X#X+X' ' ' ` ) ) ~ R R R F F F G D D G S Z N n n > - * $ $ $ $ % $ $ $ & * - - > > > > n n v n n n M B m C d l x O.O.w.w.-.-.-.#.#.+.+.+.+.+.+.+.+.r +.+.r +.r +.r r t w y j l l J P E ) #X4XxXfXkXCXGXSXFXSXSXSXSXGXGXGXGXCXBXBXkXlXfXiX#X#X+X/ E Y F S S S D S S G G J U K D.D.t.t.h.h.d.h.h.d.f.f.f.d.f.h.f.p.d.p.d.p.f.d.d.d.d.d.d.u.t.e.t.y.y.D.D.G.G.^ _ ' +X/.W.Q.|.Y.E.R.R.R.].{.0XrXeXzXaXgXaXpXpXxXxXwXeXeXrXrX0XvXvXoXoXXXXXA.Z.l.l.q.q.s.E.E.|.9X>XwX5X5XxXxXxXiXiXiXiXiXpXsXsXiXwXxX6X2X*X$X_ ) Q R F S N B } } } > } } B B N S S S G D ",
"n n B N Z F T W $X<X6XiXpXaXaXaXaXpXsXiXiXiXwX5X6X6X2X2X<X<X7X*X&X&X=X$X#X@X@X( @Xo.o.@X( o.` ( T o.Y { X.X.....:.:.=.%.@.@.+.| e e 0 0 y y h c g l J U I o.(.*X7X6X5X5X6X6X2X7X7X*X*X*X*X*X*X*X<X1X7X2X2X3X6X4X5X5X5X6X5X6X2X2X7X2X7X<X7X7X*X7X%X=X*X=X&X$X$X&X#X#X#X#X#X4X#X4XuXyX4X4X4X4X4X4X6X#X6X3X2X6X3X3X6X6X6XqX2X2X2X2X#X6X5X5XyXwXiXpXpXaXaXsXaXaXaXaXaXzXzXzXhXaXzXzXaXsXiXiXwX3X6X3X#X#X#X' ' ) ) ) ) ) ) ] /.#X#X#X#X#X#X:X#X4X3X5X2X5X#X#X#X#X#X#X#X#X#X#X' ` ' ` ' ' ] ] ] ] ` ) ~ Q ! R R F F F F F D G S S S N B n > > - & $ $ $ # # $ $ $ $ * * - > > > } n n v n n M B m C C J l J O.O.r.w.O.-.-.-.+.+.+.+.+.+.+.+.+.+.+.+.r r r r e t t i j h J C L E ) #X<XyXfXkXBXVXGXGXAXGXGXVXGXVXCXCXCXBXBXkXhXfXiXwX3X^.) Q Y F D D S D S G G G P U I D.D.D.F.F.F.F.E.K.K.K.h.K.h.P.K.F.F.P.F.K.K.i.K.i.K.i.K.F.F.t.F.F.D.D.D.G.G.o._ _ ^.+X^./.).`.[.}.].].{.{.0XtXeXsXsXsXpXpXxXxXpX5X5XqXqXtX{..XoXoXXXXXXXA.Z.l.q.8.8.9.9.h.E.|.).-X2X6X6XuXyX5XxXiXpXaXaXzXzXhXhXfXaXsXxX6X2X$X+X] [ R D H B } ; - , , } } B N S S S S S ",
"} n B N A D T o.#X<X6XiXsXpXpXpXsXiXwXxX5X5X6X2X2X7X*X*X&X#X$X$X@X` @X` o.` o.o.o.o.o.( o.T ( ( o.T Y o.X.X.....w.:.@.@.@.+.r e e 0 0 4 c y h g l J J I ^ o.o.=X%X:X2X7X7X7X*X*X$X$X#X+X+X@Xo.&X@X@X#X&X&X%X&X1X7X7X2X7X:X7X7X*X7X*X*X%X=X&X&X&X#X$X#X@Xo.+X` ` ^.' +X+X#X#X#X#X#X#X#X#X#X#X#X#X#X#X#X#X#X#X#X:X#X:X:X#X:X:X#X2XqX3X6XwX3X3XpXsXiXiXiXpXpXaXaXsXaXaXaXaXsXpXpXsXsXxXwXwX6X#X3X#X#X#X+X] ) ) / Q Q / ) ~ _ _ _ +X#X^.#X#X#X#X#X#X#X#X#X#X+X#X#X#X` ` ` ` ` ) ) ) ) ) ) ) ) ) / ~ Q W R R F F F G D D D S S S S H N n } > - - * $ $ $ $ # # $ $ $ * < - > > > } v n n n M N m V C G J J K K z O.O.O. .#.+.#.+.+.+.+.+.+.+.+.+.+.r r r r r t w y h l l J L ! ) +X*X6XsXhXkXBXCXCXCXVXCXCXBXBXBXBXBXBXkXkXhXzXpX5X#X#X) Q Y F F G S S S S D { P P I I G.G.Q.H.H.H.H.H.J.H.J.H.H.F.H.F.H.H.J.H.F.H.J.J.H.H.J.J.J.J.D.D.G.G.G.^ o.o._ ' ' +X^.#X/.).).[.[.{.0X0XtXrXeXsXsXaXpXxXxXuXpX6X3X8X9X}.{.]. XXXXXx.A.Z.l.l.8.8.4.9.h.h.F.G.Q./.%X<X<X2X4X5XxXiXsXaXhXjXkXkXkXkXkXlXaXiX5X2X%X#X] Q { S B } - - - - ; } n H H S S D G ",
"n n B Z Z D T o.o.7X6XxXiXsXsXiXxX5X6X2X2X7X7X*X=X$X#X+X+X@Xo.o.( o.o.W o.o.W o.o.T T T T o.( T ( W o.X.X.X.....-.#.#.@.+.| e q 0 0 0 0 6 c g l J P E [ ~ ~ o.#X$X$X$X*X=X$X$X+X#Xo.@X` o.@Xo.o.o.` o.o.@Xo.@X` $X$X$X$X$X&X$X&X$X&X$X&Xo.#X+Xo.@Xo.@X( o.o.o.W ) ) ) ) ] _ #X#X' ' #X' ] #X] ] +X' ' ' ' ^.#X#X^.#X#X#X#X#X#X#X#X#X#X#X6X#X#XqX3X5XyXiXsXiXpXpXsXpXiXsXiXxX5X6X5XxX#X5X#X:X#X#X#X#X' ) ) ~ Q Q E Q Q Q / ) / ) ^.] ] ] ^.^.^.' ^.+X] ) ) ) / ` ) / / / Q / / / [ Q Q / [ Q ! ! R R L Y F F D D S D G D G S Z Z m B n > > - - * $ $ % # % @ % $ $ & - - > > > } v v n n N m m V C G J P U K K O.k O. . .t +.+.+.+.+.+.+.+.+.r r r r e e w w i h l l J P ! ) #X*X4XiXfXjXkXNXPXBXPXNXnXkXkXkXkXkXkXkXlXzXaXsXsX#X^.) / R R F D D S D D D G L E I ^ !.W.~.~.~.Q.~.W.Q.W.Q.W.G.W.W.W.W.H.W.W.W.W.W.Q.W.G.W.W.W.W.W.W.^ W.^ o.^ ^ _ _ ' #X/.-X-X,X9X9X9XeXtXeXrXeXsXsXsXpXpXxXuXuX#X#X3X>X).'.T.R. Xx.Z.Z.M.l.8.8.3.1.9.;.e.t.r.G.W.!.^.=X=X1X4X5X5XiXzXzXhXkXNXPXBXBXBXkXjXzXsXxX<X#X' [ Y S n > - $ - - - } n N H S S D D ",
"n n B N S F o.o.( 1X4XyXiXiXiXwX5X6X6X<X*X=X&X@Xo.+X( ( ` o.o.T o.T R o.T o.R R Y o.T o.o.Y T o.T o.T { X.J .... .| | | r e e 0 0 0 4 8 c g g J J P E ~ / ] ] o.+X+X+X@X@Xo.@Xo.o.` o./ / [ / Q o.W o.o.W o.o.o.` ( o.o.@X( @X` o.@X@Xo.( ( ` o.@Xo.o.W o.W ! o.Q ! E ! Q Q Q Q Q Q Q / Q Q Q Q Q Q ~ / / ) ) ) ] _ ] _ ' ' ' +X#X^.#X#X#X#X#X3X6XwX3XyX5XwXxXsXiXiXyX5XyX3X6X3X#X3X#X,X#X#X#X^./.] ) / / E R Q R R E R E ! Q Q Q Q Q Q Q Q [ Q Q Q Q Q E Q ! E ! ! ! W R ! R R ! R ! ! R R R R R Y Y F D G S S S S S S S S V H B B n > > > - * $ % $ % @ X @ # % * * - : > > } n v n n M m H S S { L P P P U K O.k i #.+.+.+.+.+.+.+.+.+.r r r r e e e 0 u y h l C J L Q ) +X#X6XwXpXaXhXlXlXkXlXkXlXjXhXlXjXlXlXjXhXzXaXxX#X#X#X] Q R L F G D S S G D F L E ^ _ ^.~./.;X#X;X~.~.~.!.!.;X~.~.!.W.!.!.!.!.!.!.!.!.^.!.!.!.!.!.!.!.o._ !.!._ _ _ ^._ ^.^.#X:X,X>XqXeX9XeXeXdXeXsXsXsXpXxXgXfXgX#X5X#X9X`.|.E.E.s.z.l.v.k.j.8.3.3.1.*.h.e.r.r.G.W.^ _ +X&X1X<X4XyXiXaXzXjXkXCXVXVXVXCXBXPXlXaXiX3X#X#X' R V B ; * $ $ $ - > n B H S S D D ",
"} n B N Z F F o.@X&X6X5XwXxXxX5X6X2X7X=X=X#X@X` ` o.o.W o.T o.T Y o.T Y Y A D o.Y Y F Y A Y T Y T T Y { G ..l ..y  .| w e q 0 0 4 4 4 6 6 a d J { L E Q / ( ) ) o.( o.o.) / ( o./ ( Q Q ! ! E R R R T Y T T Y o.o.( T o.o.o.o.o.o.` o.o.o.o.o.( T W ( T ! ! W R R R R R L R R R R R R R R L R R R R R ! E E Q Q / / / ) ) ) ) ) ] ] ^.+X/.#X#X#X#X#X#X3X#X6X5XyX5X5X#X3X3X#X#X#X#X#X#X#X^.] _ ] _ ) / E Q R R Y Y R R Y R Y Y Y Y L R R R R R R R R R R R R R Y R L R L R R R R R R L R R R R F F F D G G S S S S S S S Z S H N B B n } > ; - - * $ % @ @ @ @ @ % % * & - : > } } n n n m N N S G Y R R E E I K z O.O.i +.+.+.+.+.+.+.+.+.+.r r r e e w t y y h l J P E [ ) ' #X2X6XiXpXzXzXfXhXhXzXhXhXhXhXhXhXhXhXzXfXpXwXwX3X^.] / R Y F D D D S S F F R Q / _ ^.#X#X#X3X-X/.#X^.^.^.#X#X^.^.^.^.^.^.^.' ^.^.o.o.^.o.' +Xo.+X' ^.^.^.' ' !.!.!.!.!.~.).).;X8X8XeXeXeXeXeXsXsXsXiXsXxXpX#XgXgX6X,X,X|.L.P.g.s.l.k.8.k.8.8.3.1.*.*.;.-.O.D.K I ~ _ ' #X&X<X2XyXiXaXzXkXNXBXVXVXAXVXCXPXlXaXiX6X#X/._ ! S n , * $ % $ - > n B H S S G D ",
"n n m B Z Y T o.+X*X2X5XwXxX5X6X2X7X=X$X#Xo.@Xo.o.o.T o.o.Y T T L F F F D F F F D D F F D Y F Y Y G { { J J g ..u u y w 0 0 0 8 4 7 7 6 a a d C { L R Q Q Q Q / W ( Q ~ ! Q E ! R R R R R Y Y F F F F F F Y Y R T T o.T T W o.W W o.W ( o.T o.R R W T W L F Y F F F F F D F D F F F F F F F F F F F F F Y R R R R ! ! ! Q Q ~ Q ~ ) ) ) ' ] ] ] /.#X#X#X3X#X#XqX3X#X6X#X#X#X^.^.' ] _ ] ) / ~ / Q Q E R Y L F F F F F F F F F F F F F F F F F F F F F F F F F F F F F F F F F F F F F F F F F F D G D S Z Z H H Z H Z Z H H N N m n n } > > - - * $ # @ @ @ 1 @ # % * * - - - ; > } v n M N H S F T W ( ~ ^ ^ K K O.O.#.#.r +.+.+.+.+.+.r r r r t t w y y j k j J U P E ~ ] ^.=X*X2X5XwXiXpXaXaXfXaXfXaXhXfXzXhXhXzXfXsXsXiX#X#X^.) / R R Y D S S S S D F R ! ) ^.#X#X#X#X#X5X#X#X#X' #X#X#X#X#X$X$X$X$X#X$X+X$X#X#X+X+X@X&X&X@X#X&X#X$X/.^.!.W.~.~._._.).`.`.9X9X9XtXtXeXeXeXdXsXpXpXpX#XfXgX#XqX#X;XQ.L.E.f.q.l.8.8.8.8.3.1.1.*.=.;.-.O.O.I I ^ ~ ` +X&X=X2X6XwXpXzXlXkXBXVXVXVXVXCXNXlXaXwX2X#X#X[ Y H } , $ % # $ - , n B H S S D G ",
"s n B N Z A T W o.%X2X6X5X5X3X6X<X%X&X+X@Xo.( W W W W T D T F A F D D S S S S S S S S S D D D D D D G V C C d g h y y y y 8 4 6 6 7 6 p a d d C G { L Y R R W R R W W R R R Y Y Y F Y F D D G D G S D D D D F D F F Y Y Y T R R W W T T R Y D Y Y F F F F D F F D S S S G S S S S S S S S S S S G D G D D F F F F L Y L L R R ! R ! ! ! ~ Q / ~ ) ] ] /.#X#X#X#X#X#X/.#X] ) ` ) ~ / Q ~ Q Q E R R R Y F F F F F S G D S S F S S D S D S S S S S S S S S S S D S S D S D D S S G S D S D G D D S S S H N H H N N N N H N N N N B B n n } > > - - * $ # @ @   @ @ # % % * * - : > > } v n M Z S D T ( ( ` ] _ ^ G.D.O.O.-.#.+.+.+.+.+.+.r +.t t t w w i y j h l J K P ^ ^ ] ' #X#X#X<X2X6X5X5XwXiXiXpXaXsXaXaXaXaXaXaXsXpXiXaX#X3X+X] ~ Q R F F G S S S S F F Q / ^.#X#X3XxX#X#X#X#X#X#X#X#X#X#X#X=X=X&X&X=X&X&X@X#X$X@X#X&X@X&X@X=X=X=X%X%X~._._.G.H.H.H.|.|.|.'.}.[.{.0XtXrXeXsXsXsXpXpXpXgX#XgX6X3X,X`.|.E.f.a.8.8.8.8.3.3.1.*.%.%.-.-.O.z K I [ ~ ] @X&X=X<X6XyXiXsXhXkXBXCXCXCXCXPXlXzXiX6X2X#X] Q F N } - $ @ % $ < > } N Z S S G D ",
"n n B N H G T o.@X&X<X6X3X6X6X7X*X%X+Xo.o.T o.o.Y o.Y { D D D S S Z V H H H Z H Z Z H S Z Z Z Z Z Z V V C d d g g c 6 6 6 6 6 7 7 5 5 p f f d V V D F F F Y Y Y F F F F D F G D D G S S S S H S N H H N Z H H D A D D D F F F F D F F F F D F F D D G S S S H H H H Z Z H H H H H H H H N H N H H Z Z V S S S S G D D D D F F F Y Y Y Y R R R R ! ! ~ ~ ) ) ) ] ^.] ) / ~ ! ! R R R Y L Y L F Y F F D G S S S H H H N H H S Z N N H H H H H N N N H Z H H H H H H H Z H Z H Z S H H S H S H H H H N N N m N N B B B B B B m B n n n } } > > - : & $ # % @ 1 @ @ @ % % * * - - ; > > } n M Z S F T ( ` #X#X^.!.W.G.r.w.-.-.+.+.+.r +.r r r t t i i y i h l x J J P I ^ _ +X+X#X%X*X*X:X7X2X2X6X5XwXpXiXsXsXaXsXaXaXsXsXiX5X5X#X#X' ) ~ R Y { F S S S H S F Y ! ) ' #X#X#XxX#XyX#X#X#X#X#XxX#X#X#X1X<X1X<X1X=X=X&X&X$X@X&X&X&X1X1X1X1X1X2X%X).Q.Q.L.F.K.K.P.E.E.Y.R.].].{.{.tXtXeXeXsXsXpXgX#XjXgX5X>X,X`.|.E.f.a.0.8.8.3.1.1.*.*.%.%.-.-.O.z K I [ ~ ) @X#X&X<X2X3XwXpXfXlXkXNXBXBXBXkXzXaXyX2X#X' [ R S m > < $ # % % < ; } B N Z S S D ",
"n n B N S D T o.o.$X<X2X:X6X<X7X%X#X@Xo.o.o.T T F Y F D Z S S Z H N H B B N B N H B N N B H H N N N N m m m d f f a a a 6 6 p 5 p p p p p s s m H V H S D Z S D S S S D S S S S S H H N H N N B N N N N N H N N N H N H H Z H S S D S S S S H H V N N N N N N N N N N B B B B B B B B B B B B B B B B N N N N H N Z V V S S S S S G G G D F F F F Y Y Y R R R R R R Y R Y Y F G G D G D D S S G S V H Z H N N N N N N N N N N B m N B B M M B N N B B B N N N B N N N N N N N N N N N N N N N B N B n B n n n n n n B n n n n n n } } } > > - - * $ # @ @ @ 1 @ @ # # $ $ - - - : > } n m N D Y ( ` #X#X7X7X).).H.D.t.-.#.+.+.+.r r r r r t t y y h h l l J U I ^ _ _ ^.^.#X#X%X#X#X#X#X%X=X7X2X#XsXwXiXiXiXpXiXxXiXxXsX#XwX#X#X' ) Q R R F D S S H H S D L ! / ' #X#X3X#X5X#X#X#X#X#X#X#X#XxX#X2X1X2X4X<X1X<X=X&X&X&X&X@X1X1X1X1X4X6X2X,X`.|.L.K.P.d.f.d.f.g.U.U.E.E.].].{.0XeXeXaXsXpXgXjXgX#XyX3X;X[.|.Y.d.a.0.4.3.1.1.1.*.%.%.#.-.-.O.z K I ^ ~ ) @X+X&X=X:X6X5XiXsXfXlXlXkXkXjXhXsXxX2X#X^.~ ! F H n , * % % # * - > } N H S S G D ",
"n n B B Z D X.T o.@X&X1X2X<X7X=X@X` o.o.T T T X.F D D S H H N N B B B n n n n n n n n n M n n n M n m n s m f f f p f f p p p p p p p p s s s n n m N B B N N B N N B N B m N B B B B B B B n n n n n n n n n n n n N m B N N N N N N N N B B n N N n n B n n n n n n n n n n n } n n n n n n n n n n B n B B B B B B N B N N N N N Z V N Z V H Z S S S D G D D F D G G S S H Z Z Z N Z Z Z N N N N B B B n n n n n n n n n n n n n n n n n n n n n n n n n n n n n n n n n n n n n n n n n n n n n v n n n v } n } n } } n } } > } } > > > - - * $ $ @ @ @ 1 @ @ @ % $ $ - * - : ; v n M H D W ( #X#X2X6X>X;X|.|.F.r.-.#.+.+.+.r r r t e w w i k j l J J U I ^ ^ ^.+X%X%X=X#X#X#X+X^.' +X#X#X7X#X5X#XaXwXxXxXiXwX5XwX#XwX#X#X#X] ) / E Y { D S H H H S D F R / ] #X#X#X5X#X#X5XyX5X#X#XpX#XxX#X4X6X4X5X6X4X<X<X1X=X=X=X1X1X1X1X4XuX3X>X8X[.Y.E.E.a.s.a.s.q.s.z.x.x.x.U.E.].{.tXeXsXsXpXgX#XgXjXiXqX8X[.|.L.h.p.9.4.3.1.1.*.%.%.@.#.-.-.O.z K P [ ~ ] ` +X$X=X*X:X6XyXiXaXfXhXjXhXfXaXxX5X#X#X_ ! Y S B } - $ % % # $ < > n N Z S S D D ",
"n n M N S D A o.o.@X#X=X*X*X%X#X@X( o.T o.Y T Y D S S H N B B B n n } } } } } } } } } } } } } v } } } } s > s ; ; s p p ; p ; p & ; & ; ; ; > } } } n n n n n n n } n n n n n n } } n } } } } } n > n } } n } n n n v n n n n n n n n n n n n n n > n n v n n > } } } } } } } } } } } } } } } } } } } } } } } n } } } n n } n n n n n n n n n n B B B m B N N B N N B B m B B B B n n m n n n n n n } n n } n } n } } } } } } } } } } } } } } } } } } } } } } } } } n } } } } } } } } n } } } } } } } > } > } > > } > } } > > } > > > > > > - - * % % % @ 1 @ 1 @ @ # $ $ * & - : > ; n M H D W ` #X<X2XyXqX;X).|.F.t.-.#.+.r r r r e e e w y y c l l J U E E ) _ ^.#X%X7X=X*X#X#X^.] ) ] _ ^.#X#XwX#X5X5X5X5XwXpX#X3XwX#X8X#X#X) / Q R Y F D S S N Z S S F R / ` #X#X#X#X5XyX#X#X#X#XwX#XiX5X5X5XuXyX5X5X4X6X2X<X*X<X*X1X4XuXuXuX5XqXqX[.'.T.E.g.s.q.l.l.l.k.l.M.l.x.x. X].}.{.tXsXaXpXgXgXgX#XiXwX9X;X|.E.d.h.,.=.1.*.*.%.%.@.@.#.-.O.O.K U I E ~ _ ' +X#X&X*X7X6X3XyXiXsXaXaXaXsXwX5X7X^.] Q R D H n , - * # @ % $ - > n B H S S D G ",
"n n m N Z D D Y o.` @X@X&X#X@X( o.o.T T o.A S D S H N N B M n } > } > > > > > > > > > > > > > > > > > ; > > > ; ; ; ; ; ; ; ; ; ; ; ; ; ; ; ; > > > > > } > } > > > } > > > > > > > > > > > > > > > > > > > > v > > v ; > > > > > > > > > b > > > > > > > > > > , } ; , > ; , } , } ; , > ; , } > } > > > > > > > } > } > } > } > > } > } > > } } } } } } } } } } } } > } } } > > } } > > } > > > } } ; ; } > > > ; > ; > ; > ; > > > > > > > } ; > > > > > > > > > > ; > > > > > ; , > ; , > ; > > > , > > ; > , ; , ; > , ; ; > > > > ; - - * * $ % @ @ @ 1 X @ @ % % $ * * - : - } v M S F o.) #X<X4X5XqX9X[.Q.F.y.-.#.+.r r | | | 0 q w u y h l J { P E Q o.#X#X#X3XqX#X#X#X' ] ) / / ) ] ' #XqX#XwXwXwX#XpX5X#X#X3X#X#X#X/.) / E R R F G H Z Z N H S F R Q ] ^.#X#X3X#X#X>X#X>X3X#X#X6X6X6X5XiXxXwX5X5X6X2X2X7X7X7X7X2X4X5X5XwXqX9X}.'.U.g.z.l.k.v.v.j.c.v.v.l.l.z.g.E.].[.eXeXsXpXgXgXgXgXpXwXqX[.|.Y.h.h.<.,.*.*.%.%.$.$.+.#.-.i O.z K I [ ~ ) ' #X#X#X#X#X2X2X5XyXiXpXsXpXiX5X:X#X^./ R F S B } , * $ # @ # * - > n N Z S S D G ",
"n n B B H S D o.T o.@X( +X@Xo.o.o.T T T G D Z Z N N B n s } v > > > > - - > - : - > - - - - ; > > - ; - ; - - : ; ; - - ; - - - - - - - - , - - , , ; - - , - - , , , , - ; , , , ; - ; , ; , - ; - : - : ; : - - ; - : - : ; , ; : , ; ; ; ; - ; - , ; : : ; - - , - ; - , - - - , - ; - , - - , - , - ; - : ; : : ; - : : - - ; , , ; - ; ; , ; - , - ; , ; ; , , , ; , , - ; , , - ; , - ; ; - - : - : - : : : : : : : : : - , : - : ; - : - : : : ; - ; : : ; - , - , , - ; , , , , ; - , , - - , & , - , - , - , - , , - , - - - - - - - - $ $ # @ @ @ 1   @ @ # $ $ $ & - : > > } B m D D ) #X<X4X5XqX>X`.H.J.r.-.t r r e 0 q 0 | 0 0 y h l g J P R ! / ` #X#X#X#X#X#X#X#X] ) [ Q Q [ ) ] #X#X3X#X#XwXwX#X#X3X8X#X#X#X#X!.) ~ R R Y F D S H N N H H F R ! ) (.#X#X#X3X#X#X#X#X#X3X3X#X3XwX5X5XiXiXiXxX5X6X4X2X7X7X2X6X3XqXqXeX9X{.{.R. Xx.z.l.v.c.c.c.c.c.c.v.l.z.x.E.T.{.9XeXiXpXgXNXgXgXpXsXqX[.'.Y.h.h.<.*.%.%.@.@.@.$.#.-.i O.z K I I ~ ) ) ] ^.#X#X:X2X:X6X4X5XwXwXiXwX5X6X:X#X] Q L S H n } - * $ @ % # $ - > n m N S S S D ",
"n B B B N S F F W o.o.o.o.o.o.T o.Y F D S H N B B n n } > > , , - - - - - - & - & - - - - - - & - - - - - - < - - - - - - - < < - - - - - - - - < - - - - - - - - - < - - - - - - - - - - - < - < < - < < & < & < < - < - & < < < - * < < < < - < - < < < - < < - - - - - - < - - - - - - - < - - - < - - - - < - - - - - - - - - < - < < - < - - < < < - < < - < & - - < < - - < - - - < - - - - - - - - - - - - - < - - - - - - - - - - - - - - - - - - - - - - - - * * & - - & - * - - - - - - - - - * - , - - - - - - $ - - - - - - - - - $ $ $ % @ 1 1 @ @ @ @ @ # $ $ $ - - > > } M H S T / +X&X7X:X:X)._.H.D.O. .t t e e 0 0 0 0 0 0 y h g l J { R ! / ` /.#X#X3X#X#X#X' ] ~ Q ! E Q / ) /.#X#X#X>X#X#X#X#XqX#X#X#X' _ _ / [ Q R L F D S H H N Z S F L Q / ' ^.#X#X#X#X#X#X#X,X#X#X3XwXyX5XiXiXiXiXxXyX5X4X2X2X3X3X3XqXqX9XtX0X}.]. Xx.Z.M.M.c.c.c.c.c.c.j.j.8.s.g.E.E.[.9XqXyXpXgX#X#XgXsXsXeX9X`.|.F.h.;.=.=.@.@.$.$.| i O.O.z z K U E ~ ~ ] ' #X#X:X#X7X2X:X6X5X5XyXyX5X6X7X#X+X~ ! F S N n > - $ $ % % % $ - > n B Z S S D G ",
"n B m B N Z D G T T W T o.T D o.Z S Z Z B B n n } > > > ; - - - & * * $ $ * $ $ $ * * $ * $ $ * * $ $ $ * * * $ * $ * * * * * * * * * * * * $ * $ $ * $ $ $ $ $ $ $ $ $ $ * % * $ $ $ * $ < $ $ & * $ $ * * * * $ & $ * * $ $ * < $ * & $ < $ $ $ * $ & $ * & $ $ $ $ < $ * * * $ $ $ < $ * * * $ $ $ $ $ $ $ * $ $ $ $ $ $ $ $ $ * $ $ $ * $ $ % * $ $ $ $ $ $ $ $ $ * $ % $ * $ $ $ $ $ $ < $ $ $ < $ $ $ $ $ $ $ & $ < $ < $ $ < $ $ $ < $ $ $ $ $ $ $ $ $ $ * $ $ * $ * $ * * - $ $ * * $ $ * $ - $ * $ $ $ $ $ - $ - $ * $ & * * & * * $ $ $ % @ @ @ @   @ @ @ # % $ $ * - - ; } n M H D Y W / ' #X$X/.~.W.X.K k u e 0 0 0 0 0 0 0 0 9 9 9 g C C { R ! / ( ^.#X#X#X#X8X^.' ) / E ! ! ! [ ) ^.#X#X#X#X>X#X#X#X#X#X#X' ] _ / / / Q R Y Y G S H N N Z H S F R Q ) ^./.#X#X^.#X#X#X#X#X#X#X#X5X5XiXiXiXiXxXxXyXyX5X5X3X8XqX8X9X{.{.].]. X Xx.Z.N.v.b.b.b.c.c.j.c.8.l.q.g.E.|.|.9XqXaX#XgXgXjXgXpXsXqX9X|.Y.h.h.;.$.$.@.@.#. . .O.O.O.z K U I ^ ~ ~ ) ' ' #X#X#X#X#X2X2X3X5X5X3X5X4X7X#X] / ! F S N n > - $ % % @ % < - > n N H S S S D ",
"B n B B N H S S A F Y o.F F G S Z B B n } } > > ; , - - - * $ & $ $ $ $ $ $ $ $ $ $ $ $ $ $ $ $ $ $ # $ * $ $ * $ $ $ = $ * $ $ $ $ $ $ $ $ $ $ $ $ $ $ # $ $ $ % $ # $ $ $ $ $ $ $ # $ % $ $ $ % $ $ $ $ $ % % $ % $ $ % $ $ % $ $ % $ $ $ % $ $ $ $ % $ $ $ % $ $ % $ $ % $ $ $ $ $ % $ $ % $ $ $ $ $ % $ $ $ $ $ $ $ % $ $ % # $ $ $ $ # # # % $ # $ % # # % % # $ # % # $ % % $ % # # $ $ # $ $ $ $ $ $ $ $ $ * $ $ $ $ $ $ % $ $ $ $ $ $ $ $ $ $ $ $ $ $ $ $ $ $ $ $ $ $ $ % $ $ $ # $ $ $ $ $ $ $ $ $ $ $ $ $ $ $ $ $ $ $ $ $ $ $ $ $ $ $ @ % @ @ @   @ 1 @ @ # % $ $ * & : > ; n M m S F Y W / ) ] _ ^ I K x h y 0 0 0 0 8 8 8 8 8 8 9 g g d { { L W W ( ] ` #X^.^.' ' ] ) [ Q ! R ! Q / _ _ ' #X' #X#X#X#X' ] _ ] _ ) / / E ! R R { F S H Z Z N V D F Y ! / ) ' ] ] ^.] /.] ^.#X#X#X#XwX3X5XiXiXiXpXxXxXyXyX5XqXqX9X[.}.}.].R.XXx.A.Z.Z.N.v.b.b.c.c.c.j.8.8.8.s.h.E.|.|.).#XwXiXxXpXgXgXpXsXwX9X`.Y.t.e.;.$.#.#.|  . ...O.z z K U I E E ~ ) ) ' ' #X#X#X:X7X2X2X4X6X6X6X3X3X*X#X] / ! G S N n > < * % @ @ % * - } } B H S S F S ",
"B m B B B N N H Z D Z M S S Z N M } } > , - - < - * $ * $ $ $ $ % $ # $ @ # % # % # $ # # @ # # % % % # @ $ @ # # # # # # $ # $ $ # $ # $ # # % % % % # % % # % % % % # @ % # # % # % % % % % # # % # % # # $ # % $ % # # @ % % % # # # # % # % $ % # # % # # # % % % # % $ # % % % % # % $ # % % % # % % # % % # % # % % # # # % # % @ % % % % % % # @ @ % # @ @ @ # % % # # @ % # # % % % # % % @ % @ @ $ @ $ % @ % @ @ $ % # @ % $ @ % @ @ $ @ $ @ $ % % $ @ % # @ $ @ # % % # % % $ % # # # % % # % $ # % # % $ # % $ # % # # $ # $ % # # % @ @ @ 1 1 @   @ @ @ @ # $ $ * - : > v v n N H S F Y W R R E P J l g c 9 8 4 4 4 8 8 8 8 8 8 9 c g d C G Y Y W ! ~ ) ` ] ' ] ) ) / Q ! ! E ! Q Q / ) _ ] ] _ ] ] _ ] ) _ ) ) / / / Q ! R Y Y D S H H N N H S F L R ~ / ) ] ) ) ) !.] ] ] ^.#X3X#X6X5X5XiXxXpXxXxXxXxXxXqX9XtX.X}.R. X Xx.x.Z.N.N.N.n.c.c.c.c.j.8.8.8.4.9.h.h.H.|.).8X#XyXgX#XgXgXpXsXqX9X`.H.F.e.:.:.:.#. . .....O.K K I I I ^ ~ ~ ) ) ' ' ^.#X:X#X7X7X2X6X2X6X4X2X:X#X#X] ~ R F S N n ; - * $ % % = $ - } n B H S S S F ",
"B B m n B B B N N N N N N m n } > > - - $ * $ * % $ % $ % % # # @ # @ % @ @ @ @ @ @ @ @ % @ % @ # @ @ @ @ # @ @ # @ % @ @ @ @ @ # # # # @ % @ # @ @ @ @ @ @ @ # @ @ @ @ @ @ @ @ @ @ @ # @ @ @ @ @ # % @ @ @ @ @ @ @ @ # # @ # @ @ @ @ @ @ @ @ @ % @ # @ @ # @ @ @ @ # @ @ @ # @ @ @ # @ @ @ @ 1 % % # @ # @ @ @ @ @ @ @ @ @ @ @ @ @ @ @ @ @ @ @ @ @ @ @ @ @ @ @ @ @ @ @ @ @ @ @ @ @ @ @ @ @ # @ @ @ @ @ @ @ @ @ # @ @ @ @ @ @ @ @ @ $ @ @ @ @ # @ @ @ @ @ @ @ @ % @ # @ @ @ @ % @ @ @ @ @ @ @ % % @ @ % @ @ @ % # @ @ % @ @ @ % # @ @ % @ % @ @ @ @ 1 1 1 1 1 @ @ @ % $ $ $ - - ; > } n M N Z H S A S F D G C d d a 6 7 4 4 4 4 4 4 8 4 8 8 9 a g d C C G F Y W W Q ( ~ ) ) / / Q ! ! E ! ! ! Q / / / ) ) / ) / / ) / / [ / [ [ / E Q R R { F S S Z N Z Z S D F R ! ! ~ / ~ / ~ / ~ / ) ] ^.#X#X:X6X5X5XxXxXxXpXpXxXwXqXtX[.}.T. Xx.x.z.M.M.N.v.c.b.c.c.c.j.8.8.8.3.4.h.h.h.F.W.)./.#XyX#XgXgXgXpXsXqX9X|.|.t.e.-.#.#.#. .......K I I E ^ E ~ ~ ~ ) ) ' +X#X#X7X2X2X:X2X2X2X2X2X2X#X#X^.) / R F S N } } - * % # @ # * - ; n m Z S D D G ",
"B B m B B m B B B n M n } } > , - * $ $ % % % % % # @ # # @ @ @ @ @ @ @ @ @ @ @ @ @ @ @ 1 @ @ @ @ @ @ @ @ @ @ @ @ @ @ @ @ @ @ @ X 1 @ @ @ @ @ @ @ @ # 1 @ @ @ @ @ @ @ @ @ @ @ @ @ @ @ @ @ @ @ @ @ @ @ @ @ @ @ @ @ @ @ @ @ @ 1 @ @ @ @ @ @ @ @ @ @ 1 @ @ @ @ @ @ @ @ @ @ @ @ @ @ @ @ @ @ @ @ @ @ @ @ @ @ @ @ @ @ @ @ @ @ @ @ @ @ @ @ @ @ @ @ @ @ @ @ @ @ @ @ @ @ @ @ @ @ @ @ @ @ @ @ @ @ @ 1 @ 1 @ @ @ @ @ @ @ @ % @ @ @ @ @ @ @ @ @ @ @ @ @ @ @ @ @ @ @ @ @ @ @ @ @ @ @ @ @ @ @ @ @ @ @ @ @ @ @ @ 1 @ @ @ @ @ @ @ 1 @ @ @ @ @ @ @ @ @ @ @ @ @ @ @ 1 @ 1 1 @ 1 @ @ @ @ % $ $ * - : > } n n M N M N N H H N s m s p 5 5 7 3 3 3 4 7 4 4 4 4 4 6 a a g C C G F Y Y W W ! ! Q Q E E ! ! R R R R ! ! ! E E [ / Q [ [ Q Q ! Q Q ! ! Q E R R R Y F F S H Z N N N V S F L R R ! ! ~ ! ! ! ! Q / _ /.#X#X7X2X5X5XyXxXxXxXxXiXeXeX9X[. X Xg.Z.M.M.M.v.v.b.v.c.c.j.j.j.8.3.3.1.1.;.e.t.G.G.W./.#X#XgX#X#XjXxXwXqX[.|.|.t.w.:.-.#.-. ...l X.I I I [ Q ~ Q Q ~ ) ) ' +X/.#X#X#X:X7X2X7X2X:X2X7X7X#X^.) Q R F S H n } - $ $ # @ % * - > n B H S S S D ",
"m B B B m n B n n } } } > > , - * $ % # @ @ @ @ @ @ @ @ @ @ @ @ @ 1 @ @ @ 1 @ 1 1 @ @ 1 1 @ 1 @ @ @ 1 @ @   @ @ 1 @ @   @ @ @ @ 1 1 @ 1 @ 1 @ 1 @ 1 @ @ @ 1 1 @ 1 @ 1 @ @ 1 @ @ 1 @ @ 1 1 X @ @ @ 1 @ @ 1 @ 1 @ 1 @ @ X @ 1 @ @ 1 X @   @ @ @   X @ @ 1 @ @ X @ @ @ @ 1 @ @ @ @ 1 1 1 % 1 1 1 @ 1 @ 1 % @ @ 1 @ @ @ 1 @ 1 @ @ 1 @ 1 @ 1 @ @ 1 @ 1 X @ @ @ 1 @ @ 1 @ 1 1 @ 1 @ 1 @ @ X @ 1 @ @ X @ @ @ @ 1 @ 1 @ @ @ 1 @ @ @ @ 1 1 @ @ @ 1 @ @ @ @ @ @ 1 @ @   @ 1 @ 1 @ @ 1 1 1 X @ @ 1 1 1 @ 1 1 @ @ 1 @ 1 @ 1 @ @ 1 1 @ 1 @ 1 @ 1 @ 1 @ @   @ @   @   @   @ 1 @ @ # $ $ $ & - - ; } n n n M M B M n n n } s 2 2 2 5 5 3 3 3 7 7 7 7 4 4 4 4 6 a f C C S D D F Y R R R R R R R R R R R R Y R L R R R R R E R R R R R R R R R R R R L Y F F S S Z N N N N Z S S F Y R R R R R R R R ! Q ~ ] ] #X=X7X2X6X6X5X5XxXxXwXqX9X[..X XI.s.q.M.v.v.j.c.c.c.k.j.8.8.8.3.3.1.*.;.;.y.r.D.G.o.!.#X#X#X4X4XwXwXqX8X[.|.H.t.w. .|  . .....X.J E E Q ~ / / / Q ~ ) ) ] ' ' ^.#X#X7X#X-X7X7X:X#X#X#X+X] ~ Q R F S H n } - * % @ # % $ - } } B N S S S F ",
"N B N B B B B n n n > > > - - $ $ % # @ @ @ @ @ @ 1 1 @ @ @ @ @ @ @ @ 1 @ @ @ @ @ @ 1 @ @ 1 @ 1 1 1 @ 1   @ @   @ 1   @ @   @   1 @ 1 @ 1 X 1 @ X 1 1 1 1 @ X 1 1 1 @ 1 1 1 1 1 @ 1 1 1 @ 1 1 1 1 @ 1 1 @ 1 @ 1 @ 1 @ 1 1 @   1 @ @ @   @   @ @ 1 @ 1 @ @   1 1 @ @ 1 1 1 X @ 1 % 1 @ 1 1 1 @ @ % 1 1 1 1 1 @ 1 @ 1 @ 1 @ 1 1 @ @ 1 1 @ @ 1 1 1 1 @ 1 1 1 @ 1 1 @ 1 X @ 1 @ 1 @ 1 @ 1 1 1 1 @ 1 @ @ 1 @ @ 1 @   1 @ @   @   @   @ @   1 @ @   1 @ @ @   1 @   @ 1 @ @ 1 1 @ @ 1 1 @ 1 @ @ @ 1 @ @ 1 1 @ 1 @ @ 1 1 @ @ 1 1 1 @ 1 1 @ @ 1 1 @ @   1 @   @ @ @ 1 @ @ @ # % $ $ * - : } } v n n n n n } v > > ; ; 2 2 2 . . . 3 3 3 3 3 7 7 7 7 7 a a f s V V V D D D D F F D F { F F { F F F F F F F { F F F F F Y F Y Y F F F Y { F Y F F D D V Z N N N m N N Z G D F Y R L Y R R L R R ! ! ) ] ' $X=X<X2X2X6X3X5X3X3X8X9X`.Y.I.f.s.q.8.8.7.j.7.j.k.8.8.8.6.4.1.1.*.=.;.-.r.r.D.I ^ _ !.#X#X4X#X2XeX#X;XQ.H.D.w.w. . .|  . .g J X.I E Q Q Q Q / Q Q ~ / ) ] ' #X#X#X#X7X#X#X:X#X#X#X#X' ) ~ ! Y F S N B } - * $ % @ % $ - } n N S S S S F ",
"H N B B m B n n n > } > , - - * $ $ # @ @ @ 1 @ @ @ @ @ # @ @ @ @ @ @ @ @ @ @ @ @   @ 1 1 @ 1 @ @ 1 @ @ 1 @ @   1 @ @ @ @ @ @ @ @ 1 1 1 @ 1 @ 1 1 1 1 @ @ 1 1 1 @ 1 1 @ X @ 1 @ 1 1 @ @ 1 @ @ @ @ 1 @ @ 1 @ @ @ 1 @ 1 @ @ 1 @ @ @ @ 1 @ @     @ 1 1 1 @ 1 1 @ 1 @ 1 1 1 1 @ 1 @ 1 @ 1 1 % 1 @ % 1 1 1 1 @ 1 1 @ 1 X 1 @ 1 X @ 1 1 @ 1 @ 1 @ 1 X 1 @ 1 @ @ 1 1 @ 1 @ 1 1 1 @ @ 1 @ 1 @ @ @ 1 @ 1 1 @ 1 1 1 @ @ X @ 1 @ @ 1 X 1 @ 1 @   @ 1 @ 1 @ @ @ 1 @ @ @ @ @ @ 1 @ @ @ X 1 @ 1 @ @ 1 1 @ @ 1 1 1 @ 1 @ 1 1 @ @ 1 @ 1 @ 1 X @ @ 1 @ 1 @ 1 @   @ @ @ @ @ @ @ @ @ % # % $ $ $ - : > } } } n n n n v v > > ; & & o 2 . 3 3 3 3 3 3 7 7 7 7 7 7 p a f d m H H Z Z Z S S S S S S S S S S S S S S S S S S S S S S S S S S S S D S S S S S H V H Z N B B B n m N N S G D G F { Y Y Y Y Y Y R ! / ) ] o.@X&X=X*X,X,X:X8X;X[.`.L.L.d.p.0.0.6.3.5.5.6.6.6.9.0.4.9.,.;.=.;.-.-.w.O.r.K I ^ ^ ] _ #X-X#X;X;X).Q.Q.J.D.w.w. .|  . .g ..C J E ! ! / W Q Q Q Q Q / ~ ) ) ' ' /.#X#X#X#X#X#X^./.^.) ) E ! R D S H n } - $ $ @ % % * - , } B H S S G S ",
"N H H N B B m B n } } > ; - - $ $ $ % % # @ @ # @ # % # @ % @ % % # % % % @ @ @ @ X @ 1 @ @ @ @ @ @ @ 1 @ 1 @ X @ @ @ @ @   @   @ @ @ @ @ @ @ @ @ @ @ 1 @ @ @ @ X @ @ @ @ 1 @ 1 @ @ @ 1 @ 1 @ @ @ 1 @ @ X @ @ 1 @ @ 1 @ @ @ @ X @ 1 @ @ @ @ @ @ @ @ @ @ @ @ @ @ @ @ @ @ @ 1 @ @ 1 1 % % 1 @ @ 1 % 1 % 1 1 % @ @ @ @ 1 @ 1 @ @ @ @ @ @ @ @ @ @ @ @ @ @ @ @ @ @ @ @ @ @ @ @ @ @ @ @ 1 @ @ @ @ @ @ @ @ @ @ @ 1 @ 1 @ @ @ @ @ @ @ 1 @ @ @ @ @ @ % @ @ 1 @ @ @   @ @ @ 1 @ @ @ @ @ 1 @ @ @ 1 @ @ @ @ @ @ @ @ @ @ @ @ 1 @ @ @ @ @ @ @ @ @ @ @ @ @ @ X @ @ @ @ @ @ @ X # % % $ $ $ * - - ; > } } } n } } v v , ; ; ; & 2 o . . . 3 . 3 3 3 3 7 7 7 7 5 p s s s B B B N N M M N N B N N N N N Z N N N N N N B N N M N N B m N B B m N N N N N N N B B m n n n n B B N Z Z S D G F F G F F F { R R ! Q ) o.@Xo.$Xo.%X-Xo.~._.Q.Q.L.K.i.u.9.;.,.1.1.4.,.<.<.<.<.h.;.e.;.w.w.-.O.O.z K I I I [ ~ _ _ !.~.~._.Q.H.G.r.O.-.-. .| 8 9 ..g X.G E ! ! W ( W ! ! ! ! Q Q ~ ) ) ) ] ] ] ' ^.^.' ] ] ) ) Q ! ! Y F S N n } , < $ % @ $ $ - } n B H S S S F ",
"H H N H H B B B n n } > ; , - - $ $ % $ $ $ % % $ % % $ % $ $ % $ $ % $ $ $ # @ @ @ @ @ @ @ @ @ @ @ @ @ @ @ @ @ @ @ @ @ @ @ @ @ @ @ @ @ @ @ @ @ @ @ @ @ @ @ @ @ @ @ @ @ @ @ @ @ @ @ @ @ @ @ @ @ @ @ @ @ @ @ @ @ @ @ @ @ @ @ @ @ @ @ @ @ @ @ @ @ @ @ @ @ @ @ @ @ @ @ @ @ @ @ @ @ @ @ @ @ 1 % @ @ 1 @ @ @ @ @ @ @ @ @ @ @ % @ @ @ @ @ @ @ @ @ @ @ @ @ @ @ @ @ @ @ @ @ @ @ @ @ @ @ @ @ % @ @ @ @ @ @ @ @ @ @ @ @ @ @ @ @ @ @ @ @ @ @ @ @ @ @ @ @ @ @ @ @ @ @ @ @ @ @ % @ @ @ @ @ @ @ @ @ @ @ @ @ @ % @ @ @ X @ @ # @ @ @ @ @ @ @ @ @ @ @ @ @ @ @ @ @ @ @ @ @ @ @ # # # % $ $ $ & * - : > ; } v } } v } v v } ; ; & o o 2 . 3 . 3 3 3 3 3 3 3 7 3 5 p p s } n B n n n n } } } } } } } n } } } } } } } } } } } } } } } } } } } } n } } n } n n } } n } } } } n B B m Z V S S S D D G D F F F R R R / ( ) o.o.o.o.o.o.o.J.J.H.F.t.y.:.:.$.=.=.$.:.;.:.e.y.y.y.w.w.r.O.O.k z x z J U P E E E [ ^ ^ W.G.G.G.D.r.r.O.i t  .0 w  .h l J P P R W W W W R R R R ! ! E Q Q / ~ ) ~ ) ) ) ) ) ~ Q Q E ! Y F G S S B } - < $ % # = $ - > } N H S S D S ",
"Z S Z H H N N B B n n > > > ; , - - $ * $ % $ $ $ $ * $ * $ $ * $ * * $ $ $ $ $ $ % % # % @ @ @ @ % # @ % @ # @ @ @ % # @ # @ # @ # @ # @ # @ % # @ @ % # # # @ # # # % # @ @ % # # # @ % @ # % @ # % % % @ # # # @ # % # # % # # # % # # @ # % @ # % # % # # % % @ # % @ % # % # @ % # @ $ @ @ % # # % @ % # % # @ $ @ @ @ @ $ @ % # % # % # % @ % % # @ % # % # @ % # % @ # % @ # # @ # # % # $ @ # @ @ % % # @ @ $ @ $ @ $ @ @ % @ % @ @ $ @ $ @ $ @ @ % @ % # @ @ # @ # % % @ % # % # @ % # @ # @ % % @ # % % % # % % # % % # % # @ @ % % # # # % # % % # $ % $ $ % $ $ * - - : , > ; v v } v } } } } ; s & 2 2 o 3 . . 3 . 3 3 3 3 3 3 5 5 2 p s s n v v v > > ; , , - , > - ; > > > > , ; , - , > ; - , - , - ; ; ; - , , ; > , , > > > ; > } } } } n n B N Z Z V S S S D G D F F F R W W ! W ( ~ o.o.X.X.X.X....... . . .#.| | | #. . .w.O.O.O.O.z z z z z l l K J J P P L L E P P I K K K r.O.O.O.i i t 8 | 9 9 g g l J { Y Y Y T T Y Y Y R R R R ! ! ! Q Q Q Q Q E Q ! ! ! ! R R L F D S N B } , < $ @ @ % * - } n B H S S D F ",
"S S H S S H H B m B n n n > > > , - - - $ - - * * * & * * - < - - * * & * $ $ $ $ $ # # % # % # # $ % @ # % $ % # # % # % % # % % % # % # $ % % # % # % % % % % # % % # # % # % % % % % # % % # # # % # $ % # % # # % % % # % # % % # % # # % $ # % # # % % % $ % = # # % # # % @ $ @ $ $ % @ $ $ @ $ @ % # $ @ $ % # % % % $ # % # % # # % % # % # # # % # # % $ % $ % % # % # % # % # % % % % $ @ @ $ $ @ $ # @ $ # % $ @ $ @ $ @ @ $ @ $ $ @ $ @ % @ $ @ @ $ # % % % $ # % # # % # % $ % @ % # $ % # # % # % # # # % # # % # $ % $ % $ @ # $ # % # $ $ $ # % # # $ $ $ $ * * * - : ; > > } } v n v v s } ; p p o 5 . . 3 . 3 . 3 3 3 3 3 3 2 2 p ; s ; > > , , : - * * * * < * $ - * - * - * * * * < - * < * - * < < < < < < * * * - * - - - ; > > } } n n n B m Z Z V V S S S D D D D F Y Y Y R L P P P U ........ . . .|  .| t t w w i u x x x x J U x x J J l J J J { { { { L L P J J x z O.O.O.i i t 0 0 8 8 8 9 9 g C C G F F T F T Y F L F L Y L Y L R R R R R R R R R R R R Y Y F F D S N m } , < $ # # % $ - , } B N V S S G ",
"S S S S Z Z H H N N B B n n } > > , , - - - - - - - - , - - - - - - - - - - & * $ $ $ $ $ $ # % $ $ $ $ $ $ # $ $ $ $ $ $ $ $ % $ $ $ $ % # $ $ $ $ $ $ # $ $ # $ $ $ % $ $ $ $ $ # $ $ $ # $ $ $ $ $ % $ $ $ $ $ $ % $ # $ $ $ $ $ $ % $ $ % $ $ $ $ $ $ $ $ % $ % $ $ $ $ $ % $ $ $ # $ $ $ $ $ $ $ $ # $ $ $ $ $ $ $ # $ $ $ $ $ $ $ # $ $ $ $ % $ $ $ $ $ $ $ # # $ $ % $ $ $ # $ $ $ $ $ $ $ $ $ % $ $ $ $ $ $ $ $ $ $ @ $ $ $ $ $ $ $ $ $ $ $ $ # $ $ $ $ $ $ # $ $ $ # $ $ $ $ $ # $ $ $ $ $ $ $ $ # $ $ % $ $ $ $ $ $ $ $ # # % $ $ $ $ $ % $ % # $ $ % $ $ $ $ $ $ $ * & - : , , > > } v n n M n s } p p 2 5 3 3 . 3 3 . 3 . 3 3 3 . 5 2 2 ; ; ; > : - < * * $ $ % % % $ @ % $ # % @ $ % $ % % % # % % # % # % % # % % % $ % % $ $ * < < - > > > } n n B B N N N Z Z S S S G G D D F D Y F { { { J l l j y u u  .q w 0 8 0 0 8 y c h g l l C J J { C J J C C C G G G D G G G C J l l j k u u u 0 0 0 8 8 8 6 6 a g d C G S F D D D G D D D S F D F F F D F F F F F F F F D D F G G D S S N n } ; $ $ % @ % $ - } n N S S S D D ",
"S S S S S S H H N N B B n n n } > > > > > > ; : > > - > > > > > ; : ; : - - - - - $ $ $ $ $ $ $ $ $ * $ $ $ $ $ $ $ $ $ $ $ $ $ $ $ $ * $ $ $ $ $ < $ $ $ $ $ $ % $ * $ $ $ $ $ $ % $ $ $ $ $ % $ $ $ $ $ $ $ % * % $ $ $ % * % $ $ $ $ $ $ $ $ $ $ $ $ $ $ $ $ * $ $ $ $ $ $ $ $ $ $ $ $ * $ $ $ $ $ $ $ $ $ $ $ $ $ $ $ $ $ $ $ $ $ $ $ $ $ $ $ $ $ $ $ $ $ $ $ $ $ $ $ $ $ $ $ $ $ $ $ $ $ $ $ $ $ $ $ $ $ $ $ $ $ $ $ $ $ $ $ $ $ $ $ $ $ $ $ $ $ $ $ $ $ $ $ $ $ $ $ $ $ $ $ $ $ $ $ $ $ $ $ $ $ $ $ $ $ $ $ $ $ $ $ $ $ $ $ $ $ $ $ $ $ $ $ $ $ $ $ $ $ $ $ $ $ $ $ $ $ * - - - - > > > } v v n M n m s s p 2 5 3 . 3 3 . . 3 3 3 . 3 3 2 2 2 ; ; ; : - - * * % @ # @ @ @ @ @ @ @ # @ @ @ @ @ @ @ % @ @ @ @ # @ @ @ @ @ @ @ @ @ % $ $ $ $ < - , , ; } } } n B B m N N H H S S S S S D D D D D V V C d g g y w w 0 0 0 8 8 4 4 4 4 6 6 a d d C C C S S V V V V V V Z S S S S S V C g g ..6 y w 0 8 0 8 4 4 4 4 4 7 a f f d V V S S S S S S S S S S S S S S S S S S S S S S S S S D S S S H H B n } - < % % @ # $ - } } N H S S G G ",
"S S S S S S S H H Z N N B B n n n } } > > > > > > > > > > > > > > > > > > - - - - - - * - $ & - * * * & * - * * & - $ - * * & - < * $ < - $ - $ < < $ - - - $ - - * - $ - - * * - - * - * $ $ - * $ $ - $ $ * * * * $ $ * * * * $ * $ * $ * * $ & $ $ * * $ * $ * $ * $ $ $ - $ * & $ $ $ & * $ $ $ < $ < $ $ $ $ - $ $ $ $ < $ & * < $ $ $ & * $ * < $ $ & $ < $ $ & $ * * - $ $ $ * & $ $ - $ $ $ $ - $ $ < $ $ < $ $ & $ $ < $ $ - $ & $ $ $ $ $ $ - $ $ $ < $ $ $ - $ * $ < $ $ & $ $ < < $ $ $ & $ < $ $ $ - $ $ $ $ $ - $ $ * $ * $ $ & $ * * * $ * * & $ & $ $ * * * * * & < - : - > > > n n n n n m s s p 2 2 5 5 . 3 3 3 . . 3 o 3 2 2 2 ; ; ; > - - - * $ $ @ @ @ @ 1 @ @ @ @ @ @ @ @ @ @ @ @ @ @ @ @ @ @ @ @ @ @ @ @ @ @ @ @ @ % $ * < - , ; > } } } n n B B N N Z H H S S S S S Z Z N Z m V d d a g 9 9 8 8 8 4 8 4 4 7 4 7 7 p p f m m N H A A H H Z H H H Z Z H N N N m d d f a 9 9 8 8 8 8 4 4 4 4 7 7 5 5 f f m m m Z Z Z Z N Z N N H N N Z H N N Z H Z N H N N N H N H H N H Z N B } ; - $ $ @ @ $ $ - } } m Z S S D D ",
"D G S S S S S V Z H H N N B m M n n n n n } } n > n n } n > > n n > > > > > > > - - - - - - - - - - - - - : - - - - : - - - - - - - ; - - - - - & - - - - - - - - - - - - - - - - - & - - - - * * * - $ * & - $ - $ - & $ * * - * & * * & * & < * & * & * * * & < * < $ - $ $ < * * * - < * $ - & < $ - & $ < - & $ - & < $ - $ < $ $ - $ < - $ < & * $ $ - < $ * < - $ $ $ - $ $ * * * - $ $ < < $ < < $ - & $ - < < $ $ $ - $ $ - $ < < $ - < $ * < $ * < $ < $ - & < $ & $ < - < $ $ - $ $ - $ - - $ $ $ < $ $ $ - - $ < - $ * $ & * * * & * & * & $ * * $ * * $ & * & $ - & - - - - - > > > } n M B n m m s s p 2 5 2 3 . 5 3 3 o 5 5 5 2 2 p 2 ; ; > ; : - * $ $ @ # @ 1 % @ @ @ @ @ @ @ @ @ @ @ @ @ @ @ @ @ @ @ @ @ @ @ @ @ @ @ @ % $ $ $ $ - - , > b } } n n m B N N N H H H N S Z N Z B N B m s f f f 6 7 7 4 4 4 4 7 3 7 3 3 3 2 p 2 s n n n M M M M M M M v M M n M M M n m f f f 5 6 4 4 4 4 4 4 7 3 3 7 5 5 p p f n s n n B M M n M M M n n B n n B } n n n B n n n n } B m B B B n n } } : - % % % @ % * - } n N Z S D D G ",
"S V D D S S S S S Z H H H H B B B n n n n n n n n n n n n n n n n n > n n > > > > > > ; : - : : ; - : > ; - ; : : > ; - : ; : , : ; - ; > : ; ; , ; - , : ; : ; : ; : : - ; : ; : : , - : - - & - * & - * * & * $ - - $ - * * & < * & * * < * * * < * < * & < < $ * & - $ - - < < & < $ $ * & < $ - - $ - < < $ - < < < < & < < < < & < < < & < - $ < < - $ - - * * & < - - $ - - * & - $ - - * - - $ & < - $ < & $ - < - < - - $ - - < < < & < - & - - & < - < - $ < < < - - < - $ - - $ - $ - - $ - $ - - - - - - - $ - $ & - - & * - * - * * * * * - - * & - * - $ * * - * - - - - - > > > v } n n n B m n s s s p 2 2 2 5 2 2 5 5 2 2 2 2 2 ; ; s ; > > : - - * * $ % % @ @ % @ # % # # % % # % # % # % # % # % % # # % @ % % % # # % $ $ $ - - - ; > } } } } n B n B N N N Z Z N N N B M M n } } > ; 2 2 5 5 7 7 3 3 3 3 3 3 . 2 o 2 2 ; ; ; > v v b v v v v v v v v v v v } > s ; 2 p 5 5 3 7 3 7 3 3 3 3 3 3 o 2 2 2 & ; } } } } } } } } > } } } } } } > } } } } } } } } } } } } } } } } } } - < * # 1 @ @ $ * - } } N H S S S D ",
"D D G S D S D S S S Z H H H H N B B B M m B B M B B B B B n n n n n n n } } > > } > > > > > > > ; } > > > > } ; > > ; } > > ; } > > > > > > > > > > > > > > > } > > } > > } > > > > > > ; , : - - - - - - - - - - - & - - - - - - - - & - - - - < - - - < - - < - - - - - < - - - - - - - - - - < - - < - < - - - < - - - < - - - - - < - - - < - < < - - - & - - - - < - - - < - - - - < - < - - - - - - - - - - - - - - - - - - - < - < - - - - < - < - - - - - - - < - - - - - - - - & - - - - - - - - - - - - - - - - - - - - * - - - - - - - - - - - - * & - - * - - - - - - - - ; > > > } } v n B B n m s s s s p p p 2 p p 2 p 2 2 p p s ; s s > > } > ; - < < $ $ $ $ % % $ % % $ % $ % % $ $ % $ % % $ $ # $ % $ $ % $ # $ % $ $ $ $ - - - - ; , } } } n n B B B N N N N Z N N B B n } > > ; & & & 2 o 2 3 3 . 3 3 . . . o o o o o & & - - : : : : : : : : : : : : > : - ; ; & 2 2 2 3 3 3 o 3 . 3 . o o o o o 2 & & & ; ; > , , , ; : : ; : ; ; ; : : : - ; : ; ; - : : ; ; : ; : : : - - - $ % @ @ @ @ % - - > n N Z S S G F ",
"D V V D D S V S S S S S Z H H Z H H H H H B H N H H N N B H B B n n n n n n n n n } n } } } > n } } v } } } } } } } } } } v } } } } } } } } } } } } } } v } } } } } } } } } } } } } } > > > : : - & - - - - - - - : - - & - - - - - - - - - - - - - - - - - - - - - - - - - - - - - - - - - - - - - - - - - - - - - - - - - - - - - - - - - - - - - - - - - - - - - - - - - - - - - - - - - - - - - - - - - - - - - - - - - - - - - - - - - - < - - - - - - - - - - - - - - - - - - - - - - - - - - - - - - - - - & - - - - - - - - - - - - - - - - - - - - - - - - - - - - - - - - - > - > > > v n n B B m n m m s s s s p s p p s s p s s ; } s s } n } n > > , - - $ $ $ $ $ * $ * $ * * * * $ * * $ * * * $ $ * $ $ $ * $ $ $ * < $ $ - - - - - , , ; } } } } B m B m N N N N N m B B n } b , - - < % & & o o o o o . O o o o o O o % % % $ * * * < < < < < < < < < < < * * * * * & $ & o o o o o . o o o O O o X o o % % & & < < * < * < < < < < $ $ < $ < - $ $ - $ $ < < - * < < < < - - < * * $ @ @ @ 1 @ % $ - > n N H S D G D ",
"D D V D S D S S S S S H S H Z S H Z Z H H Z H Z H H H H H N N B B m n n n n n n n n n n n n n n n } } n n n n n n } n n n n } } } } n n n n n n n n n n } n } } n n n n n n n n n } v } } > > > , : - : - - - - - - - - - - - - - : : - - - - - - - - - : - - - ; - - - - - - - - - - - - ; - ; ; : - - - ; - - - - - ; - - - - & - - - - : - - - ; - ; ; - - - - , , - - - ; - - - , - ; , - - - - ; - - - - : - - - : : - - - - - - - ; - - ; ; - - - - - ; - & : - - - : - - - , - - : - - ; , - - - - - - - - - - - - - - - - - - - - - - - - - - - - - - : - - ; - - - - - - - > - > > > > } v n n B m n m n s m s s s s s s s s s s s s s n n s n n n > > ; , - - & - - < < - - - - - < - - & - - - < - - - - - - - - - - - - < - - - - - - ; , , > } } } n n m B B N N N N N m B n } > ; - * $ % % % % % X o o o X o X X X X X X X % % % % % $ $ = = $ $ = $ $ $ $ $ $ $ $ % $ % % % % % o X o O O O X o X X o X % % % % $ % $ $ % # $ $ % $ $ $ $ % % $ $ $ $ # $ $ $ % # # $ * % $ $ $ % # % @ @ @ 1 @ @ # $ - } n N Z S S S F ",
"S S S S S S S S S H S S S S Z S S H S H S Z H S S Z Z H H H N N B B B B n n m n n n n n n n n n n M n M n n n n n M n n M n n M M M n M n n n n n n n n M n M M n n n n n n B n m n n n } } > > > : - ; - - : ; : : : : ; : : : , - ; , - ; , - ; : ; : : ; : ; - , , ; ; , ; - , ; , - , - , - - : ; , - : ; , , ; : - ; : , - , , , ; ; - ; : , - , - : , - , - - ; - ; , - , ; - ; - - - , ; : - : : ; - ; : ; - ; - : ; - ; > - > : ; - : - - ; - > ; - : : ; - ; : ; - > - - , - : ; - > - ; - , , ; - , , , , , - ; , , - > - > - ; > > - > - > - > - > - > - > - > - > - > - - > - > > > } n n B n B m B B B s m B n s n s n m n s m m n B m B B n n n n } > , , , - - - - - - - - - - - - - - - - - - - - - - - - - - - - - - - - - , - - : : : > > } } } n B B B B N m N N B B n } > - * $ % % % X X X @ X X X X X X X X X @ X X % @ @ % @ @ # @ # @ # # # @ # # # @ # @ % % % X @ % X % X @ X % X X X X X % % @ % @ % % % % % % % % # % @ % @ # # # % @ % # % # @ % @ @ % % @ % @ @ % % @ @ 1 1 1 @ 1 1 $ * - } n m Z S S D S ",
"S S S S S Z S S S Z S S H S S H Z S S Z S Z S H H S Z Z S H H B m B m n B n B n n n n n m m M n M n n n m M M n n B n n n B B n n B m n n B n m m M M n M m M n B n B m n n n n n n n n n } } > ; : : : : : ; : ; : , : : : ; : : ; - , , : : ; : , ; : , ; : : ; - ; - , , - , - , - , , - , ; : - , , ; : : - - , , ; , ; - , - : : ; , - ; : ; : : - , , ; : ; - , ; , ; - , ; , ; , : ; - ; : ; : : ; : : : : ; , : : : ; : - > : : ; - - > > - - > : , > - > - ; : - > , , ; ; > - > > - > , , , ; , , - ; - , , , , , , , > - > - > - > - - > - > - > - > ; > - - > - - > - > - > ; > > > } v n n B B n m B m B B m m n n B n n m n n n N n B m n n n n } } , ; , ; , - - - ; - , ; , ; - - , ; - , ; ; - , , , , , , - , : ; - ; - ; : - , ; ; , , > } } } B B B B m B B B N n n } > , - $ $ % @ X 1 1 @ @ @ @ 1 X @ @ X X @ 1 X @ @ X @ @ @ @ @ @ @ @ @ @ @ @ @ @ @ @ @ @ @ @ @ @ @ @ @ @ @ @ @ @ X @ @ @ @ @ @ @ @ @ @ @ @ @ @ @ @ @ @ @ @ @ @ @ @ @ @ @ @ @ @ @ @ @ @ @ @ @ @ @ @ @ @ @ @ 1 @ @ 1 1 @ @ $ < - } } m Z S S S S ",
"H H H H H H H Z H H Z H H Z Z H H H H H S H S H Z S H H H B H H B B B B n B n n n B B n n n B n M M B n B n m n B m n n B n n B B n n B B n n B n n m n n n n M n n n B n B m B B n n n } } > > > > ; , : ; : : : ; ; : ; : , ; , ; ; , , ; , : : ; : , : : ; , , , , , ; , ; , ; , , ; ; , , , ; , , ; ; , ; , , , ; , , , , ; , ; , , , , : ; ; , ; , , ; ; : , ; , , , - ; , : , - : , , , , ; : ; , : , ; , : , ; , ; : , ; > - ; , > > > : : > > - ; : ; , - > : : > - ; > > : - > > - : ; , ; , - ; - , , ; , ; ; , ; - , > > - > > > - > - > > > > - - > > - > > > > > - > - > - > > > > > } } n n n n B n n n B n n n B M n n B N n n B m n B n n n n n } } } , , , , ; , , , ; - , , , , , , , - , , , , ; - ; , ; ; , , , , , , , , ; , : , , > } } } } B } B n B B B n n n n } , ; * $ % # @ @ @ @ @ @ @ @ @ @ @ @ @ @ @ @ @ @ @ @ @ @ X @ @ @ @ @ @ @ @ @ @ @ @ @ @ @ @ @ @ @ @ @ @ @ @ @ @ @ @ @ @ @ @ @ @ @ @ @ @ @ @ @ @ @ @ @ @ @ @ @ @ @ @ @ @ @ @ @ @ @ @ @ @ @ @ @ @ @ @ @ @ @ @ @ @ @ 1 @ @ % $ - - } } B N N S S S ",
"N N H N N N N H H N H N H H H N H H H H B H H H H N H H B B B B B n n n n n n n n n n n n n n n n n n n n n n n n n n n n n n n n n n n n n n n n n n n n n n n n n n n n n n n n n n } } v } > > > : ; ; : ; , ; ; , , : , : ; , : , , : ; , ; ; , , , ; , ; , ; , ; , , , ; , , , , , , , ; , ; , ; , : : , , , ; , , ; , ; , , , , ; ; , : , : ; , , ; , : , , , , ; , ; , ; , , , ; , ; ; , , , ; , ; , , ; ; , , , > , : ; > > ; : - - > ; ; > : > , ; : ; > > : ; > - > - - - > > > > > - - ; , , > , , , , ; , - ; , ; , - > - > - > - > > > ; - > - > > > > - > - - > > > - - > - > > > } } } n n n n n n n n n n n n n n n n n n n n n n n n n n n n > } > } , , , ; , , , ; , ; , , ; , ; , ; ; , , , , - , , , , , , ; , ; , , , : , ; ; : ; , } > } } } } n } B n n n m n } > > ; * $ $ # @ @ @ @ @ @ # @ # @ # # # # # # # # # # # # # @ # # @ @ @ @ % # @ @ @ % @ @ # @ @ # # @ @ @ @ @ # @ @ # @ @ @ @ # @ # # @ @ % # @ @ @ @ # # @ # # # @ @ @ @ # @ % @ % @ # @ % # @ @ % # # @ @ @ @ % 1 @ # $ $ - - } } n m B N Z Z ",
"B M B B B B M m B B B B B B B B B B M B B B B B B B B B m B n n n n n } n n n n n n n n n n n n } n n n n n n } n n n n n n n n n n n } n n n n n n n n n n n n n n n n n n n n n n n } } } } > > , , ; : ; : , , : ; , ; , ; , , ; , ; ; , , , , ; ; , ; : , ; , , , , ; , , , , ; ; , ; ; , , , , : , , ; , ; , , ; , - , , , , ; , ; , , ; , , , , ; , , ; , ; , , , , , , , , ; , ; , , , , ; : , ; : , , ; , ; : ; : ; : , - > , > > > > : > - ; : > : , > ; , ; , > > > - > > > - , - > > , , ; , , ; , ; , , , ; , , , , - > > > - > > ; > - > > > > > - - > > > > > - > - > > > - > > > > > } } } } n n n n v n n v n n n n n n n n n v n n } n n } } n > } ; , ; , , , ; , , , , , ; , , , > , > > ; , > ; ; , , ; ; , , , , , , ; ; , : , , , , > > > } } } } } n } n n } } } > > - - $ $ $ $ # # $ # # % # $ # $ # # # # $ $ % # % # # % # $ % % # $ % # % # $ % % % $ % % $ % # % $ $ = # $ $ # $ # $ % $ # $ % % % # % # % $ % $ % % # % % # % $ % % $ # % % # # $ # % # % # % % % % $ % $ @ $ % % $ * - - > } } n m B m N ",
"n n n n n n n n n n n n n n n n n n n n n n m n n n n n n n n n n n } } } } } } } n n } } n } } } } } } } } } } > n n > n } } } } } } } } } } } } } } } } } } } v } n } } } } } } } } } } > > > > , : ; , ; , ; , ; , ; , ; , : ; , , , ; , , , , , ; , , , ; : ; , ; , , - ; , ; , ; , , ; , , , , ; ; , , , , ; ; , , , ; , , , , ; , , ; , , , , , , , , , ; , ; - , : ; ; , , , , ; , ; , : , ; , : ; > : : ; : ; : ; ; , > : ; : > > - - > > > - > > > - : : > : ; ; : > > ; : > > ; - > > , ; , ; ; , ; - , , , ; ; ; , , > > > ; - > > > - > ; > - - > > > > - - > - - > > > ; > > - > > > v } > } v } v } v v v v v v n v v n > v n v n v n v n v } > } > } , , , ; , , , ; , ; , , > , , ; , ; ; , , , ; ; , , , , > , ; , ; , , ; , : , : ; , , > > } } } } } } } } } } } } > > , ; - < & $ $ $ $ # $ $ $ $ * $ $ $ $ $ * $ $ $ $ $ $ $ $ $ $ $ $ $ $ $ % $ $ $ $ $ $ $ $ $ % $ $ $ $ $ $ $ $ $ $ $ $ $ $ $ $ $ $ $ $ $ % $ $ $ $ $ $ $ $ $ $ $ $ $ $ % $ $ $ $ $ $ $ $ % $ $ $ $ $ $ $ * $ $ $ $ $ * * - - > > } } } n n n M ",
"n } n n n n } n n } n n n } n n n n n n n n n n n n n n n n > n } > } } } } > } > > > n > } > > > } } } } } } } } > > } > } } > > } v } } } } > > } } } } > } } > } } > } } } } } } } > > > > > ; , : , ; : , : , : , , > : , ; , , : ; , ; : ; : ; : , ; : , , , , , , , ; , ; , , , , , - , ; ; , , , ; , ; - , , , ; , , , ; ; , ; , , : , ; ; ; , ; ; : , , , ; , , , , , : ; : , , : ; , ; > : , ; : , ; , , > , , , : ; : > : > - > > > > - > : > - > > ; ; : > : , > - > : ; , - : > > - , , , , , , ; , ; , , , - , , ; > - : > > > - > > : > > > > > - - > > > > > > > > - > - > - > > ; > > > v > } > } } } v v v > } v v v v v > > v v > v ; v > > > > , , ; , , , ; , , , , ; , ; , , > , , , , ; ; , , , > ; , , ; , , ; , , ; , ; ; ; , , ; , > , > > > } } > } } } } } > , , - - - - * * & * * * * * * < < * < < < < * * < < < < * & * $ & < * * * - - * * $ * * - & * * * * * < $ * < < < * < $ < * < < - $ * * < < $ - $ $ - $ - $ - $ < $ $ - - $ < $ - $ - $ < < < < $ * < $ * * $ * < * & * - - - - > > } } } } n } ",
"> } > > } } > } > } } } > } > } n > > n > > n > > } > } } > > > > > > > > > > > > > > > > > > > > > > > > > > > > } > > > } > > > > > > > > > > > > > > > > > > > > > > > > > > > > > > > , , , , ; ; , ; , ; : ; , : ; , ; , : : ; , ; , : , : ; , ; , ; , : , , , , ; , , , , , ; ; , ; , , , ; , , , , ; , , , , , - , ; ; , : ; , , , ; : ; : , : , ; , ; : , , , , , ; , ; , , ; , : , : ; : , : ; ; , : , : ; : ; , ; , : , ; - > - > > - : ; ; : ; , : , - > - > ; : > : > - : > - > ; : ; , , ; , , ; , , , , , , , , , > - - > > - - > - > > - - : > - - > > - - > > - - > > - > > > > ; > > > > > > > > > > > > > > > > > > v ; > > b v > > v > > > > > , ; , , ; , ; , , - , , , , , ; , , , , , , , ; - , , , , , , , ; , , : , ; , : , ; , , , , ; ; > > > > > > > > > , , , ; , , - - - < < - < < < - < - < - < - < - - < - - < - - < < - < - < < - - - - - - * - - - * - * - - - - - - - - - - - - - - - - - - - - - - - - - - - - - - - - - - - - < - - - - - < < - - - - - < - - - - - - - - - - - , ; , > > } } } } } ",
"> > > > > > > > > > > > > > > > > > > > > > > > > > > > > > > > > ; > > > > > > > > > > > > > > > > > > > > > > > ; > > - > > > > > > > > > > > > > > > > > ; > > > > > > > > > > > : > ; > , ; , , ; : : : , , ; : , ; : : , ; , ; : : , ; ; : , , ; : : , ; ; ; ; - , ; , , ; - , , - , , ; , , , - ; , , ; , ; ; , , - , , ; , , : ; : ; , , : ; ; , : : ; , ; , , - ; , , ; , , - ; ; , , , ; ; : , : , ; ; : , , ; : : , ; : ; > , : ; : ; , > - > : , ; ; > > - > : > - ; , > ; : > > - > , ; - , , , , , , ; ; - ; , , , > > - > > - > > - > - > > > ; > : > ; > > - - > > > - > - > - > ; > > > ; > > > > > > > > > > > > > ; > > > > > ; : ; ; > : > ; , ; , , , ; , , , ; ; , ; ; , , , ; - ; , , , ; , , , ; ; ; - ; , , , ; ; , : : : ; , ; , ; > , , > , > > > > > > , , > , , ; - ; : ; - ; - : : ; - - ; - : - : ; - - ; - - - ; - - ; - - ; - : - : - - ; - - : - - : ; - - : : : - - : - : : - - : : - - - - : - : - - ; - - - - - : - - - - ; ; - - - - - ; - - ; - - ; - - : - - ; - - ; - - - - - , , > , > > > > > ",
"> > > > ; > > > ; > : : > > : > > : > > - > > > , ; : > > > > : > > > - > > > - > > - > > > - > > ; > > > - > > - > > > - > > > , > , , , , ; , , ; , , , ; , , ; , ; , , , , ; : , , , ; , , , , : , : ; ; , : , : ; ; , : ; , : ; , : ; ; , : : ; , ; : ; , : , , - ; , ; , , ; , , ; , - , , , , , , , , ; , , , , ; , , , , ; : , ; : : , ; ; : , , ; : : ; : , ; : , , ; : : , ; ; : , ; : , : ; , : : ; , ; : ; ; , : - > : ; , : ; : , ; : ; : > ; : , : , ; : , ; ; : , - > , - > , , ; - > , , , > , , - ; , , , , ; ; - > > ; > > > - > : - - > - - > > - - > - - > ; ; > : > - > : - > : , , ; ; , , , ; , ; ; , ; , , , , , ; ; , , > , , ; ; : ; , ; , , - , , ; , - ; , ; , , , ; , , ; , , , , ; , , ; , ; , , , ; : , ; : : , ; : , ; ; : , , ; , , , , , , ; , , , , ; - , , ; : : , , - : : ; : : - : : , : ; : : : : ; : : : : : : : ; : : ; : - : ; : : : ; : ; : : - ; ; : - > - > - : ; : : - ; - > - : ; ; : : : : : - ; : : ; : : ; : : : ; : : ; : : : , : : : : ; ; : - ; - , , - ; , , ; - , ; , , ; , > > ; ",
", > : > : - > - , > , ; > - ; , : ; : ; > - > - > : > - > - ; : > - > - > - - > - > > - > - > > - > - > - > > - > > - > - > > - , ; ; , ; : ; , , : ; : , , : ; : ; , , ; , ; , ; , ; : : ; : ; , ; ; : , : ; : ; : , : , ; : , : , ; : , : , ; , ; : : : , ; : , , , ; , , ; - - , , , , ; ; - , ; ; - ; , - , , ; ; , ; - , , ; , : ; , ; , : , : ; : ; , : ; : ; , : ; : ; , ; , : , : ; , : , ; : , ; , ; : : , , : , ; > : : , ; : : ; , : , ; > - ; , ; : , : ; > : , ; , ; , , ; , , , , , , > - ; - - ; , , , ; ; - - , > ; - > : - - > ; > > > > > > - - > > > > > : > > - - > > - > ; , , , ; , : ; : , ; : : , , , , ; , ; , : , : , ; - , : , , , , , , , ; ; , ; , , , , , , ; - , , ; - , , ; , , ; - , , - , , ; ; , : ; , ; , : ; , : , - ; , , , ; ; , ; : ; , ; , ; , , , , , : ; : : ; > ; : > : ; > : ; : ; : ; ; : : ; ; ; ; : ; : : ; : ; > ; : > ; : ; : : > ; : > > - : - > > - > > : ; : ; > : > > : ; : ; , ; > ; ; , , , : ; ; : ; > ; : , ; : ; ; ; ; , ; , ; : , , > , , , ; , , , , , , , ; , , ; ; - - ; ",
"- : , - ; : - , > - ; : - : : : - - > > : ; - ; : ; - > - - > : - > - > > - > - - > > - - - > - > - > - - > - > > - - > > > - > - : - : , - : - , ; , - - , ; , : - , - , - : - ; : ; : : - , , : ; , , , ; , : ; , : , : : ; ; ; ; , ; : , : ; , : ; : ; ; , , - , , , , , , , , ; , ; , , , , - , , , , ; ; , , - , , , , ; ; : : , , ; , ; : , ; : ; : : , , , , ; ; : ; : , ; : : ; , , ; ; : : ; ; : ; , : ; : , : : : ; ; ; ; , , : , ; : , : ; : : ; , , , > - - ; , : , , , , , ; , , > , ; , ; > - > , , ; - ; ; , ; , : > - > > > > > > - - > - > : > > > ; - > - - > > > > > > - > > , : : , , ; : : , : : ; : - ; ; : : , : ; - ; - : ; : , : ; : : , - , , , ; , , , ; - , , , ; , , , , , , ; - ; , , , ; ; , ; - : : , , ; , ; : ; : , , , ; : , - : ; , , , - , , , , , ; ; , - ; ; : ; : > > : > ; ; , ; : ; : > , ; > ; : : > > > > : ; : > : > > > : : > > : ; : > - : ; : > > > ; : > > > > > : : ; > : > : > , ; > , ; , , > ; ; > , ; , , , ; , > , ; , , ; , , ; , ; , ; , , > ; ; , ; , , > ; , - , ; , , , , , ",
"; - - ; : - ; - - : - - - ; - ; - > - - - : - : - : ; - - > - ; > - > - - > - > > ; - > - > - > - > - > > - > - - > ; - - - > - , ; , ; ; : ; , - : ; : ; : - : ; : ; : ; : ; , , - : : ; : , ; ; : : ; : : , ; : , ; ; ; , , : , : : : ; ; : , ; : , , , : : ; ; ; , , - , , ; , , , ; ; , , ; ; , , ; - , , , ; , , ; , , , - , ; ; : : : ; : : ; , , , ; ; : ; : : , : , : ; : ; , , ; : : , ; , , : , : , ; , : ; ; ; , , : , : : ; ; ; : , ; : , , , : : ; ; - > > - , : ; > - ; > - > ; - ; - , , , ; , , , , > , : , , , - > > - - - > - > - > > > ; - > > - > : > > - > - > - - - > > - : ; ; - - : - ; : ; - , : ; : - - ; - ; : ; : , , - ; : ; - : ; ; , , ; ; , , - ; , , , - , , ; - ; , ; , , , , ; , , - , , , , , ; ; : - : ; , , , ; , , , ; - , ; - : ; : - ; - ; - - : , , ; > , > > > > ; > : > > > > > > > > > > : > > > > : ; > > > > > > - > > ; > ; > > > > > > > > > > > > > > : ; : > > > > > ; > > > > ; , , > > , > , > , , , > , > , > > , , > > , > > , > , > , > > ; > , , > > > ; , , , , , - - - - , - "
};
