/* XPM */
static char *portal[] = {
/* columns rows colors chars-per-pixel */
"500 415 248 2 ",
"   c #000000",
".  c #0B0C0B",
"X  c #090906",
"o  c #110E09",
"O  c #15130C",
"+  c #19160E",
"@  c #1C190E",
"#  c #141413",
"$  c #191611",
"%  c #1D1A13",
"&  c #1A1C1B",
"*  c #0F1010",
"=  c #211E15",
"-  c #221E19",
";  c #201D0E",
":  c #1D211D",
">  c #25221A",
",  c #29251C",
"<  c #272419",
"1  c #302C1E",
"2  c #1E2221",
"3  c #292A27",
"4  c #34332B",
"5  c #2D3232",
"6  c #3A3D3C",
"7  c #353836",
"8  c #2F2F29",
"9  c #1C1F20",
"0  c #413E37",
"q  c #3D413E",
"w  c #44443C",
"e  c #524E3E",
"r  c #64593E",
"t  c #3B3F41",
"y  c #3E4243",
"u  c #3E464A",
"i  c #3F4950",
"p  c #424544",
"a  c #454A4B",
"s  c #4A4D4C",
"d  c #464946",
"f  c #4C514E",
"g  c #54534B",
"h  c #4B4E51",
"j  c #464D52",
"k  c #4D5253",
"l  c #4C5559",
"z  c #525554",
"x  c #555956",
"c  c #545659",
"v  c #555A5A",
"b  c #5A5C5C",
"n  c #5A5B55",
"m  c #514E48",
"M  c #625E55",
"N  c #5D615D",
"B  c #5B605A",
"V  c #7B6C4E",
"C  c #75674C",
"Z  c #63635C",
"A  c #69665A",
"S  c #796C53",
"D  c #7D7254",
"F  c #74674C",
"G  c #5C5E61",
"H  c #555D62",
"J  c #4F5B61",
"K  c #615F63",
"L  c #5D6263",
"P  c #5D6569",
"I  c #5E6971",
"U  c #636464",
"Y  c #656965",
"T  c #6B6B65",
"R  c #646669",
"E  c #656A6B",
"W  c #6B6C6C",
"Q  c #686768",
"!  c #716E69",
"~  c #6D716D",
"^  c #6E7065",
"/  c #73736C",
"(  c #79786C",
")  c #6C6E72",
"_  c #656D72",
"`  c #716F72",
"'  c #6D7273",
"]  c #6D747A",
"[  c #737474",
"{  c #767975",
"}  c #7B7B74",
"|  c #747679",
" . c #75797B",
".. c #7B7C7B",
"X. c #797676",
"o. c #85754E",
"O. c #847452",
"+. c #8B7A54",
"@. c #887855",
"#. c #907E55",
"$. c #817E75",
"%. c #827E7B",
"&. c #887F78",
"*. c #857C68",
"=. c #7D817C",
"-. c #7E8075",
";. c #7F806E",
":. c #938257",
">. c #8D815A",
",. c #958968",
"<. c #838275",
"1. c #84837B",
"2. c #89867C",
"3. c #8C8A7C",
"4. c #8A8776",
"5. c #938D7A",
"6. c #99937B",
"7. c #8C846A",
"8. c #A49877",
"9. c #B0A37D",
"0. c #7C7D82",
"q. c #757B83",
"w. c #6E7882",
"e. c #817E83",
"r. c #7D8183",
"t. c #7D838B",
"y. c #7E8590",
"u. c #838484",
"i. c #898683",
"p. c #8C8B84",
"a. c #84858A",
"s. c #8B8B8B",
"d. c #878889",
"f. c #928D84",
"g. c #928E8A",
"h. c #8E908B",
"j. c #949284",
"k. c #9A9583",
"l. c #94938C",
"z. c #9A958C",
"x. c #9C9A8C",
"c. c #9D9985",
"v. c #8D8D92",
"b. c #858992",
"n. c #918E93",
"m. c #949394",
"M. c #9A9692",
"N. c #9C9B93",
"B. c #95949A",
"V. c #9C9B9B",
"C. c #98979A",
"Z. c #8E9193",
"A. c #A29D8B",
"S. c #A39C85",
"D. c #A29D94",
"F. c #A29E9A",
"G. c #A69C97",
"H. c #9EA09B",
"J. c #A9A38B",
"K. c #B6AB89",
"L. c #BDB28C",
"P. c #A4A295",
"I. c #AAA594",
"U. c #A4A39B",
"Y. c #AAA69B",
"T. c #ADAA9C",
"R. c #ADA995",
"E. c #B2AC9C",
"W. c #B4AC95",
"Q. c #BAB398",
"!. c #AFB09D",
"~. c #9D9BA2",
"^. c #A19EA3",
"/. c #A5A3A3",
"(. c #A9A6A2",
"). c #ADAAA4",
"_. c #ADABAB",
"`. c #A7A5AA",
"'. c #B3ADA4",
"]. c #B2AEAA",
"[. c #B9ADA6",
"{. c #B5B1A4",
"}. c #BAB4A5",
"|. c #B5B2AB",
" X c #BAB4AB",
".X c #BDB9AB",
"XX c #AEABB1",
"oX c #B2AEB3",
"OX c #BAB6B5",
"+X c #AFB0A8",
"@X c #9DA0A0",
"#X c #C5BA95",
"$X c #C5BB9B",
"%X c #C9BD9B",
"&X c #C4B995",
"*X c #C1B58E",
"=X c #C4BBA4",
"-X c #C3BBAC",
";X c #C6B9A8",
":X c #C3BCB3",
">X c #C5BBB8",
",X c #CCC19C",
"<X c #CAC197",
"1X c #D1C39D",
"2X c #CCC3A3",
"3X c #CCC4AB",
"4X c #C7C3AB",
"5X c #D2C7A9",
"6X c #CBC4B4",
"7X c #CCC5BB",
"8X c #C8C5B8",
"9X c #D3CBB4",
"0X c #D3CBBB",
"qX c #D7CCB7",
"wX c #DBD2BB",
"eX c #DED0AB",
"rX c #E5D7BC",
"tX c #EEE0BE",
"yX c #BEBCC1",
"uX c #C2BDC2",
"iX c #CAC6C5",
"pX c #D3CCC3",
"aX c #D3CDC9",
"sX c #DAD4C8",
"dX c #DBD7D4",
"fX c #D2CED1",
"gX c #E5DAC5",
"hX c #E5DBCB",
"jX c #EBDDCB",
"kX c #E4D7C4",
"lX c #E4DDD5",
"zX c #F0DECA",
"xX c #ECE1CC",
"cX c #EDE2D3",
"vX c #E9E4DB",
"bX c #F3EAD6",
"nX c #F3E8CE",
"mX c #ECE8E4",
"MX c #F2EDE5",
"NX c #F5F2EB",
"BX c #F9F6EC",
"VX c #F9F5E9",
"CX c #F9F6F3",
"ZX c #FDFBF4",
"AX c #FFFFFF",
"SX c #F6F4F2",
"DX c #E2DFE1",
"FX c #BFC0B0",
/* pixels */
"                                                                                                                                                                                                                                                                                                                                                                                                                                                                                                                                                                                                                                                                                                                                                                                                                                                                                                                                                                                                                                        ",
"                                                                                                                                                                                                                                                                                                                                                                                                                                                                                                                                                                                                                                                                                                                                                                                                                                                                                                                                                                                                                                        ",
"                                                                                                                                                                                                                                                                                                                                                                                                                                                                                                                                                                                                                                                                                                                                                                                                                                                                                                                                                                                                                                        ",
"                                                                                                                                                                                                                                                                                                                                                                                                                                                                                X                                                       X                                                                                                                                                                                                                                                                                                                                                                                                                                                                                               ",
"                                                                                                                                                                                                                                                                                                                                                                                                                                                                            X                                                               X X                                                                                                                                                                                                                                                                                                                                                                                                                                                                                         ",
"                                                                                                                                                                                                                                                                                                                                                                                                                                                                      X X     X                                                                                                                                                                                                                                                                                                                                                                                                                                                                                                                                                         ",
"                                                                                                                                                                                                                                                                                                                                                                                                                                                                      X       X                                                         X   X                                                                                                                                                                                                                                                                                                                                                                                                                                                                                           ",
"                                                                                                                                                                                                                                                                                                                                                                                                                                                                            X X                                                   X   X   X     X               X                                                                                                                                                                                                                                                                                                                                                                                                                                                                       ",
"                                                                                                                                                                                                                                                                                                                                                                                                                                                                        X                               X             X           X X     X X   X   X       X X   X         X                                                                                                                                                                                                                                                                                                                                                                                                                                                           ",
"                                                                                                                                                                                                                                                                                                                                                                                                                                                                          X X X                                                   X               X     X X X X         X X X                                                                                                                                                                                                                                                                                                                                                                                                                                                           ",
"                                                                                                                                                                                                                                                                                                                                                                                                                                                  X . # # . # * . * $ * * * * * * * * * * # * O # . . X . . . . . . . . . . . . X X X . # . * # . * * # # * . . . . . . . . # .     X                                                                                                                                                                                                                                                                                                                                                                                                                                                   ",
"                                                                                                                                                                                                                                                                                                                                                                                                                                                  & U ) [ [ W ) E R R R _ R G G G G L G N N B B b v x x v v x B v v v v v b z z z z l c l h v c v l v v v v J J v v h l c c J p . X   X X               X                                                                                                                                                                                                                                                                                                                                                                                                                               ",
"                                                                                                                                                                                                                                                                                                                                                                                                                                                  #  .V.V.V.C.^.~.B.b.v.B.a.b.a.a.v.s.v.s.h.y.h.v.d.u.a.d.d.d.d.d.d.u.a.a.a.a.a.b.b.b.b.q.b.b.b.a.q.b.v.t.y.y.y.v.b.b.y.y.y.0.H * X     X                                                                                                                                                                                                                                                                                                                                                                                                                                               ",
"                                                                                                                                                                                                                                                                                                                                                                                                                                                  X b m.s.n.m.C.B.v.v.b.b.a.0.0.0.0.r.t.t.h.d.d.d.d.u.t.d.a.r.y.r.r.r.r.0.u.u.0.0.0.0.0.0.0.0.e.b.0.y.e.t.t.y.y.a.y.q.b.y.q.q.t .                   X                                                                                                                                                                                                                                                                                                                                                                                                                                   ",
"                                                                                                                                                                                                                                                                                                                                                                                                                                                X   h B.B.Z.m.C.~.B.B.B.B.b.a.a.d.a.y.b.l.h.y.b.s.h.t.t.t.r.r.=.r.r.r.=.e.0.0. .q.0.0.q.0.y.0.q.q.0.0.y.t.t.t.t.0.0.y.q.w.q.| 5                 X                                                                                                                                                                                                                                                                                                                                                                                                                                       ",
"                                                                                                                                                                                                                                                                                                                                                                                                                                                X X 6 n.B.n.m.a... .| .. .] ` ) ' ~ ' [ ( / ~ ' E E L U Y L U Y P U L L / E E E ) _ _ _ ] w._ ` ] ] ] | I =.=.=.w.w.q.w._ | ] 9 X                                                                                                                                                                                                                                                                                                                                                                                                                                                       ",
"                                                                                                                                                                                                                                                                                                                                                                                                                                          X       X 3 v.C.m.m.' q 5 5 7 q 5 5 5 q 5 5 q q 5 5 5 5 5 3 3 5 5 5 3 5 5 5 5 3 5 5 5 q q 5 5 5 5 5 5 5 5 7 5 t 7 5 5 5 t _ ] | ] E # X         X           X                 X                                                                                                                                                                                                                                                                                                                                                                                                               ",
"                                                                                                                                                                                                                                                                                                                                                                                                                                X X X           X   9 0.C.v.m...5 5 2 : 2 2 2 : : : : : # : : : & : : & : : : : : : : : : : : : : : : : : : 2 2 : 2 2 2 2 2 2 : * 3 ]  . .w.G * X X           X X     X   X                                                                                                                                                                                                                                                                                                                                                                                                                             ",
"                                                                                                                                                                                                                                                                                                                                                                                                                                            X   X   * E B.Z.m.d.u 2 : : 2 2 : : : : : 2 : : : : : : & : : : : 2 : : : : 2 2 : : : 2 : : : : : 2 : : 2 2 2 2 : : & 7 | ] ] | l .     X               X                           X                                                                                                                                                                                                                                                                                                                                                                                                       ",
"                                                                                                                                                                                                                                                                                                                                                                                                                                  X   X             X G B.v.m.B.f q 5 5 5 3 5 2 : : 8 : : : : : : 2 : : 2 2 2 2 : 2 2 2 2 2 2 2 2 2 2 2 3 2 2 3 2 5 5 2 2 3 2 : : k  .] ) ' j .   X   X                 X       X         X                                                                                                                                                                                                                                                                                                                                                                                                             ",
"                                                                                                                                                                                                                                                                                                                                                                              X                                       X   X   X X X   X   X X . & 9 2 k V.Z.Z.m.P q q q q q i i J x f f j j j f i d u f f d i i u i u u i u j j u u u i u u u i l i u u 5 5 5 : 9 l ' ' ' ] E y 5 3 & X     X X X   X                                                                                                                                                                                                                                                                                                                                                                                                                                   ",
"                                                                                                                                                                                                                                                                                                                                                                    X                   X         X                       X       X # 9 5 7 t a a a y y Z.Z.m.B.-.u u q q u ;.r.y.y.y.=.t.t.y.r.p.=.r.-.4.;.=.r.-.r.=.=.t.=.t.r.t.t.r.t.t.t.t.t.=.r.t.r.i 5 5 2 3 L ] ' ] | u.a.b.q.E l y 8 9 # X   X   X X       X     X       X                 X   X       X                                                                                                                                                                                                                                                                                                                                                                         ",
"                                                                                                                                                                                                                                                                                                                                                                  X                 X             X         X           X . & 3 7 s R _ ` E G l u 7 5 7 r.Z.Z.Z.=.x f u t 5 5 ;.=.=.-.;.-.=.r.=.=.=.=.-.;.;.;.=.=.-.=.=.=.=.-.-.=.=._ =.-.=.=.=.=.=.t.-.i q 7 3 7 P ] ' [ ) v H R ]  .a.s.t.| c y t 3 . X                                   X                 X                                                                                                                                                                                                                                                                                                                                                                         ",
"                                                                                                                                                                                                                                                                                                                                                                                            X         X   X .   X   . 3 p v ` u.e.q.) U b s y t q 7 7 5 { B.m.t.y.N x i t 5 u ;.=.-.-.=.=.=.=.-.=.=.=.=.-.;._ ] =.-.-.-.=.=.=.=.-._ =.=.=.-.=.=.=.=.=.=.i u q 5 u ' ] ] | E U z l z h c U ) [ ) 0.v.W G k 7 #         X   X X     X X                                                                                                                                                                                                                                                                                                                                                                                                   ",
"                                                                                                                                                                                                                                                                                                                                                            X                                       X     . . * 4 f W d.n.s...` b h d d c s a s a d y 7 E C.B.h.h.Y x u q 8 q P =.;.I =.t.=.-.=.=.=.=.=.-.-.=.=.=.=.-.;.=.=.=.-.=.=.] r.] _ I t.=.=.r._ y y 5 5 i =.=.=.] '  .] _ _ L v k a u d G E [ e.a.r.{ U 7 2 . X     X   X   X         X         X                                                                                                                                                                                                                                                                                                                                                                               ",
"                                                                                                                                                                                                                                                                                                                                                                X         X                           . # 7 v { B.n.d.e./ K s k b K K K E b v G c f p 7 x C.N.h.y.;.x q q q q f =.I I =.-.-.-.-.=.I ;.;.=.-._ -.=.-.-.I I J r.J =.=._ r.r.] =.=.q. .r.P y y 7 3 B =.=.-._  . .=.=.] ] ] ) R b v l h h h v R u.v.d.r.R a 5 # X     X     X                                                                                                                                                                                                                                                                                                                                                                                               ",
"                                                                                                                                                                                                                                                                                                                                                                                  X     X X       # 5 s Y =.i...` W b b c b Q [ ..[ [ W Q U N b l a a 7 u m.H.Z.Z.=.x u q 8 q u -.=.-.-.-.I ~ I I ;.;.P ~ _ -.=.=.-.I -.I =.=.=.] ] =.] =.=.I _  .' =.v y y t 5 P ] ' ] ] { =.r.] ] r.r. .q.| ) _ ) U v k k k v E ] 0.s.a.R u 3 & .                 X                                                                                                                                                                                                                                                                                                                                                                                   ",
"                                                                                                                                                                                                                                                                                                                        X                                                       X   X     X # 3 d U { ..' U z x n b Z Q U W { { Q Q W Q U b v z f a y q q =.V.h.h.=.x q q 3 q q I -.I _ I ;.-._ ;.E P ;.-.-._ -.;.I -.;.-.I =.I ' =.] -.] =.=.=.=.=. .l y y 6 a _ =.=.]  . . .] =.] ] =. . .{ ] ] ' ~ W R E P k k a l v E  .=.r.R y 3 .     X X     X X X   X                       X                                                                                                                                                                                                                                                                                                                                                   ",
"                                                                                                                                                                                                                                                                                                            X                                       X                         X X     X 3 d W ' ..[ b g s z b Y T ! [ [ ` ` / W U U U Q Z b K n k a q q 4 { V.Z.H.=.B u q : 3 u Y ;.-.-.I ;.=.t.-.-.J -.I -.-.-.;.~ ~ ~ ;.I -.I ] =.-.] ] { ' {  . .' j p y t s '  . . .{ ] =.] ] =.] ] I =.I =. .{ ' ' _ _ ] E P N l f a f v ' r.r.| v 7 & X   X X X X   X   X         X                     X   X                                                                                                                                                                                                                                                                                                                                     ",
"                                                                                                                                                                                                                                                                                                                                        X     X             X       X         X X # 7 v ) { { ' c s z v b b ~ / ! ` ! [ ( { W Q ! Q Z T U b v c k d q q 5 E H.N.H.=.B j q q 5 q x Y I ;.-.-.=.=.I -.I -.-.-.I ' -.~ ' ' I -.I -.' ] =._ =.' =. . .=.~ u p y 7 j ] [  . . .=. . .=.=.=.] =.=.=.=.=.=. .] ' ~ ]  .' ' E P N v x j k L ) ..| E j 8 *   X   X X X X X                       X                   X                                                                                                                                                                                                                                                                                                                           ",
"                                                                                                                                                                                                                                                                                                                    X         X X                                           . 2 q Q ....U v f f b E E U Y Q ~ N N / [ ( ` W / T W T U U b v n x g d w q 5 x h.m.h.y.Y q q q 2 q B ;.' _ -.=.-.-.;.I ;.-.-.-.~ ^ I ~ _ ;.~ I -.I -.] =.=.=.=. . .=.r.E y p u 7 v .. .|  ...r. .] I _ ] I =.] =.=.r.s.r.r.=.=.]  .' ]  .E ] w.E R L k a j G ] a...G 7 & .   X X X       X       X   X X                         X                                                                                                                                                                                                                                                                                                                         ",
"                                                                                                                                                                                                                                                                                                        X       X                           X             X       X     # 3 s U [ [ U v z s n | { 1...[ ' / W Y U ! [ { / { ~ W W W T Z Z b v x f a q q 5 f h.h.h.3.;.a q q 3 q f P -.;.I =.=.=.=.=._ -.' _ -.~ ' ^ _ ;.~ ;.I -.~ _ =.=.] ' -.=. .=.L u u u 6 Y ..|  .| r.t.r.=.=.=.r.=.=.t.r.r.t.t.r.=.' ] ]  .] ] _  .q.r.r.r.' E v j a a c ) 0.0.P p 3 * X   X       X     X         X           X             X                                                                                                                                                                                                                                                                                                                     ",
"                                                                                                                                                                                                                                                                                                                                    X             X       X       X # 5 b X.=.R v z z b L W /  .r.{ { r.=.[ { Y Q ` W ^ { / ~ ~ ~ / T N B B B x f q q q 8 q j.m.r.=.;.f q q 3 q f E ;.{ -.{ =.-.{ { ;.] -.' { ( ] { ] ~ ( ' ~ ' -.J =.=.=.-.=.=.r.I i i a q u ' =.' {  .=.r. . .=.=.=.r.=.r.t.t.t.=.=.=. .r. .] =.] ] r.] t.r.r. .] ' E P B f s i J -.=.-.j 5 *   X   X               X                                                                                                                                                                                                                                                                                                                                                 ",
"                                                                                                                                                                                                                                                                                                                  X     X                                   X   & p U {  .) L z x U W ' | { { ~ =.d... .=. .{ ~ ! [ / W ~ / ~ ~ ( ~ T Z N B B B x d q q 7 7 -.Z.r.r.-.B q q 5 q w ~ -.~ =.{ { { -.' { ' -.' -.{ { -./ ' ] ;._ -.;.;.I -.=.=.t.J =.-.i u a u s -.=. .=.=.=.=.-.~ ' =.=.=.r.r.t.t.r.=.r.=.=. . . .r.r.=.=.] r.] ] ] ' { ] ' ~ _ B i u t J I ;.-.J 7 #     X X   X X     X   X       X   X   X X   X                                                                                                                                                                                                                                                                                                                       ",
"                                                                                                                                                                                                                                                                                                              X   X           X     X               X     X # p [ ..[ Y x k v N W [ ] {  . .] ~ u.Z.{ W .. .~ { X.{ { / / / ~ Y P N ~ Y N ^ ^ B x f f q q 4 E M.y.=.3.B q q 8 q p Z =.{ { { { { ' -.-.;.{ -.{ { { -.' -.' =.-._ -.-.=.=.=.r.=.=.-.;.i u u q i =. .] -.-.-.=.-.( -.=.-.;.=.=.=.=.=.=.r.r.=.]  .q.r.w.] ] =.r.=.] ]  .] { ' ' { _ E H i i u i J =.{ N 5 *     .           X     X       X           X                                                                                                                                                                                                                                                                                                                     ",
"                                                                                                                                                                                                                                                                                                                                  X             X   X   & s ) { =.Q c f U E ~ ' ~ ' ~ ' { =... . .| [ [ | ~ Y [ W ! ~ ~ ~ ~ E T N Y ( T Y U N B n g g g B B ^ l.y.=.h.Y u q q 3 q x { -.-.=.-.{ =.;.{ { ] -.-.-.-.{ -.] -._ -.-.=.=.=.=.=.=.=.t.=.P u i i y H =. ._ { =.c.p.1.4.=.;.-.-.=.=.=.=.y.r.r.=. . .q.=.] r.r.=.=.] =.] ]  .{ ] ' ' ' ] -.I -.;.l u 7 u L {  .v 5 # X   X     X     X   X       X   X   X                                                                                                                                                                                                                                                                                                                       ",
"                                                                                                                                                                                                                                                                                                      X     X                                       & p W a...Z x v Y L P ~  .' ' ~ ~ ' ] { =. .{ ' W W ~ Y ~ [ { [ ! [ ~ ~ ~ T Y ( ( ~ / ;.=.1.4.4.4.=.p.4.{ h.y.=.y.J f q q 4 q w ( =.=.=.1.r.'  .-.-.-.{  .{ =.-.=.=.=.=.] ] -.=.=.=.=.-.=.=.=.H u f a q I r.=.-.=.H.!.!.!.!.!.H.Z.j.u.2.1.( =.1.=.=.=.=.=.{ ] r.I r.r._ r.]  . .]  .I =._ ' _ -.=.J J J l u u a E ] =.~ 5 * X   X     X       X     X     X     X                                                                                                                                                                                                                                                                                                                   ",
"                                                                                                                                                                                                                                                                                                          X                         X       X   % 6 Q u. .U x z L  .{ E '  .=. .{ { ~ ' / ' =.=.{ W E ~ { { { { { / [ / T T ^ Z ;.1.3.M.H.!.!.!.!.!.!.}.T.P.u.u.A.y.=.;.x d q q q d ^ 1.-.=.u.1.=.=.=.=.=.{ -.-.=.' =.=.=._ -.=.-.y.y.=.=.-.y.y.=.J f J u i =.r.=.=.r..XpXsXwXwX0X3XFX8X X{.Y.l.j.p.-.-.{  . .{ =.r.=.r.r.w.r.w. . . .=.=.] ] ] =.t.r.] I I -.J B k p j Y  .] N 7 * X . X             X       X                                                                                                                                                                                                                                                                                                                         ",
"                                                                                                                                                                                                                                                                                                                    X       X             X # 6 Q %...b z b E {  .r. . .' =.=.=.{ ' ~ ~ ~ ~ {  ...{ W W  .{ [ ~ / } ( W / =.=.c.!.FXFXFX9X0XwXgXwXwX4XP.1.n g e.h.=.r.-.;.f q q q s ^ =.=.=.1.u.=.=.=.=.-.{ =.{ ' -.] =.=.I -.=.-.y.h.=.t.=.y.c.=.x f f q l -.r.r.r.{ B ( x.4XwXxXvXvXcXhXsXsX0XFX4XH.h.-.=.=.=.] =.t.w.w.=.r.] t.r. .=.] r._ -.t.r.] =.I =.I I ] E N f j k Y a.q.J 3 X X   X   X               X                                                                                                                                                                                                                                                                                                                       ",
"                                                                                                                                                                                                                                                                                                                            X           . 5 U a.{ K c x G W ..u.=. .=.=.=.{ ' { { ' ' ' ' ' =._ ....{ { { { { { } X.$.p.H.FX4X8X9XwXhXxXcXvX9XJ.;.r q : # . 3 X.h.y.=.-.f e q 4 q k ^ =.1.=.u.1.=.=.=.=.=.{ -.=.=.-.=.=.=.=.-.-.=.=.y.=.t.=.y.y.=.J l f q B =.r.r.r.B * O % , q ^ 6.FXsXbXMXbXbXlXhXsX9XFX+Xm.r.r.=.w.=.=.=.r.r. . .q. .r.=.=.r.r.=.=.I =.=.=.=.' ~ ' _ Y j u v ) q.] h 2 X X       X   X X                                                                                                                                                                                                                                                                                                                             ",
"                                                                                                                                                                                                                                                                                                            X                         3 f [ ..Q b c U W | [ { ' {  ._ _ =.=. .{ [ [ [ { u.0.X.X.r.W T ( } ( { i.N.Y..X0X0XsXvXbXMXlX0XT.[ w 1 @ O o o o o o - Q h.=.h.y.Y x f q q m A ;.-.-.3.1.1.r.r.1.{ -.=.=.=.' -.=.=.=.=.=.-.=.h.=.=.y.l.x.;.f f f u P r.r.r.r.f O O X o o O O @ 1 g 3.{.kXcXMXMXnXxXsXsXFXE.z.s.r.r.=.=.r.=.] =.r. .=.t.' ] =.=.=.r.=.=.r.=.=. .]  .P L k a v '  .] p # X         X   X X X   X         X                                                                                                                                                                                                                                                                                                         ",
"                                                                                                                                                                                                                                                                                                                    X           X % p [ %.W c n U ) [ | .. .[  . .=.-.=._ ' {  .{  .{ ....W [ 2.} { ^ T $.k.).4XpXwXsXvXVXMXsX{.-.g 3 @ . . o o o * O O O o ; K H.H.l.h.^ B f e q f N -.=.1.p.u.1.1.1.=.=.-.=.=.-.=.=.=.=.=.=.r.y.=.=.=.6.=.=.y.Y x J i u ~ t.t.r.=.q O O O O O o O O o o o @ 4 A 6.FXhXmXbXmXvXhXsX8X.XN.=.-.-.=.=.=.] {  .r.r.=.=.r.=.t.I =.I  .r.=.] ' =._ R L s f v ' r.R 7 . X   . X X   X   X                   X                                                                                                                                                                                                                                                                                                 ",
"                                                                                                                                                                                                                                                                                                      X                       X 7 G ..` K x K ' [ { { [ |  ...=.] ' =. .{  . .=.....} [ W [ e.&./ } 5.A.Q.6XwXsXvXbXbX0XH.^ w < X . X @ $ $ $ @ $ O O O O O $ h H.x.3.y.-.B g d q u B ;.p.d.p.p.d.1.1.1.u.=.=.=.=.=.u.=.=.=.=.t.y.=.=.h.=.=.y.y.N B J f f -.y.h.y.=.1 O o O O O o o O o o O O o X o 3 m =.Y.pXVXMXmXlXsXpXOXH.h.=.] -.-.=.{ =.r.=.=.=.=.=.r.=.=. . .=. . .{  .] ' R v s s L ] ..h 2 X X     X   X X                       X                                                                                                                                                                                                                                                                                             ",
"                                                                                                                                                                                                                                                                                                                      X X   9 c a...Q c K Q ( ' W [ { [ E { r.=.;.E  .=.=.=.=. .{ { %.$.} } f.e.D.}.4XwXhXcXbXnX0Xk.B 7 = X X o O @ O O O $ $ $ $ O $ $ O O $ w h.l.h.h.-.N x d q q x -.h.p.p.p.p.d.a.=.p.p.1.=.=.=.=.p.3.r.=.=.=.3.-.r.=.r.h.=.N x x f f y.d.y.b.-.< O @ O O O @ O O O o O O @ ; O o X . = q ^ (.sXbXMXmXvXdX8X_.N.=.=.1.-.r.{ =.t.I =.=.=.t.=.r.]  .r.r.] ' r.| | _ P k u k E q.E a # X X   X     X     X                   X                                                                                                                                                                                                                                                                                         ",
"                                                                                                                                                                                                                                                                                                          X           X # t ..n.X.K c U [ ..u...=.] ~ ' ..-.=._ {  .=.=. .X.{ / / X.$.$.&.g.G.>XpXxXnXMXMXsXJ.N 3 $ . o O O O + $ O + + $ $ $ $ $ $ $ $ $ + O 5 -.h.p.h.p.N n e q q g ;.3.p.p.p.p.u.p.p.p.h.r.1.1.p.p.r.p.r.r.h.=.y.r.=.=.3.y.=.N x J i B t.y.h.h.B ; # ; # O @ + o O + O O + O * $ + + o o . . % 7 W  XvXMXbXbXdXpX4XI.4.<.p.} =.-.=.-.I =.I =. . . .r. .]  .0.a.] ] ' R v k a v '  .G 5 X   X X   X X       X   X     X                                                                                                                                                                                                                                                                                               ",
"                                                                                                                                                                                                                                                                                                                  .   3 W n.a.! b U X.X.r.u.....=.=.=.-.' '  ._ ' =.] { | { { $.2...( z.;X>XpXhXMXMXlX.X[ 4 O O o O O + O + O O + + + O @ # $ $ $ $ $ $ # + $ > ;.H.H.l.1.^ n f w q g ^ p.p.h.p.p.d.h.h.h.h.h.p.u.p.r.=.r.r.t.=.=.=.h.h.h.h.Z.=.H B x f ~ h.h.y.b.f @ @ ; @ @ @ + @ + + O + O + + $ + + # o O o + . O # w $.4XvXVXMXvXsX7X{.z.3.-.-.=.=.=.=.=.=.q. . .]  . .0. .r. . .] ' R P z p a b r...j &       X   X   X     X                                                                                                                                                                                                                                                                                                     ",
"                                                                                                                                                                                                                                                                                                                  * y X.s.%.U b ! { u...=.=.=.=.=.] ' ' =.-._ '  .{ ] W W { { } 1.x.[.7XsXcXbXbX0Xh.m O X o O O + O O O O @ + + $ + O @ + + $ $ $ $ $ $ $ $ + = Y N.x.x.h.~ B g e q e ^ p.p.h.p.p.h.h.h.h.h.h.p.h.p.p.p.3.=.=.p.h.h.h.y.y.x.Z.;.B B x g ' r.u.b.t.w @ @ @ # @ @ + @ @ @ + O O + + O O @ @ O O o + O + $ o X > M S.wXMXMXcXsXpX.Xx.=.-.-.=.=.=.t.q.q.q. ... . .]  .r. . . .' ~ R P f u x ] 0.L 5 X X               X         X     X                                                                                                                                                                                                                                                                                     ",
"                                                                                                                                                                                                                                                      X               X                                         3 c a...K b Z Q X...{ X. .=. .' =.] ' E ] r.{ ] ........W { 1.x.|.7XsXvXBXlXY.! 4 o o o o o O O O O $ + + + $ $ $ + O + @ + @ @ @ = @ $ = $ = = g x.h.h.l.-.N B e q g Z p.h.h.h.h.h.h.h.h.h.t.h.p.p.r.h.p.y.h.h.h.=.h.h.=.y.y.;.B B f x -.=.p.p.-.4 O ; ; % @ % @ @ @ O + O + + + O O @ O # @ O + + O O o o X o O 0 $.-XvXbXcXdXpX+XZ.-.=.=.r.r.0.r.q. . . . . .{ ]  .t.r.] ' ' _ L v j k N ]  .y #   X X X X       X                           X                                                                                                                                                                                                                                                                       ",
"                                                                                                                                                                                                                                                            X         X   X                           X     . 6 [ a.` U U ! [ X...| ` X.....{ [ =.{ r. .] =.] _ ' =.=.=.3.H..XpXhXlXSXsXl.g - o o O O o o o O O O O # @ @ $ % @ @ @ @ O @ @ @ @ $ = $ = = = = = d l.z.z.l.2.T n g w g Y 3.l.f.h.Z.Z.l.l.h.h.h.h.p.3.=.h.h.h.h.h.h.y.p.h.p.N.h.~ P B x B 1.1.p.j.( 3 = = - = ; = @ $ = O $ + $ + O + + + O O + + O + + + o + + o o o o 1 S (.cXMXcXkXsX:XH.=.-.=.0.q.0... .=.] ] r.r...0.| ' ] { { _ I P l i x _ =.v 2 X X                                 X                                                                                                                                                                                                                                                                             ",
"                                                                                                                                                                                                                                                                                    X                     . s  .} W U `  .......X.[ X.e.0.X.{ r.u.r.r.=. .-.;.( { } f.P..X0XlXMXNXpXi.6 O o o o O O @ @ @ O O O O @ @ # O % @ $ @ @ @ @ @ @ ; @ = @ $ ; = = = = 7 p.D.z.h.f.^ N x w m A =.h.l.h.l.N.m.h.h.h.h.h.h.r.h.h.h.h.p.p.h.p.p.t.h.H.3.^ Y B x N d.i.f.h.Q , = - - = $ = = = = = ; + ; $ $ $ + $ + $ + + O + + + + + + o O o o o O > m G.hXmXvXhXsXFXU.=....... ... . .{ t.a. . . . .] { ' ' ' _ ~ B f u L -._ y * X X               X                     X                                                                                                                                                                                                                                                                     ",
"                                                                                                                                                                                                                                                                X                           X X     X X 3 b ..) c ! u.g.e.{ ..X.X.X...q.e.0...u.r.=.=.=./ E Y / 3.U.8XpXsXMXMX8X&.8 o O O o + + @ O @ O @ # O @ @ # & & % % % % = @ $ = ; ; = ; = = ; = = = < < 1 <.U.H.N.l.( M n m g Y { j.M.N.x.m.m.j.h.p.h.h.h.=.h.h.p.h.h.p.d.h.p.h.h.m.=.Y A N B / g.l.M.g.n , - , - = - - = = = - = - ; ; $ $ = % ; $ $ $ $ $ + + + + + + o O O O O o O $ q 6.pXMXbXhXsX8XG.3.<.-.{ =. ... .q.0. . .|  . .{ ] =.' P P H f u k ( { k :   X X               X         X       X                                                                                                                                                                                                                                                                     ",
"                                                                                                                                                                                                                                                    X                             X                 . 7 W X.K b [ ..u.d...u.v.u.......X. .....0.{ { ' / ~ / =.P.FXaXlXMXMX8X;.8 o o O o O $ O + O @ O @ @ @ @ # & @ ; % % % = ; ; ; = ; = = = > < ; > < = < = = 8 / U.Y.N.x.{ U Z n g Z / h.x.N.x.Z.x.l.l.l.l.h.h.3.h.3.h.h.h.h.h.h.h.h.M.m.=.~ ^ N B ;.g.g.g.f.m - , - , - , - - - = = - - = = = = = = = = $ ; + $ + + + + + + o O $ $ O O $ $ o o 6 i.sXMXmXcXsX:Xz.{ ] =.r. . .0...q.w. .] } ] =.] { ~ I I E P i i E r.P 3 X X   X                                   X                                                                                                                                                                                                                                                               ",
"                                                                                                                                                                                                                                                            X                   X             X   & z ....Q K ! ....1.e.[ u.s.0.........[ ! X. ./ ~ / ^ ;.j.FXwXsXvXVX8X;.4 o X o o o o + + @ + @ @ @ @ $ $ ; & % % % % = - % = = = = = = = @ < = < < < - < = < 8 A D.P.U.I.l.=.( / n n / l.M.M.N.M.N.H.x.M.x.l.h.p.h.p.p.p.h.h.l.l.l.h.N.M.u.1.4.;.T 1.h.l.g.u.0 - = - , , , , - - - - - - = = $ = = = = = ; $ = @ @ $ + + + + O + O O + + + o O # X # q 1.wXbXbXdX0X!.x.r.=. .| r.r.u.r.=. .{ =.-.=.] -.I =.I ' P f a L  .E q *   X   X                       X                                                                                                                                                                                                                                                                       ",
"                                                                                                                                                                                                                                                          X         X     X             X X     5 ! ..W v Q W ..{ {  .u.v.d.0.e.e. . .../ [ { W ' ~ / p.!.8XdXmXMXpX( 4 O o O @ O O O + + + @ $ @ O # % @ : ; & & = = % > = % > < = = = > , , , , , , , 4 0 m n g A D.Y.U.H.N.l.j.1.Z Z T s.D.z.N.N.m.x.M.N.N.M.l.h.h.h.h.h.h.h.h.m.l.H.N.z.i.p.=.;./ u.l.l.h.l.( M m 0 1 < - , - - - < , - - , < = - = - = - = @ @ = % + + + + $ O O O $ $ + O O + O O X * q j.lXbXlXdXpX+Xd. . .r.q. .] { ] ' I _ =._ -.-.=.=.' ] P z s l { =.l #   X X     X X           X         X                                                                                                                                                                                                                                                                 ",
"                                                                                                                                                                                                                                                                                            X 7 ..d.' c E { ....| | ..u.d...[ 0.0.0.=.1.^ U W / E -.H.8XsXvXVXvXf.4 O o o O @ O + + + $ + + + $ % @ % ; = : ; = = = = < > % < > < < < < = > , 8 7 m M ^ $.2.f.p.( A l.F.N.V.M.1./ ^ n n ^ f.D.N.H.m.z.m.m.N.N.N.N.Z.m.l.l.l.h.h.h.l.x.N.N.m./ W ~ ~ ~ p.m.l.p.M.G.M.z.g.&.Q m 0 4 1 , - - - - - , , - - - , - - = = % % @ % @ + + $ + + $ o $ $ $ O O O o o o O q P.xXmXlXsXFXN.=.=. . . . . .=.=.] -.-.] I I _ ]  .' B z a j ~ | G 3 X   X           X                                                                                                                                                                                                                                                                                 ",
"                                                                                                                                                                                                                                                  X                   X         X         # p %...W ! .. .1.| '  ...=.r.....{ ..| 0.u./ ~ ^ Q / d.FXsXvXMXvXJ.q + O O O O O O @ + $ = $ $ ; $ $ % % % & $ = = = = = % > = > > > < = > 1 4 w n $.f.x.z.z.M.z.g.$./ Z u.U.N.M.l.T B A n n W u.G.F.H.H.N.m.x.x.N.M.N.N.N.N.N.N.x.Z.j.Z.N.H.V.p.Q n B g ~ M.M.M.h.p.l.z.D.G.G.G.M.k.&.! g 0 1 - , = < - , = - , - - = = % % % @ = + $ + + + + + + $ + + O O O O O o X @ g OXvXMXxXsX.Xp.~  .r. .{ ' ' _ _ _ =.I =.=.' ' ] P ~ P u q v  .U 5 X X                                                                                                                                                                                                                                                                                             ",
"                                                                                                                                                                                                                                                              X X                   X   # x X.W K b ! { ] / =.' [ ' { =.u...0.0.0.e.%.{ ;.;.-.!.iXlXNXNX+Xx # X O O O + O + $ + @ $ $ $ $ = = ; = = = - = = < - > - = < , - = , 4 0 g T &.g.D.D.D.M.z.g.3.$.! A Z m } ).P.H.N.1.{ { ^ n Y <.N.U.U.U.N.m.x.N.N.N.N.N.M.M.N.H.N.N.M.l.M.z.C.2.} ( ^ Z ..C.N.m.l.=.! ! } <.i.j.z.Z.N.D.D.l.} M m 0 4 , - - , - = - - = - - - - ; ; @ ; $ $ $ + $ ; + + + O + O O + @ O X : ! 8XMXvXgXiXU.s.=. . .{ -.~ ' ' _ -.] ' =.' ' ' / ' B u y v U ] y . X                             X                                                                                                                                                                                                                                                             ",
"                                                                                                                                                                                                                                                                                X X X 9 v ..W b Q ` [ a.d.r.' ' ~ =...{ X.[ u.%.%.X.( $.4.A.FXsXvXSXaX-., o O O O O + + $ + $ $ = = = = = = = - - < , - - , < < > , < = > 3 w M ( f.z.D.D.D.z.f.2.} ( ! T ^ ! ( ^ M / F.N.N.V.l.1.{ ( Z A } z.U.Y.P.N.N.M.N.N.N.N.x.M.x.x.l.x.x.x.N.x.x.N.p.$.$.( T i.G.D.V.N.p.%.W ^ ^ T A ( ' 1.h.z.x.D.D.A.e.! g 4 , , , - , < - > < - - - - - = = = ; $ $ $ + + + + + $ O O O O @ @ o 4 3.dXbXvXsXFXN.} { [ _ ~ ' -._ =._ _ _ ] _ ' _ _ L l j p a E ] j #   .   X     X     X                                                                                                                                                                                                                                                                       ",
"                                                                                                                                                                                                                                                  X             X                 X 3 E u.' b N [ { ..s.s.d. ./ / %...[ ` ` u.{ { %.( p.}.9XxXMXmXl.q X O O o @ O + @ + + + $ = = = = - - - - = - < - < < , - - - < 8 w M $.z.D.D.D.x.g.1.( X.! ` / X.*.&.$.%.} / Z T D.U.H.U.M.p.-.( A T } z.G.U.G.N.D.D.D.N.N.x.N.N.x.x.x.x.x.x.M.x.z.x.i.1.1.! ! l.N.V.G.M.m.z.f.i.2.;.^ ( ^ A ^ / -.2.j.D.D.G.G.g.Q n 4 , , < > > < > - - = = = = = = = $ $ + + + + + $ $ + # @ @ * o . O s +XmXbXsX0XT.d.X.~ ~ E -._ =.] r.=._ _ _ { ~ E P c l y a ~ =.l # X                                     X                                                                                                                                                                                                                                                 ",
"                                                                                                                                                                                                                                                          X             X         8 ` u.W U Y { .. .Q 0.B.l.s.d.a.a.......d.0.X.X.2.U.8XsXvXVX6Xn ; X X O O o O + + + + + @ = % = = = = = - = = , - < , - - , 3 7 M $.f.D.U.D.z.j.4.$./ T ( 2.f.f.f.f.f.f.i.1.1.} Q A D./.U.Y.N.f.2.( ^ A <.k.D.P.D.P.D.D.P.N.M.N.N.N.N.N.N.M.M.x.N.M.M.x.i.2.i./ ( D.N.V.N.N.H.M.g.p.s.h.3.;.<.1.( / ^ A T $.e.z.e.G.G.g.&.A d 4 < - - < < = - = = = = = $ = $ ; ; $ $ $ $ $ $ O # # @ + $ O . : ^ xXbXgXpX8XN./ ~ =.' E =.' w.w.] ] =._ ' / ' R L L j u Y =.J &   X     X                   X                                                                                                                                                                                                                                                         ",
"                                                                                                                                                                                                                                                            X               X X 5 ) { E b W [ ' [ | =...r.m.d.s.u.%.[ i.e.[ | { i.].dXvXZXdX5.4 X @ @ O # @ O @ O + ; @ $ = = = = - < - - - = - - - , - < 3 e ! f.N.D.F.N.z.1.( ( } <.5.2.j.Y.D.x.M.M.z.g.p.i.f.1./ T m.+X/.Y.H.j.2.-.} A ( 5.P.I.U.P.x.N.D.P.x.x.x.N.N.H.N.N.N.N.N.F.U.z.f.3.2.! $.G.G.N.N.H.I.H.N.N.x.N.p.4.N.j.p.p.p.$./ T T ! $.%.g.z.D.G.M.$.n 7 1 < - , - - - - = = = - - = = $ = + + $ $ @ # $ $ $ $ + O o O 4 R.bXMXdXaXH.-.=.-.-.' =.=.w.r.] E _ ] / ' W E E L j y N =.P 3   X     X                     X                                                                                                                                                                                                                                                     ",
"                                                                                                                                                                                                                                                      X         X     X     X 6 ` ..W E [ [ W E }  .' ~ { u.=.r. .{ Q ` ..X.1.M.8XlXMXBX8Xg O o O o O O O @ O O ; + O = ; = = $ = = = < < < , , < , < 0 g } l.F.D.D.z.i.1.$.} $.i.f.j.l.D.P.U.U.D.l.M.D.M.l.f.s.i.X.^ p.)./.T.Y.z.3.4.-.^ ( j.I.I.P.x.P.P.D.x.x.N.N.x.N.N.N.P.P.P.N.U.U.z.f.p.%./ 2.G.D.N.H.N.H.H.H.x.x.N.l.3.P.m.l.l.h.s.f.2.%.*.` K A X.p.g.M.M.A.g.K w 1 - , 3 - - < - - - - = = = ; = $ + + @ # O @ $ $ + + O O X % ^ pXmXlXpX8Xl.r.=.' _ ] w.w.r. .] / ' ' ' ) E R P k q N ' L 3 X   X         X   X                                                                                                                                                                                                                                                               ",
"                                                                                                                                                                                                                                                X                         # d X.W Z W ~ { .. ...} ~ E ' ..a.u.u./ E W X.` d.].pXvXNXmXf.3 X o o O O O O O O @ @ ; @ @ ; ; ; = = = - < - - - - - 1 w M p.M.D.D.z.g.2.( &.2.z.M.l.M.M.V.F.(.'.(.G.U.F.F.U.N.z.g.g.p.%.T <.U.T.+X!.N.j.3.4.D ( 3.I.P.P.P.D.U.P.D.N.N.A.x.P.D.P.U.U.P.D.P.U.z.f.f.<.[ l.V.D.P.N.N.H.x.x.N.H.H.l.m.m.M.x.M.N.x.M.M.g.g.e.&.Q T T X.*.2.z.D.D.g.*.m 4 , - , - - - , - - - = = $ = + @ @ @ # @ + + + O O @ o O X 6 U.MXvXdXpX!.-.-.-.-.r.r.w. .' / ' ] ' ' ' ~ L B l i k E ~ 4 . X                                                                                                                                                                                                                                                                             ",
"                                                                                                                                                                                                                                                                    .   * v 0.` E Q | {  ...r. .] W ~ [ [ | =.1...W X.` %. XdXvXNX7Xn $ X O O O @ @ @ @ # @ @ @ ; @ @ < ; > > ; = = - < < , 8 w T f.M.G.D.D.f.} / 2.2.M.M.U.F./.U.U.).).(.(.U.U.].D.D.D.M.z.z.j.p.1.~ { U.).)./.P.j.5.4.^ ( 4.D.Y.I.I.N.P.P.P.D.D.D.D.D.D.P.U.U.U.G.E.I.l.f.4.&.} D.D.D.P.P.x.x.x.H.H.H.x.x.P.Z.M.z.x.N.U.U.G.G.D.g.f.z.i.%.$.T K ( &.z.g.G.z.e.A 0 1 1 - , , - - - = = = = = @ @ @ @ O + $ + + O O O O O o = ( dXmXvXaX!.=.=.] ' ' ] ] ' ] ' ' ] _ ] E P Y P f y f  ._ 7 X     X             X                                                                                                                                                                                                                                                         ",
"                                                                                                                                                                                                                                                                      * z s.{ B { =. .{ [ =.{ ' ' ~ [ ..) W W ~ r.{ -.Z.yXhXMXbXS.4 O o + @ O + + @ @ $ $ $ = = = = = = = = < < - - , < , m ( f.D.D.M.z.1.$.%.%.2.x.M.U.U.F.U.U.U.H.P.H.H.N.M.P.U.N.x.x.z.z.z.j.p.2.( ! I.'.Y.).U.j.4.;.S ^ 4.D.!.R.I.H.G.G.G.A.I.G.G.I.D.G.I.P.Y.U.'.Y.f.p.4.%.&.G.D.F.Y.P.N.N.P.P.H.N.x.N.x.x.x.x.N.N.H.H.H.N.N.M.h.l.M.l.p.-./ ^ ^ ^ { z.N.N.z.1.Z 7 , 8 1 > > > > > - - - = = $ = + + + + + + O + O O + o O u FXVXvXdXFXl.;.{ | E | [ ] { ] ] -.] ~ I P _ N j u z ' ' q X   X   X                                                                                                                                                                                                                                                                   ",
"                                                                                                                                                                                                                                                  X         X     X # k ' ' L T |  . .u.{ ] ' [ | {  . ...{ / W p.5.!.sXvXNXdX( = o + O O O O O @ $ $ $ = ; ; = = = = < < = = , 1 - 8 d ( g.D.F.D.2.( ( $.2.3.f.f.g.M.z.j.x.N.z.x.x.N.x.N.A.x.x.l.D.x.z.k.z.k.f.4.4.( ^ P.)./.Y.U.j.4.;.^ ( <.J.R.Y.P.U.R.G.P.D.P.P.G.G.G.G.P.G.Y.Y.'.G.f.5.4.} &.G.D.P.P.P.N.N.N.x.N.x.x.c.x.H.x.M.N.N.N.x.N.H.M.l.h.N.M.j.h.h.1.} [ ^ Z T { p.l.N.N.p.M 7 1 , > - > > - - - < - = $ = $ + = + + + + O + + + o X 3 p.vXMXfX8XH.d.[ E [ | {  .-.=.=.' ' _ -.=._ Y B y a ~ ' q X X           X     X                                                                                                                                                                                                                                                     ",
"                                                                                                                                                                                                                                                                  # z =.~ N ~ ] ~  ...=.' { [ ' {  .0.e...[ -.-.h.4XxXMXVXFXf O o o o o + + + + $ % $ $ = = = = > > = - - < - = - w ( z.F.G.N.z.$.^ X.2.p.f.p.z.M.z.N.z.z.z.j.l.x.J.D.A.H.H.D.x.z.z.x.k.k.x.x.5.2.<.( T z.{.!.T.U.k.4.<.D D 4.S.R.E.I.Y.T.Y.R.G.G.P.I.G.U.U.I.P.Y.'.E.D.5.3.2.[ j.U.F.I.P.A.x.P.N.c.x.l.x.x.j.N.x.M.N.z.N.N.N.M.M.N.N.x.M.h.j.h.p.p.1.1.<./ A / { p.M.M.x.p.Z 7 , , > , , > > > - = - = = = = @ @ @ @ + + + $ + o o O ^ aXMXsX8X'.h.{ [ [ [ ] ] _ ] -._ ' =.=._ P N B y f ~ ~ u .   X                                                                                                                                                                                                                                                                   ",
"                                                                                                                                                                                                                                                          X   X # L .. .E ~ =.' ' ~ {  .=...{ ....X. .%.X./ } j.FXdXNXNXH.5 X # O O O O + + + + $ % = $ ; = = = ; > < < , , , 0 T 6.U.U.z.$.} &.$.$.p.g.f.l.l.l.j.z.P.z.k.z.x.j.P.A.c.x.J.A.z.x.x.x.z.z.z.k.k.j.3.4.7.S 3.E.E.).'.x.4.4.4.^ 4.j.Y.Y.T.'.T.Y.[.E.I.I.G.I.I.Y.I.I.Y.'.E.z.z.5.2.*.A.(.Y.Y.P.N.N.P.c.N.A.N.x.N.N.H.H.N.N.m.N.N.x.N.z.N.P.H.H.l.l.l.z.h.h.p.p.=.-./ U Y { 1.z.x.N.1.n 8 - 3 3 - 3 > < < - = = = = = ; @ $ ; + + + + @ O o o q FXNXDXpXOXm...W { { ' ' { ] ' ] =.] ~ ~ _ L v u a ' r.y X     X               X                                                                                                                                                                                                                                               ",
"                                                                                                                                                                                                                                                    X         # v r.{ P _ Y E r.=.{  .]  . .....0.X.` X.{ X.x.0XvXmXvX{ - o O O O O + + @ + + + = % % = = = = = = > < > , 7 A f.A.z.M.i.X.^ $.z.M.f.f.z.M.N.x.z.z.M.N.N.z.z.z.z.x.3.6.x.A.S.D.z.A.x.c.z.x.k.k.x.j.4.<.( 4.T.{.{.|.P.5.3.7.( $.f.W.(.Y.).E.G.I.(.W.G.G.W.I.Y.I.Y.Y.'.E.A.x.3.2.4.G./.Y.I.Y.x.Y.R.A.H.A.A.H.P.!.H.T.U.H.N.P.N.N.D.M.U.U.V.U.M.x.N.N.Z.x.h.h.s.p.=.{ ^ ^ A [ 4.l.m.g.( g 3 = , < = - - < - - - - = = = $ = ; $ $ + @ O O @ o 8 x.mXDXaXiXd.~  .-.] { '  .] ' =.] ' _ ~ E L x u f E ] p . X           X                                                                                                                                                                                                                                                     ",
"                                                                                                                                                                                                                                                            O k r...N U {  .~ { =. .{ ~ [ ....0...( { / =.U.dXvXNXpXB # . O O O O O + @ $ $ $ = % = > % = = - - > = - 8 M i.G.z.f.f.$.X.2.l.M.z.G.G.l.z.z.M.N.z.l.x.A.Y.T.P.x.x.z.6.c.x.A.A.x.x.A.x.x.z.z.x.A.k.j.5.4.*.7.Y. X}. XY.c.6.4.4.*.4.R.'.'.Y.T.T.E.[.W.I.U.I.I.Y.Y.Y.I.'.E.x.6.f.4.2.(.].U.Y.I.x.T.T.P.P.H.P.P.P.!.U.U.U.D.D.D.P.M.V.U.Y.+XU.V.N.m.x.x.N.x.Z.h.h.m.M.p.=.1.} T T { 2.g.M.l./ 7 3 3 > < < , - - - - = = $ = $ + $ ; $ @ O @ O o o # ;.DXmXdX8XN.=.{ { ' ~ ' ] { =.] ' ~ ' ~ E E P j f | r.a . X   X                                                                                                                                                                                                                                                           ",
"                                                                                                                                                                                                                                                  X       * k =.' L E '  .{ | ~  . .{ {  .{ { [ ~ { %.2.!.dXNXNX.Xw O o * + O $ + $ + @ $ $ % = % = > = - < , 3 , < w ( D.D.D.&.! ( $.3.z.z.N.N.x.M.z.z.x.z.z.M.x.z.P.P.N.P.x.x.x.k.A.A.A.D.D.A.A.A.x.z.A.A.I.z.k.f.5.4.;.R. X X X'.A.k.f.7.*.5.A.E.E.W.T.R.E.Y.T.I.W.G.I.U.W.G.T.}.P.x.k.z.2.z.'.[.E.T.D.A.I.I.R.P.P.P.H.!.!.H.H.P.U.N.P.P.P.H.H.U.U.U.P.N.N.N.N.N.H.Z.x.N.M.Z.l.h.h.z.=./ Z A ..l.M.N.f.n 4 > , , < < - - - = = = = = = $ $ + O @ O @ @ O O O B aXMXdXiXH.=.;.{ / / ' _ ] _ -.] ' ' _ _ ~ B i k | q.7   X .       X     X   X X                                                                                                                                                                                                                                       ",
"                                                                                                                                                                                                                                                      X . s  .R B P ' ' ' { .. .' {  . .X.{ W ~ ~ { s..XcXNXNX).5 X O O O O O O + $ @ $ = = % = = = - > < - 3 1 0 T j.G.z.i.( ( $.2.g.A.z.z.x.N.N.D.z.z.M.x.x.N.N.N.N.Y.U.J.P.R.x.x.P.A.D.A.A.A.A.A.D.J.I.G.A.A.A.S.5.4.;.P. X X X[.A.S.k.4.*.3.G.{.'.E.(.[.'.E.T.E.).W.E.W.E.Y.T.{.I.k.x.6.4.x.'.).'.R.P.P.Y.T.P.P.P.P.H.R.!.H.P.U.I.P.D.V.P.P.P.U.U.P.N.N.B.x.N.N.N.x.N.N.N.N.Z.s.Z.M.p.u.-./ A ! ..f.M.N.i.m 3 = , , - - - - - = = $ = $ = = @ @ @ O O O O o O e yXmXdX8XH.~ ^ [ ~ { =.] ] ' =.' -.' ] =._ E a s ' ' 7 X       X                                                                                                                                                                                                                                                     ",
"                                                                                                                                                                                                                                                      X d u.{ L E ] ] ] _ {  .{ | {  .{ { ) Q | Q <.OXvXMXNXl.2 . O O O # O + + + + ; ; = = - - - - - - < - , m i.G.D.i.( ! ( $.p.f.l.D.z.N.N.N.x.x.x.x.x.N.N.D.A.P.x.U.{.N.A.A.A.D.J.I.A.A.D.A.G.G.I.G.R.W.G.A.A.S.k.5.7.x. X X X{.I.A.6.7.$.5.A.}.E.E.'.}.E.E.E.[.[.W.'.E.E.E.'.'.J.x.S.5.4.J.E.).{.!.J.R.R.Y.R.P.P.R.P.U.Y.)./.Y.U.U.N.U.P.N.N.P.H.H.x.N.x.N.N.N.N.N.x.x.H.h.l.h.M.N.p.h.p.1.( T Y ~ =.h.N.l.! 4 - , - - - , , - = = = = $ $ $ $ @ + + O O O O o 4 {.MXlXaX).;.~ { {  ._ ] r.=. .' '  . ._ ~ v y f ] ' 5     X X     X       X                                                                                                                                                                                                                                       ",
"                                                                                                                                                                                                                                                X X X y 0. .W W =.r.=.] ' { { ] r. .{ ' W [ | 1.p..XvXNXvXr.< o * O * + O O O + ; = = = = - - = < - , , = 0 T z.D.x.2.( } $.2.f.l.M.z.M.M.D.M.x.H.P.x.x.x.P.A.N.P.U.D.!.Y.D.P.x.A.J.A.J.A.D.P.J.J.I.I.I.G.I.J.G.A.c.6.6.,.j.}. X X}.E.A.S.5.*.5.A.'.[.'.[.Q.'.E.E.E.Q.'.'.E.E.'.{.}.P.A.8.4.3.P.T.'.{.T.I.R.T.Y.R.U.R.R.P.Y.!.!.{.!.Y.U.Y.U.Y.U.P.P.P.D.N.N.N.N.N.N.H.N.N.Z.l.h.m.m.N.H.N.l.Z.j.2.1.{ Y Y ( p.l.G.e.n 1 , , - , , - = = = = = = % % $ @ + + O @ O O X < x.vXvXaX|.u.-.=.=.r. ._ ]  . .] { ' _ ~ { x u j { ' 3 X X                                                                                                                                                                                                                                                       ",
"                                                                                                                                                                                                                                                  X q d...L )  .] E =.' ' =.] r...} { ' Q  .[ u.7XcXVXlX^ # O O O # O O O O @ @ = - - - = , - - - < , 3 m 2.z.z.l.1./ %.f.l.l.M.x.z.x.N.D.N.D.N.x.N.U.N.A.N.x.N.U.Y.Y.I.N.A.N.A.G.I.I.S.G.I.I.P.D.E.E.Y.I.W.W.I.J.S.S.6.6.6.'..X}..X}.A.x.5.*.4.S.E.}.;X}.}.[.'.E.'.'.Q.E.E.E.[..X}.P.x.k.5.k.!.!.{.+XT.T.T.Y.T.T.T.!.P.R.T.).Y.+XT.I.U.I.P.I.Y.U.U.P.H.P.P.H.N.H.N.N.N.H.l.N.x.z.N.P.U.Y.H.z.Z.p.p.p.;./ Z Y ;.k.g.z.T 7 - , , , - , - = = = = % @ $ @ @ O @ O O @ o o & 5.mXvXsX.X=.-.r.q.w.] ] _ =.] ] ] ] { E I l u v  .E 2 X         X   X                                                                                                                                                                                                                                         ",
"                                                                                                                                                                                                                                                X 3 ` 0.U R  . .] { =. .=.] { r.0.[ [ ) ..{ 2.:XvXCXdXB . O O * O + O @ + @ @ ; = = = - - - , - < - 4 T A.G.f.i.%.} 2.f.l.z.D.D.z.l.M.D.P.D.N.N.N.P.P.P.A.N.P.A.P.Y.U.H.N.N.x.A.I.R.J.G.G.I.P.A.I.R.W.I.I.I.J.J.J.S.S.8.6.6.W..X.X-X}.J.A.5.,.,.S.E..X}.}.=X}.Q.&X'.[.E.Q.'.[..X.X}.P.A.6.6.J.!.}.{.{.{.Q.!.E.E.!.!.!.!.T.).Y.T.!.).I.U.U.I.U.Y.U.I.Y.U.U.H.U.P.N.N.N.N.P.N.l.N.N.x.m.N.H.m.N.z.h.h.j.3.-.;.^ N ( g.z.G.2.m 1 3 , - < - = = - = = > % % = @ O @ @ O @ @ . # -.mXvXsX+Xr.=. .] q.] ] =.=.{  .' ' ' P Y B d x  .B # X X         X                                                                                                                                                                                                                                         ",
"                                                                                                                                                                                                                                                3 W v.[ W | .. .r...] 0.r.] { ' u. .' [ -.h.8XvXSXdXx . o O * # O + @ @ O @ ; ; = = - - - - - - , w 1.M.k.f.$./ 2.f.p.M.z.D.D.z.z.M.D.D.U.U.U.U.A.l.N.P.P.x.x.D.Y.U.I.P.x.x.P.I.R.G.I.G.I.J.A.E.'.R.I.I.R.I.W.I.I.J.J.J.6.5.W..X-X-X[.G.k.6.5.,.S.T.-X}.;X}.;X'.E.{.Q.{.}.{.}.}.-X}.P.x.6.6.J.{.{.|. X{.}.}.T.!.T.{.'.T.T.E.Y.{.{.Y.U.Y.T.Y.Y.Y.Y.Y.Y.Y.H.Y.U.Y.T.P.P.P.P.H.A.x.N.x.N.N.m.N.H.M.z.Z.l.h.=.h.3.;.Z / &.g.A.g.A 4 , - - - = = - = = = = = $ = $ @ @ O @ o + O $ ( vXvXaX+Xs.r. .) I =.] _ ] ] _ =.-._ ' P l y l _ v % X X X       X                                                                                                                                                                                                                                       ",
"                                                                                                                                                                                                                                              # b 0.{ [ .. .q.0.=.q. .r.r.r.E P =.=.{ ..M.iXmXBXaXg * # # O O # @ $ @ $ @ ; = = = - = , , , - 1 n l.D.g.2.$./ $.D.x.f.D.M.M.z.z.z.M.D.D.V.P.P.Y.T.x.P.R.I.N.J.D.D.P.I.I.x.J.Y.Y.E.G.I.I.I.I.G.}.[.E.E.E.W.W.W.G.J.J.A.J.6.3.I.-X[.[.;XG.S.S.6.7.6.W.;X-X[.=X}.}.=X[.{.[.[.[.}.}.-XE.A.J.k.6.R.}.{.{. X}.}.}.{.{.{.{.{.{.T.'.!.T.T.T.).!.{.).T.Y.U.Y.U.U.Y.Y.U.Y.Y.P.H.P.H.U.P.H.x.x.H.N.N.x.P.H.N.M.z.l.Z.j.h.=.*.! T ( e.A.l.$.0 3 1 1 , > - = = = $ $ = $ $ + O @ O @ O + @ + ^ dXvXpX.Xs...[ =.] ] =.=.=.=.=._ -.E ~ Y z y P -.s * X   X     X                                                                                                                                                                                                                                       ",
"                                                                                                                                                                                                                                          X * z ..Q x  .s.r.r.r.q.r.a.] ]  .E =.r. .=.N.sXmXZXiXa # # # @ # @ # $ % @ = = = = = - < - , 1 , 4 / z.z.f.$.} i.p.l.N.l.z.F.M.z.N.D.D.N.D.D.D.U.).P.T.P.P.A.P.P.P.D.A.P.I.E.U.I.T.E.E.T.I.R.I.I.G.[.[.I.R.R.W.I.R.A.A.J.S.8.8.6.J.-X-X X;X'.A.J.S.6.6.I.;X;X[.;X[.=X;X[.;X=X}.}.}..X.XT.R.R.S.c.!.}.}.}.}..X}.{.{.{.{.E.{.!.!.E.E.).!.).!.{.|.).Y.).).T.T.Y.H.Y.Y.Y.P.T.!.H.H.A.P.H.P.P.P.D.N.x.U.H.N.x.N.x.Z.j.h.3.j.u.( M ! 4.g.z.2.g 3 1 3 < < - = < $ = = $ = @ @ @ + + + + O O * Z dXcXsX|.u...=.r.] r.] I =.I ] I I ~ ~ Y a u E { 7 . X   X                                                                                                                                                                                                                                           ",
"                                                                                                                                                                                                                                          . d u.| N W ..a.0.r.0.q.0.0. .' 0. . .{  .h.8XvXVXaXy * O O # # # # % $ = $ $ ; ; = % - - - 1 3 w &.G.x.f.$.$.p.z.D.D.N.N.z.z.M.z.N.D.U.D.U.U.D.U.Y.N.T.R.N.x.P.J.P.P.R.E.E.'.P.E.U.T.W.T.W.I.I.E.E.W.R.W.I.I.R.I.K.J.P.J.J.S.J.c.J..X:X-X-X;XE.W.J.S.6.J.[.E.[.Q.).Q.Q.E.R.I.E.E.Q..X=XE.E.!.J.c.!.}.}. X X.X}.{.{.{.!.T.!.{.{.!.T.E.{.).{.{.}.|.).{.+XT.).T.!.T.T.Y.T.H.H.T.T.!.U.P.P.P.H.H.H.N.H.V.N.H.N.N.N.N.c.y.f.p.$.X.T T $.f.z.g.A 8 < < - < > - = = = = = = @ O @ + + + o O O O x lXlXaXOXl.=.r.r.r.t.r.=.I =.-.' I -.' N d f ' { 5   X   X   X                                                                                                                                                                                                                                     ",
"                                                                                                                                                                                                                                    X   X 7  ...Y E ~ ] q.r.r.r.r.r. .0...| | ....p.7XvXCXpXs * $ $ # # # + $ $ = $ = = ; > < < = < , 1 n k.D.l.2.X.$.3.l.z.G.D.M.P.D.N.M.U.U.U.D.N.F.P.D.P.P.G.N.P.P.P.P.P.P.!.R.R. XR.P.G.W.).W.R.W.I.R.I.R.W.E.R.R.I.W.I.I.R.I.W.E.I.J.S.A.[..X-X-X-XR.J.8.6.6.A.K.I.J.R.J.J.9.S.J.J.J.J.8.W.Q.J.J.J.c.J.Q.FX}.|.FX6X X X X{.T.T.T.!.{.T.E.!.{.{.'.{.{.{.'.{.!.).T.T.Y.Y.Y.Y.U.Y.Y.Y.Y.Y.Y.Y.U.Y.Y.U.U.U.H.H.H.A.N.H.x.l.j.x.z.l.p.3.=.( Y ( 3.j.x.X.0 < , < , - - - = = = ; ; $ $ + $ $ + + O O o B dXmXaXFXh.r.r.t.r.r.w.| =.] I =.r.I ~ B u j _ ~ 2 . X   X                     X                                                                                                                                                                                                                 ",
"                                                                                                                                                                                                                                        3  .q.N E ..r.t.a.a.r.t.d.b.r...0.| {  .p.iXmXCXaXp . + $ $ $ + + $ $ $ % % = ; = < < < , , 1 U z.x.f.1.$.2.z.M.D.M.N.M.M.D.D.N.N.P.F.D.D.U.Y.P.P.U.U.Y.R.P.P.P.R.R.I.R.P.E.R.Y.W.R.I.I.I.I.I.I.I.[.E.I.I.R.R.W.E.E.E.R.[.E.E.;X.X;X:X:X.X:X-X}.S.6.6.6.8.S.6.6.6.8.6.6.8.8.6.6.,.8.,.8.8.,.7.4.4.J.FXFX XOXaXpX8X.X.X|. X{.).T.T.).{.{.'.'.'.].{.'.'.'.'.E.T.E.T.Y.(.T.T.T.T.Y.Y.Y.Y.T.Y.Y./.U.U.Y.Y.H.P.H.P.H.H.H.H.x.N.M.l.l.p.-.( Y ^ 1.f.l.1.w , 3 , - , , = = = = $ = ; $ $ $ + + @ O O o Z lXvXfX+Xh.=.r.r.q.w.r.=.I ] r.r._ ~ I B u j ~ H # X X X X X         X                                                                                                                                                                                                                         ",
"                                                                                                                                                                                                                                    X & E s.{ ] ..r.d.r.r.r.0.q.| 0.b.u. . .-.h.8XMXCXaXd X O $ O $ $ @ % % % $ % ; @ = > < < < < 4 ! A.z.i.1.( 2.z.M.z.z.z.z.N.U.N.N.P.U.D.N.N.U.U.D.P.G.Y.P.U.P.P.R.P.I.R.T.P.'.T.P.T.'.E.E.R.T.T.R.I.R.T.W.W.R.E.T.{.[.{.'. X6XpXsXvXmXVXNXsX X X:X-XE.W.W.J.8.,.,.,.:.,.,.#.>.>.>.>.>.,.>.>.6.8.8.S.8.!.4X.X.XFXmXCXMXmXvXaX7X.XOX|.+X{.|.].'.{.{.{.{.{.'.E.'.T.'.).'.T.T.).'.T.T.Y.T.T.Y.T.Y.T.).U.P.T.P.H.A.H.x.H.x.x.x.H.D.N.M.l.l.3.4.-.^ ^ <.3.x.p.m 4 3 , , - - , - = = = = $ $ = + $ @ O @ o o ^ vXmXiX+Xr.{ 0.0.q.w.r.] ] r.] I ] ' E z q l ] j . X X X X X                                                                                                                                                                                                                                 ",
"                                                                                                                                                                                                                                  X . x a.] E 0.u.r.q.d.r.r.a.0.| |  .q.r.r.=.yXmXSXfXf o # + $ + $ $ $ $ % % & = = < < , , > < 4 $.D.z.g.$.2.2.f.f.M.x.N.M.D.z.N.Y.Y.U.U.U.D.Y.P.V.D.D.I.U.P.Y.Y.P.!.R.I.T.!.Y.E.;XE.E.E.[.}.E.E.Q.[.[.[.W.E.'.'.}. X X7XsXlXmXVXCXAXZXZXZXAXlX:X:X:X:X$XK.K.8.6.,.:.,.,.,.,.,.,.>.,.,.,.>.,.8.8.8.8.8.J.!.FX{. X7XSXAXAXAXCXCXSXmXdXpX8X|.].|.+X{.{.[.|.{.{.].'.E.'.R.E.).T.T.!.!.T.!.!.T.T.Y.U.T.T.Y.H.H.).P.H.H.H.N.H.H.H.N.x.H.z.l.l.l.l.3.;.~ T -.f.g.k.A 1 3 , < , - - = = $ = = = $ ; $ @ O @ O # O ^ lXvX8X+X=.q.0.0.' I r.r.I ] =.] ] ' L j q U ) 7 X X X X     X     X     X                                                                                                                                                                                                                 ",
"                                                                                                                                                                                                                                    s a.=.E ' =.r.t. .b.y.t.a.q.0.' W ..r.s.yXvXCXDXc . O $ $ $ $ $ = % $ % % : = > , , , , , w 4.z.f.p.$.i.z.l.M.z.N.N.D.D.D.N.D.[.).P.P.Y.U.U.G.D.G.P.G.P.Y.Y.T.!.T.R.R.R.{.{.E.E.E.E.E.}.}.!.'.E.E.E.E.'.[. X.XpXlXmXNXCXZXAXAXAXAXZXAXCXAXlX>X>X:X-X=XW.J.K.S.8.5.,.,.6.,.,.6.5.7.,.,.,.6.8.8.J.9.8.J..XFX.XFXdXAXAXAXAXAXAXAXAXAXCXNXmXfXiX.X|.{.{.{.{.{.'.'.'.'.T.T.T.T.R.T.{.T.).).T.T.Y.!.Y.Y.Y.P.D.Y.T.P.A.H.P.H.A.N.x.x.H.x.m.x.l.h.h.p.-.( A ^ 3.g.z./ 4 , 1 < > < ; - - = = ; ; = O @ O @ O @ O O ^ vXdXpX`.e.0.X. .] r.r.=.=.=.=.] ' Y v u q ~ ' 5   X         X     X                                                                                                                                                                                                                     ",
"                                                                                                                                                                                                                                  5 0...Y ] t.r.r.r.r.r.0.0.a... . ...u.=.|.vXMXmXW . . O $ $ $ @ % $ % > % = ; % < , , , < w 3.M.z.2.1.1.f.D.M.N.N.N.D.D.N.F.U.U.).).Y.I.U.Y.U.U.P.U.U.P.D.I.Y.T.T.R.I.R.R.W.!.R.I.R.Q.}.R.E.{.'.E.'. X[.-X>XdXMXCXAXAXAXAXAXAXAXAXAXAXAXAXAXlX>X-X>X-X}.R.K.J.K.S.k.S.8.6.5.8.8.8.6.8.8.8.8.J.S.J.J.9.R.FX.X-X.XdXAXAXAXAXAXAXAXAXAXAXAXAXAXCXmXfX7X.X}.|.{.E.{.!.E.T.T.T.R.T.!.{.R.!.T.T.T.T.Y.T.P.Y.P.P.D.+XH.A.P.H.N.N.H.x.N.H.x.N.x.x.h.k.f.p.1.{ Z T p.l.D./ 4 3 < < > > - = = = = = $ = @ @ # % O O # O 4.vXlXaXF...|  ._ I =.I _ =.] =.' E R L q k r.P &       X   X       X                                                                                                                                                                                                                   ",
"                                                                                                                                                                                                                            X X # ) n.| E r.t.t.r.q.d.s.b.0.` 0...` 0.1.!.vXNXmX..* # % $ + $ $ % % % % $ > > > < > < , > m l.G.D.2.X.f.z.M.G.M.N.N.N.D.N.U.U.).'.).).V.N.T.Y.I.E.E.Y.D.G.P.I.'.E.I.R.T.R.R.!.!.R.P.R.}.Q.!.R.!.E.{.OXaXdXMXCXZXZXAXAXZXZXZXCXZXAXAXZXBXbXlXsXwX:X;X;X;X2X=X=X=X$X;XQ.$X$X$X;XQ.#X#XQ.$XQ.$XQ.Q.Q.}.;X=XQ.4X-X4X.XpXsXvXMXCXAXAXAXAXAXAXAXCXAXAXZXZXSXmXdX>XOX{.{.T.!.!.T.!.T.).T.!.!.R.T.T.!.Y.Y.Y.R.U.U.Y.H.I.U.H.P.A.x.H.P.x.D.H.N.N.N.M.h.l.Z.f.1.-./ A Z <.k.x.( 7 < < > > - - = = = = = $ @ % % @ @ O O O & l.bXdX8XM.X.q.=.t.r.r.t.=.=.I E E  .E k y v  .c . . .         X       X                                                                                                                                                                                                               ",
"                                                                                                                                                                                                                              # U m...' r.d.s.r.r.r.q.d.a.0.0.0.X.) } A.dXMXNXp.& * O O + + $ $ % % % % % > < , , , , , g k.D.z.2.2.g.D.D.D.M.D.M.D.D.N.D.Y.Y.{.].Y.T.).Y.Y.Y.Y.U.P.D.J.I.I.E.I.I.E.T.W.E.R.W.!.E.R.!.!.{.Q.R.!.6XsXmXCXZXAXAXAXAXZXAXZXZXAXZXVXlXaX>XW.8.,.+.8.5X;X;X-X=X=X;X;X;X;X=XQ.=X$X[.;X=X=X=X4X=X}.4XFX=X;X;X4X}..X X=X-XJ.*.5.J.Q.6XgXbXVXAXAXAXAXCXZXAXAXZXAXZXmXlXsXFX!.}.{.{.{.{.!.!.R.!.T.!.!.T.Y.!.R.T.Y.T.Y.U.Y.!.U.P.x.H.x.N.N.N.H.N.N.N.N.x.l.N.j.p.2.1.( A U 1.z.x.$.0 3 1 < < - ; < = $ $ ; @ ; @ $ O @ @ O X < D.mXfX8Xh.r.] t.I r.t.r.=.=.' N  . .' k 6 R 0.t X X   X     X     X     X                                                                                                                                                                                                           ",
"                                                                                                                                                                                                                            . p a.0.E r.r.r.t.r.r.B.Z.d.r.r.a. . .1.j.sXMXVXH.2 O $ # O O $ $ @ ; ; ; = = ; < , , , 8 M z.z.z.} 1.f.N.N.x.x.M.M.N.D.N.D.D.U.U.|.).Y.Y.U.Y.E.T.R.U.A.z.W.R.E.E.E.T.I.R.I.I.I.E.Q.T.!.Q.!.!.}.8XdXNXZXAXAXAXAXAXZXAXZXBXMXbXwXQ.J.,.( D @.O.+.o.,.%X;X;X;X;X=X=X=X=X$X$X}.$XQ.Q.=XQ.}.}..XQ.=X=X-X-X-X-X-X;X X-X-X3X8.o.o.+.+.+.:.,.E.iXlXMXZXZXZXCXAXAXAXAXAXZXSXvXaXFX.X|..X!.!.!.R.T.R.Y.T.!.Y.!.!.Y.Y.E.Y.I.P.N.R.T.T.H.P.P.H.P.H.N.N.N.N.l.h.N.Z.h.h.=.-.-.^ A -.f.x.<.7 1 1 < > > = > = < % - % % @ O @ @ O O o 4 .XMXsXOXd.=.=.r.r.=.=.I r. .' ' { ) L s a )  .8     X X                                                                                                                                                                                                                           ",
"                                                                                                                                                                                                      X     X               5 0.d.W | t.b.v.B.v.b.d.t.d.y.r. .e...h.7XvXZXOX3 X * O $ O + $ = ; ; ; = = % < < < , 1 M g.z.l.%.$.l.z.D.U.U.N.D.N.N.D.D.D.U.P.P.T.Y.Y.Y.Y.U.'.U.I.I.I.I.R.'.Q.E.'.Q.E.I.E.W.R.E.E.R.{.{.{.4XDXNXAXAXAXAXAXAXAXAXZXVXbX5XK.,.+.>.o.O.+.+.@.o.:.:.:.%X5X>X;X;X;X-X=X=X}.Q.=X.X.X X}..X}..X.X.X-X.X.X.X.X X-X-XOXOX.X3X,.+.#.o.+.o.o.o.@.>.7.6.}.rXVXSXCXAXAXAXAXAXZXCXZXMXdX8XOX|.+X!.!.R.T.T.T.T.!.Y.T.T.!.Y.U.U.R.Y.T.Y.P.N.Y.T.H.H.P.x.P.N.N.x.x.N.l.l.h.l.5.4.-.^ Z 1.k.k.<.w , , < > > > > % % = % ; % @ @ O O O o X w pXvXiX).=.=.=.=.=.I r.=. . .~ r.' W U u s  .G # X       X     X   X X                                                                                                                                                                                                           ",
"                                                                                                                                                                                                  X   X X           X   X # W n. .) ..a.d.s.b.b.Z.d.r.r.=...| ..p.yXvXZX8Xq o O O O $ $ + @ = = ; > = < < < > , 1 M z.l.g.%.} p.D.F.Y.N.N.D.P.P.D.D.P.U.I.Y.U.I.Y.Y.Y.Y.R.Y.Y.E.'.E.E.[.E.G.Q.W.E.W.E.R.W.R.'.'.{..X7XlXMXAXAXAXAXAXAXAXZXCXvX7XJ.,.+.o.o.o.o.+.+.+.+.@.+.+.:.>.%XkXsXsXkXsXpXsXpXsXsXwX0XsXsX0XwX0XpXpXsXsXpXsXaXpXpXaXpXpXaX0X2X:.o.o.o.+.o.o.+.:.o.D @.D >.8.*XkXbXNXAXAXAXAXCXZXZXZXCXDX7X|.|. X X+X!.!.T.).Y.T.!.T.R.).Y.Y.+XU.H.N.R.P.H.!.P.P.H.H.N.P.N.N.x.x.l.h.h.h.3.1.-.T A ;.5.l.<.w , 1 < < > ; = > = = = & ; @ O @ O O o O g hXhX7XH.=.=.r.=.=.r.I ] ] { q. .' W v 7 b | p X X X X   X X X X     X                                                                                                                                                                                                         ",
"                                                                                                                                                                                                    X X X X X         X . j s.r.| ] a.B.d.b.b.s.t.r.=.s.r. .d.2.).mXBXcXg X * O O + % # @ = @ @ > ; = < < < 2 8 M z.l.z.u.u.g.l.U.Y.U.U.D.z.M.V.D.P.Y.U.U.).).Y.Y.P.Y.E.R.T.R.'.E.E.Q.E.G.W.'.E.E.W.W.R.E.'.E. XpXvXCXZXAXZXAXAXAXAXZXmXsX{.5.D ;.D @.D o.+.o.+.+.+.+.+.+.+.+.+.K.VXZXZXZXZXZXZXZXZXZXZXBXBXCXCXZXZXZXZXZXZXZXZXCXAXAXAXAXAXZXBX2X@.o.+.#.+.o.o.o.o.o.+.@.o.D D O.@.8.;XlXNXCXAXAXAXZXZXZXAXZXDX7X|.{.{.{.T.T.!.!.!.T.T.T.).T.T.T.!.!.R.R.H.H.P.P.P.A.P.N.N.H.H.N.x.x.l.j.h.f.p.<.;./ A ;.j.x.<.w 1 1 , < < > % = % = % $ @ @ # @ O O @ @ ^ lXsXFXP.y.r.I J t.r.] |  . .] ' W L s p E ) 5 X   X   X X   X X .   X                                                                                                                                                                                                       ",
"                                                                                                                                                                                                  . . X X X X X X       3 0.a.) r.r.B.b.b.b.Z.s.b.d.t.r.=.{ r.).dXNXMX/ # $ O $ + $ $ $ $ = = = = < < < < < , x l.z.l.i.i.l.z.M.D.D.z.D.).Y.N.P.N.P.U.Y.Y.{.'.Y.Y.Y.Y.P.I.'.W.E.E.E.E.I.I.{.E.).E.W.W.I.W.].>XvXSXZXZXAXAXAXZXZXZXlX.XA.*.@.O.O.>.o.>.o.:.o.+.o.+.#.+.+.:.o.:.o.J.MXZXAXZXZXZXAXAXAXAXZXAXAXAXAXAXZXAXAXAXAXAXZXAXAXAXAXAXAXZXBXW.+.+.#.#.o.+.+.o.:.o.o.o.>.o.>.o.o.o.o.#.[.pXMXZXAXAXZXAXAXAXAXSXDXuX|.{.!.!.!.T.!.E.).T.T.T.T.U.T.!.Y.Y.U.P.U.U.P.P.H.H.P.N.H.H.N.N.l.m.h.l.j.p.3.4./ B ( 3.j.*.w 1 , < < > > > % = = : @ @ @ O @ O O * O 4.xX0XFXA.-.q.| q.' q.q. .| | ' E R L a k | a . X X X X X X   . X X X                                                                                                                                                                                                       ",
"                                                                                                                                                                                                  5 H 5 X   X     X X & E Z.0...d.s.v.v.Z.b.d.m.h.d.d.=.=.r.H.DXVXBXl.& O $ O # $ % % $ $ < = = < < = < < = g j.z.g...p.m.N.V.m.M.U.F.U.Y.Y.T.P.T.Y.P.P.).{. XE.'.R.R.I.Y.I.R.E.R.E.W.R.R.}.Q.W.W.W.E.}.:XdXSXAXZXZXZXAXZXZXNXsXW.5.*.@.*.>.+.+.o.>.o.o.:.o.#.#.+.#.+.+.:.:.:.#.9.bXZXAXAXAXAXAXAXZXAXAXAXAXAXZXAXAXAXAXZXAXAXZXZXZXZXZXAXZXBXVX9.O.+.+.#.+.+.+.o.o.o.:.@.o.o.D o.o.o.o.#.@.@.#.4XsXVXCXAXZXAXAXAXZXSXdX X|.+X!.Y.!.!.).E.T.T.).T.!.!.Y.Y.Y.Y.U.R.P.P.P.P.P.P.P.H.N.N.N.N.c.l.h.h.3.=.-.( A ( 6.k.4.7 , 1 < > < < > ; % $ ; @ @ @ O @ O o X 3 !.vX0X!.=.=.0.| | r...{ | | ] ~ W ) v 6 k H t   X   X X X X X   & 3 X X                                                                                                                                                                                                   ",
"                                                                                                                                                                                                X c b.) u & . X X X X j B.s.r.b.b.Z.Z.B.B.m.n.v.h.b.t.=.=.m.iXMXCX X3 O $ + O @ + $ $ = = @ ; < = < : < , d f.z.g.1.1.M.N.F.U.N.z.(.).)./.Y.U.P.P.D.P.{.}.T.Y.{.'.E.T.T.I.I.I.U.I.G.J.R.T.R.W.{.Q.E. XsXNXZXAXAXAXAXAXAXNXiXc.@.O.@.@.@.@.@.@.o.o.>.o.+.:.#.o.+.+.+.+.+.+.:.:.:.,.xXAXAXAXAXZXZXZXZXZXZXZXZXAXZXAXZXAXZXZXZXZXAXZXAXZXZXCXZXBXbX5.>.+.#.#.#.#.o.+.:.o.o.o.o.:.o.o.o.#.o.+.+.o.C D ,.Q.lXCXZXZXZXAXAXAXAXMXaX.X!.{.!.+X!.T.T.).T.!.{.!.).Y.Y.T.Y.P.H.P.!.R.H.H.P.N.x.N.N.x.c.l.k.j.h.5.1.;.D Z ( j.k.( 0 8 < < < < < > % ; ; ; @ ; O O @ O o o q 8XlX8X+Xh.r.t.0.0.q.|  . .0.{ R R L p 6 _ ) 3 . X X . . . * t _ H . .           X     X X                                                                                                                                                                               ",
"                                                                                                                                                                                        X       9 w.0.q.w.H 7 * X X 3 e.s.' r.Z.C.Z.s.a.b.v.v.d.v.s.r.d.h.OXmXZXaX6 O $ * + O # $ $ $ = @ ; > = ; < < > e j.m.z.3.i.l.l.N.^.(.F.M.N.U.(.).T.P.P.H.D.T.!.!.T.Y.!.).E.E.E.E.R.T.R.R.Y.W.T.R.T.T.Y.'.iXmXSXZXZXAXAXAXZXMX7Xc.O.D @.@.@.@.@.@.@.+.+.>.o.o.:.o.#.#.#.+.#.:.:.+.+.:.:.+.2XbXMXMXMXVXVXMXVXVXMXMXVXNXVXNXNXBXBXVXNXVXMXNXVXNXNXNXbXbX5X,.+.+.#.#.+.+.o.#.+.o.o.:.>.:.o.#.o.o.o.o.o.o.o.D D D 7.T.cXSXZXZXAXAXAXZXCXvXiX|.|.|.+X).T.E.).!.{.+X).Y.Y.T.Y.!.T.H.T.!.R.H.H.x.x.N.N.M.N.x.l.l.h.k.=.-.=.^ B ( j.k.^ 4 , , < < < < < ; @ @ ; @ @ @ O @ @ O X g hXdX7XH.t.a.0.0.w. . . .] E { ' U z u h ' H #   X X * 2 l 0.0.0.5 X X                                                                                                                                                                                                 ",
"                                                                                                                                                                                          X     t b.0.q.' E ' H 3 & P m. .E a.Z.~.B.Z.v.b.m.C.B.h.a.u.h.).DXSXvXZ O O @ O O $ % $ = $ = - = < < = < = w p.x.l.2.u.l.l.N.U./.).U.F.P.U.F.(.(.Y.U.T.T.T.Y.R.T.{.T.).E.E.R.Y.R.I.R.I.R.I.E.'.'. X.XdXZXAXZXCXAXCXCXDXqX9.#.#.o.#.#.@.@.@.o.@.@.#.#.+.+.#.#.#.+.#.#.+.o.#.#.#.#.8.8.:.*X%X&X;XqX;X5X;X;X>X;X-X3X;X2X4X-X-X-X5X-X6X5X;X;XqX>X>X%X[.K.,.#.#.#.#.#.#.#.@.@.+.#.o.o.+.o.#.o.o.o.#.+.o.o.o.*.*.*.O.*.;XhXBXCXAXAXAXZXZXNXfX8X|. X{.).{.!.!.!.!.!.Y.Y.T.R.!.T.P.Y.U.P.H.P.P.H.x.x.H.x.H.x.h.j.l.=.c.y.;.;.B ;.h.j.^ q 1 < , < < - = = + @ @ = @ O O @ O O o ;.vXaXOXm.r.b.t.] ]  .r.] ' ' E R L f q l ' q X X & y P q. .w.q.l . X           X                                                                                                                                                                                     ",
"                                                                                                                                                                                            X * G a.t.q.] _ ' ] _ H v.u.E a.b.Z.Z.B.Z.Z.C.C.C.B.B.u.s.B.fXNXMXh.$ O O O O O $ $ $ $ = = , - < < < < 4 %.M.z.u.1.p.H.H.N.H.)./.U.V.U.F.U.Y.].Y.U.Y.T.T.T.R.'.T.T.E.E.E.T.R.R.I.I.P.Y.E.).]. XaXmXZXZXAXZXZXCXSXpXG.@.O.o.o.o.o.o.+.@.@.+.@.#.@.@.+.#.#.#.#.#.#.#.#.:.,.9.9.K.1X*X*X*X*X*X*XL.*X*X&X*X*X&XQ.K.W.Q.Q.L.K.K.*X*XQ.L.L.L.*XL.&X*X*X&X*X*X*XK.9.#.#.#.#.#.#.#.#.o.+.#.+.+.+.+.#.o.o.+.o.O.O.O.O.S O.&.E.lXZXZXZXAXAXAXZXvXiXOX X|.{.].!.U.T.Y.!.T.U.T.P.H.Y.U.!.U.Y.R.P.H.H.P.P.H.H.x.x.H.H.A.J.y.;.;.^ ;.-.6.3.Z q 8 , < < < < < = @ @ $ @ @ O @ @ O o > T.vX7X|.t.d.t.r. .] q.' ' | ] E P L i q I B 5 5 P  ._ _ ] q.e.w.& X           X                                                                                                                                                                                     ",
"                                                                                                                                                                                            X 3 0.a.t.q.] ] ] ] w.w.q.]  .b.b.s.Z.B.B.~.@XB.B.Z.h.h.m.yXMXCX.X, o O O + $ $ $ $ $ = = = - - < , , 4 ( z.x.d.p.m.H.).U.V.H.H./.).U.V.H.H.D.).).I.U.!.T.Y.T.T.E.E.E.E.E.Y.R.R.E.P.R.'.].[.8XvXCXAXAXCXZXZXBXjXG.*.O.@.+.o.o.+.@.o.@.@.+.+.+.+.@.@.+.#.#.#.+.#.#.9.9.*X&X%X#X*X*X*X9.*X9.L.L.L.*X*X*X&X*X*X*X*X*X*X&X*X&X*X*X*X*X*XL.L.*X*XK.L.*X*XK.*X&X&X*X*XL.K.9.&.#.o.#.#.+.+.+.+.#.#.o.#.o.o.+.o.O.O.O.O.O.O.! ,.-XmXZXAXAXAXAXAXNXdXOX.X|.).|.Y.Y.!.!.Y.Y.Y.R.R.Y.P.H.P.H.P.R.H.H.H.H.H.P.H.l.P.A.x.x.h.c.6.;.;.Y 3.l.j.g 1 1 , < < < < = ; @ @ @ @ O @ + @ o O q 8XdXiXB.r.y.r.r.] ] '  . .{ E ~ E J q u I P ' =.] | [ q.0.b.b.t X   X           X                                                                                                                                                                                 ",
"                                                                                                                                                                                          X X j y.t.t.w.] w. .] | ] ' ]  .r.s.b.B.C.@X`.@XB.Z.s.d.h.U.DXZXdXf X $ @ + O + @ $ $ = ; = = , , < < 1 T z.M.l.u.N.).Y.).U.H.).)./.U.Y.U.U.Y.U.Y.{. X!.Y.Y.T.T.R.T.R.Q.E.E.W.W.R.R.{.'.E.].iXmXZXAXAXZXCXBXmX&X,.O.O.@.@.o.o.o.+.o.+.+.+.@.+.+.+.@.#.+.@.#.#.8.9.L.#X#X%X%X%X1X*X*X*X*X*X*X*X*X*X;X*X*X&X*X&X#X*X*X*X*X*X*X&X&X&X&X&X*X*X*X*X*X*X*X*X*XK.K.*XL.*X&X*X&X*X*X9.#.#.+.o.o.o.+.#.#.+.o.+.@.+.@.@.@.O.O.+.O.o.O.S.dXSXZXAXAXAXAXCXmXiX].|.{.Y.U.T.!.Y.Y.Y.!.Y.Y.!.R.!.P.R.!.J.H.P.x.P.P.6.A.H.x.H.x.c.y.=.-.;.Z A 4.6.3.e < 8 1 , < < - = ; ; @ @ @ O + o @ O X A xXdXXXv.r.t.r.=.~  . . . .' ~ ' J i J -.] ] _ ] w.q.q.t.e.n.h .         X                                                                                                                                                                                       ",
"                                                                                                                                                                                          X &  .y.t.t. .u j _  . ._ ' ' | ..r.b.B.C.C.Z.Z.h.r.h.B.M.iXSXSX-.X O O O + $ $ $ $ % ; , - - = < - , M z.z.N.l.M.H./.@X).U.H.(.+XT.U.U.U.Y.T.N.Y.Y.!.Y.U.I.T.Y.R.E.E.{.'.W.R.G.D.E.E.'.OXsXCXAXZXZXAXAXbXeX8.o.O.O.o.o.@.@.@.@.@.+.@.o.+.+.+.#.+.+.#.#.8.L.*X1X*X*X*X1X1X;X%X%X*X&X;X*X*X*X*X*X*X<X*X*X&X#X#X#X#X#X*X*X*X*X#X*X#X#X#X&X&X*X*X&X*X&X*X&X*X*X*X*X*X*X*X&X%X%X&X%XL.#.#.#.#.#.#.+.+.#.*.*.o.+.@.o.+.o.o.O.@.o.O.@.I.lXZXAXAXAXAXZXNXiX X{.).T.T.{.T.T.T.!.T.P.P.P.!.R.H.!.P.x.P.N.!.N.h.!.H.H.x.=.c.=.H.j.1.;.N ;.3.x.-.0 1 1 , , < , = = @ % % @ @ $ + $ $ o O l.lX8XV.-.=.=.=.=.] I -._ E B _ _ _ =.] ..] ] | ) G | t.b.v.q.3 X X X                                                                                                                                                                                           ",
"                                                                                                                                                                                      X   X 7 u.t.t.t._ 3 : 7 L E _ { ' | q. .0.t.b.h.r.r.r.=.h.H.yXDXSX+X& o O O O + + $ $ @ $ = - < < 3 8 < m g.z.l.s.M.(.).).+XH.H.!.Y.U.U.U.U.Y.Y.U.P.Y.Y.T.Y.U.R.!.I.I.W.{.E.E.R.R.D.E.'.'.>XlXZXZXZXZXCXBXvXW.>.+.@.@.o.o.o.o.o.@.@.+.+.@.+.+.#.#.#.#.8.K.&X%X%X1X1X*X1X*X1X;X1X1X1X%X&X*X1X*X*X*X*X*X1X*X&X$X#X%X%X%X%X#X%X%X#X%X#X#X%X#X&X%X%X&X&X&X&X%X&X&X&X&X;X&X;X%X%X;X%X*X&X*X%X%X9.#.#.#.o.+.@.@.+.+.+.+.o.+.o.o.O.o.o.o.O.O.,.0XMXZXZXAXAXAXCXdXFX XT.{.).!.!.Y.H.R.!.H.!.P.!.H.N.x.x.H.A.H.A.A.H.x.H.A.c.H.c.c.h.h.<.;.Y ( 5.x.$.7 8 , 1 < < - ; > @ @ % % + + $ $ o O 5 -XlX|.y.I -.] _ -.' ^ ~ ~ _ _ =.r.=.I ]  .] P u 9 l 0.b.v.b.t X X     X     X                                                                                                                                                                                 ",
"                                                                                                                                                                                          X v t.t.t.t.j 2 9 2 3 p L _ ' ] r.|  .] r.y.h.h.r.=.h.V.iXMXdXq . O O O @ @ $ $ @ % % = 1 , - 1 3 0 2.z.M.p.l.U.)./.`.H.U.@XU.Y.U.Y.U.Y.Y.T.P.Y.T.R. X+XR.P.T.Y.I.T.}.}.R.R.I.Y.'.{.pXmXZXZXAXAXZXCXsX6.S D D o.o.o.o.o.@.@.@.@.@.@.@.@.#.#.#.8.9.&X%X%X%X%X1X1X1X1X*X;X1X1X1X1X;X&X1X1X*X*X1X1X*X<X1X%X%X&X&X#X#X%X#X#X#X#X#X#X#X%X#X&X%X%X%X%X&X%X&X&X;X&X%X%X*X%X&X&X1X%X&X*XK.*X*X&X*X*X#.#.*.#.@.+.+.+.+.+.o.o.o.+.o.+.o.O.O.C O.E.vXCXZXZXAXAXZXmX8X).{.!.T.T.).!.Y.!.R.T.T.A.R.P.A.N.P.P.H.P.P.H.J.x.x.H.x.H.J.m.j.3.-.;.A ;.l.A.A 4 4 , , , < < > @ @ % % @ $ $ $ O @ o B dX0XH.-.=.=.] ] I I _ ] {  .=.=.] _ ] E j 5 9 & 7 w.a.v.b.R * X X     X     X                                                                                                                                                                               ",
"                                                                                                                                                                                          3  .r.q.q.w.y 2 2 5 2 3 5 a ~  . ...|  .=.=.a.s.r.r.h./.dXMX' X o @ O O O $ % % % > < - - , , , 8 ( l.z.M.m.F.).U.U.U.H.U.).T.U.Y.I.U.U.Y.Y.Y.I.Y.Y.}.{.!.T.{.T.!.}.!.E.R.T.E.{.OXaXNXZXAXAXAXZXvX[.#.o.D o.o.o.@.o.+.o.@.+.@.@.#.@.@.#.#.9.;X&X%X&X*X&X%X%X%X1X1X1X<X1X%X&X%X*X1X*X1X*X1X*X1X*X*X*X*X&X&X&X%X#X%X#X*X<X#X%X*X#X%X#X#X&X&X%X&X%X&X&X%X&X;X&X&X;X&X&X%X%X%X%X%X&X*X*XK.*X&X1X[.L.K.#.@.+.+.o.@.#.o.#.+.o.o.+.+.O.O.O.o.O.5.>XCXSXAXAXAXAXMX8X{.+X!.!.T.+X!.H.U.T.R.R.R.P.U.R.J.H.R.P.P.P.H.H.H.H.c.c.y.x.j.j.=.-./ Z 1.f.f.g 1 1 3 , , < = > % % % @ $ @ # O o O # j.sXH.r.=.-.I _ =._ ] { ' =.] =.=.=.v q 3 2 9 & 9 E t.a.a.w.3                                                                                                                                                                                               ",
"                                                                                                                                                                                          y t.h.t.t.J 5 2 5 5 2 3 2 5 5 l ] =.] ] =.=.=.r.r.t.V.+XdX!.: X O O # @ # # % % - > - - < > > 3 A z.m.m.x./.).U.`.).U.Y.Y.+X).U.U.Y.U.Y.Y.).).Y.I.P..X4X.X{.Q.{.{.!.!.R.I.E.T.oXdXAXZXAXAXAXZXhXk.@.o.+.@.o.o.o.o.o.o.@.@.@.+.#.#.#.#.G.&X&X&X*X*X*X*X#X%X%X%X1X%X1X1X&X%X*X%X<X1X*X*X<X1X*X*X*X1X*X<X#X#X#X%X#X#X#X#X#X#X#X#X<X<X#X#X#X#X%X%X#X#X&X&X%X#X%X#X$X#X#X<X&X&X&X&X&X&X;X*XL.*XL.W.*X*X*XK.#.#.+.#.+.+.+.+.@.o.+.@.@.o.@.o.O.S !  XMXZXZXZXZXZXNXsX X!.!.!.!.+XY.!.T.T.Y.D.I.P.!.P.P.Y.P.H.J.x.x.H.J.H.x.x.h.h.x.p.-.-.Y A 1.x.4.w 1 1 1 , < > < - = = > $ $ O O O O o 1 }.yXm.r.-._ _ =.=.=.=.=.=.I =.' u 5 5 3 3 3 2 # i t.t.d.h.k X         X                                                                                                                                                                                   ",
"                                                                                                                                                                                        # P r.y.t.t.J 2 2 q 5 5 5 5 5 2 3 i P ] =._ _ =.=.] =.h.FX8Xu . O # # @ @ $ $ % % - < < < < > > g f.z.z.d.m.V.U.H./.)./.U.Y.).T.T.U.R.Y.Y.T.Y.Y.U.U.Y.T. X}.Y.R.I.R.R.R.R.E.}.OXlXAXAXAXCXCXNX:X#.O.@.@.o.;.:.o.o.o.:.o.@.@.+.+.#.&.8.*X&X%X&X*X*X*X*X%X%X%X%X#X%X%X1X1X&X1X1X*X*X*X*X1X*X*X1X*X*X*X*X*X#X#X*X#X#X#X#X#X<X#X#X*X*X#X#X<X%X#X#X%X%X#X&X%X&X#X#X&X#X$X#XQ.&X&X*X1X%X;X*X*X*X*X*XK.K.K.*XK.*XK.#.#.+.+.+.+.@.@.+.+.+.+.@.@.O.O.O.O.A.lXZXZXZXZXZXZXvX.X+X|.!.!.{.!.E.!.T.R.R.R.H.R.I.H.Y.!.P.P.H.x.H.A.h.x.x.l.6.j.3.1.( Y ^ j.z.<.0 1 1 , < < = = = @ @ @ $ @ + @ @ O o g FX@X] ;.-.=.=.=.=.-.I r.-.l 3 3 5 7 5 5 5 2 9 5 ] d.b.b.] #                                                                                                                                                                                             ",
"                                                                                                                                                                                    X X 5  .r.r.r.I 5 5 5 q q y 5 5 3 3 5 3 5 z I =.-.-.' _ =.=.@X=.. . O ; @ # $ @ & % % - - < , , > 7 1.g.l.z.N.U.U./.).U.U.).)./.).].!.Y.U.Y.Y.).Y.P.Y.].R.Y.!. XI.T.R.R.R.!.).).:XmXCXCXAXAXZXvX$XO.o.o.@.o.o.o.o.o.o.o.o.>.@.@.@.#.8.K.&X1X&X*X&X&X&X&X%X&X%X%X%X#X*X#X*X<X*X1X*X*X1X*X*X1X<X*X*X*X*X<X<X<X#X1X*X#X1X#X*X#X#X<X<X<X#X#X#X1X%X%X%X%X%X%X%X%X%X%X%X%X,X%X<X<X%X%X%X%X&X*X&X*X*X*X&X*X*XW.K.K.*X*X*X8.#.+.o.@.+.+.o.@.@.@.o.o.O.O.o.o.D ,.qXVXZXZXAXAXCXDXOX+X'.!.).).!.!.T.E.R.R.!.H.P.R.P.I.H.x.P.P.H.x.A.r.h.h.h.h.j.5.;.;.A ( j.z.^ 4 < , , > = > < = @ @ $ + + O O O O ; ' H.r._ I =.=.=.I =.] J y 2 5 5 7 7 y q 5 3 9 9 J r.d.y.t.q     X   X                                                                                                                                                                                   ",
"                                                                                                                                                                                      . a r.r.q.=.l 5 5 y u i I x 5 3 3 5 5 3 3 q i -.-.-.=._ =.r.E q : * * @ # $ % # : > < : - , , 3 / l.N.l.l.U.Y.U.).`.).U.).U.U.).{.T.Y.U.R.R.'.U.G.R.E.I.T.{.}.I.R.R.R.!.{.T.>XmXZXAXCXZXZXlXA.O.O.o.o.o.o.o.o.+.o.o.o.:.o.@.#.8.*X1X1X*X*X&X&X1X%X%X%X1X&X%X1X1X%X#X*X#X#X1X*X*X1X<X*X<X*X*X<X*X1X<X*X<X<X<X#X1X<X#X1X<X#X1X#X#X<X1X1X*X1X%X%X%X%X%X%X%X%X%X%X%X<X2X,X<X=X%X%X%X%X&X;X%X&X;X&X;X&X*X*X*X*XK.9.K.K.*X8.#.+.>.+.@.@.@.o.o.@.O.o.O.O.D o.,.=XMXZXZXAXAXZXDX.X].].'.'.!.{.T.T.R.R.Y.I.I.U.I.U.P.P.A.H.x.x.H.x.k.l.l.h.k.3.4.;.( N { h.k.g 1 1 1 , - - < = > % $ $ + # # % O # d t.=.=.=.-.=.=.=.J y q 5 q q q q 7 i j 5 3 2 2 y ] r.r.b.L .     X                                                                                                                                                                                     ",
"                                                                                                                                                                                      & W a.=.r._ u 2 q u u i =.h.Y q 5 5 5 5 5 2 5 i H -.=.=.-.-.=.r.P q : # @ & % % - > 3 < > < , g l.x.m.l.H.Y.U.H.).).)././.Y.'.[.'.T.Y.P.P.P.I.E.'.P.I.T.E.!.}.!.T.P.R.{.|.8XMXAXAXAXZXAXaX6.O.O.o.o.o.o.+.+.o.o.+.o.>.:.>.#.L.%X&XL.L.&X&X&X%X%X%X%X%X%X%X#X1X1X#X#X1X#X#X1X&X*X1X*X1X<X*X<X*X*X<X<X*X<X*X<X#X1X1X1X1X1X1X1X#X1X#X#X1X1X%X1X1X1X%X1X%X%X1X%X%X5X%X<X,X2X$X%X;X%X%X%X&X;X&X&X;X%X&X&X*X*X*X*X9.K.J.*X*XK.#.>.o.+.@.o.@.@.@.@.+.O.O.O.O.D D J.MXZXCXZXAXNXmX>X+X].'.E.E.E.R.R.!.T.R.Y.U.Y.P.P.P.H.P.N.x.x.x.l.c.j.l.x.h.k.4.;.^ A 4.z.&.0 , 3 , , - & > = % % % @ + O * 3 x ;.=.] =.=.' =.-.i 5 5 q q q q y y l _ =.i 5 2 9 2 I t.r.t. .3       X   X                                                                                                                                                                               ",
"                                                                                                                                                                                    X 7 r.r.r. .I q 2 y i i J -.y.Z.h.J y 5 3 5 5 2 5 q i I =.=.r.=.=.=.-.N q * % # : > 2 - : - > w 1.l.N.Z.N.U.).U.V.).).).+X).(.|.(.U.T.T.U.T.'.U.Y.R.Y.R.Y.P.I.T.I.I.!.!.!.8XmXSXZXZXAXNX>X&.S D O.O.o.o.o.o.+.+.o.o.>.>.:.8.*X%X&X*XL.*X&X%X%X&X;X%X%X%X&X%X%X1X1X1X1X1X#X<X*X1X*X1X*X1X<X<X1X*X*X<X<X<X1X*X#X1X#X1X#X<X#X1X1X1X#X1X1X#X1X1X%X1X%X%X%X2X1X%X%X2X2X2X2X,X<X2X%X%X;X%X%X%X%X%X&X*X&X&X&X;X&X*X*XK.*X*XK.L.*X%XK.>.+.@.+.@.@.O.@.o.O.o.@.O.O.O.o.J.vXCXCXZXAXAXDX8X{.!.'.{.'.T.R.R.T.R.R.I.U.I.R.P.!.R.x.x.N.x.H.N.N.x.l.h.y.-.4.<.N ^ 5.k.! 1 3 , , , > > = = = $ O O , f [ 1.=.=.=.=.-.=.i q q 5 q q y i u i H ' -.y.l 5 5 2 & l t.t.r.0.y   X                                                                                                                                                                                       ",
"                                                                                                                                                                                    * v t.r.r.q.i 5 y u i f J =.=.t.y.t.=.j 5 5 5 5 5 2 q 5 H =.=.=.=.t.x.=.-.f > # 3 2 : 3 < > 8 } l.z.x.N.+X+X_.+X).+X).U.).Y.Y.(.Y.'.'.G.'.{.Y.T.R.I.Y.!.T.Y.J.!.!.R.Y.T.7XSXZXBXZXZXmX-X*.! *.*.O.o.o.o.o.@.+.+.+.o.+.>.9.*X&X&X*X&X%X;X%X%X;X1X%X%X%X&X;X%X1X1X%X*X#X1X#X1X1X1X1X1X1X1X1X1X<X<X1X1X*X*X1X<X<X#X1X1X<X1X1X1X1X1X1X1X1X<X1X<X%X%X%X%X1X%X1X%X%X2X2X1X2X2X,X$X1X%X%X1X1X%X%X%X%X&X;X;X&X$X&X*X*X*X*X*XK.K.K.K.L.L.,.>.O.+.O.+.@.@.@.@.o.o.O.V V o.c.hXZXAXZXZXZXmX>X).E.E.E.R.T.T.T.R.R.E.R.N.P.P.!.x.H.H.N.x.h.x.c.h.x.h.3.3.j.<.( A *.f.k.M , 1 , , , > ; < 3 $ # q Y p.d.u.=.=.r.=.Y y q q u q u q u f B I ~ =.=.y._ q 3 2 : 6 ] r.r.r.L #           X                                                                                                                                                                             ",
"                                                                                                                                                                                    & ' r.t.r._ u 2 u i i i I =.=._ =.=.h.y.P u q 5 5 q 3 2 5 u ;.=.r.r.=.r.y.h./ q : = - , 3 1 N z.l.M.D.).+X|.|.+X).).)./.U.U.|.T.'.'.'.Y.'.W.).I.Y.Y.I.E.!.R.P.!.!.R.Y.8XSXCXAXZXZXMXE.*.*.@.O.O.O.o.o.@.+.@.+.o.o.:.8.L.<X*X&X&X&X%X%X1X1X&X;X1X1X1X;X;X1X%X#X1X%X%X1X#X1X<X1X*X1X1X1X1X1X*X<X1X1X*X1X<X1X<X<X1X<X<X1X1X<X<X1X<X#X1X1X1X1X1X5X%X1X1X%X5X2X%X%X5X%X1X,X2X<X2X%X%X;X;X%X%X;X&X%X%X&X&X;X&X&X&X&X&X*X*X*XK.K.K.K.L.&XJ.>.@.>.@.+.@.@.+.o.o.o.o.o.O.S 5.sXSXZXZXAXCXmX:X{.{.T.E.T.T.T.R.R.T.Y.!.!.P.!.H.R.!.R.P.H.P.H.P.x.x.x.x.3.2.} T b &.f.5.w 4 , , > < , < % 4 U u.p.d.p.u.=.r.=.J y q q u u u u i x E ' ' ' =.=.r.t.i 3 2 & 3 P r.r.r.] 5     X X                                                                                                                                                                                 ",
"                                                                                                                                                                                  X y 0.r.b.q.H q 3 i f i B -.=.] ] =.-.=.t.y.h.^ q q q 2 3 q 3 q B ;.;.=.r.y.c.s.2.B q 3 , 3 w d.x.m.N.).|.oX+X|.+X+X+XY./.U.).U.P.P.I.'.'.).I.T.Y.R.I.Y.R.!.R.P.!.!.+X8XSXAXSXSXSXlX[.O.@.@.V o.o.@.o.@.@.@.@.+.o.>.9.%X&X*X&X%X%X%X%X%X2X2X%X2X2X,X<X,X<X2X2X$X,X%X#X1X<X<X1X1X<X1X1X1X1X<X<X<X<X1X,X<X,X<X<X<X#X<X1X1X1X1X1X,X<X<X,X,X1X1X1X1X,X,X,X2X1X,X1X2X2X1X,X2X,X2X,X<X2X2X%X%X2X=X,X$X$X$X&X$X$X&X$X&X$X&X&XQ.K.K.K.K.K.K.*XK.,.#.+.o.@.@.>.o.o.o.o.o.o.>.S <.iXCXAXAXCXAXvX8X|.E.T.E.E.R.R.T.T.!.{.!.U.!.!.P.H.P.J.P.H.J.H.x.H.3.A.m.p.5.-.^ ^ 3.x.! 4 1 < , , < 8 f =.l.h.h.y.=.=.-.;.f q q f e i u u i P ;._ -.=.] =.=.r.y.L 5 3 : # u =.r.=.r.u X X     X                                                                                                                                                                               ",
"                                                                                                                                                                        X         * E t.t.u.] j 5 q i u f P =._ =.] =.] I =.=.y.y.;.i q q 3 5 q 3 q q ;.=.y.=.=.u.h.f.=.x 4 4 { x.D.m.U.+X|.+X|.+X+X`.).).Y.|.).U.D.D.G.E.T.R.G.E.R.Y.E.'.T.Y.J.I.!.|.OXmXSXAXAXSXzX[.@.O.O.@.@.o.@.@.+.@.@.@.@.+.,.K.%X&X*X*X&X%X%X2X%X2X%X%X5X2X2X2X2X1X4X<X2X<X,X1X,X1X,X1X<X<X<X1X1X<X1X1X<X#X<X<X<X,X,X2X2X1X1X1X1X,X,X,X,X,X2X,X2X2X1X1X5X1X1X1X,X,X5X2X,X2X,X2X2X2X,X2X2X2X,X$X2X2X$X,X=X=X%X%X$X$X$X$X$X%X*X&X&X&X&X&XQ.*X*XK.K.*XW.8.#.>.@.@.@.>.o.o.o.o.o.@.@.D 7.0XZXAXAXAXAXvX.X|.!.T.R.!.W.W.R.T.T.!.!.T.P.R.P.P.P.P.P.x.H.N.N.h.x.x.l.h.4.{ Z } j.%.n 1 , > , d / 3.j.=.=.=.h.=.;.u q u q q u i u u J I I -.] =._ =.=.] ] t.=.q 5 5 # 5 _ r.t.r.E &   X                                                                                                                                                                                   ",
"                                                                                                                                                                            X X   3  .a.u.r.E 7 5 i i u B _ ] ] ] =.=.-.=.I r.t.r.y.r.;.q q q q 5 q 5 q u ;.-.y.u.d.p.s.s.[ A z.H.l.x.`.|.|.+X+X).).).T./.).(.).'.Y.Y.E.[.T.R.G.{.Y.R.{.{.T.R.T.+XT.OXmXAXZXZXZXDXG.O.V O.@.@.o.O.@.+.@.@.@.#.@.8.*X%X*X*X&X=X%X%X2X2X1X=X1X2X5X2X2X2X2X2X3X2X,X2X5X2X,X1X2X1X,X<X<X<X<X1X<X<X<X<X<X4X4X5X3X5X5XeXrXeXeXrXwXxXsXgXgXgXsXwXrXrXwXwX9X9X5X5X5X2X5X5X2X2X,X,X2X2X1X2X2X2X,X,X,X=X%X%X%X#X$X$X&X$X%X&X$X$X&X$XQ.&X$XL.K.K.K.K.K.&XK.:.>.o.o.o.o.o.o.o.o.@.@.O.@.,.9XZXCXAXZXSXvX8X).!.!.!.!.!.!.R.!.!.!.U.!.R.P.P.P.P.A.P.A.N.x.l.x.l.j.j.2.;.A A <.i.&.0 3 q A 1.h.j.r.h.h.x.=.;.q q q f f f u u f ;.;.;.=.r.] =._ ] ] =.] r.y.l 3 5 & 9 J r.p.d.r.7       X                                                                                                                                                                               ",
"                                                                                                                                                                        X     X . j 0.r.q.w.z 5 5 i i i L ] ] ] =.I =.] =._ =.=.=.-.=.y.=.N q q q q q q 7 u ;.-.h.u.s.s.l.z.i.m.V.p.U.|.|.+X+X+X).).+X).).).).).).T.'.).E.[.E.W.I.W.!.T.R.P.J.!.+XOXmXAXAXZXAXMXG.*.@.O.O.O.o.o.@.@.o.@.+.@.#.S.*X&X&X&X%X5X%X;X;X2X1X2X5X2X2X2X2X2X2X2X,X<X,X3X5X2X2X,X<X1X,X<X<X<X<X1X<X<X,X<X1XeX0XsXhXcXMXVXMXVXVXVXZXBXZXZXZXAXBXZXZXVXZXZXCXVXvXxXgXgX0X0X5X5X5X2X2X,X,X,X,X2X2X2X,X2X$X$X%X%X%X%X%X%X%X$X%X%X$X$X&XQ.&X&X&XQ.*XK.K.K.K.L.9.,.o.>.o.>.+.@.@.D @.@.o.+.+.7.7XCXZXZXZXCXdX.X X}.W.!.W.R.T.T.U.R.!.U.H.R.P.P.A.H.x.H.H.x.x.x.z.p.3.3.<.;.Z Y f.i.A n =.l.h.p.j.h.y.-.;.x q f f j a f g u H I ;.;.I r.r.=.] r.=.] =.] =.y.~ 5 3 : & y -.y.r.y.H * X   X                                                                                                                                                                               ",
"                                                                                                                                                                          X     : _ r...] _ y 5 q a a l _ ] ]  .=.] ] =.=._ =.=.-.-.-.y.y.x.=.Y u q q q q q q f ^ =.f.h.p.h.p.l.m.N.H.N.!.).!.)./.U.H.+X).+X'.).'.E.[.U.G.'.'.R.I.T.!.Y.!.R.!.!.|.dXZXAXAXCXmXR.@.O.@.O.o.@.@.o.@.@.@.@.@.&.*X%X&X&X%X=X=X;X%X5X2X5X2X1X1X2X2X5X2X2X2X2X1X1X5X2X%X,X5X1X5X,X<X<X<X<X<X1X5XeXtXtXnXMXNXCXZXZXZXZXZXZXZXZXZXZXAXAXAXAXZXAXAXAXAXAXZXZXAXZXZXVXVXvXxXsX0X9X5X4X2X4X2X2X2X2X,X$X,X2X%X%X%X%X<X$X$X%X%X%X&X&X$X&XQ.*X*X#XQ.Q.K.K.9.K.<X9.,.>.o.o.;.:.@.>.@.@.@.@.+.V 7.pXZXCXZXZXSXfX.X!.!.!.W.R.T.T.!.!.T.!.P.P.R.R.R.H.P.H.P.A.c.h.z.p.p.4.p.4.^ n X.&.u.s.s.z.j.h.h.=.;.B e f f B f x j J -.-.;.=.I =.I r.=.=.=.] =.=.] =.r.r.r.y 3 2 9 3 I =.] r. .2 X X X X                                                                                                                                                                             ",
"                                                                                                                                                                            X   y a.t.0. .L 5 5 y p j B {  . . .] =.=.] I =.=.I =.-.t.=.=.y.H.H.;.B q u q q q q w g -.p.h.h.z.l.x.N.H.H.H.H.U./.U.Y.(.T.Y.).'.).'.(.I.Y.I.E.E.E.R.R.Y.R.Y.!.!.{.dXZXZXAXZXMXR.D @.@.@.O.o.o.@.@.o.@.@.@.#.*X%X%X&X$X%X%X2X5X;X%X5X5X5X5X,X5X2X2X2X2X1X2X1X,X5X5X5X2X1X5X5X5X2X1X1X1X9XxXvXMXMXZXZXZXAXZXAXAXAXAXZXZXAXZXAXAXAXAXAXAXAXAXAXZXAXZXZXZXZXZXZXZXZXZXZXZXMXbXhXwX9X3X4X4X2X2X2X2X,X2X%X%X,X%X$X%X%X%X%X%X;X$X$X$X;X*X#X#X*X*X*XL.K.9.9.L.<X8.#.o.o.o.@.+.o.+.+.+.+.o.D ,.0XZXCXAXAXCXsX X!.R.W.W.R.!.!.!.!.!.P.!.!.Y.P.!.P.P.P.P.x.x.z.j.p.j.5.1.( / i.g.l.l.Z.p.l.l.=.^ x f f f g f f l ;.;.r.=.r.r.r.=.r.=.=.] =.] ] -.=.=.] =.Z.l 3 2 & & i -.=.r.u.t X X X                                                                                                                                                                               ",
"                                                                                                                                                                      X       * L t. .q.] a 3 7 u a k E  .{ =. .I =.=.=.=.=.=.=.=.=.t.=.r.r.=.H.H.=.;.q q q u q q q a B 1.z.l.l.l.V.N.N.D.P.H.).+X+X).I.).).).).U.Y.I.Y.W.).E.E.R.R.I.U.T.!.+XsXVXAXAXAXCX}.7.D @.@.O.@.@.@.@.@.@.@.O.#.*X%X%X%X&X%X%X5X5X5X5X;X5X5X1X2X5X1X5X2X5X2X1X5X5X5X5X2X5X5X1X1X,X2X2XqXxXvXMXZXAXAXZXZXZXAXAXAXAXZXAXAXAXAXAXAXAXAXAXZXSXCXZXAXZXAXAXAXAXZXAXAXZXZXZXZXZXZXZXZXZXBXMXDXpX5X4X4X2X=X2X%X,X%X%X%X$X,X,X$X%X%X&X&X$X$X$X=X$X$X#XQ.L.*X*XL.9.L.<X9.,.:.;.o.@.o.@.o.@.o.o.o.o.O.,.lXZXZXZXAXBXpXQ.!.W.E.R.!.U.!.T.P.!.P.Y.U.!.U.P.P.H.P.H.x.z.l.3.k.p.2.3.x.G.M.z.x.l.m.l.( x f f x f B l i l ;.;.=.=.=.r.=.=.=.=.r.=.=.=.] =.] =.] -.=.l.-.5 5 & # 5 _ r.=.0.U * X X                                                                                                                                                                               ",
"                                                                                                                                                                          X   3 ] r.r.=.I 7 5 y s a x '  .] =. .=.=.I =.r.I =.=.=.=.=.=.=.=.=.r.y.N.H.;.;.f q q w q q d N =.h.l.l.z.N.N.N.P.H./.!.+XU.H.+X+XU.U.Y.Y.(.I.I.W.U.W.T.P.Y.T.T.).yXSXSXZXZXSXFX*.D S O.@.O.O.@.@.@.@.@.#.#.1X;X%X&X%X;X5X5X;X%XeX5XrX5X5X5X2X5X5X5X5X5X5X1X1X1X2X1X2X1X5X9X5X,XwXxXMXVXCXAXAXAXAXAXAXAXZXAXZXAXAXAXAXAXAXAXAXAXAXAXZXZXZXAXZXZXZXAXAXAXAXAXAXAXAXAXAXAXAXZXAXZXZXZXAXSXcXwX9X2X2X2X2X,X%X%X%X$X<X$X$X;X%X%X;X$X$X$X*X$XQ.&X&X*XL.*XK.*X9.9.*X9.8.:.>.>.+.@.>.+.+.+.+.@.o.O.z.vXAXAXZXCXNX:X!.E.!.E.!.R.!.!.!.!.!.R.P.P.!.R.P.P.P.P.x.x.j.p.p.l.x.N.N.G.D.z.l.l.-.Z x x g B x B B J -.=.=.=.=.r.r.=.=.=.t.=.=.=.=.=.] ] =.=.=.] ] y.Z.i 3 2 & : J r.] 0. .3 X                                                                                                                                                                                 ",
"                                                                                                                                                                    X     X   a t.r.a. .x 3 5 y a a N | {  .| { | ] -.=.I =.I _ =.=.=.=.=.y.=.=.=.6.!.!.!.=.J u s m d N Z L ~ 2.l.M.z.D.U.N.P.U.P.Y.U.U.E.U.F.U.Y.Y.Y.E.I.E.I.E.R.P.Y.{.+XFXmXZXCXSXMXqX@.O.O.o.@.@.o.@.o.@.@.@.@.8.&X%X&X%X%X>X5X5X%X5X%XqX5X5X5X5X5X5X5X5X5X5X2X1X1X1X1X<X<X<X%X;X6XsXvXBXCXZXAXZXAXAXAXAXAXAXAXAXAXAXAXAXAXAXAXAXAXAXAXAXAXAXAXAXAXAXAXAXAXAXAXAXAXAXAXAXAXAXAXAXAXAXAXAXAXAXZXZXBXvXsX9X2X,XQ.<X<X<X$XQ.<X,X%X%X%X=X$X$X&X$X*X$XQ.&X&XQ.*X*XL.K.9.9.L.L.9.;.o.o.:.o.:.o.o.o.@.@.@.o.S.bXCXCXSXAXmXyX).{.!.E.{.'.E.E.T.R.Y.Y.R.P.U.P.P.A.H.c.l.3.j.H.U.P.P.D.N.N.N.j.( Z B B B A B B Y ;.=.r.t.r.=.h.p.=.=.=.=.=.-.=.=.{ =.=.{ {  . .=.-.=.m.J 3 2 9 : q =.=.=.y.x X                   X         X                                                                                                                                                   ",
"                                                                                                                                                                      X X X & P t.a.r.~ u 2 7 i f f P { { { { { { { ' ' -.-.I -.-.=.=.r.=.=.y.=.=.y.t.y.H.+X!.-.x f B [ / ~ U Z / z.N.N.N.U.P.U.Y.Y.Y.Y.U.U.U.Y.E.Y.Y.I.'.R.R.I.R.I.Y.{. XDXZXZXCXSXkX&.O.O.O.o.O.O.@.@.@.o.@.O.8.%X%X$X%X;X5X5X5X5X5X5X5X5X5X5X5X5X5X1X1X5X5X1X5X2X1X1X<X<X,X,X5XsXbXSXAXAXAXAXAXAXAXAXAXAXAXAXAXAXZXZXAXAXAXAXAXAXAXAXAXAXAXAXAXAXAXAXAXAXAXAXAXAXAXAXAXAXAXAXAXAXAXAXAXAXAXAXAXAXAXAXCXVXxXwX4X<X,X2X<X<X$X,X%X=X$X%X$X$X$X;X&X$X&X&XQ.*X*X*XL.K.K.9.9.L.#X8.:.o.>.o.o.o.:.o.o.@.+.+.O.*XMXCXAXAXZXdXOX{.{.Q.!.E.E.E.Y.R.E.I.U.R.P.H.P.N.h.x.z.M.P.P.P.P.D.P.N.l.;.^ Z ( ^ Y Y A P -.3.r.r.y.p.p.y.=.p.r.=.=.=.=.-.I ' =. .' ] { { { ] -.] y.t.7 2 2 : 2 P =.t.r.-.:                                                                                                                                                                                 ",
"                                                                                                                                                                      X   . 5  .=.=.r.P q 5 a a a z ~ { { { { ] { { ' _ ;._ ~ -.-.=.=.t.y.=.=.=.=.=.=.y.x.H.H.!.h.' [ -.=.{ / T U / $.M.P.U.P.I.U.Y.Y.U.F.Y.'.'.'.E.I.Y.I.E.E.I.I.T.T.|.dXSXZXZXCXDXe.O.O.O.o.o.@.O.@.@.#.#.@.#.#X%X#X%X%X%X5X%X5X5X;X5X5X5X5X5X5X5X5X5X2X2X5X5X5X5X2X1X1X5X9XgXbXBXZXAXAXAXAXAXZXAXAXAXAXAXAXAXAXAXAXAXAXAXAXAXAXAXAXAXAXAXAXAXAXAXAXAXAXAXAXAXAXAXAXAXAXAXAXAXAXAXAXAXAXAXAXAXAXAXZXAXZXBXZXmXdXsX4X4X$X<X<X$X=X%X$X%X$X$X=X$X$X$X$X&X&X&X&XL.L.L.L.K.9.9.*X*X8.:.>.>.o.>.o.>.+.+.+.+.@.#.;XZXAXAXAXSXfX_.{.{.E.T.R.I.T.T.R.Y.R.R.U.P.N.x.x.H.N.).T.T.P.P.N.P.3.^ g B ( =.;.E ;.P -.r.h.h.l.p.=.t.h.r.r.y.3.t.=.-.-.I ] / ] ' ' ] { { ' ' =.r.r.i 2 2 & # j =.r.=.-.q   X                                                                                                                                                                             ",
"                                                                                                                                                                X       X * v u.r.=...z 3 q a f a x ' [ { { { ~ ' ' ( _ _ ' ~ ' -.=.=.r.=.=.y.y.6.=.=.=.=.y.=.H.U.H.z.=...=.} / ^ U T ( p.N.R.U.P.T.).I.U.(.).T.(.'.'.I.'.E.R.R.Y.{.{.7XMXZXZXZXMX(.O.O.O.O.@.o.@.@.@.@.#.#.#.;X%X%X#X2X5X5X5XeX%X5X%XeX>XeXqX5X5X2X1X5X5X5X1X1X2X2X5X2X5XwXvXZXAXAXAXAXAXAXAXAXZXAXAXAXAXAXAXAXAXAXAXAXAXAXAXAXAXAXAXAXAXAXAXAXAXAXAXAXAXAXAXAXAXAXAXAXAXAXAXAXAXAXAXAXAXAXAXAXAXAXAXAXAXAXZXZXCXMXcX0X4X<X<X=X%X%X%X=X$X=X$X$X$X$X$X$XQ.&X$X&XL.L.L.L.K.9.9.#X9.8.:.:.o.o.:.:.+.+.+.+.+.+.,.0XZXAXZXCXMX8XE.}.!.T.E.E.T.Y.Y.Y.P.U.R.P.N.N.H.!.T.Y.Y.P.P.P.x.1.( A A n / <.-.;.;.=.h.r.r.r.h.h.h.=.y.p.h.r.=.=.=.=.-.-.;.' / ~ { ' ~ { ' -.] =.y.P q 5 : & q -.r.=.-.J #           X           X                                                                                                                                                       ",
"                                                                                                                                                                      X   9 w.a.r.=.E q 3 y a a k Y { ' { [ ~ { ~ ' ' ( ' ;.-.I I =.=.=.=.=.y.y.y.=.y.=.c.=.6.y.h.H./.H.l.1.1...} / T A A } z.W.Y.Y.I.).).Y.'.G.R.'.E.!.}.'.I.W.'.{..XMXAXAXCXCX;X*.O.O.o.o.+.@.@.@.@.*.*.#.1X5X#X%X1X5X5X5X5X5XeXeX5X%X5XeX%XeX5X5X2X%X1X5X%X%X2X9X4X9XlXVXAXAXAXAXAXAXAXAXAXZXAXAXZXAXAXAXAXAXAXAXAXAXAXAXAXAXAXAXAXAXAXAXAXAXAXAXAXAXAXAXAXAXAXAXAXAXAXAXAXAXAXAXAXAXAXAXAXAXAXAXZXAXAXAXAXAXAXZXCXMXsXFX-X2X;X%X%X%X=X=X%X$X$X$X$X#X&X*X&X&XQ.#XL.L.L.L.L.9.9.L.8.:.>.o.o.o.+.+.+.+.+.#.o.5.xXZXAXAXSXDX.X}.}.E.T.Q.E.E.I.Y.Y.R.U.Y.P.U.Y.Y.T.Y.U.P.P.4./ { -.[ ^ A N ;.-.3.3.h.h.h.p.3.t.h.t.p.t.t.d.d.=.=.=.-.{ ' ( ~ ~ -.{ { ' { -.{  .] y.-.q 3 : : 3 Y =.t.t.=.3             X     X                                                                                                                                                           ",
"                                                                                                                                                                      X X t b.0.t.=.k 5 5 y a f x { ..{ { { { { ~ / _ ;.;.I I ;.=.=.=.=.=.=.r.r.y.=.y.=.y.y.y.6.h.m.C.U./.N.Z.i.u.$.( ! / T ( g.P.P.P.T.Y.(.E. X].T.E.{.Q.{.Y.R.{.}.dXAXAXAXCXaX*.O.O.O.o.o.+.+.@.@.@.@.#.;X5X%X#X1X1X2X5XqX5X5XqX;X5XeX5X5XqX5X5XeX2X%X1X1X5X5X5X5XsXVXBXAXAXAXAXAXAXAXAXAXAXZXAXZXAXAXAXAXAXAXAXAXAXAXAXAXAXAXAXAXAXAXAXAXAXAXAXAXAXAXAXAXAXAXAXAXAXAXAXAXAXAXAXAXAXAXAXAXAXAXAXAXAXAXAXAXAXZXAXAXAXZXBXDX0X2X$X%X%X=X%X$X%X=X$X$X$X$X&X&XL.#XQ.#XL.L.L.L.L.9.9.*X*X,.:.:.:.>.:.+.#.o.#.o.o.o.J.bXAXAXSXBX0X X}.E.R.{.E.R.R.Y.Y.Y.Y.Y.!.!.!.Y.Y.I.P.z.$.( ( ( =.;.( Y ^ 4.p.l.N.h.h.h.h.p.p.h.r.h.h.3.1.1.=.=.=.] -.{ ' -.' -./ ' ' ' { { -.=.r.h.B 3 : : . q ;.t.h.h.u X                                                                                                                                                                             ",
"                                                                                                                                                                      X * H e.a.y.' y 3 7 u a f N { r...{ { { ~ ' ' ~ ~ E E ;.' -.I =.-.=.=.r.=.=.=.6.c.6.y.=.y.h.l.l.M.U.(.).N.p.1.<.} } *.( ( $.z.I.'.T.).{.'.{.{.}.!.Q.{.R.T.].iXZXZXCXCXlX5.O.O.O.O.+.o.@.@.@.@.@.#.*X;X%X%X5X5X%X5X5X5X5XqX5X>X5X5X5X5X5X5XeX5X5X1X5X1X=X3XpXvXVXZXZXAXAXAXAXAXAXAXAXAXAXAXAXZXAXAXAXAXAXAXAXAXAXAXAXAXAXAXAXAXAXAXAXAXAXAXAXAXAXAXAXAXAXAXAXAXAXAXAXAXAXAXAXAXAXAXAXAXAXAXAXAXZXAXAXAXAXAXZXAXAXAXAXZXNXsX4X-X;X%X$X$X=X$X;X$X$X&X#X#X$X$X#X#X$XL.L.*XL.L.*X9.9.*X,.:.:.+.+.+.:.o.#.+.+.+.+.=XMXZXAXAXMX8X{.E.T.{.T.E.T.R.R.).!.!.).!.!.Y.Y.P.j.( ( 1.4.1.1.;.;.1.p.h.p.N.x.l.h.p.p.p.t.p.p.r.y.p.r.=.-.=.=.=.' { / { { ~ ~ ~ / -.{ { ' =.r.y.;.q : : : q P r.t.r.Y #       X       X         X                                                                                                                                                   ",
"                                                                                                                                                                      X 3 | 0.b.r.P 5 3 q a a f Y { =.=...{ { ~ ~ / ' ~ ~ ;._ -.-.=.=.-.I =.=.r.y.=.y.=.y.c.c.y.h.h.m.m.F.(.(.).U.z.p.1.1.<.$.( ( ( 2.M.E.{.].'.{.{.{.{.{. X}.{.OXmXAXAXCXNXG.O.O.O.o.o.o.o.o.@.@.@.#.S.1X1X1X5X5XqX5X5X5XqX9X5XeXeXqX5XqX5X5XeX5X;X;X5X%X;X:XhXMXCXZXAXAXAXAXAXAXAXAXAXAXAXAXAXAXAXAXAXAXAXAXAXAXAXAXZXAXZXAXZXAXAXAXAXAXAXAXAXAXAXAXAXAXAXAXAXAXAXAXAXAXAXAXAXAXAXAXAXAXAXAXAXAXAXAXAXAXAXAXAXAXAXZXZXZXCXAXCXvX0X2X$X$X=X$X$X$X%X$X%X$X$XQ.#X#X#XQ.#X<XL.L.L.*X9.9.L.9.,.:.o.+.:.+.+.+.:.+.+.O.:.9XBXAXAXBXvX}.E.!.T.R.'.'.'.{.{.{.+X{.{.!.P.k.<.$.<.4.4.4.<.1.3.p.k.l.N.N.l.x.x.h.h.h.j.r.h.p.r.p.p.1.=.-.=.-.=.-.' / ' ' ~ ~ / { { -.=.=.=.=.p.y.f : : : , B =.t.=.{ 5   X                                                                                                                                                                         ",
"                                                                                                                                                                      X j 0.q.t. .l 5 5 q a j v E { { ..=.{ { [ / { { { { { ;.} =. .=.;.=.=.u.1.h.1.p.y.p.s.p.s.h.h.m.m.N.H.N.V.)._.F.z.p.2.$.*.( ( ( } j.W.'.'.{.{.{.}.{.{..X.XlXCXZXAXCX6XO.O.O.O.O.@.o.o.+.o.#.@.K.;X1X;X5XeX9X9XeXeX4X9X5X9X5XeX5X<X5X5X5X5X4X5X5X9X4X9XlXBXAXAXAXAXAXAXAXAXAXAXAXAXAXAXAXAXAXAXAXAXAXAXAXAXAXAXAXCXAXCXZXAXAXAXAXAXAXAXAXAXAXAXAXAXAXAXAXAXAXAXAXAXAXAXAXAXAXAXAXAXAXAXAXAXAXAXAXAXAXAXAXAXAXZXZXAXAXZXAXAXCXNXsX3XQ.=X}.$X$X$X$X$X$X$X$X#XQ.#X#X#X&X*X#XL.L.*X9.9.L.9.,.>.:.>.>.o.:.:.o.+.@.+.8.zXCXCXZXNXpX{.E.E.'.[.'.{.{.Q.{.{.{.E.z.4.<.<.4.3.3.3.3.3.j.m.x.N.N.x.N.x.m.l.h.h.6.h.1.3.r.r.p.r.=.=.-.=.-.=.=.{ -.~ -.' ' ~ _ ~ ~ =.=.=.-.-.t.H 1 : : # 7 { u.r.r.h X X                                                                                                                                                                         ",
"                                                                                                                                                                      & ..v.r.r._ y 3 7 y a a N ~ / ' { ..{ { { { { { { -.-.] =.-.=.=.=.=.1.1.d.y.r.u.h.s.h.l.h.h.m.l.M.M.m.m.N.N.Y.).{.D.j.2.4.4.$.$.*.$.7.G.'.!.{.}.{.Q.{.{.6XNXZXSXZXdX4.O.O.O.O.@.@.+.o.o.o.o.8.%X1X1XeXeX5X5XeX9X9XeX5X9X5X5XwXwX5X2X5X5X9X5X5X9X4XwXMXCXAXAXZXAXCXAXZXAXAXAXAXAXAXAXAXAXAXAXAXAXAXZXAXAXAXAXAXAXAXZXAXZXZXAXAXAXAXAXAXAXAXAXAXAXAXAXAXAXAXAXAXAXAXAXAXAXAXAXAXAXAXAXAXAXAXAXAXAXAXAXAXAXAXZXAXAXAXAXZXAXAXZXZXMXsX4X=X2X=XQ.2X<X%X$X$X#X%X#X&X#XQ.#XQ.L.*XL.#X*X9.9.#X9.:.>.>.>.:.o.:.+.o.@.+.@.L.NXCXZXZXbX:XT.Q.}.}.}.{.{.{.}.'.P.j.<.4.p.6.5.5.3.6.l.x.x.N.x.x.x.N.N.N.x.l.h.h.h.h.h.h.p.h.r.p.3.=.=.-. .-.=.=.-.-.{ ;.-.-.;.' -.=.=.=.-.^ -.-.q : : @ 3 U =.r.a.] &       X                                                                                                                                                                   ",
"                                                                                                                                                                      t a.v.v.r.L 7 8 q a a k E ' { { / { { { {  .{ ~ ' ] -.=.-.=.=.-.=.=.r.u.u.=.6.p.p.h.h.p.h.s.m.l.M.M.N.N.V.N.F.U.).-X{.N.j.5.4.4.4.&.7.$.5.R.}.=X}.}.}.}.FX0XvXCXMXc.D O.O.o.o.@.o.@.o.o.#.,.%X;XrXqXeXqXqX5XeX5X5X9X4X5X9X4XwXtXwX<X5X5X5X2X9X4XwXMXCXAXAXAXCXAXAXAXZXAXAXCXAXAXAXAXAXAXAXAXAXAXAXAXAXAXAXAXAXAXAXAXZXZXZXZXZXZXAXAXAXAXAXAXAXAXAXAXAXAXAXAXAXAXAXAXAXAXAXAXAXAXAXAXAXAXAXAXAXAXAXAXAXAXAXAXAXAXAXAXAXAXZXAXZXZXBXhX9X4X$X}.$X<X$X%X$X$X$X$X&X$X&XL.L.Q.Q.Q.L.#XL.9.L.L.9.>.>.o.:.+.+.+.#.@.@.@.#.>XCXZXZXZXsX!.{..X}.}.}.-X}.R.S.p.6.6.k.k.5.3.3.j.x.D.P.P.P.P.N.N.N.N.x.m.x.h.h.h.h.h.h.p.r.3.r.r.=.=.=.=.-.=.-.-.=.] { ' ' -.;.-.] ' ;.;.;.-.r.d 1 : ; : a r.d.a.v.y   X           X X                                                                                                                                                         ",
"                                                                                                                                                                    . G v.b.v.0.j 5 7 q a p B  .=.=.{ { [ ] { { { { ~ ~ -.=.=.{ =.-.=.=.=.u.4.u.t.r.1.p.d.h.h.h.l.l.C.M.G.D.N.P.F.U.P.P.T.[..X'.A.f.4.3.4.4.4.4.4.J.Q..X}..X}.}.{. XlX7X( @.O.O.O.+.@.+.+.#.o.#.*X%XqXtXeXrXqXeXwXeXwXwX9XeX9X5X5XeXwXeX4X5X5X4X9X2XgXVXZXAXAXZXAXCXAXAXZXAXCXAXAXAXAXAXAXAXAXAXAXAXAXAXAXAXAXAXAXAXAXAXZXZXZXZXAXAXZXAXAXAXAXAXAXAXAXAXAXAXAXAXAXAXAXAXAXAXAXAXAXAXAXAXAXAXAXAXAXAXAXAXAXAXAXAXAXAXAXAXAXAXAXAXAXAXAXZXBXvX9X%X,X$X$X<X%X$X$X$X$X$X&X&X<X#X*XL.L.L.L.L.K.K.L.L.,.:.:.o.:.#.#.#.#.#.@.o.S.cXZXZXvX8X=X}.}.}.}.-X}.P.5.f.j.k.c.z.z.6.6.J.R.R.I.P.P.N.N.x.N.N.x.N.x.h.h.j.h.6.h.h.h.3.h.u.p.=.=.=.=.=.=.=.-.] -.' ' ;.-._ =.~ _ -.;.;.-.h.B q : = $ 7 { b.a.v.R .   X X             X                                                                                                                                                     ",
"                                                                                                                                                                    3 [ b.a.s.' y 3 q a a f ~ =.=.=.' ' ~ { { { { { ' { { { -.{ { =.-. .=.2.u.u.3.p.r.h.u.h.h.l.l.z.N.F.F.V.N.U.G.U.U.U.U.T.{.:X-XP.k.j.5.3.6.5.-.7.5.J.Q.Q..X}..X}.-XQ.6.*.O.O.+.@.+.@.+.#.@.9.5X5X>XrXrXrXeXqXwXeX5XwX5X5X9X5X5X5XeX2X<X5X5X5XqXkXNXZXAXAXAXAXZXAXAXAXZXAXZXAXAXAXAXAXAXAXAXAXAXAXAXAXAXAXAXAXAXAXAXCXAXAXAXZXZXZXZXAXAXAXAXAXAXAXAXAXAXAXAXAXAXAXAXAXAXAXAXAXAXAXAXAXAXAXAXAXAXAXAXAXAXAXAXAXAXAXAXCXAXAXAXAXAXAXAXAXAXZXvXwX2X,X<X<X%X$X%X$X$X$X$X$X$X#X&XL.<XL.L.L.L.K.9.L.*X:.:.o.:.+.#.+.@.#.+.+.#.;XmXsX8X.X}.}.=X}.}.'.A.5.j.k.c.c.z.c.x.P.I.T.'.E.P.U.R.P.N.x.N.N.x.N.l.l.l.h.h.h.h.j.p.u.p.u.d.u.=.=. .=... .{ -.] -.~ ' =.-.-.' ' -.-.=.=.t.r.w 3 : + 3 L d.v.b.r.3 X                                                                                                                                                                       ",
"                                                                                                                                                                  . p a.s.b.r.G 5 7 p a d x {  .=.{ [ ~ ~ ~ '  .-.{ { ;.-.{ =.=.=.=.=.=.1.u.u.i.p.p.p.h.h.s.h.l.h.m.V.H.V.D.D.P.U.U.U.I.Y.I.U.{. X-X{.U.k.5.3.5.5.7.4.,.c.W..X4X}.}.=X;X$XA.7.@.O.@.@.@.+.+.8.%XeXeXqXeXrX;XwXrX5XeX9X5X9X5XwX5X5X<XtXeX<X2X9X9XcXNXZXAXAXZXAXAXAXAXCXAXAXAXAXAXAXAXAXAXAXAXAXAXAXAXAXAXAXAXAXAXAXAXAXAXAXAXAXAXAXZXAXAXAXAXAXAXAXAXAXAXAXAXAXAXAXAXAXAXAXAXAXAXAXAXAXAXAXAXAXAXAXAXAXAXAXAXAXAXAXAXAXAXAXAXAXAXAXAXAXAXAXAXZXbX0X4X}.<X<X#X$X<X$X;X;X$X$X#X#X*X<XQ.L.L.L.L.9.L.*X9.:.#.+.:.#.+.#.#.+.+.,.Q.>X>X8X.X{.4X-X{.P.S.S.A.A.A.A.x.x.A.A.Y.T.T.I.T.I.U.P.P.x.H.P.N.P.N.x.l.j.l.h.h.h.h.p.p.p.3.2.<.1.=.-.-.-.-.-.-.-.{ -.] =.' -.~ ~ ;._ r.=.=.Z.Z 8 2 % : f u.Z.s.s.s X     X     X     X                                                                                                                                                     ",
"                                                                                                                                                                  # Q v.v.d.| a 5 q a d a W =.=.=.{ [ ~ ~ ~ { { { { { { -. . .=.} =.=.u.1.3.p.p.p.d.p.p.p.h.l.h.l.B.H.N.N.N.N.U.U.U.P.U.Y.Y.Y.Y.'.{..X4X.XI.f.k.k.5.6.5.4.6.J.Q.=X=X X;X;X=XQ.S.#.@.@.+.+.*.;X;XqXrXrXqXeXeXeXqXwXwX9XeXeX9X9X5X5X<X1XeX5X5X9XxXSXAXCXCXAXCXZXAXAXAXZXAXAXAXAXAXAXAXAXAXAXAXAXAXAXAXAXAXAXAXAXAXAXAXAXAXAXAXAXAXAXAXAXAXAXAXAXAXAXAXAXAXAXAXAXAXAXAXAXAXAXAXAXAXAXAXAXAXAXAXAXAXAXAXAXAXAXAXAXAXAXAXAXAXAXAXAXAXAXAXAXAXAXAXAXBXvX9X$XQ.<X#X#X<X%X%X%X&X$X#X&X$X#X#XL.Q.L.L.L.K.*X#X8.+.:.:.#.:.#.&.#.9.*X>X:X:X-X-X4X}.E.J.x.A.A.A.G.J.D.J.R.R.I.I.E.T.Y.Y.U.I.!.Y.P.P.P.N.N.P.N.l.h.6.j.h.h.3.p.p.3.h.d.2.=.=.=.{ =.=.=.' -.-.-.-.-.;.' ' ~ ' =.=.=.=.y./ 5 3 2 : 7 ' s.s.s.) &   X                                                                                                                                                                   ",
"                                                                                                                                                                  5 0.s.v.v._ 7 5 p d f x  .r.=.] =./ / { { [ { { { { -.{ { } -.} { -.u.u.u.p.u.p.d.p.p.p.h.l.l.l.z.N.N.x.N.D.F.P.U.U.U.Y.Y.Y.E.Y.Y.]..X:X7X}.A.6.k.J.c.,.6.c.8.W.}.}.Q.[.;X-X4X6X6.@.*.+.K.%XqXzXrXkXwXqXrXqXeXwXeX9X9X9X5X5X5XwXtX1X1XeX9XxXMXAXAXZXSXAXCXZXAXAXAXAXAXAXAXAXAXAXAXAXAXAXAXAXAXAXAXAXAXAXAXAXAXAXAXAXAXAXAXAXAXAXAXAXAXAXAXAXAXAXAXAXAXAXAXAXAXAXAXAXAXAXAXAXAXAXAXAXAXAXAXAXAXAXAXAXAXAXAXAXAXAXAXAXAXAXAXAXAXAXAXAXAXAXAXZXAXZXMX8X2X$X$X$X,X=X%X%X$X$X$X&X$X#XQ.#X#XL.L.L.L.9.*XL.:.:.:.#.#.#.,.%X;X>X>X:X:X.X}.}.K.8.J.I.I.J.G.D.I.E.E.{.E.E.Y.R.T.R.Y.W.G.Y.P.P.P.P.N.N.A.N.x.l.h.h.j.p.p.p.d.p.p.h.p.2.=.-.-.<.=.-.=.-.] -.=.=.' ;.' -._ -.=.=.r.m.r.f 8 2 $ 2 N s.v.s.v.7   X   X                                                                                                                                                               ",
"                                                                                                                                                                . z s.b.s.a.G 7 q a p f B ]  .{ ' -.' ' 1.-.'  .{  .-.{ -.=.=.1.r.=.=.1.h.p.p.d.p.p.j.h.h.h.Z.l.m.M.x.N.x.N.P.P.P.P.P.P.Y.Y.Y.Y.Y.Y.Y.'.}..X6X:X!.U.A.S.,.6.,.5.5.S.Q.;X}.;X}.3XMXwX,.@.8.5X5XrXkXrXkXrXwXwXeX9X9X9X5XeX5X5X5X5XeXqX5X5X0XnXVXBXSXAXZXAXCXSXAXAXAXAXZXAXAXAXAXAXAXAXAXAXAXAXAXAXAXAXAXAXAXAXAXAXAXAXAXAXAXAXAXAXAXAXAXAXAXAXAXAXAXAXAXAXAXAXAXAXAXAXAXAXAXAXAXAXAXAXAXAXAXAXAXAXAXAXAXAXAXAXAXAXAXAXAXAXAXAXAXAXAXAXAXAXAXAXAXAXZXZXbX9XQ.2X<X<X$X=X,X%X%X$X$X&X$X#X#XQ.*X*X*XL.K.9.*X9.:.:.:.>.,.sXbX8X>X;X>X:X}.J.J.J.k.J.E.J.K.I.I.E.Q.Q.[.E.E.W.W.E.W.U.Y.I.P.D.P.P.H.N.N.N.x.x.x.h.l.l.h.h.h.p.h.j.h.3.p.1.} 1.p.=.=.=.-.=.=.-.=.-.] =.r.-.-.=.=.t.r.t.;.3 3 & 2 a r.v.v.s.c .         X   X                                                                                                                                                       ",
"                                                                                                                                                                & ' u.b.b.{ a 3 u a f g P =. . .{ { / { d.{ / =.-. . .{ =.=.r.1.1.u.u.2.i.l.s.l.h.p.h.h.j.z.N.M.N.P.N.N.N.H.N.N.N.P.P.H.I.Y.Y.(.).Y.T.T.'.}.:X6X6X8XE.S.4.6.,.6.5.,.R.-X}..X-XsXBXBXFX7.Q.5XwXwXrXkXrXwX0XeX9XeXeX9X5X9XwX5X9X9X9X5X5XwXhXZXZXZXAXSXZXCXAXZXZXAXCXAXAXAXAXAXAXAXAXAXAXAXAXAXAXAXAXAXAXAXAXAXAXAXAXAXAXAXAXAXAXAXAXAXAXAXAXAXAXAXAXAXAXAXAXAXAXAXAXAXAXAXAXAXAXAXAXAXAXAXAXAXAXAXAXAXAXAXAXAXAXAXAXAXAXAXAXAXAXAXAXAXAXAXAXAXZXZXZXZXCXmX9X3X2X,X$X%X%X%X%X$X%X$X$X$X$X#X#X#X*X*X*X*X9.*X8.:.>.:.7XCXSXiX-X.X6X4XE.8.J.J.6.S.E.R.W.E.Q.}.}.{.'.Q.E.E.(.'.T.T.R.G.I.P.D.N.J.A.D.D.N.H.N.N.x.l.M.l.h.l.l.l.l.h.3.1.d.1.1.r.=.=.=.=.] =.-.] =.=.t.-.I =.=.-.=.t.-.q 3 2 : 3 ~ s.s.s.[ 3                                                                                                                                                                     ",
"                                                                                                                                                                6 a.0.r.a.K 5 7 a a f x ~ =.{ =. .] ' ( =. .=.=.{  .-.=.=.=.=.1.1.u.2.u.i.g.g.l.h.h.j.h.h.H.H.A.H.N.H.H.x.N.N.N.D.P.P.P.U.T.Y.T.'.E.).R.'.{.}.}..X:X7XQ.S.5.6.8.,.6.W.-X;X.X8XvXZXZXbX5X2X5X9XwXrXrXwXqXwXeXeXwXwXwX9X9X5XwX9X5X5X5XwXkXVXAXAXZXCXCXAXAXAXZXAXAXAXAXCXAXAXAXAXAXAXAXAXAXAXAXAXAXAXAXAXAXAXAXAXAXAXAXAXAXAXAXAXAXAXAXAXAXAXAXAXAXAXAXAXAXAXAXAXAXAXAXAXAXAXAXAXAXAXAXAXAXAXAXAXAXAXAXAXAXAXAXAXAXAXAXAXAXAXAXAXAXAXAXAXAXAXAXAXAXAXAXZXCXbX9X,X$X%X<X<X,X%X=X=X%X%X$X<X%X<X#X*X&X*X*X9.*X9.:.>.2XSXCXCXmX.X:X4XFX}.K.J.8.6.6.R.W.E.$XQ.'.Q.Q.[.E.E.E.E.'.T.E.R.G.I.P.D.A.D.D.D.D.N.H.P.N.P.x.h.h.l.l.h.h.Z.j.p.3.1.1.1.1.=.=.=.-.=.-.] -.=.=.=._ _ =.=.=.=.r.r.f 3 3 & : z u.u.u.u.p       X                                                                                                                                                             ",
"                                                                                                                                                              X G a.u.0...l 5 7 f l l L { =. . .{ { [ [ { =.{ {  .=.=.=.=.=.=.=.1.u.u.i.d.g.g.l.h.l.h.h.m.N.D.H.P.H.x.N.N.P.A.P.D.D.P.D.G.Y.Y.'.E.'.E.T.].{.{.[.[.}.;X:XK.8.,.8.5.S.Q.=X.X;X0XZXZXZXVXsX5X5X9XwXrXwXqXrXwX9XwXwX5XwX5X5X9X5X5X5X9X9XgXVXZXAXZXZXAXZXCXAXAXZXCXZXAXAXAXAXAXAXAXAXAXAXAXAXAXAXAXAXAXAXAXAXAXAXAXAXAXAXAXAXAXAXAXAXAXAXAXAXAXAXAXAXAXAXAXAXAXAXAXAXAXAXAXAXAXAXAXAXAXAXAXAXAXAXAXAXAXAXAXAXAXAXAXAXAXAXAXAXAXAXAXAXAXAXAXAXAXAXZXAXAXAXAXAXZXvX9X$X$X<X$X,X2X,X,X%X%X<X#X<X<X*X&X&X*X*X9.*X*X8.:.9XAXZXZXmX4X.X4XQ.$XJ.S.8.8.,.J.L.$X;X;X[.;X}.}.E.[.[.W.E.E.E.R.G.I.N.A.N.D.D.N.D.P.A.A.H.H.N.M.M.x.h.h.l.l.h.p.r.1.u.p.r.=.=.=.=.=.=.-.-.-.=._ -.-.=.=.=.=.=.y.~ 7 3 & & q ..u.0.a.H # X X       X                                                                                                                                                       ",
"                                                                                                                                                              3  .a.u.u.[ a 5 p g f k ' =.=.' -. .{ { ' { { { {  .=.=.=.p.h.=.=.i.p.p.p.i.s.l.l.h.l.h.h.H.N.Z.z.x.N.N.P.N.N.x.N.P.P.P.P.U.I.I.Y.Y.'.E.'.{.{.}.}.}. X;X{.J.5.8.8.6.K..X.X.X XcXZXZXZXbX9X8X5XwXwXqXwXwXwX9XeXwXwX9X5X5X5X9X5X2X4X5XsXBXAXZXAXAXAXAXAXAXAXAXZXZXSXAXAXCXAXZXZXAXAXAXAXAXAXAXAXAXAXAXAXAXAXAXAXAXAXAXAXAXAXAXAXAXAXAXAXAXAXAXAXAXAXAXAXAXAXAXAXAXAXAXAXAXAXAXAXAXAXAXAXAXAXAXAXAXAXAXAXAXAXAXAXAXAXAXAXAXAXAXAXAXAXAXAXAXAXAXAXAXZXAXAXAXAXAXZXxX4X<X$X<X,X2X,X,X,X%X,X<X$X$X#X#X#X*X*XL.K.L.L.,.9.VXZXZXVXwX4X.X,X$XW.J.6.8.,.6.R.Q.4X;X}.}.Q.{.E.Q.E.W.E.E.E.I.I.I.D.I.D.P.P.N.N.P.N.x.x.N.N.N.M.l.l.h.h.l.h.3.p.p.3.r.p.1.u.h.1.=.-.] -.-.] -._ I =.=.=.-.=.y.=.y 3 : # 3 Q u.u.d.w.8     X   X   X                                                                                                                                                     ",
"                                                                                                                                                            X s u.r.a.a.U 7 7 j l l N =.=.=.] _ / { { { { { -.{ =. .=.=.=.u.u.u.s.p.p.s.p.p.f.g.l.x.M.M.N.x.z.N.M.m.N.H.P.N.N.P.I.P.G.P.Y.R.T.).E.).[.[.{.{.}.}.}.[.;X}.k.6.8.6.S.W.}.}..XFXMXZXZXVXxX9X9X0XwXwXwXwXwXqX9XwX9XeXeXwX5XwX5X5X5X9XwXmXAXAXAXAXAXZXZXZXZXZXAXAXAXZXCXCXCXAXZXAXAXAXAXAXAXAXAXAXAXAXAXAXAXAXAXAXAXAXAXAXAXAXAXAXAXAXAXAXAXAXAXAXAXAXAXAXAXAXAXAXAXAXAXAXAXAXAXAXAXAXAXAXAXAXAXAXAXAXAXAXAXAXAXAXAXAXAXAXAXAXAXAXAXAXAXAXAXAXAXAXAXAXAXAXZXAXAXAXNXdX4X<X$X,X,X,X4X,X,X<X,X,X$X$X<X$X<X*XL.L.L.L.9.8.lXZXZXZXvX4X=X.X}.Q.R.8.6.,.,.9.W.Q.=X=X;X}.Q.}.[.W.T.T.E.E.R.G.P.P.I.D.G.P.P.P.A.N.x.x.N.N.N.l.M.x.l.l.h.h.h.3.p.u.3.1.u.p.u.=.-.-.-.' -.-.-.;.-.-.=.=.-.=.=.H.N 8 3 % : c s.u.e.v.j .           X                                                                                                                                                     ",
"                                                                                                                                                            # { s.s.d.r.l 5 y v l l B ^ I ' =.=.{ ] { { { { {  . .{ =.-.=.=.=.p.p.f.p.d.p.f.g.n.l.N.M.M.N.m.l.M.x.m.H.N.H.N.P.P.P.I.D.G.T.(.E.Y.T.E.'.}.[.[.}.}..X}.;XE.5.6.c.c.R.$X}.4X4XfXZXZXZXBXpX9XrXrXwX9XwXqX9XqX9X9XwX9XwX9XwX9X5X9X5X9XcXCXAXAXAXAXAXAXAXAXAXAXZXAXAXZXZXSXZXCXZXZXAXAXAXAXAXAXAXAXAXAXAXAXAXAXAXAXAXAXAXAXAXAXAXAXAXAXAXAXAXAXAXAXAXAXAXAXAXAXAXAXAXAXAXAXAXAXAXAXAXAXAXAXAXAXAXAXAXAXAXAXAXAXAXAXAXAXAXAXAXAXAXAXAXAXAXAXAXAXAXAXAXAXAXAXZXZXAXAXZXMXwX2X<X2X,X4X2X2X2X,X,X,X<X$X<X$X<X#X#X#XL.L.K.:.4XCXZXZXMX6X4X2X=X}.W.J.6.,.,.8.J.Q.4X;X;X=X}.}.[.E.W.E.E.W.W.G.P.P.P.P.G.D.I.P.P.N.x.N.l.N.N.N.M.N.N.l.l.l.h.p.p.p.p.u.p.u.=.=.-.=.' -.=.=.-.I _ =.-.=.=.=.=.h.} 5 3 9 & 5 ..n.a.C. .#     X X X                                                                                                                                                       ",
"                                                                                                                                                      X     7 a.d.v.s.[ u 7 j v f f j j k l B N N N Y Y ' ' { =.=.-.=.-.=.d.1.u.h.s.i.l.p.s.l.l.l.M.M.N.N.N.x.H.H.x.N.P.A.P.H.R.U.Y.R.Y.'.'.'.E.T.E.E.}.}.'.}.[.}.;X;XA.4.6.c.8.{.$XQ..X|.mXZXZXZXMX0X0XwXwXwXwXwXwXrX9X9XwXwXeX5X5X5X5X5XwXwXhXBXZXAXAXAXAXAXAXAXAXAXAXZXAXAXZXZXCXZXZXAXAXZXAXAXAXAXAXAXAXAXAXAXAXAXAXAXAXAXAXAXAXAXAXAXAXAXAXAXAXAXAXAXAXAXAXAXAXAXAXAXAXAXAXAXAXAXAXAXAXAXAXAXAXAXAXAXAXAXAXAXAXAXAXAXAXAXAXAXAXAXAXAXAXAXAXAXAXAXAXAXAXAXAXAXAXAXZXAXAXZXZXbX4X.XQ.2X,X2X2X,X,X,X<X$X,X$X<X#X<X#X#X#XL.L.9.K.bXZXZXBXsX.X}.Q.4XQ.J.8.:.,.6.K.W.=X}.}.Q.}.}.$XE.E.W.E.'.E.E.R.I.I.Y.U.U.P.P.H.P.H.N.N.H.H.N.M.M.l.l.j.j.h.h.h.p.=.p.1.=.=.=.=.=.-.] -.=.-._ ;._ ;.~ E ~ ^ Y W y 3 3 & 3 U n.n.d.v.5   X X   X   X                                                                                                                                                   ",
"                                                                                                                                                          . b n.s.Z.d.L 7 6 z v j a 7 q q q q i a d f g x B B L ~ ~ -.-.=.=.u.p.l.p.3.h.p.p.l.l.m.N.z.z.N.V.N.U.U.P.P.P.P.P./.G.^.I.T.G.T.T.T.'.[.'.'.}.}.}.}.}.-X}.;Xf.5.S.8.S.$XQ..X.X8XBXZXAXBXsX0XwXgXwXwXwXwXgXwXwXwXwXwX4X9XwX5X9X5X0XdXBXAXAXAXAXAXAXAXAXZXAXAXAXAXAXAXZXZXAXAXAXAXAXAXZXAXAXAXAXAXAXAXAXAXAXAXAXAXAXAXAXAXAXAXAXAXAXAXAXAXAXAXAXAXAXAXAXAXAXAXAXAXAXAXAXAXAXAXAXAXAXAXAXAXAXAXAXAXAXAXAXAXAXAXAXAXAXAXAXAXAXAXAXAXAXAXAXAXAXAXAXAXAXAXAXAXAXAXAXAXAXAXZXBXxX6X,X,X4X2X,X2X,X2X,X,X<X$X$X<X$X<X<X#XQ.L.L.6.wXBXAXZXmXFX=X}.4XQ.J.8.,.,.5.J.K.Q.-X=X}.}.}.Q.{.E.Q.E.I.E.W.P.T.Y.I.Y.U.U.P.U.P.Y.P.P.P.P.N.x.N.x.l.l.j.f.j.h.p.p.p.1.=.r.=.=.-.-.;.~ ~ Y Z N B B g g f u q w w 8 3 & & u s.C.d.n.G * X X     X       X                                                                                                                                             ",
"                                                                                                                                                          3 0.C.B.B. .k 7 u l x k a 7 5 3 3 3 3 7 7 q q u m f g B g z B N E { -.-.1.p.h.h.h.h.M.N.H.C.H.V.N.N.Y.U.U.U.U.U.U.U.G.I.T.T.T.Y.E.'.'.|.[.'.}.}.}.}.[.}.;XE.5.S.S.S.W.Q.}.}..XdXZXZXZXMX0X0X0XwXwXrXwXtXwXwXwXeXwXwXwXwX9XwX9X3XwXMXZXAXAXAXAXAXAXAXAXAXAXAXAXAXAXZXAXAXZXAXAXAXZXZXZXZXAXAXAXAXAXAXAXAXAXAXAXAXAXAXAXAXAXAXAXAXAXAXAXAXAXAXAXAXAXAXAXAXAXAXAXAXAXAXAXAXAXAXAXAXAXAXAXAXAXAXAXAXAXAXAXAXAXAXAXAXAXAXAXAXAXAXAXAXAXAXAXAXAXAXAXAXAXAXAXAXAXAXAXAXAXAXAXZXCXsX,X2X$X,X,X,X<X2X<X,X2X,X<X$X<X#X<X<X*X#XL.8.#XZXAXAXZX8X=X.X4X2XK.8.6.,.,.6.J.W.4X-X}.=X}.}.[.}.{.Q.T.I.E.I.I.T.U.I.U.Y.Y.P.P.T.U.N.N.H.N.N.N.N.l.l.l.Z.j.p.h.p.3.-.;.( _ ~ Y N B B f g d q q q 5 5 5 5 q q u 5 3 2 2 5  .B.C.~.e.2   X X                                                                                                                                                         ",
"                                                                                                                                                          p v.B.B.Z.' y 7 a k k k a 7 7 5 3 5 3 3 3 3 3 5 8 4 7 q q q f g g B N Y ^ / ( -.1.3.l.z.N.x.N.N.P.P.U.U.Y.U.U.I.(.R.I.T.T.(.E.[.[.'.'.}.[.}.}.}.}. X}.;X=XA.f.S.S.S.Q.Q.4X X.XbXAXZXZXcX0X0XwXsXgXwXgXwXwXeXwXwXwX9XeX5X9X5X5X5XhXZXZXAXAXAXAXAXAXAXAXAXAXAXAXAXAXAXAXZXAXZXAXAXAXZXZXAXAXAXAXAXAXAXAXAXAXAXAXAXAXAXAXAXAXAXAXAXAXAXAXAXAXAXAXAXAXAXAXAXAXAXAXAXAXAXAXAXAXAXAXAXAXAXAXAXAXAXAXAXAXAXAXAXAXAXAXAXAXAXAXAXAXAXAXAXAXAXAXAXAXAXAXAXAXAXAXAXAXAXAXAXZXAXAXZXAXMX3X2X2X4X<X,X,X,X,X<X<XQ.,X<X$X#XQ.#X<X<XL.*XW.MXZXAXZXsX=X4X.X=XK.9.8.6.,.6.S.W..X;X.X X}.}.{.Q.{.[.[.E.[.W.I.Y.Y.I.Y.Y.I.Y.U.).Y.A.P.H.N.N.P.N.x.l.p.3.=.( ;.;._ ^ ^ B g g f w q q q 4 8 3 5 3 < 3 8 q q u u q 3 2 2 2 z n.~.~.B.a X X X . X X                                                                                                                                                   ",
"                                                                                                                                              X         & ) ~.n.B.m. .B v L b v k j y 7 7 q 5 7 7 5 3 3 8 3 5 8 5 5 4 7 q q m m m g B A T ^ ^ -.} =.2.h.z.N.P.U.Y.Y.U.Y.E.[.(.E.(.(.T.T.'.[.}.'.[. X;X X}..X[..X;X'.5.6.S.S.G.&X}.=X}.7XBXZXZXBX0X9X0XwXwXwXwXwXwXwXwXwXwXwXwX5XeXwXwX9XrXBXZXAXAXAXAXAXAXAXAXAXAXAXAXAXAXAXAXAXAXAXAXAXAXAXAXAXAXAXAXAXAXAXAXAXAXAXAXAXAXAXAXAXAXAXAXAXAXAXAXAXAXAXAXAXAXAXAXAXAXAXAXAXAXAXAXAXAXAXAXAXAXAXAXAXAXAXAXAXAXAXAXAXAXAXAXAXAXAXAXAXAXAXAXAXAXAXAXAXAXAXAXAXAXAXAXAXAXAXAXAXAXAXAXAXAXAXZXhX4X4X2X<X1X,X2X,X4X<X<X<X<X#X<X#X*X*X#XL.#XJ.0XZXZXZXMX4X2X.X.X,X9.6.,.>.8.9.W.}.-X:X-X;X X}.[.}.[.[.'.[.).'.'.Y.(.Y.I.I.T.T.!.R.P.N.N.x.l.p.p.=.;.;.( S Z N B B g g w q 4 8 4 4 3 8 3 5 3 5 7 q q q q q q y 5 3 3 2 3 j b.B.B.B.| * . X X       X                                                                                                                                               ",
"                                                                                                                                                    X   5 v.B.B.Z.h.b.b.Z.s.r.r. .E B l u u q q q 7 4 8 5 8 5 8 7 7 4 7 q q q q q q w e e g n T / ~ W ( ..$.2.l.z.z.N.P.Y.R.T.(.E.[.E.Y.[.'.[.[.{.;X-X X}.-X}.;X;XA.5.S.G.S.*X=XQ.}..XcXZXZXZXbX0X0X0XwXwXwXwXwXwXwXwXwXrXeXwXwX9XwXwX9XnXVXZXAXAXAXAXAXAXAXAXAXAXAXAXAXAXAXAXAXAXAXAXAXAXAXAXAXAXAXAXAXAXAXAXAXAXAXAXAXAXAXAXAXAXAXAXAXAXAXAXAXAXAXAXAXAXAXAXAXAXAXAXAXAXAXAXAXAXAXAXAXAXAXAXAXAXAXAXAXAXAXAXAXAXAXAXAXAXAXAXAXAXAXAXAXAXAXAXAXAXAXAXAXAXAXAXAXAXAXAXAXAXAXAXAXAXAXZXMXwX3X4X,X1X,X4X2X2X2X<X<X<X$X#X<XL.#X#X<X*XL.Q.ZXZXZXZXdX.XQ.=X$XL.8.6.,.6.8.K.E. X-X-X;X-X}.}.}.}.{.{.Q.'.'.'.'.E.'.E.'.Y.P.P.J.N.f.p.3.-.;.^ ( A B B M g w q 1 q q 4 4 4 4 4 7 4 4 q 7 q q q y q u d i g B B L I ' =.b.C.n.Z.C.Z.5   X X X     X                                                                                                                                               ",
"                                                                                                                                            X     X   X h C.n.a.h.Z.m.h.Z.B.m.Z.v.h.d.u.u.1.~ J x a q q q 7 5 q 7 7 7 q q w q 4 q q 4 q q w w g n n Z Q T ! ( $.$.1.3.f.f.k.A.G.G.E.I.[.'.[.[.[.[.;X;X X[.;X;X}.;XS.6.J.A.J.[.$XQ.Q.4XMXAXZXZXdX8X0XwXsXwXwXwXwXgXwXwXwXwXwXeXwX9X9X9XxXVXBXZXAXAXAXAXAXAXAXAXAXAXAXAXAXAXAXAXAXAXAXAXAXAXAXAXAXAXAXAXAXAXAXAXAXAXAXAXAXAXAXAXAXAXAXAXAXAXAXAXAXAXAXAXAXAXAXAXAXAXAXAXAXAXAXAXAXAXAXAXAXAXAXAXAXAXAXAXAXAXAXAXAXAXAXAXAXAXAXAXAXAXAXAXAXAXAXAXAXAXAXAXAXAXAXAXAXAXAXAXAXAXAXAXAXAXAXAXZXvX6X5X,X,X<X,X<X2X<X<X<X$X<X#X&X#X#X#X<X*X#XQ.vXZXZXZXbX.X4X=X=XQ.K.8.,.5.6.J.W.;X;X-X-X=X}.}.Q.}.Q.{.!.[.Q.Q.R.I.G.R.A.k.3.f.3.<.7.;.( ;.A n g e e w w w w q q q w q q q 7 q q q q q q w u f x Y ~ -.=.r.h.m.V.H.H.B.Z.n.B.B.B.B.P X . X   X X                                                                                                                                                 ",
"                                                                                                                                                X     & q.~.n.v.B.B.B.Z.Z.Z.h.b.h.Z.Z.Z.Z.m.Z.h.d.-.' T x B g f d d y w d w w w w w w w e q e B A Z Z A U N A T ! ! <.<.*.4.3.4.5.k.S.S.I.W.[.Q.[.;X;X;X-X;X;X;XE.6.S.I.G.W.;X&X,X!.0XBXZXAXMXwXwXsXsXwXwXgXwXwXtXwXwXtXwXwXeXwX5X9XwXMXZXZXAXAXAXAXAXAXAXAXAXAXAXAXAXAXAXAXAXAXAXAXAXAXAXAXAXAXAXAXAXAXAXAXAXAXAXAXAXAXAXAXAXAXAXAXAXAXAXAXAXAXAXAXAXAXAXAXAXAXAXAXAXAXAXAXAXAXAXAXAXAXAXAXAXAXAXAXAXAXAXAXAXAXAXAXAXAXAXAXAXAXAXAXAXAXAXAXAXAXAXAXAXAXAXAXAXAXAXAXAXAXAXAXAXAXAXAXAXZXZXsX4X2X2X2X2X2X<X<X,X2X<X<X<X#X<X<XL.L.K.K.L.wXZXZXZXVX0X=X=X$X$XK.6.8.,.,.S.R.=X4X=X;X=XQ..XQ.E.Q.Q.!.I.J.J.S.k.z.k.5.4.<.( / A n g A A M e e d e e e e e e w e g e w w e e d f g B N ~ =.r.Z.Z.m.Z.Z.Z.Z.Z.m.Z.m.B.B.~.B.v.B.~.0.9   X                                                                                                                                                       ",
"                                                                                                                                            X     X   . y K w.e.s.b.s.m.B.B.m.m.Z.Z.m.Z.M.Z.M.N.m.h.d.u.r.r.=.=.-.{ ~ A B x f m m w m m d e B ( ( / ! ( / ^ ! ! ^ A ! ^ ! ( *.&.&.&.5.f.6.S.A.I.R.I.W.{.E.;X[.}.G.f.S.S.S.&X;X[.}..XvXZXZXAXvX0XwXgXrXgXgXwXgXwXwXwXwXwXtXwXwX9X9X9XxXSXZXAXAXAXZXAXAXAXAXAXAXAXAXAXAXAXAXAXAXAXAXAXAXAXAXAXAXAXAXAXAXAXAXAXAXAXAXAXAXAXAXAXAXAXAXAXAXAXAXAXAXAXAXAXAXAXAXAXAXAXAXAXAXAXAXAXAXAXAXAXAXAXAXAXAXAXAXAXAXAXAXAXAXAXAXAXAXAXAXAXAXAXAXAXAXAXAXAXAXAXAXAXAXAXAXAXAXAXAXAXAXAXAXAXAXAXAXAXAXZXZXMX9X5X2X2X2X2X4X<X,X,X<X<X#X#XL.<X*XL.<X<XL..XbXZXZXZXxX}.=X$X2XW.8.6.,.6.8.J.Q.4X;X$XQ.Q.Q.W.W.J.A.8.k.6.5.4.7.*.( ^ A S A A B A A ^ ;.^ B g g n g x g g k f g g n N L ^ / / { -.=.=.h.m.H.H.m.m.V.B.m.Z.Z.C.Z.B.B.m.v.Z.y.v.b.) 3                                                                                                                                                           ",
"                                                                                                                                                      X   * 5 a v L N U ' =.u.s.h.Z.B.N.N.m.m.N.x.t.h.r.=.=.t.t.d.1.r.d.d.d.=.{ ~ ^ Y Z B x N { } -.} } <.<.} -.*.$.7.X.( ( ( *.$.*.7.4.7.5.6.6.S.A.A.I.J.R.Q.=X8.S.S.S.A.$X;XQ.Q.4XNXZXZXCXdX9XwXgXxXgXgXgXgXwXtXwXwXtXwXtX5XwXwXwXMXAXAXAXAXAXAXAXAXAXAXAXAXAXAXAXAXAXAXAXAXAXAXAXAXAXAXAXAXAXAXAXAXAXAXAXAXAXAXAXAXAXAXAXAXAXAXAXAXAXAXAXAXAXAXAXAXAXAXAXAXAXAXAXAXAXAXAXAXAXAXAXAXAXAXAXAXAXAXAXAXAXAXAXAXAXAXAXAXAXAXAXAXAXAXAXAXAXAXAXAXAXAXAXAXAXAXAXAXAXAXAXAXAXAXAXAXAXAXAXAXAXCXZXsX2X2X5X2X2X2X2X,X,X<X%X<X<X#X#X#X*X<X<XL.L.sXZXZXZXvX=X}.$X5XQ.J.S.6.,.8.9.K.L.Q.Q.W.K.R.J.8.6.4.5.7.7.( ( D ^ S ^ ( ( ( / ^ ! A D -.( T A A n n Z Z A T / { =.=.=.1.u.p.p.=.=.d.d.y.l.H.H.m.B.@XH.V.m.m.M.B.s.a. . .r.| v 5 #   X X                                                                                                                                                       ",
"                                                                                                                                                  X   . X   X * 5 k W z y d a x B B _ ;.=.h.Z.M.h.Z.h.N.h.h.h.Z.d.r.d.h.m.m.m.C.m.Z.l.h.u.-.u.h.s.i.i.2.1.1.1.=.3.3.p.3.6.2.f.3.2.4.4.5.,.&.4.7.&.7.8.5.S.S.A.A.8.S.K.S.K.;X=X[.!.sXZXAXAXBXsXqXwXtXxXxXxXgXgXgXgXwXwXtXwXwX5XwXwXdXZXAXAXAXAXAXAXAXAXAXAXAXAXAXAXAXAXAXAXAXAXAXAXAXAXAXAXAXAXAXAXAXAXAXAXAXAXAXAXAXAXAXAXAXAXAXAXAXAXAXAXAXAXAXAXAXAXAXAXAXAXAXAXAXAXAXAXAXAXAXAXAXAXAXAXAXAXAXAXAXAXAXAXAXAXAXAXAXAXAXAXAXAXAXAXAXAXAXAXAXAXAXAXAXAXAXAXAXAXAXAXAXAXAXAXAXAXAXAXAXAXAXAXAXMX9X,X,X2X,X4X<X2X1X2X,X<X<X$X<X<X<X*X*XL.K.4XMXZXZXMX6X=X=X2X2XR.8.8.,.8.9.J.K.K.9.6.k.6.5.,.,.7.7.<.<.7.4.3.4.2.4.4.7.1.<.*.X.Z A =.1.<.} -.=.u.3.h.h.h.h.j.l.m.h.h.p.d.h.r.1.h.h.h.Z.H.H.@XZ.Z.h.r.-._ _ U b ' r.| z 3 .         X                                                                                                                                                       ",
"                                                                                                                                                        X       . O 8 p p 6 7 p y q q q i f B Y { r.p.r.h.Z.d.d.h.h.h.B.m.s.h.N.@XB.N.m.V.N.H.@XU.M.N.m.l.l.l.3.f.l.m.x.z.z.D.x.z.k.x.k.j.6.6.8.5.,.8.5.5.,.J.8.6.J.J.G.Q.=XQ.{.FXvXZXAXZXvX0XrXgXxXgXgXgXgXgXgXwXwXsXwXtXwXwXwXgXMXAXAXAXAXAXAXAXAXAXAXAXAXAXAXAXAXAXAXAXAXAXAXAXAXAXAXAXAXAXAXAXAXAXAXAXAXAXAXAXAXAXAXAXAXAXAXAXAXAXAXAXAXAXAXAXAXAXAXAXAXAXAXAXAXAXAXAXAXAXAXAXAXAXAXAXAXAXAXAXAXAXAXAXAXAXAXAXAXAXAXAXAXAXAXAXAXAXAXAXAXAXAXAXAXAXAXAXAXAXAXAXAXAXAXAXAXAXZXAXAXAXAXAXZXCXdX2X2X5X2X5X,X,X<X,X,X%X$X<X<X#X*X#X<X<XL.<XbXBXZXZXhX-X=X=X4XQ.8.8.,.,.6.6.8.,.6.6.8.6.5.6.6.6.6.5.j.j.5.p.6.5.f.p.3.2.3.p.1.-.4.x.N.U.N.x.M.N.V.H.U.H.l.h.h.Z.Z.m.Z.m.Z.s.h.M.m.h.h.h.r.-.P B x l j u q y a P l 5 .   X             X                                                                                                                                                   ",
"                                                                                                                                                    X                 8 s d w w p u d q q q q q q a B B Y Y ;.-.r.h.Z.N.H.B.m.V.@Xm.Z.m.V.H.U.+X_.U.F.U./.U.H.U.Y.U.Y.Y.U.N.P.A.A.D.G.G.A.S.A.A.S.S.S.S.5.S.W.S.J.L.I.Q.;X=X[.=XpXZXCXAXZXkXwXsXgXxXgXgXgXwXgXgXxXtXwXtXwXwXwXwXxXBXZXAXAXAXAXAXAXAXAXAXAXAXAXAXAXAXAXAXAXAXAXAXAXAXAXAXAXAXAXAXAXAXAXAXAXAXAXAXAXAXAXAXAXAXAXAXAXAXAXAXAXAXAXAXAXAXAXAXAXAXAXAXAXAXAXAXAXAXAXAXAXAXAXAXAXAXAXAXAXAXAXAXAXAXAXAXAXAXAXAXAXAXAXAXAXAXAXAXAXAXAXAXAXAXAXAXAXAXAXAXAXAXAXAXAXAXAXAXAXAXAXAXAXAXZXbX3X4X,X2X5X1X4X1X,X,X,X<X<X<X<X#XL.*X<XL.9.wXZXZXAXNX6X=X=X-X4XR.6.6.,.,.8.9.8.J.J.J.8.J.A.S.k.c.k.c.z.k.j.k.m.M.N.D.N.H.U.T.T.U.N.H.U.).U.H.N.m.C.@X@XZ.m.C.H.H.N.Z.h.d.1.=.{ ^ Y B f e u u y q y u y q q k 3 X X   .     X X                                                                                                                                                           ",
"                                                                                                                                                                    . 6 f a g p d s p d f d w q q w g ^ 3.3.1.^ ^ Y ^ / -.} =.p.c.x.M.M.C.U./.).).U.U.U.U.U.U.Y.Y.).).).).Y.).T.T.Y./.I.Y.W.I.A.S.A.A.A.S.W.W.G.W.W.R.Q.=X=X}.}.vXZXCXCXMXwXwXgXgXgXgXgXgXwXgXwXgXgXgXgXtXwXwXwXvXZXAXAXAXAXAXAXAXAXAXAXAXAXAXAXAXAXAXAXAXAXAXAXAXAXAXAXAXAXAXAXAXAXAXAXAXAXAXAXAXAXAXAXAXAXAXAXAXAXAXAXAXAXAXAXAXAXAXAXAXAXAXAXAXAXAXAXAXAXAXAXAXAXAXAXAXAXAXAXAXAXAXAXAXAXAXAXAXAXAXAXAXAXAXAXAXAXAXAXAXAXAXAXAXAXAXAXAXAXAXAXAXAXAXAXAXAXAXAXAXAXAXZXAXAXZXBXsX9X,X5X,X1X2X2X2X,X,X<X<X<X#X#XL.<XL.L.K.4XVXZXAXCXsX4XFX4X4XW.8.6.6.7.8.K.K.J.J.J.J.J.A.A.A.A.J.G.I.I.!.Y.{.}.+X_.).!.).).).Y.Y.U.).+X/.U.D.F.N.N.N.z.h.p.h.3. .;.=.=.p.u.{ m e u q q f f f f f a u u u v 5 X X X X     X   X   X                                                                                                                                                     ",
"                                                                                                                                                  X       X         * s n k k f g k k g l f f u s k B =.+X4.^ ;./ ;.( ( / ^ A A ^ ^ ;.=.j.N.N.H.Y./.).H.U.U.Y.+XT.Y.T.).{.).|.{.|.|.}. X X;X[.[.E.E.E.W.A.E.E.Q.W.R.R.}.;X-X.X.XNXAXAXCXxX9XrXgXgXgXgXgXgXgXgXtXgXgXgXwXwXwXwXgXNXZXCXAXAXAXAXAXAXAXAXAXAXAXAXAXAXAXAXAXAXAXAXAXAXAXAXAXAXAXAXAXAXAXAXAXAXAXAXAXAXAXAXAXAXAXAXAXAXAXAXAXAXAXAXAXAXAXAXAXAXAXAXAXAXAXAXAXAXAXAXAXAXAXAXAXAXAXAXAXAXAXAXAXAXAXAXAXAXAXAXAXAXAXAXAXAXAXAXAXAXAXAXAXAXAXAXAXAXAXAXAXAXAXAXAXAXAXAXAXAXAXAXAXAXAXAXAXvX9X4X5X2X2X1X2X2X2X,X,X<X<X<X<X#X#X#X#XQ.L.nXZXCXAXxX.X4X=X2XW.R.8.9.6.,.K.J.!.R.!.T.E.}.{.[.{. X X;X}.{.{.{.T.).!.).).Y.U.H.Y.U.Y.+XT.P.D.D.k.j.1.;.[ -.-.1.1.3.6.p.1.N.+Xp.N g f f x f f x k l k x i p N a X X   X X X       X                                                                                                                                                       ",
"                                                                                                                                                                    & x B x B B B B B B v x x k f B ^ l.FXg . = : 3 4 e g A T T A A Y A N N ~ } u.j.N.H.U.U.).].+X|.{.|.{.|.{.|.[. X X X X:X>X>X:X;X>X;X X;X-X}.E.J.W.4XQ..X.X0XSXAXAXVXwX9XrXxXgXhXgXgXgXgXgXxXtXgXgXgXgXwXwXxXCXAXCXZXZXAXAXAXAXAXAXAXAXAXAXAXAXAXAXAXAXAXAXAXAXAXAXAXAXAXAXAXAXAXAXAXAXAXAXAXAXAXAXAXAXAXAXAXAXAXAXAXAXAXAXAXAXAXAXAXAXAXAXAXAXAXAXAXAXAXAXAXAXAXAXAXAXAXAXAXAXAXAXAXAXAXAXAXAXAXAXAXAXAXAXAXAXAXAXAXAXAXAXAXAXAXAXAXAXAXAXAXAXAXAXAXAXAXAXAXAXAXAXAXAXAXAXZXVXwX4X2X2X2X2X2X,X,X,X<X<X<X<X#X<X#X<X<X#XJ.9XZXSXZXNX7X.XFX=X2XK.6.8.8.8.!.$XFX}..X:X:X-X-X>X-X.X X}.}.}.{.+X!.!.!.+X+X).(.T.Y.H.z.j.2.} <.<.} ( 4.4.4.4.;.^ F d w 8 = N |.x.A f x x x v B J J J l B l a N v * X X X           X   X                                                                                                                                                   ",
"                                                                                                                                                          X         : B B B N Y N P P N N B B z B N ~ !.8Xq X o o o O O ; > , 8 q w e n B A A A A T / / X.1.f.M.U.).).{.{.|.{.|.]. X X X;X X[.-X-X>X;X>X:X>X-X-X}.-X4X4X.X.X.XlXAXZXZXvXwX5XrXgXxXhXgXgXgXxXgXsXtXgXtXgXwXwXwXbXCXAXZXAXZXAXAXAXAXAXAXAXAXAXAXAXAXAXAXAXAXAXAXAXAXAXAXAXAXAXAXAXAXAXAXAXAXAXAXAXAXAXAXAXAXAXAXAXAXAXAXAXAXAXAXAXAXAXAXAXAXAXAXAXAXAXAXAXAXAXAXAXAXAXAXAXAXAXAXAXAXAXAXAXAXAXAXAXAXAXAXAXAXAXAXAXAXAXAXAXAXAXAXAXAXAXAXAXAXAXAXAXAXAXAXAXAXAXAXAXAXAXAXAXAXAXAXAXZXsX2X2X2X2X5X1X2X,X,X<X<X<X<X#XL.<X<X<X#XK.W.MXCXAXAXdXFX=X4X4X$X!.<X<X4X4XFX4XFX.X4X:X-X-X-X X.X X[.}.}.|.}..X{.|.!.R.x.j.3.{ T T T ( -.*.( D A A e 7 8 , = @ @ o O   e FXY.;.B B B B B B L B B B P L u b _ #   X X   X X X X                                                                                                                                                         ",
"                                                                                                                                                          X         3 E b K U E U U U U P P N z N ~ 1.FX0X2 X O O O O O + O > > > ; , 3 4 ^ ( -.} { X./ / / / ( X.<.4.j.A.F.Y.).}..X.X}.[..X-X-X-X-X>X-X>X-X:X:X-X-X;X4X.X}.8XNXZXZXZXlXqXqXrXkXjXgXgXjXgXgXgXxXgXxXgXgXwXwXlXCXAXAXAXAXAXAXAXAXAXAXAXAXAXAXAXAXAXAXAXAXAXAXAXAXAXAXAXAXAXAXAXAXAXAXAXAXAXAXAXAXAXAXAXAXAXAXAXAXAXAXAXAXAXAXAXAXAXAXAXAXAXAXAXAXAXAXAXAXAXAXAXAXAXAXAXAXAXAXAXAXAXAXAXAXAXAXAXAXAXAXAXAXAXAXAXAXAXAXAXAXAXAXAXAXAXAXAXAXAXAXAXAXAXAXAXAXAXAXAXAXAXAXAXAXAXAXAXAXSXMX8X5X2X2X5X2X,X1X,X,X<X<X<X,X2X<X,X,X,X#XS.hXZXCXAXmX-X}.4X4X4X4X4X3X4X6X3X8X8X:X-X4XFX.X.X4X.X X}.}.{.!.T.l.6.3.;.;.^ ^ Y A n ^ ( ( m e 1 1 < ; ; ; ; @ ; @ @ + O o 4 -XFX3./ N P N P N ' ~ J E P H u N =.3   X     X   X X X                                                                                                                                                       ",
"                                                                                                                                                            X     X 6 ` Q E W ` ) ' ' ) ~ ^ P B Y ' l.wX.X: X O @ O O @ + @ > ; = > > , w ( 1.4.1.1.<.1.1.$.&.2.<.( &.<.4.<.<.3.j.A.P.R.T.E.}.4X3X:X-X;X;X:X:X-X-X4X-X4X4X.XdXBXZXZXMXsXqXwXkXjXjXjXgXhXjXjXgXgXgXxXgXgXwXwXmXAXAXAXAXAXAXAXAXAXAXAXAXAXAXAXAXAXAXAXAXAXAXAXAXAXAXAXAXAXAXAXAXAXAXAXAXAXAXAXAXAXAXAXAXAXAXAXAXAXAXAXAXAXAXAXAXAXAXAXAXAXAXAXAXAXAXAXAXAXAXAXAXAXAXAXAXAXAXAXAXAXAXAXAXAXAXAXAXAXAXAXAXAXAXAXAXAXAXAXAXAXAXAXAXAXAXAXAXAXAXAXAXAXAXAXAXAXAXAXAXAXAXAXAXAXZXAXAXAXAXSXwX5X2X2X2X2X,X,X,X,X<X2X,X,X,X<X,X,X,X#XJ.=XZXCXAXBX9X-X4X6X4X5X4X8X:X6X6X4X:X8X4X-X-X4X}.}.!.I.c.j.3.3.<.;.;.;.;.;.;.;.^ ;.A ;.4.( 1 1 1 1 < < ; ; ; ; ; @ @ O o o 8 }.7Xz.~ E E Y Y Y Y I I I I J f J =.q X   X X   X X     X X                                                                                                                                                   ",
"                                                                                                                                                            X X   . k ..) [ {  . . .{ ' { { Y L ~ =.Y.xXP.. o O O O @ O + @ = < = : , , f 1.h.3.p.s.s.f.f.f.f.f.j.l.5.5.f.3.3.3.f.5.5.5.5.S.J.J.Q.}.;X>X>X>X>X;X-X4X4X4X4X8XMXZXZXZXxX0XqXqXrXjXkXjXkXkXgXxXxXxXxXtXxXsXwXhXNXZXAXAXAXAXAXAXAXAXAXAXAXAXAXAXAXAXAXAXAXAXAXAXAXAXAXAXAXAXAXAXAXAXAXAXAXAXAXAXAXAXAXAXAXAXAXAXAXAXAXAXAXAXAXAXAXAXAXAXAXAXAXAXAXAXAXAXAXAXAXAXAXAXAXAXAXAXAXAXAXAXAXAXAXAXAXAXAXAXAXAXAXAXAXAXAXAXAXAXAXAXAXAXAXAXAXAXAXAXAXAXAXAXAXAXAXAXAXAXAXAXAXAXAXAXAXAXAXAXAXZXdXFX4X5X,X2X2X,X,X,X,X,X<X<X<X<X$X,X,X%XK.J.MXZXAXAXhX4X6X4X4X6X4X6X6X6X4X6X6X-X}.Q.I.J.c.6.k.6.3.5.3.5.4.4.4.4.-.4.=.=.;.;.T ( p.1.0 1 < 1 1 < ; < ; ; ; @ @ + o o % U.hXP.~ E _ ^ E I ~ _ I =._ P l J t.i   X X   X X   X X X                                                                                                                                                     ",
"                                                                                                                                                          X       . G e.W  . . . .{ { ] ] { ~ I { p..XvX;.. o O O @ O @ + @ = > < - , , B 3.m.z.M.D.U.m.m.N.N.D.x.z.j.z.j.z.D.D.A.x.c.6.6.6.6.5.6.8.0XmXlXlXkXwX9X4X4X|.}.0XNXZXZXBXsX9XqXrXkXgXjXjXjXjXxXgXgXnXxXnXgXrXwXxXSXZXAXAXZXAXAXAXAXAXAXAXAXAXAXAXAXAXAXAXAXAXAXAXAXAXAXAXAXAXAXAXAXAXAXAXAXAXAXAXAXAXAXAXAXAXAXAXAXAXAXAXAXAXAXAXAXAXAXAXAXAXAXAXAXAXAXAXAXAXAXAXAXAXAXAXAXAXAXAXAXAXAXAXAXAXAXAXAXAXAXAXAXAXAXAXAXAXAXAXAXAXAXAXAXAXAXAXAXAXAXAXAXAXAXAXAXAXAXAXAXAXAXAXAXAXAXZXAXAXAXZXMX9X3X2X5X5X1X1X,X,X=X,X,X,X$X$X%X%X5X,X$XS.qXZXZXBXMX3X4X2X2X4X3X9X0XsX8XU.I.J.A.k.k.6.c.k.k.6.k.A.A.k.6.6.3.5.h.h.3.p.3.=./ / 4.k.e 1 < = 1 ; < ; ; ; ; @ ; @ o + O f.vX X=.' ~ ' ' ' ] _ _ =.=.I l l r.l X   X X   X X X     X                                                                                                                                                   ",
"                                                                                                                                                      X       X   # W e.| a.0.0.0.=... .{  . .' =.h.6XvXn X o O @ @ $ $ + $ = - - < , 1 A j.M.N.P.U.N.N.M.D.U.U.F.D.D.A.x.P.U.I.A.S.A.k.c.S.c.c.S.S.hXZXSXVXMXVXVXnXnXhXsXvXBXAXZXbX0XqXwXrXrXgXjXgXxXgXxXxXgXxXnXxXxXwXwXcXCXAXAXAXAXAXAXAXAXAXAXAXAXAXAXAXAXAXAXAXAXAXAXAXAXAXAXAXAXAXAXAXAXAXAXAXAXAXAXAXAXAXAXAXAXAXAXAXAXAXAXAXAXAXAXAXAXAXAXAXAXAXAXAXAXAXAXAXAXAXAXAXAXAXAXAXAXAXAXAXAXAXAXAXAXAXAXAXAXAXAXAXAXAXAXAXAXAXAXAXAXAXAXAXAXAXAXAXAXAXAXAXAXAXAXAXAXAXAXAXAXAXAXAXAXZXCXAXAXAXAXZXCXwX3X2X5X5X2X5X1X,X1X,X,X,X%X%X%X%X5X%X&X8.<XBXZXZXVXtXtXtXnXcXbXmXmXVXsXJ.J.J.P.J.R.J.J.J.J.J.A.J.P.x.c.H.x.h.k.c.k.h.j.1.( / 3.k.M 1 1 < < ; < = < ; @ @ @ O O + X ( cX8X=.' ' ' _ _ ] =.] =.] _ J j =.P *   X   X X X X X                                                                                                                                                       ",
"                                                                                                                                                            X     & ..a.0.v.a.e.t.t.r.r. .=. .] u.N.0XvXw o O O + + $ $ @ @ = = = < , 4 ^ p.x.N.U.U.V.N.F.U.(.U.G.D.I.D.Y.'.T.T.Y.U.I.I.A.I.J.J.R.T.vXAXAXvX=X;XwXrXbXbXVXVXZXZXZXsX6XwXrXkXgXgXgXxXxXxXxXxXxXnXnXxXgXwXwXMXZXAXAXAXAXAXAXAXAXAXAXAXAXAXAXAXAXAXAXAXAXAXAXAXAXAXAXAXAXAXAXAXAXAXAXAXAXAXAXAXAXAXAXAXAXAXAXAXAXAXAXAXAXAXAXAXAXAXAXAXAXAXAXAXAXAXAXAXAXAXAXAXAXAXAXAXAXAXAXAXAXAXAXAXAXAXAXAXAXAXAXAXAXAXAXAXAXAXAXAXAXAXAXAXAXAXAXAXAXAXAXAXAXAXAXAXAXAXAXAXAXAXAXAXAXAXAXAXAXAXAXZXCXhX2X2X5X5X1X5X2X1X1X,X,X,X,X%X%X#X%X2X#X8.8.nXBXZXVXVXbXtXbXtXrXVXVXVXxX!.E.!.T.T.!.T.E.R.Y.!.!.!.P.P.k.N.H.R.N.N.l.x.l.3.( ^ p.k.F < 1 1 , > < ; ; ; @ @ @ + O O o B xXwXh.E ' I I -._ ] ] _ ] ] L i ] _ * X X     X X   X X X                                                                                                                                                   ",
"                                                                                                                                                        X X   X X 3 d.d...d.e.a.a.t.u.r.r.r.=.] d.Y.dXlX1 O O + $ + $ + ; ; < = < < < 8 { h.z.H.U./.)._.).'._.{.T.Y.Y.U.'.{.).T.'.Y.I.G.I.R.D.J.G.[.NXZXZX6XD D D >.6.8.W.4XsXdXcX0X9XwXrXhXgXgXhXxXxXxXxXxXnXxXxXxXsXwXsXBXAXZXAXAXAXAXAXAXAXAXAXAXAXAXAXAXAXAXAXAXAXAXAXAXAXAXAXAXAXAXAXAXAXAXAXAXAXAXAXAXAXAXAXAXAXAXAXAXAXAXAXAXAXAXAXAXAXAXAXAXAXAXAXAXAXAXAXAXAXAXAXAXAXAXAXAXAXAXAXAXAXAXAXAXAXAXAXAXAXAXAXAXAXAXAXAXAXAXAXAXAXAXAXAXAXAXAXAXAXAXAXAXAXAXAXAXAXAXAXAXAXAXAXAXAXZXZXAXAXAXAXZXBXMX4X5X5X5X1X1X1X2X,X1X2X,X,X%X#X%X#X%X#X9.,.1XbXtXwXeX<X9.9.,.9.bXZXZXbX X{.{.{.}.{.'.T.E.T.T.R.R.P.N.N.R.H.H.N.P.x.x.x.j.<.A 5.z.A 1 1 1 1 < ; > ; ; > ; @ + + + o m cXpXN.~ =.] _ ] ' _ t.w.] t.I i '  .&     X   X X X   X                                                                                                                                                     ",
"                                                                                                                                                          X X     5 n.a.e.v.b.a.d.d.b.b.a.d.]  .s.|.lXaX> o o O $ $ $ + $ = < = - < < 7 1.l.N.U._.)._.)._._.|.).(.Y.).).'.).E.{.'.'.).T.[.E.P.W.Y.8XCXCXCXQ.O.D D o.o.V D >.7.6.Q.5XwXgXgXgXgXgXhXgXxXsXtXxXxXgXgXxXwXwXcXZXAXCXAXAXAXAXAXAXAXAXAXAXAXAXAXAXAXAXAXAXAXAXAXAXAXAXAXAXAXAXAXAXAXAXAXAXAXAXAXAXAXAXAXAXAXAXAXAXAXAXAXAXAXAXAXAXAXAXAXAXAXAXAXAXAXAXAXAXAXAXAXAXAXAXAXAXAXAXAXAXAXAXAXAXAXAXAXAXAXAXAXAXAXAXAXAXAXAXAXAXAXAXAXAXAXAXAXAXAXAXAXAXAXAXAXAXAXAXAXAXAXAXAXAXZXAXAXZXAXAXAXZXZXSXqX5X2X2X5X1X1X2X2X1X5X<X,X%X#X%X%X#X*XL.:.,.9.8.:.:.:.:.>.:.,.xXZXAXSX4XR.Q.}.}..X}.{.!.!.Y.Y.Y.!.P.U.!.!.H.N.H.H.l.l.p.*.T p.j.( 1 1 1 < < < > > ; ; @ @ + + + X q sXsXU.;.] _ ] ] ] =.w.t.] ] I j E r.5     X                                                                                                                                                                 ",
"                                                                                                                                                        X   X X   6 d.e.e.v.e.a.d.b.v.d.e.a.0.0.m.OXmXOX> O o O + $ $ $ $ = - > - < = q p.l.U.).|.+X_.+X_._.).)./.Y.{.+X+X{.{.{.{.{.{.[.U.'.W.Q.T.aXZXZXCXA.D o.O.+.+.+.@.@.@.@.K.5XwXsXgXwXrXgXgXxXxXwXxXxXxXxXxXgXgXsXMXZXZXAXAXAXZXAXAXAXAXAXAXAXAXAXAXAXAXAXAXAXAXAXAXAXAXAXAXAXAXAXAXAXAXAXAXAXAXAXAXAXAXAXAXAXAXAXAXAXAXAXAXAXAXAXAXAXAXAXAXAXAXAXAXAXAXAXAXAXAXAXAXAXAXAXAXAXAXAXAXAXAXAXAXAXAXAXAXAXAXAXAXAXAXAXAXAXAXAXAXAXAXAXAXAXAXAXAXAXAXAXAXAXAXAXAXAXAXAXAXAXAXAXAXAXAXAXAXAXAXAXAXAXZXCXaX6X2X5X5X5X1X5X5X,X5X,X%X1X%X#X%X#X*X*X8.:.:.:.#.:.:.:.:.+.,.0XAXZXSX0XQ.}.}.{..X}.{.T.T.T.T.].).(.I.).!.T.H.N.N.N.x.3.2.^ 4.z.7.q < 1 , < < ; ; = ; ; @ + O + o 3 8XjX!.=.=. .q. .] w.] ] ] t._ l P r.5   .       X X                                                                                                                                                         ",
"                                                                                                                                                                X q d.0.a.d.b.b.s.s.b.d.v.e.0.a.B.:XMX).$ O o O $ $ $ $ $ = > 2 - 3 > a p.h./.OX|.|.+X_.|._._.).).Y.+X+X|.|.{.).{.'.'.'.Y.T.W.}.T.dXAXCXVX,.S o.o.O.O.+.*.@.+.>.Q.9XeXwXwXrXxXxXrXxXxXgXxXnXtXwXwXgXrXwXMXZXAXAXAXAXAXAXAXAXAXAXAXAXAXAXAXAXAXAXAXAXAXAXAXAXAXAXAXAXAXAXAXAXAXAXAXAXAXAXAXAXAXAXAXAXAXAXAXAXAXAXAXAXAXAXAXAXAXAXAXAXAXAXAXAXAXAXAXAXAXAXAXAXAXAXAXAXAXAXAXAXAXAXAXAXAXAXAXAXAXAXAXAXAXAXAXAXAXAXAXAXAXAXAXAXAXAXAXAXAXAXAXAXAXAXAXAXAXAXAXAXAXAXAXAXAXZXCXAXAXAXAXAXZXZXhX5X5X5X5X1X1X,X,X5X,X%X,X%X,X%X#X#X*X*X9.:.:.:.:.:.:.#.+.:.>.2XZXZXCXaX!.Q.}..X}.{.{.!.T.T.R.'.'.R.Y.Y.T.+XH.l.P.R.H.x.p.^ $.l.3.q 1 , 1 ; < < = ; ; ; + + + O o - }.cX{.r.r.q.r.w.t.] ] ] r.r.] i J r.7     X   X X   X   X                                                                                                                                                   ",
"                                                                                                                                                          X   X X h B.b.~.n.n.v.a.e.a.b.e.e.| e.~.iXNXi.o O o O + $ $ $ % % - - < , < n z.z.U.].OX|._._.+XXX{./.).T.|./.). X|.|.].).{.|.[.P.W.[.I.lXAXAXbX,.o.O.O.o.O.O.@.*.+.7.=XwXwXtXxXgXgXgXgXxXwXxXxXgXwXrXxXwXwXsXSXAXZXCXAXZXZXAXAXAXAXAXAXAXAXAXAXAXAXAXAXAXAXAXAXAXAXAXAXAXAXAXAXAXAXAXAXAXAXAXAXAXAXAXAXAXAXAXAXAXAXAXAXAXAXAXAXAXAXAXAXAXAXAXAXAXAXAXAXAXAXAXAXAXAXAXAXAXAXAXAXAXAXAXAXAXAXAXAXAXAXAXAXAXAXAXAXAXAXAXAXAXAXAXAXAXAXAXAXAXAXAXAXAXAXAXAXAXAXAXAXAXAXAXAXAXAXAXAXAXAXAXAXAXZXZXcX4X5X2X5X1X5X1X5X,X1X1X%X1X,X<X#X#X*X*X9.:.:.:.:.:.:.:.:.:.+.Q.ZXZXZXdX!.Q..X{.}.}.}.}.{.'.T.T.).T.Y.Y.!.H.R.H.H.P.H.x.p.( } f.<.w 1 , , ; , > = = @ @ @ + + @ O o R.bX4Xd.q.q.q.q.w.t.w.] y.q._ i J t.a     X   X         X                                                                                                                                                   ",
"                                                                                                                                                    X       X   . K ^.e.a.e.a.a.a.e.a.d.B.e.| e.V.pXCX1.* + O O + $ $ @ $ = - - < < < n h.C./.OXOX|._._.+X`._._./.+X X.X|.+X{.|.{.[.|.{.[.I.E.Q.'.vXAXAXhX*.o.O.O.O.O.O.@.+.o.6.,XrXxXrXxXgXxXgXxXgXgXxXgXxXrXsXwXwXwXxXZXAXAXAXAXAXAXAXAXAXAXAXAXAXAXAXAXAXAXAXAXAXAXAXAXAXAXAXAXAXAXAXAXAXAXAXAXAXAXAXAXAXAXAXAXAXAXAXAXAXAXAXAXAXAXAXAXAXAXAXAXAXAXAXAXAXAXAXAXAXAXAXAXAXAXAXAXAXAXAXAXAXAXAXAXAXAXAXAXAXAXAXAXAXAXAXAXAXAXAXAXAXAXAXAXAXAXAXAXAXAXAXAXAXAXAXAXAXAXAXAXAXAXAXAXAXAXAXAXAXAXAXAXAXAXAXbX9X5X1X1X2X,X2X,X1X,X,X%X%X<X<X<X#X#X*X*X9.:.:.:.:.:.:.:.:.+.K.NXAXAXvX}.}.}..X X}.{.}. X).T.).T.).Y.Y.Y.H.N.H.H.P.N.x.f.! *.f.k.r 1 1 ; < < > = = = @ + + + @ O o S.bX6Xp.r.r...q.r.r.t.] r.t.w.l J y.j       X   X                                                                                                                                                           ",
"                                                                                                                                                    X       X   . K v.0.a.e.e.v.d.e.e.a.v.e.X.v.M.dXZXT o o O O + $ $ $ $ = - - - > , Z s.N.U.|.|.|.+X_.+X`.OX+X).OX|.FX.X|.|.|.|.:X.X).'.{.R.W..XMXZXZXpXO.o.o.o.O.O.O.@.+.@.6.9XzXzXxXxXxXgXgXgXgXgXxXxXwXxXwXwXwXwXcXCXZXAXAXAXZXAXAXAXAXAXAXAXAXAXAXAXAXAXAXAXAXAXAXAXAXAXAXAXAXAXAXAXAXAXAXAXAXAXAXAXAXAXAXAXAXAXAXAXAXAXAXAXAXAXAXAXAXAXAXAXAXAXAXAXAXAXAXAXAXAXAXAXAXAXAXAXAXAXAXAXAXAXAXAXAXAXAXAXAXAXAXAXAXAXAXAXAXAXAXAXAXAXAXAXAXAXAXAXAXAXAXAXAXAXAXAXAXAXAXAXAXAXAXAXAXAXAXAXAXAXAXAXAXAXAXMX5X,X5X1X5X5X5X,X,X5X<X%X%X1X1X#X#X#X#X*X:.:.:.:.:.:.:.+.:.+.9.MXZXAXmX.X}.}. X X}.}.}.'.'.'.T.'.T.Y.Y.H.!.H.R.P.H.P.N.f.( $.f.h.M 1 1 < 1 < = ; = = @ + + + O O o 3.MX8Xh.r.r.] t.=.w.w.t.r.] w.J H b.j   X   X   X       X                                                                                                                                                   ",
"                                                                                                                                                          X     # ) e...a.e.e.a.v.v.a.a.e.e.| b.C.xXVXZ o o O + + + $ $ = = - - - - > T p.N.).|.OX+X_.oX|._.XX|.|.+X+X).+X{.|.|.OXFX}.).'.T.R.E..XBXAXAX|.S O.o.o.@.O.O.D >.D 9.6XgXnXxXhXgXxXgXhXxXxXxXxXgXwXxXxXwXwXvXZXZXAXAXAXAXZXAXAXAXAXAXAXAXAXAXAXAXAXAXAXAXAXAXAXAXAXAXAXAXAXAXAXAXAXAXAXAXAXAXAXAXAXAXAXAXAXAXAXAXAXAXAXAXAXAXAXAXAXAXAXAXAXAXAXAXAXAXAXAXAXAXAXAXAXAXAXAXAXAXAXAXAXAXAXAXAXAXAXAXAXAXAXAXAXAXAXAXAXAXAXAXAXAXAXAXAXAXAXAXAXAXAXAXAXAXAXAXAXAXAXAXAXAXAXAXAXAXAXAXAXAXAXAXAXAXVX0X4X5XeX5X,X,X2X<X,X,X1X1X<X%X#X#X*X*X*X:.,.:.:.:.:.:.:.+.:.,.vXZXAXmX.X X}.}.}.}.{.{.{.'.'.E.).Y.U.I.P.Y.Y.H.H.H.x.x.l.( ( 2.6.M 1 1 < < < > = = = = $ + + O O X ( MX7XZ.q.t.t.r.] ] t.t.t.t.w.H l y.v X X       X X X   X                                                                                                                                                   ",
"                                                                                                                                                                # X.a.a.n.v.e.d.v.n.v.b.v.e.` v./.vXMXM o o O O O + $ = = = - - > , , / l.F.oXOXOX|._.+X_._.)._.+X+X|.+X+X X|.OX.X.X}.|.{.R.Q.E. XCXAXAX'.O.O.+.o.O.O.O.@.@.@.K.9XgXxXxXxXxXxXgXxXxXsXbXxXgXwXwXgXgXwXbXZXAXAXZXAXAXAXAXAXAXAXAXAXAXAXAXAXAXAXAXAXAXAXAXAXAXAXAXAXAXAXAXAXAXAXAXAXAXAXAXAXAXAXAXAXAXAXAXAXAXAXAXAXAXAXAXAXAXAXAXAXAXAXAXAXAXAXAXAXAXAXAXAXAXAXAXAXAXAXAXAXAXAXAXAXAXAXAXAXAXAXAXAXAXAXAXAXAXAXAXAXAXAXAXAXAXAXAXAXAXAXAXAXAXAXAXAXAXAXAXAXAXAXZXAXAXAXAXAXAXAXAXAXZXAXAXCXsX2X5X5X5X5X,X5X5X2X2X<X,X%X#X%X%X#X#XL.:.:.:.:.:.:.:.:.:.#.:.xXAXAXmX.X{..X X}.{.{.{.{.'.'.'.).T.U.U.U.Y.H.H.P.H.H.N.z.=./ f.N.M 1 < < , < < > = ; $ + O + + O X A MXpXm.r.t.r.=.r.I ] t.t.y.t.I i t.L . X X   X X     X                                                                                                                                                     ",
"                                                                                                                                                          X X   * ` a.d.~.n.v.a.n.n.v.v.e.e.X.n._.mXMXw o o o O + $ $ = - - - - - 3 3 ( l.U.OXOXOX_.XX_._._._.+X+X+X|..X|.+X|..XOX X|. X|.R.T.R.:XSXAXAXU.O.O.O.o.O.o.@.@.>.>.L.wXrXxXxXxXlXxXgXxXbXxXxXxXxXgXgXrXwX0XMXAXAXAXAXZXAXZXAXAXAXAXAXAXAXAXAXAXAXAXAXAXAXAXAXAXAXAXAXAXAXAXAXAXAXAXAXAXAXAXAXAXAXAXAXAXAXAXAXAXAXAXAXAXAXAXAXAXAXAXAXAXAXAXAXAXAXAXAXAXAXAXAXAXAXAXAXAXAXAXAXAXAXAXAXAXAXAXAXAXAXAXAXAXAXAXAXAXAXAXAXAXAXAXAXAXAXAXAXAXAXAXAXAXAXAXAXAXAXAXAXAXAXAXAXAXAXAXAXAXAXAXAXAXZXAXAXZXxX5X5X5X1X1X1X1X1X5X,X,X1X%X%X%X#X#X#XL.8.:.:.:.:.:.:.+.o.:.,.sXAXAXNX.X{..X.X}.}.}.{.E.'.E.'.T.T.Y.U.U.P.R.!.H.N.N.z.l.-.W 5.k.A 1 1 1 < < < ; ; @ $ @ + + + O o n lXhXm.q.] =.r.t.w.r.t._ t.] P i =.R *       X X X   X                                                                                                                                                     ",
"                                                                                                                                                          X X   # X.a.d.B.b.b.v.v.n.B.v.v.e.0.v.`.mXvX7 o o o O + + @ @ = - - - - > 4 } m./.+XOXOX_.)._._.OXOX|.OX|./.{.+X X.X|.+X X|.|.!.T.!.R.6XZXAXSXP.D O.O.o.o.O.+.O.>.>.L.qXwXcXjXjXxXjXhXjXcXnXhXxXxXxXrXwXwXwXVXBXZXZXAXAXAXAXAXAXAXAXAXAXAXAXAXAXAXAXAXAXAXAXAXAXAXAXAXAXAXAXAXAXAXAXAXAXAXAXAXAXAXAXAXAXAXAXAXAXAXAXAXAXAXAXAXAXAXAXAXAXAXAXAXAXAXAXAXAXAXAXAXAXAXAXAXAXAXAXAXAXAXAXAXAXAXAXAXAXAXAXAXAXAXAXAXAXAXAXAXAXAXAXAXAXAXAXAXAXAXAXAXAXAXAXAXAXAXAXAXAXAXAXAXAXAXAXAXAXAXAXZXAXAXAXAXZXvX5X2X1XeX2X,X,X2X2X2X5X1X%X%X=X%X&X&X*X8.:.:.:.:.:.:.:.:.#.#.sXZXAXSX8X{..X}.}.{.}.}.'.'.'.'.T.T.Y.Y.P.P.@X).H.N.H.N.h.-.^ p.j.T 8 1 , , , - = = = $ @ O O O O o g vXlXZ.] =.r.y.y.w.w.t._ y.w.J i t.E &   X   X X X X X                                                                                                                                                     ",
"                                                                                                                                                              X & | n.n.~.Z.v.v.v.v.Z.v.a.0.%.v.).MXdX4 X o o o O + $ @ & - - - > > 4 %.z./.+X+X+X_._.+X].oX_. X|.OX|. X|.+X|. X.X|..X.X!.I.W.W.7XZXAXSXx.D @.O.o.o.o.o.D >.>.Q.wXgXjXxXxXjXxXjXlXjXjXcXjXvXxXwXrXwXgXVXZXAXAXZXAXAXZXAXAXAXAXAXAXAXAXAXAXAXAXAXAXAXAXAXAXAXAXAXAXAXAXAXAXAXAXAXAXAXAXAXAXAXAXAXAXAXAXAXAXAXAXAXAXAXAXAXAXAXAXAXAXAXAXAXAXAXAXAXAXAXAXAXAXAXAXAXAXAXAXAXAXAXAXAXAXAXAXAXAXAXAXAXAXAXAXAXAXAXAXAXAXAXAXAXAXAXAXAXAXAXAXAXAXAXAXAXAXAXAXAXAXAXAXAXZXAXAXZXZXZXAXAXZXAXZXAXAXvX4X5X5X5X5X,X5X2X,X2X%X%X;X1X%X%X&X&X#X9.:.:.:.:.:.:.:.#.:.#.7XAXAXCX8X{..X X X X}.{.E.{.{.'.E.).Y.Y.I.H.U.Y.x.H.H.N.l.1.^ p.l.~ 1 , 1 < < < - - = = @ @ + @ O o w lXsXH.r.y.t.t.t. .] t.w.t.w.J i t.I & X X X X X X     X                                                                                                                                                   ",
"                                                                                                                                                          X     2 %.d.m.B.Z.v.v.v.v.b.B.v.X.X.n.oXNXsX3 o o o O O $ $ % - - - - - > 4 1.l.U.+X+X_.)._._._._._.].|.|. X X+X|.OX.X.X X X X+XI.E.!.iXAXAXMX5.O.O.O.o.o.o.o.@.>.>.<XrXkXjXxXxXxXhXcXhXxXcXjXxXcXxXgXrXwXxXVXAXAXAXAXZXAXZXAXAXAXAXAXAXAXAXAXAXAXAXAXAXAXAXAXAXAXAXAXAXAXAXAXAXAXAXAXAXAXAXAXAXAXAXAXAXAXAXAXAXAXAXAXAXAXAXAXAXAXAXAXAXAXAXAXAXAXAXAXAXAXAXAXAXAXAXAXAXAXAXAXAXAXAXAXAXAXAXAXAXAXAXAXAXAXAXAXAXAXAXAXAXAXAXAXAXAXAXAXAXAXAXAXAXAXAXAXAXAXAXAXAXAXAXAXAXAXAXZXZXAXAXAXZXZXAXAXZXcX2X5X5X1X2X,X4X2X2X2X=X2X%X2X%X%X%X%X#X8.#.:.:.:.:.:.:.:.>.@.:XAXAXCX6X}. X.X}.}..X}.'.{.'.'.T.Y.Y.U.U.U.U.P.N.H.H.N.m.-./ p.k.^ 3 , < < , - = $ $ $ @ + O O O o 0 dXlX/.t.y.t.r.t.y.] t.w.y.t.I l ] _ & X X   X X   X X                                                                                                                                                     ",
"                                                                                                                                                  X       X X   2 b.d.n.Z.v.B.v.v.v.a.n.Z.q.q.B.OXBXiX3 o o o o O $ $ % % - - - - > 4 1.Z.^.+X+X/.V.U.).`.).)._.)._. X+X X.XOXFXOXOX.X|.!.I.W.!.0XZXAXmX5.o.O.O.D >.D o.D >.7.#XqXrXjXjXjXjXjXlXxXjXjXcXlXgXhXgXwXwXxXVXCXZXAXAXAXAXAXAXAXAXAXAXAXAXAXAXAXAXAXAXAXAXAXAXAXAXAXAXAXAXAXAXAXAXAXAXAXAXAXAXAXAXAXAXAXAXAXAXAXAXAXAXAXAXAXAXAXAXAXAXAXAXAXAXAXAXAXAXAXAXAXAXAXAXAXAXAXAXAXAXAXAXAXAXAXAXAXAXAXAXAXAXAXAXAXAXAXAXAXAXAXAXAXAXAXAXAXAXAXAXAXAXAXAXAXAXAXAXAXAXAXAXAXAXAXAXZXZXZXZXAXZXZXAXAXAXAXvX5X5X2X5X5X1X,X2X2X,X%X5X1X1X%X%X1X#X#X9.#.:.:.:.:.:.:.:.:.+.;XZXAXBX7X}..X.X.X{.{.{.[.{.E.'.'.(.U.P.U.Y.U.H.P.H.H.H.l.=.^ 3.k.D 1 1 < < , - = = = = $ + O O o o 4 dXxX!.y.t.] =.r.t.t.t._ y.t.w.i _ ) 2   X   X X X     X                                                                                                                                                   ",
"                                                                                                                                                          X X X 3 v.v.n.B.B.B.Z.v.v.b.n.v.0.e.B.yXZXiX3 o o O O O $ % $ - - - - - - 6 <.l.@X(.H.U.H./.)._.|.]. X X X X|.OXOXFX8XOX.X X}.!.J.!.E.sXAXAXDX&.V O.O.o.o.D o.>.>.7.$XwXrXgXrXgXhXgXxXxXcXcXjXlXxXxXgXrXwXlXBXAXAXZXAXAXAXAXAXAXAXAXAXAXAXAXAXAXAXAXAXAXAXAXAXAXAXAXAXAXAXAXAXAXAXAXAXAXAXAXAXAXAXAXAXAXAXAXAXAXAXAXAXAXAXAXAXAXAXAXAXAXAXAXAXAXAXAXAXAXAXAXAXAXAXAXAXAXAXAXAXAXAXAXAXAXAXAXAXAXAXAXAXAXAXAXAXAXAXAXAXAXAXAXAXAXAXAXAXAXAXAXAXAXAXAXAXAXAXAXAXAXAXAXAXAXAXAXAXZXAXAXAXZXZXAXAXAXvX9X2X5X5X2X,X5X,X5X<X%X2X=X=X%X%X&X&X*X9.:.:.:.:.:.:.:.:.#.o.$XVXAXSXpX}.}..X}.{.{.{.'.{.{.).'.).U.U.P.!.U.U.H.N.N.N.Z.1.~ p.M.} 8 1 < < < < = = ; $ $ + + + O X 8 lXdX).t.q.q.t.q.t.y.t.t.t.w.I l w.' &           X   X   X                                                                                                                                                 ",
"                                                                                                                                                                3 b.v.v.B.B.B.b.b.b.b.n.v.X.0.B.iXZX8X3 o o o o O $ # % % - - - - > 4 1.l.Y././.`.Y.).H.'.OXOXOXOXOXOX X X.XOXOX8XOX X X!.R.Q.E.aXAXZXDX,.o.O.O.+.o.D o.D O.7.2XrXwXwXrXxXxXhXcXxXcXjXxXxXxXxXgXrXwXlXCXAXAXAXAXAXAXAXAXAXAXAXAXAXAXAXAXAXAXAXAXAXAXAXAXAXAXAXAXAXAXAXAXAXAXAXAXAXAXAXAXAXAXAXAXAXAXAXAXAXAXAXAXAXAXAXAXAXAXAXAXAXAXAXAXAXAXAXAXAXAXAXAXAXAXAXAXAXAXAXAXAXAXAXAXAXAXAXAXAXAXAXAXAXAXAXAXAXAXAXAXAXAXAXAXAXAXAXAXAXAXAXAXAXAXAXAXAXAXAXAXAXAXAXAXAXAXAXZXZXZXAXAXAXZXAXAXAXmX5X2X5X2X5X5X,X5X2X2X2X1X%X%X;X;X%X&X#XL.:.:.:.:.:.:.:.#.#.+.Q.NXAXCXpX}. X}.}.}.}.!.{.[.'.'.E.T.Y.T.H.H.P.H.H.x.M.N.N.p.~ p.m.( 8 < 1 < < = = = ; $ @ + + + o X 8 aXcX).0.q.w.0.y.y.y.y.y.t.w.] i r.I * X   X   X   X                                                                                                                                                       ",
"                                                                                                                                                    X     X   X 3 n.v.n.B.n.n.B.B.v.~.B.e.X.e.B.OXCX.X- o O O O + $ $ % % - - - = < w 1.l.U.+X+X)._.|./. XOX XOX XOX.XOX X:X.XOX:XFXFXOX{.P.{.{.sXAXAXlX&.C O.O.o.o.D o.o.D 5.,XeXwXwXgXrXxXnXxXcXcXcXcXcXxXjXgXkXqXlXAXAXAXAXAXCXAXZXCXZXAXAXAXAXAXAXAXAXAXAXAXAXAXAXAXAXAXAXAXAXAXAXAXAXAXAXAXAXAXAXAXAXAXAXAXAXAXAXAXAXAXAXAXAXAXAXAXAXAXAXAXAXAXAXAXAXAXAXAXAXAXAXAXAXAXAXAXAXAXAXAXAXAXAXAXAXAXAXAXAXAXAXAXAXAXAXAXAXAXAXAXAXAXAXAXAXAXAXAXAXAXAXAXAXAXAXAXAXAXAXAXAXAXAXAXAXAXAXAXZXZXAXAXZXAXAXAXAXMX9X2X5X,X2X<X2X2X2X2X1X2X1X;X%X#X=X&X#X9.:.:.:.:.:.:.:.#.#.o.Q.NXAXSXaX.X X X}.E.{.{.{.{.{.{.T.Y.).Y.U.U.H.H.H.H.N.N.M.u./ d.M.{ 4 , 1 < < > = = - $ $ O $ O O o 3 pXvX|.q.r.r.r.0.y.t.y.y.t.t.I i r.I &           X     X                                                                                                                                                   ",
"                                                                                                                                                            X   3 n.d.v.n.~.n.n.Z.Z.n.v.v.q.0.n.yXZXOX% o O o o O + % % - - - - = = q <.h./.+X_.).).).).].]. X XOX|. XOX:XOXOX8XFXOXFX|.!.I.Q.!.sXZXZXlX*.O.o.O.o.D D D >.D ,.,XqXrXrXxXrXxXxXcXcXcXcXnXxXxXcXgXsXwXxXZXAXCXZXAXAXAXAXAXAXAXAXAXAXAXAXAXAXAXAXAXAXAXAXAXAXAXAXAXAXAXAXAXAXAXAXAXAXAXAXAXAXAXAXAXAXAXAXAXAXAXAXAXAXAXAXAXAXAXAXAXAXAXAXAXAXAXAXAXAXAXAXAXAXAXAXAXAXAXAXAXAXAXAXAXAXAXAXAXAXAXAXAXAXAXAXAXAXAXAXAXAXAXAXAXAXAXAXAXAXAXAXAXAXAXAXAXAXAXAXAXAXAXAXAXAXAXZXZXCXAXAXAXZXAXAXAXZXbX9X,X4X,X5X1X2X2X2X2X;X2X%X;X%X%X;X*X*X9.:.:.:.:.:.:.#.#.:.+.E.VXAXCXpX{.}.}.}.'.E.{.'.'.{.).T.Y.R.U.P.U.H.H.H.H.N.m.M.1.T u.m.{ 8 , < < < ; - = $ ; $ + $ O O o 3 aXbX|.t.q.t.t.t.y.t.y.y.t.y.t.i I w.3     X             X   X                                                                                                                                             ",
"                                                                                                                                                          X   X 3 v.d.n.B.v.t.s.b.s.b.b.s.r.e.B.yXSXOX3 o . O O O + $ % % = < & - = 6 <.j.).+X+X+X).).).).|.|.OX:X XOX.X8X8X>X:X8X4X.X X!.A.!.).sXAXAXdX*.@.@.O.O.O.o.O.o.D ,.4XwXwXxXgXgXxXcXcXcXcXbXbXcXzXcXgXsXwXlXZXAXAXZXAXAXAXAXAXAXAXAXAXAXAXAXAXAXAXAXAXAXAXAXAXAXAXAXAXAXAXAXAXAXAXAXAXAXAXAXAXAXAXAXAXAXAXAXAXAXAXAXAXAXAXAXAXAXAXAXAXAXAXAXAXAXAXAXAXAXAXAXAXAXAXAXAXAXAXAXAXAXAXAXAXAXAXAXAXAXAXAXAXAXAXAXAXAXAXAXAXAXAXAXAXAXAXAXAXAXAXAXAXAXAXAXAXAXAXAXAXAXAXAXAXAXAXAXZXAXZXAXZXZXAXAXAXAXMX5X2X5X1X2X2X,X2X2X2X2X,X4X=X2X%X=XW.*X9.#.#.:.:.:.:.#.#.#.o.Q.NXZXZXpX.X}.!.E.{.{.!.{.E.'.T.T.).+XY.U.P.!.H.H.H.H.N.m.=.Y h.m.| 8 1 < < 1 < ; = $ = @ + O O O o 2 pXmXFXZ.t.=.r.y.y.y.y.y.t.w.I i t.] 2         X     X   X                                                                                                                                                 ",
"                                                                                                                                                        X   X   3 n.s.v.B.B.Z.v.Z.v.v.v.v.a.d.`.fXZXyX9 o o o + + + & % = = > > > - q 1.l./.+X_.+X_./.Y.].|.OX:X:XOXOXOX8X8X>XOXOX8X|. X!.J.}.!.sXCXCXlX*.o.O.O.O.o.O.o.D O.8.,XwXrXrXxXkXgXnXcXcXcXcXnXcXcXcXgXkX0XhXAXAXAXAXAXAXAXAXAXAXAXAXAXAXAXAXAXAXAXAXAXAXAXAXAXAXAXAXAXAXAXAXAXAXAXAXAXAXAXAXAXAXAXAXAXAXAXAXAXAXAXAXAXAXAXAXAXAXAXAXAXAXAXAXAXAXAXAXAXAXAXAXAXAXAXAXAXAXAXAXAXAXAXAXAXAXAXAXAXAXAXAXAXAXAXAXAXAXAXAXAXAXAXAXAXAXAXAXAXAXAXAXAXAXAXAXAXAXAXAXAXAXAXAXAXAXAXAXZXZXAXAXAXAXAXAXAXAXbXqX5X1X5X4X2X2X5X2X2X=X2X=X2X2X$X&XL.%X9.:.#.:.:.:.:.#.#.#.o.Q.VXZXZXiX{.}.{.'.{.{.'.}.'.T.T.).T.Y.T.!.U.U.H.H.H.H.N.N.r.Y h.m.[ 8 1 < < < < = @ = $ + + + O $ o 3 aXmX+Xy.=.t.y.y.y.y.y.y.y.w.I J w.] 3   X X                                                                                                                                                               ",
"                                                                                                                                                              X 5 v.b.d.Z.v.v.m.B.B.Z.Z.v.0.e.^.iXZXOX& o o O o $ + % & % > % > - = 6 2.m./.oX+X].{./.U.).oX XOX>XOX:X>X>XOX8XFXyXFX|.FX}.R.}.E.fXCXAXdX*.o.V O.O.V O.C O.O.,.2XwXrXxXxXgXcXcXcXcXcXbXbXcXcXlXkXrX0XlXCXAXZXAXAXAXAXAXAXAXAXAXAXAXAXAXAXAXAXAXAXAXAXAXAXAXAXAXAXAXAXAXAXAXAXAXAXAXAXAXAXAXAXAXAXAXAXAXAXAXAXAXAXAXAXAXAXAXAXAXAXAXAXAXAXAXAXAXAXAXAXAXAXAXAXAXAXAXAXAXAXAXAXAXAXAXAXAXAXAXAXAXAXAXAXAXAXAXAXAXAXAXAXAXAXAXAXAXAXAXAXAXAXAXAXAXAXAXAXAXAXAXAXAXAXAXAXAXZXZXAXAXAXZXAXAXAXAXbX5X;X2X2X,X5X5X2X5X2X4X2X2X2X2X-XQ.L.1X9.:.:.:.:.#.#.+.+.#.o.E.NXAXZXaX{.}.{.{.E.{.Q.{.'.I.].|.Y.Y.U.H.T.P.H.H.H.V.N.m.r.' h.B.~ 4 < < < < ; > = @ @ $ + $ O $ o 2 aXmX{.y.t.r.t.y.y.t.t.y.t.t.w.i w.w.2       X   X   X                                                                                                                                                     ",
"                                                                                                                                                          X X   5 v.v.b.Z.v.v.b.Z.C.B.C.n.0.e.C.iXZXOX& X o O O # O % # % - - - : > 4 1.h.).+XOX_.|._._.Y. XOX].|.OXOX8XOXOX8X.X8XFXOXOX{.U.}.E.iXAXZXlX7.V O.O.O.O.O.O.o.O.,.;XrXrXgXxXcXzXcXcXcXcXbXcXjXcXjXhXrX0XlXZXAXAXAXAXAXAXAXAXAXZXAXAXAXAXAXAXAXAXAXAXAXAXAXAXAXAXAXAXAXAXAXAXAXAXAXAXAXAXAXAXAXAXAXAXAXAXAXAXAXAXAXAXAXAXAXAXAXAXAXAXAXAXAXAXAXAXAXAXAXAXAXAXAXAXAXAXAXAXAXAXAXAXAXAXAXAXAXAXAXAXAXAXAXAXAXAXAXAXAXAXAXAXAXAXAXAXAXAXAXAXAXAXAXAXAXAXAXAXAXAXAXAXAXAXAXAXAXAXAXAXAXAXAXAXAXAXAXMX5X5X2X2X2X2X2X2X4X4X2X2X2X2X4X4XQ.Q.#X9.:.#.:.#.:.#.#.+.:.o.'.NXZXZX0X{.}.}.{.{.'.{.E.'.T.'.{.{.).U.H.T.H.!.H.@XH.N.m.p.~ h.m.^ 1 , 1 < < = ; = @ = $ O + O $ o 3 aXMX+Xr.y.t.r.t.t.w.t.w.t.t.w.J w.0.3   X X                                                                                                                                                               ",
"                                                                                                                                                          X X   3 v.v.v.B.B.v.~.B.B.m.B.C.a.e.n.iXSXOX9 o X O O O + # % % - - : = < 4 1.Z.Y.+XOX].oX X|.).].XX[. XOX:X:XOX.X4XOXFXFXOX.X!.N.E.!.pXZXCXvX7.V O.O.O.O.O.O.O.O.#.;XrXrXjXnXcXzXnXjXcXcXjXjXjXbXcXkXqXwXxXCXAXAXAXAXAXAXAXZXZXCXAXAXAXAXAXAXAXAXAXAXAXAXAXAXAXAXAXAXAXAXAXAXAXAXAXAXAXAXAXAXAXAXAXAXAXAXAXAXAXAXAXAXAXAXAXAXAXAXAXAXAXAXAXAXAXAXAXAXAXAXAXAXAXAXAXAXAXAXAXAXAXAXAXAXAXAXAXAXAXAXAXAXAXAXAXAXAXAXAXAXAXAXAXAXAXAXAXAXAXAXAXAXAXAXAXAXAXAXAXAXAXAXAXAXAXAXAXAXAXAXZXAXAXAXAXAXAXMX5X3X5X2X5X2X4X4X2X2X4X2X2X2X4X$X$XL.#X9.:.#.:.#.#.o.#.o.+.+.Q.SXCXZXpX!.}.{.}.{.{.{.{.E.{.].).).).T.R.H.@XH.!.H.H.N.M.b.[ v.C./ 1 , , < , = = = = @ @ O $ + O O 3 aXbX_.b.t.t.y.y.y.y.y.y.y.w.w.i w.w.3                                                                                                                                                                     ",
"                                                                                                                                                                2 d.n.B.~.B.C.~.C.B.m.V.C.a.e.B.uXAXiX3 o O O * O + # % % = > > : < 7 =.l.).|.|. XoX_.]. XOX].].OXOXOX XOXOXOX XOXOX.X|.Y.P.T.).iXAXCXlX,.V o.o.o.O.O.o.o.@.*.;XwXgXjXnXbXcXcXcXcXnXcXcXjXcXjXkXwX0XdXCXZXAXAXAXAXAXAXAXZXAXAXAXAXAXAXAXAXAXAXAXAXAXAXAXAXAXAXAXAXAXAXAXAXAXAXAXAXAXAXAXAXAXAXAXAXAXAXAXAXAXAXAXAXAXAXAXAXAXAXAXAXAXAXAXAXAXAXAXAXAXAXAXAXAXAXAXAXAXAXAXAXAXAXAXAXAXAXAXAXAXAXAXAXAXAXAXAXAXAXAXAXAXAXAXAXAXAXAXAXAXAXAXAXAXAXAXAXAXAXAXAXAXAXAXAXAXAXAXAXAXAXAXAXAXAXAXAXbX5X5X4X2X2X5X5X5X5X2X2X2X2X2X4X=XQ.Q.#X9.:.#.#.#.#.#.+.:.+.o.E.BXAXCXiX.X{.{.{.!.{.{.'.'.R.Y.E.).T.).!.R.H.N.@XH.N.H.M.h.{ h.C.[ 4 1 , > , < = = = $ + $ $ + O o 3 sXcX+Xv.s.y.y.y.y.y.y.w.w.w.w.i w.w.9     X X                                                                                                                                                             ",
"                                                                                                                                                  X           X 3 d.d.n.~.C.C.~.B.B.V.V.C.a.a.~.yXZX8X3 X O o O O O $ % % : 2 < < < 4 <.h.(.OX|.].oXoX].oXOXOXOX].OXOXOX X X|. X.X4XOX XY.P.R.!.iXZXZXmX4.o.o.o.o.C o.C O.O.@.&XwXgXjXcXbXbXcXbXcXcXcXbXcXvXlXjXgXsXsXCXAXAXAXZXZXZXAXAXAXAXAXAXAXAXAXAXAXAXAXAXAXAXAXAXAXAXAXAXAXAXAXAXAXAXAXAXAXAXAXAXAXAXAXAXAXAXAXAXAXAXAXAXAXAXAXAXAXAXAXAXAXAXAXAXAXAXAXAXAXAXAXAXAXAXAXAXAXAXAXAXAXAXAXAXAXAXAXAXAXAXAXAXAXAXAXAXAXAXAXAXAXAXAXAXAXAXAXAXAXAXAXAXAXAXAXAXAXAXAXAXAXAXAXAXAXAXAXAXAXCXAXAXAXZXAXAXAXvX5X=X2X4X2X2X3X5X5X4X2X2X4X2X2X2XW.Q.#X8.:.#.#.#.:.#.+.+.#.+.;XZXAXSX8X{.!.{.{.!.!.{.].'.'.'.'.T.).Y.H.H.!.@XH.H.H.N.l.p.{ h.B.U 8 1 < < < = = = = + + + $ O + O 5 dXvX).b.b.y.y.y.y.y.y.w.w.t.w.J y.0.3 X   X   X                                                                                                                                                           ",
"                                                                                                                                                          X X   9 e.v.n.B.B.C.~.C.Z.~.~.C.a.e.C.yXZXiX3 X O o o O O % % % % - = - 2 8 -.h.(.OXOX].].].]._.:XOXOXOX X XOXOXOXOXOXOXyXFXOX{.T.!.{.8XZXAXmX7.V o.o.o.O.o.o.o.o.O.*XrXgXjXvXcXcXcXcXcXnXcXcXcXbXcXjXgXrXwXNXAXZXZXAXCXAXZXAXAXAXAXAXAXAXAXAXAXAXAXAXAXAXAXAXAXAXAXAXAXAXAXAXAXAXAXAXAXAXAXAXAXAXAXAXAXAXAXAXAXAXAXAXAXAXAXAXAXAXAXAXAXAXAXAXAXAXAXAXAXAXAXAXAXAXAXAXAXAXAXAXAXAXAXAXAXAXAXAXAXAXAXAXAXAXAXAXAXAXAXAXAXAXAXAXAXAXAXAXAXAXAXAXAXAXAXAXAXAXAXAXAXAXAXAXAXAXAXAXZXAXAXAXAXAXAXAXZXvX%X%X2X5X5X5X5X5X3X3X3X3X3X;X.X2XQ.L.1X8.#.#.:.#.#.#.+.+.+.+.;XZXAXCX8X!.}.{.}.}.}.}.E.E.E.'.'.).{.Y.T.H.U./.@XH.H.x.h.r.] h.m.Y 1 , , < < = = = = $ $ O $ O $ . 4 vXvX+Xd.y.t.y.y.y.y.t.y.w.y.y.i w.q.9 X X   X                                                                                                                                                             ",
"                                                                                                                                                            X   & a.v.n.n.B.v.B.~.~.~.C.B.a.e.B.uXAXfX3 o o o o O O % % % % > > = < > [ f./.OX+X_._._.|.|.>XOXOXOXOX.XOXOXOXOXFXyXOXFXOX+X).).!.>XSXAXMX&.r O.O.C o.o.C o.o.O.*XkXkXjXcXcXbXbXcXcXbXcXcXcXcXlXjXgXgX0XMXZXZXAXZXAXZXAXAXAXAXAXAXAXAXAXAXAXAXAXAXAXAXAXAXAXAXAXAXAXAXAXAXAXAXAXAXAXAXAXAXAXAXAXAXAXAXAXAXAXAXAXAXAXAXAXAXAXAXAXAXAXAXAXAXAXAXAXAXAXAXAXAXAXAXAXAXAXAXAXAXAXAXAXAXAXAXAXAXAXAXAXAXAXAXAXAXAXAXAXAXAXAXAXAXAXAXAXAXAXAXAXAXAXAXAXAXAXAXAXAXAXAXAXAXAXAXZXAXAXZXAXAXAXAXAXAXAXgX-X5X5X9X5X5X5X3X5X5X5X3X5X%X;X;X*X*X#X8.#.#.#.#.#.#.:.>.@.@.6XCXAXSX8X{.{.Q.|.}.!.}.{.E.'.{.!.).).+X).Y.H./.!.Y.V.H.N.=.' h.M.U 8 1 1 , < < = = @ $ $ $ + O $ o 4 lXvX(.u.t.t.t.t.t.y.y.y.w.q.w.j w._ 9                                                                                                                                                                     ",
"                                                                                                                                                          X     % d.n.v.C.C.C.B.B.^.~.C.B.a.e.n.oXZXlX5 X o o o O O # % # & > & 2 > 3 ( h.Y.OX|._.|.OXOXoX|.|.OXOXOX.XOX.X8XFX8XFXFX.XOX.XT.I.!. XNXAXCXS.M C O.o.o.o.o.o.O.O.*XkXhXzXbXbXbXbXbXbXbXcXcXbXbXlXzXhXsXwXMXAXAXAXAXAXAXAXAXAXAXAXAXAXAXAXAXAXAXAXAXAXAXAXAXAXAXAXAXAXAXAXAXAXAXAXAXAXAXAXAXAXAXAXAXAXAXAXAXAXAXAXAXAXAXAXAXAXAXAXAXAXAXAXAXAXAXAXAXAXAXAXAXAXAXAXAXAXAXAXAXAXAXAXAXAXAXAXAXAXAXAXAXAXAXAXAXAXAXAXAXAXAXAXAXAXAXAXAXAXAXAXAXAXAXAXAXAXAXAXAXAXAXAXAXAXAXAXZXZXZXAXAXAXAXAXAXZXkX5X5X9X5X5X5X5X3X5X2X;X5X5X5X%X;XL.*X*X#.#.#.#.o.#.#.+.+.@.O.6XZXAXNX4X{.{.{.{.!.!.!.|.).T.!.!.T.+X+X_.).).T.@XH.H.H.m.=./ l.m.M 3 1 < < > > = ; = $ @ + # O $ . q dXcX(.a.a.t.0.t.y.q.q.y.y.w.w.l q._ 9     X   X X     X                                                                                                                                                   ",
"                                                                                                                                                    X     X     # a.B.m.~.C.~.C.B.B.B.B.B.e.e.n.oXSXmX7 o o o O O O + $ & = % - = 1 3 ^ h.H.|.OX].|.OXOX X>X].OX.XOXOX8XOX:XOXOXOXFXFX X.XY.R.!. XMXAXCXG.o.O.O.o.C C o.O.O.O.J.pXkXjXlXzXcXcXbXbXbXbXcXcXcXvXlXjXsX0XbXZXAXZXAXAXAXZXAXAXAXAXAXAXAXAXAXAXAXAXAXAXAXAXAXAXAXAXAXAXAXAXAXAXAXAXAXAXAXAXAXAXAXAXAXAXAXAXAXAXAXAXAXAXAXAXAXAXAXAXAXAXAXAXAXAXAXAXAXAXAXAXAXAXAXAXAXAXAXAXAXAXAXAXAXAXAXAXAXAXAXAXAXAXAXAXAXAXAXAXAXAXAXAXAXAXAXAXAXAXAXAXAXAXAXAXAXAXAXAXAXAXAXAXAXAXAXAXZXZXZXAXAXAXAXAXAXVXqX5X9X5X3X3X3X5X6X3X3X5X5X5X;X;X%XL.*X*X#.#.#.o.#.#.o.:.#.+.@.sXZXAXmX.X}.{.{.|.{.}.{.}.).T.).!.).!.).!././.!.@XH.l.H.h.{ { C.z.g 1 1 , , , > = = = $ @ + O O O X k lXlXF.b.y.t.r.t.t.y.w.y.q.q.w.l ] P * X     X X     X                                                                                                                                                     ",
"                                                                                                                                                            X X # 0.~.m.B.B.B.B.B.~.B.B.B.v.X.C.oXSXMXw . O o O O O % $ # # = > < < < N p.H.|.+XoXOX].oXoXoXOXOXOXOXOXFXOXOX8XyX.XOXOXFX|.T.R.!.E.vXCXCXG.O.C O.C o.C O.o.O.O.8.rXkXjXbXzXcXcXcXbXcXcXcXcXbXcXcXxXsXwXjXZXAXAXAXAXAXAXAXAXAXAXAXAXAXAXAXAXAXAXAXAXAXAXAXAXAXAXAXAXAXAXAXAXAXAXAXAXAXAXAXAXAXAXAXAXAXAXAXAXAXAXAXAXAXAXAXAXAXAXAXAXAXAXAXAXAXAXAXAXAXAXAXAXAXAXAXAXAXAXAXAXAXAXAXAXAXAXAXAXAXAXAXAXAXAXAXAXAXAXAXAXAXAXAXAXAXAXAXAXAXAXAXAXAXAXAXAXAXAXAXAXAXAXAXAXAXAXAXZXZXAXAXAXAXAXAXVXqX;X;X3X5X5X5X5X5X3X5X2X5X;X5X5X%XL.%X*X#.#.#.o.#.#.o.:.o.+.>.sXAXAXvX.X X}.}.}..X}.{.{.}.{.).).!.).).)./.!.H.H.H.l.V.h...{ z.s.m , , < < , ; > = = @ + + $ O $ . n mXhXC.0.0.t.| w.b.y.y.y.y.q._ j w.G . X     X     X   X                                                                                                                                                   ",
"                                                                                                                                                          X     # [ ~.m.Z.B.B.n.B.B.B.~.~.e.w.n.XXSXSXm . o o * O O # % @ % @ = > < ; n l.N.+XoX].XXoXOX-XoXOX XOXOXOXFXOX|.iX8XOXOXOX.X|.T.Y.!.T.lXZXAXoXO.O.C o.C o.O.O.O.O.5.qXkXzXzXbXlXcXzXcXcXcXbXcXcXjXlXjXrXwXsXZXAXAXAXAXAXAXAXAXAXAXAXAXAXAXAXAXAXAXAXAXAXAXAXAXAXAXAXAXAXAXAXAXAXAXAXAXAXAXAXAXAXAXAXAXAXAXAXAXAXAXAXAXAXAXAXAXAXAXAXAXAXAXAXAXAXAXAXAXAXAXAXAXAXAXAXAXAXAXAXAXAXAXAXAXAXAXAXAXAXAXAXAXAXAXAXAXAXAXAXAXAXAXAXAXAXAXAXAXAXAXAXAXAXAXAXAXAXAXAXAXAXAXAXAXAXAXAXAXZXAXAXAXAXAXAXmX0X5X5X9X3X3X5X3X5X5X3X2X3X2X2X;X;X*X&X9.#.#.#.#.+.#.#.@.+.o.,.cXAXAXlX X}. X}.}.{..X.X{.|.{.T.).!.)././.).)./.H.T.@Xm.d.X.X.x.g.d < 1 , < > < = % $ = + + $ $ $ X K vXdXB.0.b.~.q.q.q.w.q.y.q.y.] J q.H X       X   X                                                                                                                                                         ",
"                                                                                                                                                        X   X X # W B.v.Z.n.B.B.n.B.v.~.~.e.q.e.XXmXZXN . o o O O O O @ @ # % - = < < g f.V.|.oX].oXoX|.oXOXoXOXOXOXFXOXFX|.iXFX.X.XOX.X!.R.Y.!.'.dXZXAXuXO.O.O.o.o.o.O.O.O.O.@.>XzXkXzXbXcXcXcXcXcXcXzXcXcXvXjXgXsXwXwXCXAXAXAXAXAXAXAXAXAXAXAXAXAXAXAXAXAXAXAXAXAXAXAXAXAXAXAXAXAXAXAXAXAXAXAXAXAXAXAXAXAXAXAXAXAXAXAXAXAXAXAXAXAXAXAXAXAXAXAXAXAXAXAXAXAXAXAXAXAXAXAXAXAXAXAXAXAXAXAXAXAXAXAXAXAXAXAXAXAXAXAXAXAXAXAXAXAXAXAXAXAXAXAXAXAXAXAXAXAXAXAXAXAXAXAXAXAXAXAXAXAXAXAXAXAXAXAXAXAXAXAXAXAXZXAXmX3X6X5X3X5X5X5X5X3X3X3X3X5X2X2X;X%X&X;X9.#.#.#.+.+.+.+.+.o.O.,.vXZXZXdX!. X}. X X}.{.{.{.!.{.).).!.).)./._.+X@XH.H.H.z.l.{ =.z.2.w , 1 , , , = < = = @ + + $ $ + o ! MXfXB.e.b.q.q.~.~.y.y.y.y.q.] I y.H X X X         X                                                                                                                                                       ",
"                                                                                                                                                            X   . G v.v.B.~.~.~.~.~.~.~.C.e.q.n.^.DXAXQ . o O O O O # O # @ = : > < < s p.V.+X+X_.oX|.OXoX XoX[.OXOXOX:XOX.XOX8XOX|.8X.X X!.Y.}.E.pXZXAXuXO.C C C o.o.O.O.O.O.@.>XzXzXjXzXzXcXcXcXcXcXcXcXcXcXcXgXwXwXsXNXAXAXAXAXZXAXAXAXAXAXAXAXAXAXAXAXAXAXAXAXAXAXAXAXAXAXAXAXAXAXAXAXAXAXAXAXAXAXAXAXAXAXAXAXAXAXAXAXAXAXAXAXAXAXAXAXAXAXAXAXAXAXAXAXAXAXAXAXAXAXAXAXAXAXAXAXAXAXAXAXAXAXAXAXAXAXAXAXAXAXAXAXAXAXAXAXAXAXAXAXAXAXAXAXAXAXAXAXAXAXAXAXAXAXAXAXAXAXAXAXAXAXAXAXAXAXAXAXAXAXAXAXAXAXZXlX:X5X5X3X3X6X3X3X5X5X3X3X5X4X2X;X&X*X%X8.#.#.#.+.+.@.@.+.O.o.8.bXAXZXsX!.}..X}.}.+X!.T.{.!.|.+X!.).)./.)./././.C.H.V.N.h.} u.Z.u.7 , , , , < < = = % % $ $ + + O X %.NXfXb.q.q.q.q.b.y.b.q.y.y.q.I _ v.l X   X X   X       X   X                                                                                                                                               ",
"                                                                                                                                                    X     X     . v B.~.C.~.~.B.B.B.~.^.B.n.q.n.~.DXAX[ o O o O O O @ O $ # & ; : < ; q 4.m._._.].XXOXoXOXOXOXOX>XOX.XOX X8XOX8XOXFXOXOXOX!.A.!.).7XCXCXlX@.C o.o.o.g O.O.O.O.O.W.kXkXlXbXcXcXcXcXcXcXzXcXcXjXcXgXwXwXwXvXZXAXAXAXAXAXAXAXAXAXAXAXAXAXAXAXAXAXAXAXAXAXAXAXAXAXAXAXAXAXAXAXAXAXAXAXAXAXAXAXAXAXAXAXAXAXAXAXAXAXAXAXAXAXAXAXAXAXAXAXAXAXAXAXAXAXAXAXAXAXAXAXAXAXAXAXAXAXAXAXAXAXAXAXAXAXAXAXAXAXAXAXAXAXAXAXAXAXAXAXAXAXAXAXAXAXAXAXAXAXAXAXAXAXAXAXAXAXAXAXAXAXAXAXAXAXAXAXAXAXAXAXZXAXSXsX3X5X3X3X9X5X5X3X3X3X3X5X4X3X2X;X&X*X[.8.#.#.#.+.+.+.+.o.o.o.W.NXZXCXiX!.{.}.{.{.{.{. X!.{.{.+XT.T./.@X/.T.Y.@XN.H.N.M.h.{ p.h.( 7 1 , 1 < > < = = = $ $ $ + O o X i.BXfXe.q.q.y.w.q.y.y.y.y.b.b.H _ y.a   X       X                                                                                                                                                           ",
"                                                                                                                                                          X     X a C.C.~.~.B.B.B.B.~.~.n.e.q.e.~.fXZXC.* o O O O O @ # @ @ & : 2 < ; 4 1.m.).+X].OXoXoX X].oXXXOXoXOX XOXOXOXOXOXOX.XOX X!.P.!.!..XNXZXNX3.S S C o.O.C o.C o.C S.kXaXjXzXDXzXcXjXcXcXbXcXxXjXlXhXsX9X9XxXZXZXAXAXAXAXAXAXAXAXAXAXAXAXAXAXAXAXAXAXAXAXAXAXAXAXAXAXAXAXAXAXAXAXAXAXAXAXAXAXAXAXAXAXAXAXAXAXAXAXAXAXAXAXAXAXAXAXAXAXAXAXAXAXAXAXAXAXAXAXAXAXAXAXAXAXAXAXAXAXAXAXAXAXAXAXAXAXAXAXAXAXAXAXAXAXAXAXAXAXAXAXAXAXAXAXAXAXAXAXAXAXAXAXAXAXAXAXAXAXAXAXAXAXAXAXAXAXAXAXAXAXAXCXVXwX4X9X4X5X9X5X6X4X4X5X5X5X;X5X;X;X&X;X&X#.#.+.+.@.+.+.+.O.@.@.[.AXZXSX>X}.}.}..X{.{.{..X{.].Y.).).Y.Y.).!.@X@XU.H.H.N.M.s./ h.N./ 3 1 1 , , , > = = = = ; $ $ $ O O G.ZXfXq.w.w.q.e.y.q.q.0.q.e.w.H H y.t X   X                                                                                                                                                                 ",
"                                                                                                                                                                  t C.B.~.C.n.B.B.B.B.~.~.e.e.e.n.fXAX`.$ O o . O # # # # % & < - - ; 8 ;.l.).+X].oXoXoXoX].]._.).). X XOX XOX.X.X.X.X.X.X}.P.!.!. XmXAXSXM.S V C O.O.o.C o.C O.8.rXkXjXcXbXbXcXcXcXxXzXcXjXjXjXxXwXwXqXsXZXAXAXAXZXAXAXAXAXAXAXAXAXAXAXAXAXAXAXAXAXAXAXAXAXAXAXAXAXAXAXAXAXAXAXAXAXAXAXAXAXAXAXAXAXAXAXAXAXAXAXAXAXAXAXAXAXAXAXAXAXAXAXAXAXAXAXAXAXAXAXAXAXAXAXAXAXAXAXAXAXAXAXAXAXAXAXAXAXAXAXAXAXAXAXAXAXAXAXAXAXAXAXAXAXAXAXAXAXAXAXAXAXAXAXAXAXAXAXAXAXAXAXAXAXAXAXAXAXAXAXAXZXCXvX9X4X9X5X5X9X9X6X5X5X3X5X5X5X5X;X;X&X;X&X#.#.+.+.o.+.+.+.O.O.@.uXAXAXmX>X{.{.}.}.}..X+X.X{.+X).{.+X+X)./.@X!.@X@XH.H.V.N.p.{ f.z.T 8 , 1 , , < < = = ; = $ $ $ $ O = [.CXuXe.w.w.~.e.q.q.q.q.q.e.q.J ] q.5 X X           X                                                                                                                                                       ",
"                                                                                                                                                                  7 n.~.~.~.B.B.B.B.~.~.v.e.e.e.B.iXAXOX% . O O * O # @ # $ % : - = < 3 ( l.U.+XoX|.oXOXoXoX].].+X|. XOX XOXOX.X.XOXFXOXFX.X).Y.{.{.vXAXZX).S S C O.C o.o.o.o.O.#.qXzXzXcXcXcXcXcXxXxXcXcXxXjXxXgXwXqXwX0XmXAXAXAXAXAXAXAXAXAXAXAXAXAXAXAXAXAXAXAXAXAXAXAXAXAXAXAXAXAXAXAXAXAXAXAXAXAXAXAXAXAXAXAXAXAXAXAXAXAXAXAXAXAXAXAXAXAXAXAXAXAXAXAXAXAXAXAXAXAXAXAXAXAXAXAXAXAXAXAXAXAXAXAXAXAXAXAXAXAXAXAXAXAXAXAXAXAXAXAXAXAXAXAXAXAXAXAXAXAXAXAXAXAXAXAXAXAXAXAXAXAXAXAXAXAXAXAXAXAXAXAXAXBXhX4X9X9X4X8X9X9X5X3X5X3X3X;XqX5X;X;X&X;XK.#.#.@.+.+.+.+.o.O.o.*.dXAXCXlX[.{.}..X}.}.{.}..X{.{.{.!.+X).U.Y./.Y.(.!.H.H.H.Z.u.( l.l.Z 1 1 1 , 3 , - = = = @ ; $ $ $ o : 8XBXyXe.0.q.q.q.q.q.b.q.q.0.w.H ) q.5   X                                                                                                                                                                   ",
"                                                                                                                                                                  3 b.~.C.C.n.b.B.B.B.v.n.e.e.q.B.iXCXiX3 * O * O # # # $ @ : > % ; : , Z l.U.OX].].].oX XOX XOXOXOXOXOX XOXOXOX8XOXOXFXFX|.U.I.{.T.dXAXAX.XS C C O.C C C C O.C &.eXzXkXzXMXcXzXcXcXxXcXgXxXxXjXjXgXwX0XsXvXAXAXAXAXAXAXAXAXAXAXAXAXAXAXAXAXAXAXAXAXAXAXAXAXAXAXAXAXAXAXAXAXAXAXAXAXAXAXAXAXAXAXAXAXAXAXAXAXAXAXAXAXAXAXAXAXAXAXAXAXAXAXAXAXAXAXAXAXAXAXAXAXAXAXAXAXAXAXAXAXAXAXAXAXAXAXAXAXAXAXAXAXAXAXAXAXAXAXAXAXAXAXAXAXAXAXAXAXAXAXAXAXAXAXAXAXAXAXAXAXAXAXAXAXAXAXAXAXAXAXAXZXNXwXFX4X9X9X3X5X6X5X5X3X6X6X5X5X5X;X%X&X;X8.#.@.@.+.@.@.@.@.o.o.4.lXAXCXdX].}.}.!.}. X|..X|.).!.'.+X).U.)./.).)./.H.H.M.H.N.u.{ l.z.g 1 3 1 , , < > = = = = $ $ $ $ o 8 iXmXXXB.b.q.q.~.q.q.b.y.e.e.w.H ) w.5 X X   X                                                                                                                                                               ",
"                                                                                                                                                        X         2 u.C.B.B.v.b.v.v.b.v.v.v.e.X.v.OXSXmX4 o * o O * # O $ # % & % = > < n g.F.].]._.].]. XOXOX].OXoX XOXOXOXOXOXOXFXOXOX.X.XY.J.).).iXCXAXpXD S V O.O.O.C o.D V @.[.kXlXDXDXzXcXcXbXzXjXcXxXgXhXjXgXwXqXsXsXCXAXAXAXAXAXAXAXAXAXAXAXAXAXAXAXAXAXAXAXAXAXAXAXAXAXAXAXAXAXAXAXAXAXAXAXAXAXAXAXAXAXAXAXAXAXAXAXAXAXAXAXAXAXAXAXAXAXAXAXAXAXAXAXAXAXAXAXAXAXAXAXAXAXAXAXAXAXAXAXAXAXAXAXAXAXAXAXAXAXAXAXAXAXAXAXAXAXAXAXAXAXAXAXAXAXAXAXAXAXAXAXAXAXAXAXAXAXAXAXAXAXAXAXAXAXAXAXAXAXAXAXMX8X4X9X9X4X9X4X3X4X6X3X5X6XeX;X5X;X;X*X;X8.+.+.@.@.+.+.@.@.D o.c.MXAXSXiX{.}.!..X{.!.|.|.{.{.|.).).+X(.).(.).).H.H.H.l.N.Z.....M.g.m , 1 , , , - - = = = $ + $ $ $ o 0 sXdX~.0.y.y.q.e.b.b.q.q.e.q.] L ] ) & X       X X   X X                                                                                                                                                     ",
"                                                                                                                                                              X   & e.C.B.B.n.a.e.e.~.v.B.b.e.0.d.^.mXSXd . . O O * O O + # % & - : > % s p.V.).].]._._.[.oXoX].).]. X|.OX.X.XOXOXOXOX4XFX!.T.A.).!.-XNXAXmX*.C S V C o.V V o.D O.e.kXzXzXzXzXcXcXcXcXcXlXxXxXjXgXgXgXsX0XpXNXAXAXAXAXAXAXAXAXAXAXAXAXAXAXAXAXAXAXAXAXAXAXAXAXAXAXAXAXAXAXAXAXAXAXAXAXAXAXAXAXAXAXAXAXAXAXAXAXAXAXAXAXAXAXAXAXAXAXAXAXAXAXAXAXAXAXAXAXAXAXAXAXAXAXAXAXAXAXAXAXAXAXAXAXAXAXAXAXAXAXAXAXAXAXAXAXAXAXAXAXAXAXAXAXAXAXAXAXAXAXAXAXAXAXAXAXAXAXAXAXAXAXAXAXAXAXAXAXAXAXAXvX6X9X4X8X8X9X9X3X6X5X6X3X3X>X5X;X;X&X;X*X&.@.@.@.@.+.@.o.o.+.D W.AXAXNX8X!.{.{.+X+X.X.X X+X+X{.T.).!.H.Y._.).H.C.H.H.M.H.h.( u.N.i.0 , , , , , = = < $ + + + $ $ $ o g vXdX~.B.0.b.y.B.b.b.b.q.q.q.I J w._ # X                                                                                                                                                                     ",
"                                                                                                                                                  X       X       #  .C.Z.B.v.a.e.b.n.~.B.v.e.e.n.`.mXSXU X . O O O O O $ # % % = - , & w 2.M.].XX]._.].oXoX].oX].|.OXOXOX.XOXOXOX>XFXOX.X!.U.N.R.{. XmXCXMX6.S V V V o.o.S o.V o.&.qXkXjXlXlXzXbXzXcXcXjXcXjXhXjXgXxXwX0XpXmXAXAXAXAXAXAXAXAXAXAXAXAXAXAXAXAXAXAXAXAXAXAXAXAXAXAXAXAXAXAXAXAXAXAXAXAXAXAXAXAXAXAXAXAXAXAXAXAXAXAXAXAXAXAXAXAXAXAXAXAXAXAXAXAXAXAXAXAXAXAXAXAXAXAXAXAXAXAXAXAXAXAXAXAXAXAXAXAXAXAXAXAXAXAXAXAXAXAXAXAXAXAXAXAXAXAXAXAXAXAXAXAXAXAXAXAXAXAXAXAXAXAXAXAXAXAXAXAXZXZXZXsX6X4X9X9X4X4X4X9X5X6X4X5X9XqX;X;X;X[.%X*X@.@.@.@.@.@.@.@.@.O.D .XZXCXNX4X+X.X!.}..X|. X{.+X+X{.).Y.).Y.).`.@X@XH.H.N.N.h.1.X.i.D.$.4 , , , 1 < - = = % $ + + + + + o T NXaXB.q.b.q.y.~.b.q.q.b.0.q.I k r.I . X X         X   X                                                                                                                                                     ",
"                                                                                                                                                                X . U v.v.B.v.s.n.n.v.~.n.v.d.e.v.~.DXAX=.X O O o O O O + $ % % % % , - 4 %.M._.].).).oXoX]._.].].oX]. XOXOXOXOXOX8XOX.X+X!.!.P.A.}.{.vXZXCX'.F V O.V V D V O.O.O.@.[.kXkXzXzXlXvXzXjXcXnXjXgXgXxXcXcXwXwXsXsXSXAXAXAXAXAXAXAXAXAXAXAXAXAXAXAXAXAXAXAXAXAXAXAXAXAXAXAXAXAXAXAXAXAXAXAXAXAXAXAXAXAXAXAXAXAXAXAXAXAXAXAXAXAXAXAXAXAXAXAXAXAXAXAXAXAXAXAXAXAXAXAXAXAXAXAXAXAXAXAXAXAXAXAXAXAXAXAXAXAXAXAXAXAXAXAXAXAXAXAXAXAXAXAXAXAXAXAXAXAXAXAXAXAXAXAXAXAXAXAXAXAXAXAXAXAXAXAXZXZXbX7X4X4X4X9X9X5X9X9X9X5X=X5X6X5X5X;X%X*X1X8.O.o.o.o.@.@.@.O.O.D >.sXAXZXDX.X|.!.{.}.}.+X|.{.|.{.+X!.).).).).).H.).H.H.H.H.l.r.X.i.M.! 4 , , 1 = - = = % % + + + + + o o p.ZXiXB.y.y.e.q.q.0.y.y.y.y.y.P J Z.P     X X X X                                                                                                                                                             ",
"                                                                                                                                                                  X h v.v.B.m.s.d.a.d.a.d.u.a.' 0.B.fXCX^.. O o O O O O O O ; & ; % - < 3 [ l./.^.Y.[.[.oX(.XX].|.|.OX].OX X XOXOX>X|.].|.}. XT.x.}.!.pXCXZX6XS D o.V V O.V V S O.O.G.zXkXzXzXlXcXzXcXzXcXcXDXzXhXgXjXjXsXwXsXbXAXZXAXAXAXAXAXAXAXAXAXAXAXAXAXAXAXAXAXAXAXAXAXAXAXAXAXAXAXAXAXAXAXAXAXAXAXAXAXAXAXAXAXAXAXAXAXAXAXAXAXAXAXAXAXAXAXAXAXAXAXAXAXAXAXAXAXAXAXAXAXAXAXAXAXAXAXAXAXAXAXAXAXAXAXAXAXAXAXAXAXAXAXAXAXAXAXAXAXAXAXAXAXAXAXAXAXAXAXAXAXAXAXAXAXAXAXAXAXAXAXAXAXAXAXAXAXZXCXhX4X4X5X9X9X4X9X4X9X9X9X3X3X9X9X3X.X$XQ.$X,.S ;.o.o.o.o.o.o.o.V 7.nXSXAXaX|.{..X}..X}. X}.{.|.!.!.).!.).Y.).`./././.U.H.V.l.p.| l.z.B 1 , , - = < = = = = $ + + O O o O N.SXyXv.0.| e.q.0.q.e.t.r.r.=.J P y.i       X   X   X X                                                                                                                                                       ",
"                                                                                                                                                                  X p v.a.%.0.e.e.u.e...e.%.e.=.a.v.uXCXOX$ . * O O O O O O # % = - < - 3 T h.U.]._.oXoX^.[.XX[.oX]. X]. XOXOXOX|.OXOX X X.X{.Y.x.!.T.7XVXAXlX( V C V V V S V D O.O.8.rXaXzXkXzXzXmXcXcXcXcXcXzXgXhXhXcXhXwX0XlXBXZXZXAXAXAXAXAXAXAXAXAXAXAXAXAXAXAXAXAXAXAXAXAXAXAXAXAXAXAXAXAXAXAXAXAXAXAXAXAXAXAXAXAXAXAXAXAXAXAXAXAXAXAXAXAXAXAXAXAXAXAXAXAXAXAXAXAXAXAXAXAXAXAXAXAXAXAXAXAXAXAXAXAXAXAXAXAXAXAXAXAXAXAXAXAXAXAXAXAXAXAXAXAXAXAXAXAXAXAXAXAXAXAXAXAXAXAXAXAXAXAXAXAXAXAXAXAXVXwX8X4X4X9XwX8X9X9X5X9X9X9X4X5X9X5X2X#X2XQ.+.D o.o.o.o.>.o.o.V o.8.VXZXSX7X|.{.{..X+X.X|. X|. X|.+X{.T.Y.).T.)./.).)./.H.@Xh.1...l.l.g 3 1 , - < = = = = ; + + + + O o 2 +XNX|...| X.0.e.q.q.B.y.t.y.y.=._ ] 5 X X                                                                                                                                                                     ",
"                                                                                                                                                        X   X     # p ` ` `  .e.d.s.v.v.v.m.B.m.C.n.OXNXiX3 X o o o O + O + $ @ % : % - < g p.V._._._.).].].XX].].]._.].|.|.oX XOX XOXOX.X{.!.Y.P.R.{..XMXAXMXk.C V V V V V O.S O.O.&.;XkXkXzXDXcXcXcXcXcXcXzXzXjXhXhXjXkX0X0XsXBXZXAXAXAXAXAXAXAXAXAXAXAXAXAXAXAXAXAXAXAXAXAXAXAXAXAXAXAXAXAXAXAXAXAXAXAXAXAXAXAXAXAXAXAXAXAXAXAXAXAXAXAXAXAXAXAXAXAXAXAXAXAXAXAXAXAXAXAXAXAXAXAXAXAXAXAXAXAXAXAXAXAXAXAXAXAXAXAXAXAXAXAXAXAXAXAXAXAXAXAXAXAXAXAXAXAXAXAXAXAXAXAXAXAXAXAXAXAXAXAXAXAXAXAXAXZXZXvX9XFX4X8X8X8X4X9X9X3X3X3X3X3X9X5X4X.XQ.2XJ.D D o.o.o.o.V o.o.;.D $XBXZXmX.X+X|.+X.X.X+X X+X|. X|.).).+X).).+X).@X/.).H./.H.l.=...M.g.w 1 , , < < ; - = ; ; + + O $ O O 6 iXfXN.%.e.e.e.e.e.b.~.H.H.H.H.@X@Xy.q X                                                                                                                                                                       ",
"                                                                                                                                                          X     & d b E ` [  .u.a.v.v.v.m.m.B.B.C.^.^.>XiX[ % . o O O O O O $ & % ; > % = d u.N.[.OX].].].]._.].].].].oXOX XOXoXOX|.].OX|.{.|.!.U.N.'.{.cXZXNXQ.V V V V S S S C O.@.@.[.kXkXzXzXzXcXcXcXcXcXcXcXlXkXkXhXkX9XwXsXvXZXAXAXAXAXAXAXAXAXAXAXAXAXAXAXAXAXAXAXAXAXAXAXAXAXAXAXAXAXAXAXAXAXAXAXAXAXAXAXAXAXAXAXAXAXAXAXAXAXAXAXAXAXAXAXAXAXAXAXAXAXAXAXAXAXAXAXAXAXAXAXAXAXAXAXAXAXAXAXAXAXAXAXAXAXAXAXAXAXAXAXAXAXAXAXAXAXAXAXAXAXAXAXAXAXAXAXAXAXAXAXAXAXAXAXAXAXAXAXAXAXAXAXAXZXZXZXsX4X4X3X8X9X5X9X9X9X5X6X3X6X5X9X6X2X$XQ.#X6.D >.o.o.o.o.o.V o.F ;.sXZXZXdX+X.X.X.X.X|.|.|.!.|.|.).+X).Y.).T.`.`.U.H.`.V.H.V.h.=.i.M.%.7 , , , , ; ; = ; ; + + + O O o , / N.l.1.%.&.e.e.e.e.b.Z.y.H.@XH.@XXXyX@Xv *   X         X                                                                                                                                                       ",
"                                                                                                                                                  X   X     X 9 j K K Q ) ` X.e.a.s.v.v.Z.B.B.B.B.C.^._.oXOX%.> o O O O O O $ $ $ % = = $ 7 <.z.oXOX]._.].].].].].]. X].].]. X X|.|.).|.{.{.}.{.Y.N.T.E.pXCXZXwXO.C C V V S V O.O.C O.e.rXrXkXzXcXcXbXcXzXzXcXcXjXlXcXjXjXsXqXqXsXCXAXAXAXAXAXAXAXAXAXAXAXAXAXAXAXAXAXAXAXAXAXAXAXAXAXAXAXAXAXAXAXAXAXAXAXAXAXAXAXAXAXAXAXAXAXAXAXAXAXAXAXAXAXAXAXAXAXAXAXAXAXAXAXAXAXAXAXAXAXAXAXAXAXAXAXAXAXAXAXAXAXAXAXAXAXAXAXAXAXAXAXAXAXAXAXAXAXAXAXAXAXAXAXAXAXAXAXAXAXAXAXAXAXAXAXAXAXAXAXAXAXAXAXZXZXbX0X6X4X9X6X6X6X6X6X9X6X6X5X6X5X9X4X=XQ.2XL.>.D @.V o.V o.V V D D 7.VXZXZXaX!. X.X.X{.|..X X). XOX|.).).Y.U.)./.).U.C./.@XH.N.s.} p.M.! 8 3 , , < = = @ = $ $ $ $ O o 4 <.s.%.&.%.` X.e.e.e.e.e.g.Z.Z.y.H.@XXX+XOXOX .& X                                                                                                                                                                 ",
"                                                                                                                                                          X 3 k G K Q ) ) { ..u.i.v.v.s.Z.m.N.B.M.V.@X/./._.OXl.8 . O O # O $ $ % $ - - % 3 ( s.(.OX[._.XX]._.'.].].].].].].OXoX_.+XOX|.+X X{.+X!.x.T.{.4XNXZXvX&.A V V C O.C C O.M O.*.;XzXzXzXbXcXcXcXcXvXlXzXjXjXzXjXlXzXqXpX0XbXZXAXAXAXAXAXAXAXAXAXAXAXAXAXAXAXAXAXAXAXAXAXAXAXAXAXAXAXAXAXAXAXAXAXAXAXAXAXAXAXAXAXAXAXAXAXAXAXAXAXAXAXAXAXAXAXAXAXAXAXAXAXAXAXAXAXAXAXAXAXAXAXAXAXAXAXAXAXAXAXAXAXAXAXAXAXAXAXAXAXAXAXAXAXAXAXAXAXAXAXAXAXAXAXAXAXAXAXAXAXAXAXAXAXAXAXAXAXAXAXAXAXAXAXZXkX6X6X6X6X3X3X3X6X4X6X4X9X6X5X6X9X;X=XL.;XJ.@.D @.;.o.o.o.o.>.D F R.ZXZXMXOX|. X|.{..X.X.X|.).{. X|.{.].U.U.Y.Y./.V.~./.H.M.m.s...g.l.M , 1 , , - = = = + = $ $ + o e A.M.1.X.{ / / / { ....e...r.y.t.l.H.Z.@X+X`.oXOXs.& X X                                                                                                                                                             ",
"                                                                                                                                                          2 a x b G W ) | { r.d.b.s.v.Z.Z.m.Z.B.B.C.V.H.C.V.(.:XG.- o O O O $ $ $ - = $ - - Z z.F.oX[._.].XX).].].]._.].].]. XOX_.|.OX|..X.XFX}.{.P.P. X|.DXZXMXA.C S S S C V O.O.O.M O.[.zXkXzXcXcXcXcXcXcXlXzXzXhXhXhXzXzXkX>XpXkXNXAXAXAXAXAXAXAXAXAXAXAXAXAXAXAXAXAXAXAXAXAXAXAXAXAXAXAXAXAXAXAXAXAXAXAXAXAXAXAXAXAXAXAXAXAXAXAXAXAXAXAXAXAXAXAXAXAXAXAXAXAXAXAXAXAXAXAXAXAXAXAXAXAXAXAXAXAXAXAXAXAXAXAXAXAXAXAXAXAXAXAXAXAXAXAXAXAXAXAXAXAXAXAXAXAXAXAXAXAXAXAXAXAXAXAXAXAXAXAXAXAXAXZXMX8X6X9X6X8X6X6X6X3X5X3X6X9X5X3X6X9X5X;X$X;X,.D o.D o.V ;.o.o.V D D 9XBXZXDX X X.X X.X X.X|..X!.|.).{.|.+X).U.Y././.H.`.H.V.V.m.p.1.l.p.g 8 3 - , < = = = $ $ ; O O m G.j.X.! ~ ~ / W [ [ { { =.r.u.h.h.Z.Z.Z.@X`././._.OXp.$ X X     X                                                                                                                                                     ",
"                                                                                                                                                  X   X # p k c G U ) {  .0.u.d.s.v.h.v.N.C.C.B.m.C.N.C.M.N.M.N.OXi.= O O $ $ $ $ $ = $ = - m e.D.].(.F.).(.^.'.].].].].]. XoX].].].|.+X|..X|.}.|.P.P.!.).0XBXZX6XO.C C C C C C O.O.O.O.&.rXrXzXbXcXbXcXcXzXlXcXlXlXkXsXjXhXkX>XwXwXcXAXAXAXAXAXAXAXAXAXAXAXAXAXAXAXAXAXAXAXAXAXAXAXAXAXAXAXAXAXAXAXAXAXAXAXAXAXAXAXAXAXAXAXAXAXAXAXAXAXAXAXAXAXAXAXAXAXAXAXAXAXAXAXAXAXAXAXAXAXAXAXAXAXAXAXAXAXAXAXAXAXAXAXAXAXAXAXAXAXAXAXAXAXAXAXAXAXAXAXAXAXAXAXAXAXAXAXAXAXAXAXAXAXAXAXAXAXAXAXZXAXAXZXdX.X6X6X6X5X6X3X6X6X6X5X5X3X9X9X4X5X;X$X4XQ.>.D O.O.o.V V o.o.o.D 5.vXAXZXiX+X+X|. X X+X|..X|.|. X).).|.!.)./.).U././.H.V.N.l.h.1.i.M.e.6 3 1 3 - , = ; ; = = = O 4 g.l.( / ^ Q T T W ~ ' | { =.r.=.r.h.N.N.Z./.@X/.`.`.OXOX| *                                                                                                                                                             ",
"                                                                                                                                                    X * 7 v z b U R ' { q.0.u.u.y.h.Z.Z.B.Z.m.N.C.C.B.M.N.@XH.h.x.FXE O O $ + + $ $ $ = % % 0 e.n.[._.^.(.(./._.'.].].].OX XOX|.].].|.|.|.OX].{.{.Y.P.T.).4XZXZXzX&.C M C O.O.O.O.r O.O.@.;XzXkXlXbXbXzXDXlXcXzXlXkXlXjXzXkXkXaXqXpXsXCXAXAXAXAXAXAXAXAXAXAXAXAXAXAXAXAXAXAXAXAXAXAXAXAXAXAXAXAXAXAXAXAXAXAXAXAXAXAXAXAXAXAXAXAXAXAXAXAXAXAXAXAXAXAXAXAXAXAXAXAXAXAXAXAXAXAXAXAXAXAXAXAXAXAXAXAXAXAXAXAXAXAXAXAXAXAXAXAXAXAXAXAXAXAXAXAXAXAXAXAXAXAXAXAXAXAXAXAXAXAXAXAXAXAXAXAXAXAXAXAXZXMX8X:X;X5X6X9X6X6X6X3X-XqXqX9X>X5X>X;X;X%X;XJ.o.O.O.O.O.V O.V V +.D K.VXZXSXFX+X+X+X X X.X X{.|. X|.|._.|.].I.Y.(./.U./.H.H.H.u.u...l.N.-.4 1 , , > = = = = ; = $ = 2.D.X.T T T Z Q Z E W ~ |  .=.=.=.2.d.h.Z.h.N.@X@X@X+XoXOXyXJ   X   X                                                                                                                                                     ",
"                                                                                                                                                    X 2 j k v b L E )  .....r.0.r.d.s.s.h.Z.h.V.M.C.C.V.B.H.H.m.h.).Y.4 o + $ $ $ = $ $ % - , *.g.(.>X[.(.].'.].)._.OXoX].|.OX|.].OX|.OX|. X X.X X[.U.Y. X].vXZXNXe.C O.C C C C O.O.O.O.O.G.kXqXzXzXcXcXcXcXcXcXjXlXjXlXkXjXjXjX9X7XpXmXAXZXAXAXAXAXAXAXAXAXAXAXAXAXAXAXAXAXAXAXAXAXAXAXAXAXAXAXAXAXAXAXAXAXAXAXAXAXAXAXAXAXAXAXAXAXAXAXAXAXAXAXAXAXAXAXAXAXAXAXAXAXAXAXAXAXAXAXAXAXAXAXAXAXAXAXAXAXAXAXAXAXAXAXAXAXAXAXAXAXAXAXAXAXAXAXAXAXAXAXAXAXAXAXAXAXAXAXAXAXAXAXAXAXAXAXAXAXAXZXSXdX8X8X6X6X6X6X9X6X6X6X6X9X6X;X5X5X:X;X$X;X&X,.V O.O.O.V o.o.V V D D 9XZXZXDX|.|. X.X.X X.X|./._.|.).|.].].].M./.V.)./.`.U.H.B.p.p.} m.m.Z 8 3 , , : < = ; ; $ % O m '.e.! T T Q U T U Q ~ { / ' |  .=.=.=.r.h.Z.H.@XH.@X`.`.+XiX/.3       X                                                                                                                                                   ",
"                                                                                                                                                    . 7 i k l H G E [ [ |  ...r.r.s.s.d.b.h.Z.C.B.V.V.M.V.N.H.N.h.m..X} * O $ $ $ $ $ ; % % - K f.G.[.(.(.].].]._.'.].'.).XX|._.|.OX).|. X|.OX:X:X[.(.Y.].).0XZXSX;XO.C S O.O.C C C O.O.C &.eXkXkXzXlXcXzXcXcXcXcXjXhXjXlXkXkXjXkXqX7XdXCXAXAXAXAXAXAXAXAXAXAXAXAXAXAXAXAXAXAXAXAXAXAXAXAXAXAXAXAXAXAXAXAXAXAXAXAXAXAXAXAXAXAXAXAXAXAXAXAXAXAXAXAXAXAXAXAXAXAXAXAXAXAXAXAXAXAXAXAXAXAXAXAXAXAXAXAXAXAXAXAXAXAXAXAXAXAXAXAXAXAXAXAXAXAXAXAXAXAXAXAXAXAXAXAXAXAXAXAXAXAXAXAXAXAXAXAXAXZXAXmX8X4X6X6X6X6X9X6X6X6X9X9X-X5X>X>X:X;X;X;X;XJ.V o.o.o.D o.V o.o.V V ,.vXZXCXaX+X{..X|.|.|..X|.Y.|.|.].|.].].T.V./././._.`.U.H.h.h.2.1.M.p.m 3 1 , < < = = = @ ; O - G.G.*.! Z Q U Z U U U W W T W ~  .=.=.=.r.s.Z.Z.Z.N.B.Z./.+XOXiXE X                                                                                                                                                         ",
"                                                                                                                                                    3 u a v v L R E ) ' ' 0.r...r.t.h.B.s.h.h.C.m.V.V.V.V.m.N.N.h.p./._.4 + $ $ $ ; $ $ % - % 0 e.M.(.oX].'.(.(.]._.|.|.oXOX).`.].].OX|.]. X XOXOX|.).P.E.{. XMXCXlX*.K C C C O.M O.M O.O.@.[.kXkXfXzXcXDXcXbXDXcXhXlXjXzXjXkXkXkX>X7XfXDXZXAXAXAXAXAXAXAXAXAXAXAXAXAXAXAXAXAXAXAXAXAXAXAXAXAXAXAXAXAXAXAXAXAXAXAXAXAXAXAXAXAXAXAXAXAXAXAXAXAXAXAXAXAXAXAXAXAXAXAXAXAXAXAXAXAXAXAXAXAXAXAXAXAXAXAXAXAXAXAXAXAXAXAXAXAXAXAXAXAXAXAXAXAXAXAXAXAXAXAXAXAXAXAXAXAXAXAXAXAXAXAXAXAXAXAXAXAXBXaX4X6X3X9X6X6X9X9X9X6X6X9X5XqX9X5X;X;X;X$X$X5.o.O.D V o.V V o.V o.F R.VXZXNXFX+X|. X|..X|.|.|.Y. X].]..X].'.(.U./.U.U.|._.H.C.C.Z...a.M.<.q 1 , 3 < : = = ; + $ O n >X&.! Z M n Z Z A U Z Y W ~ ' ' =.=.=.=.=.=.h.C.Z.C.@X/.`._.XXyXH.3   X                                                                                                                                                     ",
"                                                                                                                                                  X 7 u j l N L E E ' ) [ ..0.0.u.a.s.h.Z.C.V.V.V.m.V.H.C.N.N.m.l.p.z.OXg o $ + + ; $ = $ - - 8 &.m./.].].]._.]._.].].].oX|._.|.OXoX|.OXOXOX X[. X:X].U.Y.{.'.lXCXCXI.M C O.C C o.O.O.r O.O.&.eXkXjXzXcXcXcXcXcXlXcXcXzXhXxXhXkXjXrX9XqXpXMXAXAXAXAXAXAXAXAXAXAXAXAXAXAXAXAXAXAXAXAXAXAXAXAXAXAXAXAXAXAXAXAXAXAXAXAXAXAXAXAXAXAXAXAXAXAXAXAXAXAXAXAXAXAXAXAXAXAXAXAXAXAXAXAXAXAXAXAXAXAXAXAXAXAXAXAXAXAXAXAXAXAXAXAXAXAXAXAXAXAXAXAXAXAXAXAXAXAXAXAXAXAXAXAXAXAXAXAXAXAXAXAXAXZXAXAXZXdXFX9X8X8X6X6X6X9X9X6X>X6X9X6X6XqX:X;X5X&X;XK.O.o.V V o.o.V o.o.V F D 0XAXZXvX+X+X}.{.|.|. X|.+X|.OX X|.].]._.].(.).U._.]./.U./.N.d.{ h.N.( 4 1 1 1 < = ; = @ @ @ O 2.'.X.T M M n b n Z Z U Y ~ / | [ { { =. .r.r.s.h.m.m.V.@X@X`.`.XXoXa   X   X X                                                                                                                                               ",
"                                                                                                                                                  # 6 y j z v L R E E W [  ...r.u.a.b.s.B.B.V.V.V.V.V.V.N.B.m.N.h.h.p.|./ + $ + $ $ $ $ = - - , ! g.F.OX].].(.].].].].].|.+X|.OXOXOX|..X{.'.].].|.>X:XY.P.|.T.OXCXCXsXC C C C C r O.O.O.M O.O.[.kXpXkXcXzXcXcXcXMXlXlXjXhXhXhXhXkXgXqX5XqXkXSXAXAXCXAXAXAXAXAXAXAXAXAXAXAXAXAXAXAXAXAXAXAXAXAXAXAXAXAXAXAXAXAXAXAXAXAXAXAXAXAXAXAXAXAXAXAXAXAXAXAXAXAXAXAXAXAXAXAXAXAXAXAXAXAXAXAXAXAXAXAXAXAXAXAXAXAXAXAXAXAXAXAXAXAXAXAXAXAXAXAXAXAXAXAXAXAXAXAXAXAXAXAXAXAXAXAXAXAXAXAXAXAXAXAXAXNX0XFX8X9X4X6X6X9X8X6X7X9X9X9X6X9X6X;X;X=X%X=X5.D V o.V V V o.D V V S 6.vXZXCXiX|.|.{.|. X X X|. X|. XOX].).'.'.].'.).H.).`././.@XC.=.=.h.l.N 4 < < < < > = = @ @ O , E.D.! Z M n M n n b Z Y T ~ { ~ { { {  . .r.u.d.s.h.Z.Z.B.V.@X`.`.OX' .                                                                                                                                                       ",
"                                                                                                                                                  & 6 u k l l v L U R W [  .0.r.t.d.s.s.B.C.V.V.H.H.C.B.m.m.N.m.l.h.p.U.N.: $ + $ ; $ $ $ - - - n p.G.].].].(.)._.].].|.+X|.|.|.OXOX|.OX X X X[. X:X X{.N.).).'.bXCXMX4.M C C C r O.r O.C C O.8.qXkXqXlXzXzXcXcXlXjXjXhXxXxXjXhXhXjXkX6XqX0XmXCXCXAXAXZXAXAXAXAXAXAXAXAXAXAXAXAXAXAXAXAXAXAXAXAXAXAXAXAXAXAXAXAXAXAXAXAXAXAXAXAXAXAXAXAXAXAXAXAXAXAXAXAXAXAXAXAXAXAXAXAXAXAXAXAXAXAXAXAXAXAXAXAXAXAXAXAXAXAXAXAXAXAXAXAXAXAXAXAXAXAXAXAXAXAXAXAXAXAXAXAXAXAXAXAXAXAXAXAXAXAXAXAXZXSXaX6X4X3X9X8X6XqX9X9XqX6X0X9X6X9X3X;X;X;X&X;XW.+.V o.o.V o.V V V V F D !.ZXZXmX.X{.{.|.{. X|. X|. X X XOX].(._._.).).(./.]./.H.@XV.m.=.u.Z.h.e , , < < < 2 & = @ $ O d :Xf.T M n n g n K M b Y ~ ~ / ~ { { { { -.=.u.d.t.h.h.v.Z.B.H.@X~.OXB.&                                                                                                                                                       ",
"                                                                                                                    X           X                 2 5 u a k v v b L E W W | { ..=.r.t.Z.h.m.C.m.B.N.C.V.H.C.m.m.m.s.d.U.Y.> O O o $ = $ = - - - 0 &.m.]. X_.).].).].]._.+XOX|.oX|.OX|.OXOXOX X|.].].'.|.P.D.'.Y.pXVXCX;XO.C C C O.M O.r C C C O.[.kXkXjXbXmXmXDXbXzXjXjXlXhXhXkXhXkXzXwX;XqXpXMXZXAXAXAXAXAXAXAXAXAXAXAXAXAXAXAXAXAXAXAXAXAXAXAXAXAXAXAXAXAXAXAXAXAXAXAXAXAXAXAXAXAXAXAXAXAXAXAXAXAXAXAXAXAXAXAXAXAXAXAXAXAXAXAXAXAXAXAXAXAXAXAXAXAXAXAXAXAXAXAXAXAXAXAXAXAXAXAXAXAXAXAXAXAXAXAXAXAXAXAXAXAXAXAXAXAXAXAXAXAXAXZXZXxX8X6X8X8X8X8X9X6X9X9X8X6XqX9X6X9X6X3X-X;X;X;X6.O.o.V V V o.o.V V V S >.dXZXCXaX{.{.{.|.|.|.|.|.+X|.|.|.|.'.(.).)._./.).V.(.(.U.V.m.h.0.h.M.;.4 < 1 < < , < ; $ ; ; O n .X} T n n z n b Z Z U Y Y A ~ ' / ~ ' ' [ =.=.r.=.a.h.m.B.B.~.^./.XX~.3                             X                                                                                                                         ",
"                                                                                                                      . # # * * * # # # # # # # # 5 u i i H H H N E _ E T ~ ' { =.=.r.r.h.Z.m.n.m.m.m.N.V.V.M.m.l.s.a.N.T.7 % @ O = $ & = $ = - 8 T g.(.OX|.).).].].|.U._.|.oX|.|.+XOXOXOXOXOX].].]. X[.Y.D.T.]..XMXZXvX7.M C C C C o.C C C C O.&.qXkXkXzXlXzXlXDXDXlXzXdXkXhXhXjXhXhXkX>XqX0XkXNXZXAXAXAXAXAXAXAXAXAXAXAXAXAXAXAXAXAXAXAXAXAXAXAXAXAXAXAXAXAXAXAXAXAXAXAXAXAXAXAXAXAXAXAXAXAXAXAXAXAXAXAXAXAXAXAXAXAXAXAXAXAXAXAXAXAXAXAXAXAXAXAXAXAXAXAXAXAXAXAXAXAXAXAXAXAXAXAXAXAXAXAXAXAXAXAXAXAXAXAXAXAXAXAXAXAXAXAXAXAXZXbX9X4X8X3X8X6X6XqX7XqX7XqXqXqX>X6XqX6X5X;X;X3XQ.O.C O.O.O.C o.C o.o.C O.U.CXZXMX>XQ.!.{. X{.|.|.|._.|.].|.|.].).).).).).U.F.]./.U.V.Z.l.=.m.N.N 1 , , < = - : < ; ; ; o n E.1.[ Q M Z b U T Y Y Y Y E ~ ~ ~ ~ { ~ _ =.=.=.=.=.t.Z.m.m.m.C.C.~.B.5 # # # # # # # O # * # # * X                                                                                                                           ",
"                                                                                                                      & N U U R R U U U R U E P R _ _ _ _ _ _ _ E =. .~ ~ ] { { { {  . .=.=...%.r...r.u.a.s.g.l.m.V.N.U.x.( ^ B m M g.C.M.n.X.3 = m i.D.)._._.).].)._.).|._.+X|._.+XoX+XOX.X X:X XoX X X].U.P.{.{.dXCXSX'.F V C C C C C C C C C O.[.pXkXzXlXzXzXzXmXlXzXzXlXlXzXhXhXjXjXkX;X9XqXhXCXZXAXAXAXAXAXAXAXAXAXAXAXAXAXAXAXAXAXAXAXAXAXAXAXAXAXAXAXAXAXAXAXAXAXAXAXAXAXAXAXAXAXAXAXAXAXAXAXAXAXAXAXAXAXAXAXAXAXAXAXAXAXAXAXAXAXAXAXAXAXAXAXAXAXAXAXAXAXAXAXAXAXAXAXAXAXAXAXAXAXAXAXAXAXAXAXAXAXAXAXAXAXAXZXAXAXAXAXAXVXpXFX4X4X6X6X9X6X9XqXqXqX9X>X9X9X9X6X9X;X;X;X;X8.O.C O.C O.C o.C C o.O.C sXAXZXlX|.!.!.{. X!.{.|.|.].{.].|.|.].).).`.)._.(.].(.F.V.V.p.=.u.m.g.p 1 3 n i.Z.N.Y.p.n w w w m { N.N.l.f.p.i.u.r.r.=.1.-.=. .=.-. . .-.=.] _ I -.-.I -.] | ] ]  .0.| E R G K R K U K K U K K U a *                                                                                                                           ",
"                                                                                                                  X   3 W ) ` [ `  .' ' ' [ ) | ] ] | ] ~ -.' ~ _ ~ { / ~ [ { ' -.{ =.=.r.=.=.....u.r.u.d.s.m.s.s.l.m.z.l.p.<.( A *.hXCXAXAXfX4 $ q ..m.)._._.)._._._.)._._.XXoX]._.OX).]. X:X>X:X-XOX X|.].N.].{.4XNXZXaXO.C C r C C C C C O.C #.&.qXkXkXzXDXlXzXzXDXzXlXkXhXzXhXjXhXkXjXqX;XeXwXvXCXAXAXAXAXAXAXAXAXAXAXAXAXAXAXAXAXAXAXAXAXAXAXAXAXAXAXAXAXAXAXAXAXAXAXAXAXAXAXAXAXAXAXAXAXAXAXAXAXAXAXAXAXAXAXAXAXAXAXAXAXAXAXAXAXAXAXAXAXAXAXAXAXAXAXAXAXAXAXAXAXAXAXAXAXAXAXAXAXAXAXAXAXAXAXAXAXAXAXAXAXAXAXAXAXAXAXAXZXsX9X4X4X9X6X8X0X9X>X9XqX9X>XqXqX7X9XqX:X;X=X;XL.@.o.C C O.O.C o.o.C C C &.MXZXNX8X!.!.!.}.|. X|.+X|.{.].].|.].).).(._.(._./.).).~.V.N.s.{ d.m.{ 4 8 < D.BXZXZXZXpX( e g g g A N.N.M.l.l.m.l.d.h.3.d.u.u.2.=.=.=.} =. .;.-.-.I ;.-.' ' ' ' [ [ | ' [ | ] [ | ` | ` ) ` [ ) | c *                                                                                                                           ",
"                                                                                                                      # 3 3 3 3 8 6 a a a a p d p p a p u q u q u u u p q a a p a u i f k f z z x c x x v B N K U U Y Y / } ;.A M 2.mXZXCXmXi.3 = 8 W s.N.)._.).).].]._.).|._.|.].+X_.]._.].OXOX XOXOX:X X XD.Y.{.'.dXAXMXA.F C C C C C C C C C o.o.[.kXkXkXzXzXDXlXDXzXlXlXlXhXcXjXhXjXkXkX5X>XqXsXMXAXAXAXAXAXAXAXAXAXAXAXAXAXAXAXAXAXAXAXAXAXAXAXAXAXAXAXAXAXAXAXAXAXAXAXAXAXAXAXAXAXAXAXAXAXAXAXAXAXAXAXAXAXAXAXAXAXAXAXAXAXAXAXAXAXAXAXAXAXAXAXAXAXAXAXAXAXAXAXAXAXAXAXAXAXAXAXAXAXAXAXAXAXAXAXAXAXAXAXAXAXAXAXAXAXZXZXvX8X4X4X9X8X6X9X9X8X9XqX9X7X9X9X7XqX9X6X9X;X=X-X,.S C C O.O.O.O.C o.O.O.O.uXCXCXdXOX|.|.|.OX.X|.|.+X|.Y.Y.).|.|.].).(.(.(.U.U./.U.H.N.m.d.=.l.z.K 8 8 3 M pXCXZXCXvX5.g e e g B A T A U L U Z n B B x B x v x x n d a j g i i i a j j a j f j s s j s j h h h z k h t 5 8 3 3 2 X                                                                                                                           ",
"                                                                                                                      X           # 3 9 5 7 7 5 7 5 7 7 7 5 q q 5 7 5 q 7 q 7 7 q q 5 q q q q q 6 p y q p p d d a s f x Y / ;.A Q  XBXAXZXOX3 - - % m e.z._.OX_.).].].].].|.|.].].|._.|.].].Y.].oX X.X X[.].Y.G.[.).>XSXAXaX*.C C C C C C C C C o.o.&.eXkXkXzXlXzXDXzXzXlXzXhXzXlXcXzXjXkXsXkX>X:XsXsXVXZXAXAXAXAXAXAXAXAXAXAXAXAXAXAXAXAXAXAXAXAXAXAXAXAXAXAXAXAXAXAXAXAXAXAXAXAXAXAXAXAXAXAXAXAXAXAXAXAXAXAXAXAXAXAXAXAXAXAXAXAXAXAXAXAXAXAXAXAXAXAXAXAXAXAXAXAXAXAXAXAXAXAXAXAXAXAXAXAXAXAXAXAXAXAXAXAXAXAXAXAXZXAXAXAXvX8X6X3X3X3X8X9X0X9X7X7X9X9X6XeXqXpXqX>XwX;X;X=XW.O.O.O.C O.C C O.O.S C C z.MXCXSX8X(.|.+X|. X|.|.].{.'.].T.T.).|.].).'.G.(./.G.U./.U.V.B.1.u.l.u.d 8 8 4 , X.NXZXZXSX{.n e e g g M x z f f s u q q q y q w q q y q q q q q q q q q q 7 7 7 6 6 t 7 t 7 t 7 t t 5 3 2 .           X                                                                                                                           ",
"                                                                                                                                    X X 5 a u y y u y u y u u q u y y q u q u y q u q y u u q u d s s a s z x x b b Z T { ;.;.N ! sXZXAXZXX.$ 3 % - 6 %.m.U.|.|._._.).).]._.].].]._.].|.OX|.oX].].].|.].[.].E.D.I.[.'.lXCXSXz.M C o.C C C C C C C C O.G.rXkXkXkXzXzXDXDXzXlXdXzXlXzXkXkXhXkXzXkX3X6X0XsXSXAXAXAXAXAXAXAXAXAXAXAXAXAXAXAXAXAXAXAXAXAXAXAXAXAXAXAXAXAXAXAXAXAXAXAXAXAXAXAXAXAXAXAXAXAXAXAXAXAXAXAXAXAXAXAXAXAXAXAXAXAXAXAXAXAXAXAXAXAXAXAXAXAXAXAXAXAXAXAXAXAXAXAXAXAXAXAXAXAXAXAXAXAXAXZXAXAXAXZXAXAXAXZXmX7X6X8X8X8X8X9X9X6X0X9X7XqXqX7X>XqXqX>XqX;X;X>X=X*.V C C O.C O.O.C C C O.O.uXSXCXlX].].{.|..XOX|.).{.].].|.|.).).|.].)./._.(././.(./.F.N.l.{ m.m./ 7 8 1 3 < 4 fXAXZXZXpX( e d m g A A Z N n n x f g f f g f f f a s s u d w q f u q u a a a a a a a a a a a a j #   X   X X X   X                                                                                                                             ",
"                                                                                                                                    X . 7 l l v l l l l l l l l x J J l l l x x l k v x N N B B P P U L E W ~ ' ] {  .d.l.p.;.^ 3.vXZXAXCX` o % - & 3 Q l.H.|.OX].].].].].]._.].].].].].|.].].).).'.).'.].'.{.P.G.{.[.>XSXCXaX! r o.o.C C C C C C o.o.*.;XzXqXrXzXDXlXzXzXlXzXlXcXcXlXkXkXkXlXkXwX:X7X0XlXSXAXZXAXAXAXAXAXAXAXAXAXAXAXAXAXAXAXAXAXAXAXAXAXAXAXAXAXAXAXAXAXAXAXAXAXAXAXAXAXAXAXAXAXAXAXAXAXAXAXAXAXAXAXAXAXAXAXAXAXAXAXAXAXAXAXAXAXAXAXAXAXAXAXAXAXAXAXAXAXAXAXAXAXAXAXAXAXAXAXAXAXAXAXAXAXAXAXAXAXAXZXNX0X8X8X7X7X7X0X0XqXqX6X6X0X0X6X6X>XqXqX>XqX%X;X;XS.O.O.C C C O.C O.O.O.O.C e.MXSXSX>X[.'.). X X{.).|. X{.).T.{.Y.).).).).U./.Y./.(.(.(.F.m.u.2.m.f.n 3 1 , , 3 4 fXAXAXZXxX( g e g A X. .{ { [ / ;.P Y Y Y Y Y U L L B x B x x B x x x x c c c c z c H v H b G v c &             X X   X                                                                                                                         ",
"                                                                                                                                      X 5 a a k k v v l l l k l x z x x g x g z x l B B B B J J B L L A U U Y W ~ [ { =.u.1.p.1.Y.mXCXiXOXc # % - - ; d d.N.).|.|._._.].[.].].]._.).].].].].].].].|.].|.[.|. XT.A.I.'.[.lXCXNXS.r g C r r C C C C M C C e.rXrXkXkXzXzXlXzXlXlXzXlXjXzXlXjXjXkXkXgXqX3X6X0XlXCXAXAXAXAXAXZXZXAXAXAXAXAXAXAXAXAXAXAXAXAXAXAXAXAXAXAXAXAXAXAXAXAXAXAXAXAXAXAXAXAXAXAXAXAXAXAXAXAXAXAXAXAXAXAXAXAXAXAXAXAXAXAXAXAXAXAXAXAXAXAXAXAXAXAXAXAXAXAXAXAXAXAXAXAXAXAXAXAXAXAXAXAXAXAXAXZXAXAXZXMXpX4X6X6X7X7X8X0X9X6X0X0X6X0XqX0XqXqXqXqXrX>X;X;X[.*.C O.V O.C C O.C O.@.O.O.oXSXSXlXoX[.'.{.|.|.|.).{.+X_.].{.].).).).+X).U././././.U.Y.V.h.1.d.V.1.w 3 8 3 , , 4 ^.8XdXZXdXJ.^ M g M ^ / / / / W ^ ^ N Y Y L U U P B B B x B B l x x J J H v c H H G H v c c h s j &                                                                                                                                             ",
"                                                                                                                                    X   * # . 2 y y q q y 7 7 q q 5 y y q q q q q 5 q q q q q q q q q q q 5 q q d f b U Z / .XlXMXZXdXw > - # = & = = 3 ( f.F._.|.|.(.).(.].].].].].'.].].].].].].].|.|. XOX{.].D.S.Y.'.8XSXCXdXO.M C C C C C C C C C C +.[.zXkXfXzXDXDXDXcXcXlXzXcXcXcXzXmXzXkXjXkXqX;X0XpXjXZXAXAXAXZXZXAXAXAXAXAXAXAXAXAXAXAXAXAXAXAXAXAXAXAXAXAXAXAXAXAXAXAXAXAXAXAXAXAXAXAXAXAXAXAXAXAXAXAXAXAXAXAXAXAXAXAXAXAXAXAXAXAXAXAXAXAXAXAXAXAXAXAXAXAXAXAXAXAXAXAXAXAXAXAXAXAXAXAXAXAXAXAXAXZXAXAXAXMXaX8X4X6X7X9X0XiXpX7X0X9X0X6X>XqXqXuXqXqXqX>X;X;X;X5.O.O.M C C C o.C O.O.V A 5.mXCXNXFX XOX).|.|.|.|.).{.).{.|.].].T._.|.)././.U.U.U.U.H.V.m.h...h.m.! 4 3 3 3 , , 3 3 3 C.ZXVXvX0XA.Y g g g f f u f q q q f y p q y y q q q q q q q q q q q t t 6 t t t t t u i 9 * . .                                                                                                                                             ",
"                                                                                                                                            X 2 l i 5 q q u y u y y y y u q q q q q 5 q q u q q y y y y q q q 7 u L U { ~ 2.iXZXZXZXmX7 X $ % % - $ & > n p.F.).)._._.(.]. XOX].oXoX XOX]._.(.].|.|. X[.]. X X[.).A.A.[.U.fXZXVXG.O.C C C C C C C C C C o.*.;XkXkXzXDXzXzXmXzXzXlXzXlXzXcXDXlXzXkXjXrX9X>X7X0XlXZXAXAXAXAXZXZXAXAXAXAXAXAXAXAXAXAXAXAXAXAXAXAXAXAXAXAXAXAXAXAXAXAXAXAXAXAXAXAXAXAXAXAXAXAXAXAXAXAXAXAXAXAXAXAXAXAXAXAXAXAXAXAXAXAXAXAXAXAXAXAXAXAXAXAXAXAXAXAXAXAXAXAXAXAXAXAXAXAXAXAXAXAXAXAXZXBXpX8X-X4X3X6X9X0X0X7X0X0X0X0X9XqXqXpXqX>X>XqX;X;XeXJ.O.C O.O.C O.O.C O.C C C ! pXAXAXdX+X|.|.).).|. X).T.]./.).].|.{.Y.).|.).U.U./.U.N.C.N.N.l.=.1.l.s.m 8 8 1 , , , , $ O F.AXAXZXVX X^ g g B B l f q q f q u d d a a s a p q d d q u u q u q y u u 7 5 5 9 5 i i .                 X X X                                                                                                                             ",
"                                                                                                                                        X   X 2 L i u i u i j f f i i i f l f f f f i i f f f f f f f f f d i y d Y ~ a.1.z.0XZXAXZXNXf . $ % $ $ $ $ - 7 2.l.F.U.).].(.].OX].].].]._._.OX].].|. X XOX}.'. X-X X[.P.x.I.U.4XMXZXdX*.C C r C C C C C C C C O.e.qXkXkXzXzXcXzXlXlXDXzXzXzXzXzXzXlXlXlXkXqX6X;XqXpXlXZXAXZXAXZXAXAXAXAXAXAXAXAXAXAXAXAXAXAXAXAXAXAXAXAXAXAXAXAXAXAXAXAXAXAXAXAXAXAXAXAXAXAXAXAXAXAXAXAXAXAXAXAXAXAXAXAXAXAXAXAXAXAXAXAXAXAXAXAXAXAXAXAXAXAXAXAXAXAXAXAXAXAXAXAXAXAXAXAXAXAXAXAXZXNXsX8X4X6X6X6X8X8X9X9X9X0X0X0X9X0XqX7XqXqXqXqX;X;X;X*X@.O.C C C C C C C O.C O.S M.SXAXNXOX_.|.].{.|.{.|.).).{.].{.|.).)._.|._.).H.V.U.P.V.V.V.C.d...p.g.1.0 4 3 3 , - - , ; 3 XXAXAXZXBX4X;.g n ^ Y N x x B x x x z k z l l l x l J l l J l f l x l l k i u t 3 t l l * X     X                 X                                                                                                                         ",
"                                                                                                                                      X X   X 5 I B i i i J l l J B J J x J J x x J H J J B x B B B k l l k k a p U [ h.h.M.pXCXZXAXNX[ X @ # $ $ & $ $ = A l.D. XOX).F.].(./.]. XoX X]. XOXOX X].].].).Y.[.OX X].R.D.D.]. XsXBXSX;XA C C C C C C C C C C o.@.*XkXaXaXzXlXzXzXzXzXlXlXlXzXlXlXzXzXjXjXkX9X9X-X9XsXhXBXZXAXAXAXAXAXAXAXAXAXAXAXAXAXAXAXAXAXAXAXAXAXAXAXAXAXAXAXAXAXAXAXAXAXAXAXAXAXAXAXAXAXAXAXAXAXAXAXAXAXAXAXAXAXAXAXAXAXAXAXAXAXAXAXAXAXAXAXAXAXAXAXAXAXAXAXAXAXAXAXAXAXAXAXAXAXAXAXAXAXCXMXpX6X6X6X6X9X9X9X9X0X8X0X9X9X9X0X9XpXqXqXqX;XqX;X;X;X*.O.C O.C O.O.O.O.C C O.M &.lXAXZXpX).|.+X|.{.|.|.).). X'.|.|.|.).).).{.U.Y.U.U.U.V.H.C.N.V.u.%.g.p.b 8 1 3 1 , , - , @ 7 iXZXZXZXVX.X^ g g N E N B B N N N B B B B B L J B B B J B H J J J J v L l l i t 5 7 v v &                   X   X                                                                                                                           ",
"                                                                                                                                          X X 5 I B l J J L J J H H H B N N H B H H B N N L N B N B J B B J z f a E ..h.M.M.7XZXZXAXSXZ.. O @ $ $ # $ $ $ w 4.l._. X).^.].(.(.].].].].).).].|.].'.].].].[.OX>X[.].'.U.z.T. X}.mXCXlXf.C C o.C C C C C C C o.o.@.[.zXqXkXkXzXzXlXcXbXlXlXlXlXlXzXzXlXhXkXsXqX:X;X6X0XkXNXZXAXAXAXAXAXAXAXAXAXAXAXAXAXAXAXAXAXAXAXAXAXAXAXAXAXAXAXAXAXAXAXAXAXAXAXAXAXAXAXAXAXAXAXAXAXAXAXAXAXAXAXAXAXAXAXAXAXAXAXAXAXAXAXAXAXAXAXAXAXAXAXAXAXAXAXAXAXAXAXAXAXAXAXZXAXZXAXZXmX7X8X8X:X4X4X6X6X9X9X9X0X8X9X6X0X0X9XqX>XqXqX;X;X;XqXK.o.O.O.C S C O.C C C C O.M [.CXAXDX].'. X+X{.+X).|.|. X).|.|.).).|./.Y.).U.Y.U.U.V.V.V.C.V.h.=.p.l.&.0 3 1 8 , , - < , $ 0 dXAXZXBXmXR.^ g n Y P P L Y P N P P P P I P P L L L P J J J Y Y H P P B J v j u 5 5 v H #                   X   X                                                                                                                           ",
"                                                                                                                                              5 I P N P L L P P P P I N P P P P P P P P P P P N P P P N N B B f a Y { m.N.N.8XBXZXAXZXOX# * O # $ $ = - = 3 ! g.G.). X].].].].).(._.].]. X].].]._.]. X X|. X[.].[.;X'.D.G.[.U.8XSXCX>X*.C M C C C C C C C C o.C e.>XkXrXkXzXcXzXcXzXzXlXzXzXzXlXlXlXhXhXjXkXpX5X$X6X0XsXNXAXZXAXAXAXAXAXAXAXAXAXAXAXAXAXAXAXAXAXAXAXAXAXAXAXAXAXAXAXAXAXAXAXAXAXAXAXAXAXAXAXAXAXAXAXAXAXAXAXAXAXAXAXAXAXAXAXAXAXAXAXAXAXAXAXAXAXAXAXAXAXAXAXAXAXAXAXAXAXAXAXAXZXZXAXZXZXvX7X8X4X4X8X7X7X6X9X8X8X0X9X0X0X0X0X9X0XqXqX;X;X;X;XqXG.O.O.C V O.C C O.C o.C C C &.vXAXSX8XE.{.{.|.|.|.).}.OX|.{.|.].(.).}.).].`./.T././.H.H.N.z.m.u.-.n.n.K 1 8 8 1 , , - = - $ M mXAXZXZXvXx.A e B ;.-.^ E Y Y Y P P Y Y P P P I I P P J I P Y P Y N J L J v l i 7 7 G G &                                                                                                                                                   ",
"                                                                                                                                              7 I L P L H L P P P I P P E I I I Y I I I P E P I Y Y Y E Y P N J a B { h.H.x.OXNXAXAXAXsX3 O O # $ $ $ = = - m f.M.).)./.'.].].(.(.].].]. X XOXoX].]. XOX X].].).'. X].G.z.G.].'.dXCXSXe.M C C C C C C C C C o.C @.G.qXkXkXkXzXlXzXcXcXzXlXlXjXlXcXzXjXhXhXhXkXwX6X3X5XpXpXmXZXAXAXAXAXAXAXAXAXAXAXAXAXAXAXAXAXAXAXAXAXAXAXAXAXAXAXAXAXAXAXAXAXAXAXAXAXAXAXAXAXAXAXAXAXAXAXAXAXAXAXAXAXAXAXAXAXAXAXAXAXAXAXAXAXAXAXAXAXAXAXAXAXAXAXAXAXAXAXAXZXZXZXZXZXsX8X6X4X-X8X7X7X7X0XqX9X9X0X9X9X0X0X0X0X0XqXqX;X;X;X;X[.&.C C S V C C C C C C C C O.>XCXAXlX[.E.Q. X X|.).|..X|.'.|.|.].).|._.|.|.).U././.U.H.N.H.M.p.1.i.f.e.d 3 3 1 8 , - - - = - &.SXCXZXZXhX3.n g Z ;.;.P E ;.^ E E ^ ^ I E E I ~ ~ E J -.I J I P J P P L B l j i 7 7 G G &                 X                                                                                                                                 ",
"                                                                                                                                      X     X 5 E P J L P L L P P Y P E E E E ^ _ ^ E Y ^ E E E E E E Y Y Y P B s x { p.H.N._.mXZXAXAXvXs . * @ $ $ $ ; - - 4 X.m.U.).F./.].].(.(.].].].XX_._.].).[.|.].].:X].:X[.).'.'.G.A.'.(.oXNXCXzX@.C C C C r C C C C C C O.O.W.kXkXkXzXzXmXzXDXzXzXDXlXzXhXlXhXhXkXhXhXkXwXwX6X9X0X0XdXCXAXZXAXAXAXAXAXAXAXAXAXAXAXAXAXAXAXAXAXAXAXAXAXAXAXAXAXAXAXAXAXAXAXAXAXAXAXAXAXAXAXAXAXAXAXAXAXAXAXAXAXAXAXAXAXAXAXAXAXAXAXAXAXAXAXAXAXAXAXAXAXAXAXAXAXAXAXAXAXZXZXVXsX7X-X.X4X6X6X0XpX7X0X9X0X0X8X0X0X0X0X0X0X0XqX>X5X;X;XqX&.O.C C C C C O.O.C C C C O.G.MXCXNXOX'.E.'. X|.|.{.|..X X].].|.).|.)./.|.+XY.@XY././.@XH.N.Z.1.} l.G.! 4 1 , , , - - < = - - ^.CXCXZXZXsX;.g g ^ ' I ;.E _ P ;.~ _ I ;._ I -._ I I -.I ;.;.P ;.;.P P L L J j j 7 7 H L &     X                                                                                                                                             ",
"                                                                                                                                      X       t H G H H P L P P P P P E E E E Y I E E _ E _ E I E ~ I ~ Y P B B f f ~ =.N.N.H.lXAXAXAXNX{ X * O $ $ + $ $ - & z v.G._.G.G.G.oX).(._.].].].]._._._.].].'.|.|.OX|. X>XOX[.'.A.G.[.G.pXZXAX7XA C C C C C C C C C C M r O.[.pXzXzXzXcXcXlXzXlXDXlXzXjXjXjXlXlXkXzXaXkXaXpXqX>XkXfXlXNXSXCXCXAXAXAXAXZXAXAXAXAXAXAXAXAXAXAXAXAXAXAXAXAXAXAXAXAXAXAXAXAXAXAXAXAXAXAXAXAXAXAXAXAXAXAXAXAXAXAXAXAXAXAXAXAXAXAXAXAXAXAXAXAXAXAXAXAXAXAXAXAXAXAXAXAXZXCXVXVXsX0XpX4X4X7XqX7X7XpXpX0X0X0X0XqXpXqXqXqXqXqXqX>X5X%X>XrXG.O.O.S S C C S C S V C C V 6.dXCXNXpX).'.{.E.}. X{.{.|.|.].].{.).)._.).).].(.Y././.U.U.M.V.V.s.} p.m.g.m 8 3 1 3 3 , , > $ $ 3 OXAXZXZXCX8XD g g ( ..~ ~ ~ W ' _ ~ _ I _ ' E _ ~ I E ;.E I ^ _ P I I P L L v j j t 5 H H &     X           X   X                                                                                                                             ",
"                                                                                                                                    X       X t I G P I L L P P P E E P I I E I E E I _ _ I ~ ^ ;.I ;.E E P B B x f P -.h.N.H.aXCXAXAXAXV.O $ O + $ # $ $ % = 8 %.z._.).`.(.'.[.).[.).(.].oX-X].'.].].].|.|.]. X[.].].[.[.).M.T.). XlXZXVXG.M A C C C C C C C C O.O.O.O.;XkXkXzXzXzXmXzXzXzXzXlXlXlXzXlXzXlXlXkXkXkXkXaX>XkXlXzXDXNXCXCXAXAXAXAXAXAXAXAXAXAXAXAXAXAXAXAXAXAXAXAXAXAXAXAXAXAXAXAXAXAXAXAXAXAXAXAXAXAXAXAXAXAXAXAXAXAXAXAXAXAXAXAXAXAXAXAXAXAXAXAXAXAXAXAXAXAXAXAXAXAXAXAXAXZXCXvXwX3XwXpX6X5X6XqX0X9X0X0XpX0X0X0XuXqXqXpXqXqXrX>X>X;X5XqXe.O.O.C O.C C S S O.C C S C D OXZXZXlX|.).{.{.{. X|.|.|.|.+X|.|.].].].'.).].).T.U.U./.U.F.V.U.m.i.X.M.M.! 4 3 1 3 1 , , & > % $ d vXAXZXZXVXT.A g g } } { ' ) ~ ~ ~ ~ ~ -.-.E ~ ;._ _ ~ I P E I P I Y Y P P L J l i 7 7 v G 9                       X                                                                                                                           ",
"                                                                                                                                          X   5 P H L P L P P P P E I P E P I E E P E ~ I ^ E E E ~ _ I ^ E P N x f B ;.h.H.l.FXNXZXAXAXiX3 . + # $ $ @ % $ $ - M g.G._.(.G.`.(.`.].)._.[.]._.)._.].[. X X|. X X]. X[. X X[.G.z.'.(.-XMXZXlX3.F C C C C o.C C C O.O.o.o.&.;XkXkXzXDXDXmXDXzXlXDXzXzXjXlXzXlXlXkXkXkXkXkX>XpXaXkXkXvXNXCXCXAXAXAXZXAXAXAXAXAXAXAXAXAXAXAXAXAXAXAXAXAXAXAXAXAXAXAXAXAXAXAXAXAXAXAXAXAXAXAXAXAXAXAXAXAXAXAXAXAXAXAXAXAXAXAXAXAXAXAXAXAXAXAXAXAXAXAXAXAXAXZXAXBXvX9X8X0XwXpX3X6X6X9X9X0X0X7XpX0X0X0XpXqXpXqXqXrX>X;X;X;XqXG.K O.O.M C C C C C V C S S S !.NXCXvX4X'.'.{.{.|.|.|.{.{.{.{.|.].].{.).).).)./.).(./.U.U.V.U.V.s...d.N.f.w 1 8 , , 3 - - - > & @ { CXSXZXZXvXh.n g M / / ..[ ~ ) ' ~ ' ' ' ~ I ~ _ E E ~ ^ _ E E H P Y P P P L L k i 7 5 H L &   X           X         X                                                                                                                         ",
"                                                                                                                                      X X   X t _ P L P R P E R P E E E _ ~ ~ E I ~ _ _ I E E I I E E E Y Y Y N x f x ;.3.V.Z.FXMXZXAXZXvXz X # # $ $ $ % $ - - 4 X.f.^._.].oX_.(.(.).XX)._.[.(._.].].].^.).].XXoX:X-X[. X].G.A.G.[.G.iXVXBX0XD g C C F r C C C O.r o.o.@.&.qXzXzXzXzXmXDXDXzXDXlXlXlXlXlXzXzXzXzXkXlXkXkXqXkXaXkXaXdXcXNXCXAXAXAXAXAXAXAXAXAXAXAXAXAXAXAXAXAXAXAXAXAXAXAXAXAXAXAXAXAXAXAXAXAXAXAXAXAXAXAXAXAXAXAXAXAXAXAXAXAXAXAXAXAXAXAXAXAXAXAXAXAXAXAXAXAXAXAXAXAXZXCXvX8XwX8X8XwX0X7X7X9X6X0X0X0X9XpXpXpX0XpXqXpXaXpX>XqX;X;XqXW.*.C O.C M C S C O.C V C O.C 5.bXZXNX8X{.{.{.'.+X{.{.{. X|.|.+X).].|.).).).).)./.Y.U.F.F.F.V.F.N.s.%.z.M.` 4 8 1 1 , - , - % - , % _.AXCXZXZXsX;.g m ^ [ { ..| ' / ' ~ E ~ ' _ ] I I ;.I _ _ ~ I ^ ;.I E P P P P L l j 7 5 v U 3     X             X   X                                                                                                                           ",
"                                                                                                                                    X     X   t ] P P E E E E R ~ ~ ~ ~ ~ I E E E _ -.E ' ~ _ ~ E ~ ~ E P Y Y N B f g / =.l.Z.!.dXAXAXAXAXu.* $ # $ # $ $ $ = - , n e.G._.'.].[./._.).(.XX_.).(.].].(.).[.].|.-XoXOXoX>X X).[.(.g.G.[.Y.sXCXZXQ.C F C F F F C r r O.C M r O.&.qXzXzXlXlXzXDXDXlXlXlXlXzXlXzXlXlXzXkXkXpXqXqXkXkXkXsXkXkXlXSXAXAXAXAXAXAXAXAXAXAXAXAXAXAXAXAXAXAXAXAXAXAXAXAXAXAXAXAXAXAXAXAXAXAXAXAXAXAXAXAXAXAXAXAXAXAXAXAXAXAXAXAXAXAXAXAXAXAXAXAXAXAXAXAXAXAXAXAXZXBXlX0X9X9X9X0XqX9X9X9X6XqX9X9X7X0X0XpX0X0XqXqXpXqXrX>X;X%XqX[.*.O.C O.O.O.S C S O.C C o.C *.dXZXAXdX{.{.{.T.T.{.|.{._.).{.{.].{.].).].).).).`.)./.`.).V.C.V.F.m.1.d.s.f.m 3 3 1 , , , - - - $ $ 7 dXAXZXZXZXFX^ g g ( =.' [ / [ [ ~ ' ' E ' ' ~ ' _ -._ ~ ~ _ ;.P I E I ;.P E P L J j 7 5 v I 2 X   X       X                                                                                                                                     ",
"                                                                                                                                      X     . t ] P P E I E E I E _ ' I E E E E E P ~ _ ~ ' ~ E I E ~ ^ Y Y Y Y B x f Z ;.t.x.Z.iXSXZXAXAXoX3 o # $ $ $ $ $ $ - - 5 %.g.F.].].(.(.(._.).(.'.)._.].(.].].`.]. X X[.-X[.|.>X].[.E.l.D.'.'.!.bXZXMX6.g M C C r C C O.r r O.C O.O.e.aXlXzXlXzXlXDXzXmXcXDXzXzXzXhXkXfXkXzXkXkX>XkXkXkXkXkXkXpXlXZXAXAXAXAXAXAXAXAXAXAXAXAXAXAXAXAXAXAXAXAXAXAXAXAXAXAXAXAXAXAXAXAXAXAXAXAXAXAXAXAXAXAXAXAXAXAXAXAXAXAXAXAXAXAXAXAXAXAXAXAXAXAXAXAXAXAXZXMXdX0X9X8X0X0XwXpX0X9X8X6X0X9X0X0X0X0X0XwX0XpXpXqXqX;X;X>X>X[.*.O.r O.r m O.O.C O.M C C C C [.ZXAXmX|.).).!.{.).).{.+X{.|.|.].{.].).|.).(.(.).)./.).)./.N.N.V.N.d.u.m.g.^ 4 8 1 3 , 3 > , - - % o T SXAXZXAXvXY.A m g ( -.{ [ [ [ ' ' ~ ~ E _ -.;.I ' E E ~ ^ _ _ Y E P E E E E P L v j 7 5 v E 2   X X                                                                                                                                             ",
"                                                                                                                                      X     X 7 _ P P P _ P E E Y E I I E I I E E E P E I E _ ~ -.E Y P P Y Y Y N B d B ;.r.m.l.OXNXZXZXAXdXd * $ O $ $ $ $ % & - - m n.g.'.)./.].).'.(.].)._._.'.).XX(.(.(.].].[.|. X|. X[.[. X(.A.z.}.'.-XNXBXkX4.C C C C r C O.r O.r C O.M O.e.zXhXhXzXlXmXzXzXDXzXlXDXlXhXhXzXkXzXaXqXaXkXpXzXkXsXkXqXpXlXNXZXZXAXAXAXAXAXAXAXAXAXAXAXAXAXAXAXAXAXAXAXAXAXAXAXAXAXAXAXAXAXAXAXAXAXAXAXAXAXAXAXAXAXAXAXAXAXAXAXAXAXAXAXAXAXAXAXAXAXAXAXAXAXZXZXMXsX9X9X8X9X0X0X0X0X0X8X9X0X0X>XwX7XqX0X0X0XpXpXqXqX>X;X;X>X;X#.M M O.O.M O.O.C C O.C V V S I.vXCXmXOX).|.).{.!.|.|.!.{.{.|.|.+X).'.).).].).).).).)./.U.V.H.H.V.m...l.z.i.m 5 8 8 , , , - - - - & - (.CXCXBXCXdXj.B g Y ~ ~ ~ ( / ' ' E ~ _ / ' ' ~ _ Y I _ _ I E Y P E E E E I P P N H k 7 5 H R 3                                                                                                                                                   ",
"                                                                                                                                      X     X y ] P P E I _ I E E P P I I E ^ E ^ I ~ E E _ ~ E I E P ^ Y E N Y N n a d ~ =.m.N.).mXZXZXZXAXd.# + + + + $ $ # % % % 3 X.e.D.).(.].(.(.(.`.).'.].).].]._.(.(.].]._.oX X(.'.[.].].'.U.l.P.}.'.0XVXCXsXS C g C C C M O.r O.C C O.O.#.e.pXhXfXlXzXzXcXzXcXcXkXlXkXhXzXfXzXkXzXkXzXkXkXkXkXwXqXqXpXkXmXBXBXAXAXAXAXAXAXAXAXAXAXAXAXAXAXAXAXAXAXAXAXAXAXAXAXAXAXAXAXAXAXAXAXAXAXAXAXAXAXAXAXAXAXAXAXAXAXAXAXAXAXAXAXAXAXAXAXAXAXAXZXZXMXsX0X9X8X9X0X0X0XwX0X0X6X9X9X0X7XqXqX7XwX0X6X7XeX>X5X5X;X>X;X*.O.O.O.O.M O.O.r C O.O.C C C f.lXCXNXiX].{.}.).{.{.|.{.).{.|.|.|.{.'.'.].].).)./.).)././.H.N.H.H.m.d.u.z.l.Q 4 4 8 1 , , , , - - - + p dXCXZXZXBX8X{ n g ( -.~ ~ / _ ~ ~ ~ ~ ~ E _ ' ' _ ~ ~ ~ _ E ~ P _ E E I E Y I L B v i t 3 v E 2     X                                                                                                                                             ",
"                                                                                                                                          X . y ;.P P I E _ ' I I ~ ~ I E E E E _ E E Y Y ~ ~ ~ _ P Y ^ ~ E N N N B g d Z { p.N.H.aXCXZXAXAXfX3 o $ $ $ $ $ $ $ % - - m e.M.oX>X/.F.U.F./.].oX'.].].].].'./.].[.[.oXOX[. X].'.{.].T.D.z.I.'.E.pXBXZX>XS M C C C O.r C C C C C C C C e.rXzXzXzXzXmXzXzXzXkXdXzXfXkXlXkXkXkXzXkXzXkXkXkXkXuXrXqXpXsXmXZXAXAXAXAXAXAXAXAXAXAXAXAXAXAXAXAXAXAXAXAXAXAXAXAXAXAXAXAXAXAXAXAXAXAXAXAXAXAXAXAXAXAXAXAXAXAXAXAXAXAXAXAXAXAXAXAXAXAXAXAXvXsX9X9X9X8X0X9X0XpXrXwXkXqX9X0XqX9X9XqX0XqX7XqX9XqX>X%X;XqX&X*.S S V C C C V o.S O.C C O.M &.zXBXCXsXT.'.).'.'.).{.{.). X{.|.|.|.].).).].'.).).U./.+X/./.H.H.H.Z.l.%.g.n.e.d 8 8 , , , - , , - - & $ i.SXZXZXZXvXA.B g Z ;./ / ~ ~ _ ^ ;.I ' I Y _ { ' ~ _ ^ ~ E _ ' E E E P R P P P L L v j 7 5 v R 3     X                                                                                                                                             ",
"                                                                                                                                  X   X   X . y _ P P I _ Y I I E _ I I ^ I E ^ ~ E ~ P Y _ _ ~ ' ~ P P P Y Y N B B x w x / =.N.N. XMXAXCXAXSX' o o + $ O $ $ $ % % - 3 *.e.G.^.G.G./.(././.|.[.].].oX].)./. XOX|.OX]. X X]. X|.[.'.R.x.f.T.'.E.kXBXCX&XC M r M C O.C C C O.C C C O.O.&.qXkXzXzXzXzXlXzXzXzXzXzXkXzXkXzXzXfXdXkXjXkXkXkXqXqXqXkXpXlXNXAXAXAXAXAXAXAXAXAXAXAXAXAXAXAXAXAXAXAXAXAXAXAXAXAXAXAXAXAXAXAXAXAXAXAXAXAXAXAXAXAXAXAXAXAXAXAXAXAXAXAXAXAXAXAXAXAXAXAXAXdX6X0X0X9X9XwXqX0XrX>XkXzXqX>XqXqX6X0X6XqXqXqXeX>X;X;X;X>X;X#.C O.A C V V D F F V O.C C C O.uXBXBXlX X].[.'.'.|.{.!.). X X{.|.|.|.).).).].].'.)._./.)./.U.H.H.H.V.i.i.n.n.Q 4 4 8 8 , , - - - - , $ 4 iXAXZXZXZXpX-.z f ^ -.~ ^ / ( / E E ~ E ~ Y _ ' ' _ _ _ ~ _ ^ E E E E _ E E E P L H v k t 3 v R 2 X X                                                                                                                                               ",
"                                                                                                                                      X     X y =.P I I I _ I I ~ I _ I E ^ I I E ~ _ _ _ ~ ' ' _ ^ Y Y Y Y Y U N N B d d ( 1.m.M.H.dXZXZXAXAXiX, o o O $ O $ $ $ $ - $ w f.n.G.U.(.(.'.(./. X_.].]._.].].].].oXoX:X|.].|.|. X|. X|.[.Y.z.z.R.'.'.vXCXmXe.O.M o.C O.r C C C C C C C C C &.eXzXkXaXkXkXkXkXkXzXdXfXzXkXkXkXdXkXzXkXkXkXpXqXqXqXwXwXsXSXAXAXAXAXAXAXAXAXAXAXAXAXAXAXAXAXAXAXAXAXAXAXAXAXAXAXAXAXAXAXAXAXAXAXAXAXAXAXAXAXAXAXAXAXAXAXAXAXAXAXAXAXAXAXAXAXAXAXZXAXhX0X0XqXqX9X0X0X0XqXqXqX>XqX>XqX>XqXqX0X7XqXqX9X>X%X>X>XG.O.A C C V V V V F F C C C C M S -XBXZXlX X|.{.{.'.[.).|.+X|.|.|.+X|.{.].).'.).).].|.).`.).`./.U.H.H.C.h.e.G.n.&.0 1 1 8 3 , - - - - - % @ / NXZXZXAXbXY.Z s x { { ^ ~ ~ ~ ~ Y E ^ E E E ' ~ ' _ E _ ' ' ~ _ ' E P E E R E I L H J i 7 5 H R 3     X                                                                                                                                             ",
"                                                                                                                                          X X y ] P I _ _ ;.;._ _ _ -._ I Y P E _ { / ' ' ~ ' E E E P Y Y P Y Y Y N B m p Z X.d.H.m. XmXAXAXAXSX` o $ O $ $ $ $ $ $ - - 3 Q e.C././.(.(.'.]._.(.].).G.].].].].XX[.OXOX].].|.|. X X|.{.E.I.A.k.E.E.=XmXCXbXe.C C r M C M C C C C C K O.C o.&.1XzXzXkXkXaXkXkXlXzXzXkXdXaXiXzXzXlXhXkXkXqXqXqXpXwXwXsXBXAXAXAXAXAXAXAXAXAXAXAXAXAXAXAXAXAXAXAXAXAXAXAXAXAXAXAXAXAXAXAXAXAXAXAXAXAXAXAXAXAXAXAXAXAXAXAXAXAXAXAXAXAXAXAXAXAXAXAXAXdX0XqXqX0X9X0XwX0XpXkXkXqX>XwXqXqXqXpXkXwXqX0X;X&XeX>X*X*.S C C S C C V V C V V V C C O.>XCXAXmX>X{.].{.[.[.{.|.|.|.|.{.|.|.|.[.].].].].].).(.).).)././.V.N.C.m.u.d.M.e.M 4 4 3 3 , , , - - - - $ 4 yXZXCXZXZXaXu.n g ~ { / / ~ / ~ ~ ~ E E E E E E ~ ~ ~ / ' { ' _ _ E P Y E E I E Y L L L i t 5 H E 3                                                                                                                                                   ",
"                                                                                                                                            . y =.I P I =._ I I _ _ I _ ~ Y P P E E ~ ~ ~ _ ~ P P Y Y Y Y E U Y Y U K g d d ` $.M.N.D.aXAXCXAXCXuX3 o $ $ O O $ $ $ $ - - 4 &.g.G.G.F.^.^.'.(.^.].]._.].(.].].[.|.oXOX|.|.|.|.|. X X}.{.'.I.c.x.'.W.-XmXSXDXe.C S C C C C C C C O.C C C r O.@.G.rXrXrXqXkXzXzXlXkXkXzXkXkXzXkXlXjXkXkXkXqXwXqXsX0XhXBXZXAXAXAXAXAXAXAXAXAXAXAXAXAXAXAXAXAXAXAXAXAXAXAXAXAXAXAXAXAXAXAXAXAXAXAXAXAXAXAXAXAXAXAXAXAXAXAXAXAXAXAXAXAXAXAXAXAXAXZXlX0XqXqXwXqXqXqXrXwXkX>XkX>XqXqXqX0X0X9XkXqX;X;XwX>XS.O.C O.S C V S C V V V V F C C C Q.MXZXmXOX|..X X].'.[.].|.|.{.{.+X|.{.|.|.].].].'.(.(.U.).).)./.H.V.V.m.i.f.g.g.! 0 8 8 8 1 , - - - < > - $ / NXZXAXZXMX'.A g Z { { ~ / / / ^ I I ~ ^ I E Y E T E _ ~ ' ' E Y E P P E Y E E E P P B J k 7 5 v E 3                                                                                                                                                   ",
"                                                                                                                                      X     . i I I I I I _ _ _ -.I I I I E E N P ^ _ { ~ _ P E E Y Y E E Y Y N W W b x f d n ` u.F.z._.mXAXAXAXSX&.. o O $ # $ $ $ $ $ - - g e.G.^.^.G.G.^.G.G.(.).`.].].XXOXXX_.|..X X).).{.|.{.|.|..X{.E.P.k.R.{.G.>XmXSXlXe.C C r C C C C C M O.C C O.O.O.O.G.rXzXqX>XzXzXzXlXzXkXpXpXkXzXkXkXhXkXkXwXwXwXwX0XdXSXAXAXAXAXAXAXAXAXAXAXAXAXAXAXAXAXAXAXAXAXAXAXAXAXAXAXAXAXAXAXAXAXAXAXAXAXAXAXAXAXAXAXAXAXAXAXAXAXAXAXAXAXAXAXAXAXAXAXAXAXdXkXqXqXqXwXrXuXpXpXqXrXkXpX>XqXuXwX7XqX9X;X:XqXeX5.S C S S S S S V O.O.V F F C V S I.MXZXNX>X(.'.{.{.{.[. X{.|.|.|.|.{._.|.'.].].U.).)././.).(.).).V.U.V.N.g.a.m.z.f.g 5 4 3 3 , - - , - - - % 4 aXZXZXZXZXpX2.g g ~ X.[ ~ ' ] [ ^ ;.E ;.;.I ~ E ~ E E ~ _ ' ' ~ E P Y Y E E P E E P P J v l t 5 v ) 3   X X                                                                                                                                             ",
"                                                                                                                                    X X     . i ] _ I _ ] _ _ _ I I _ -.I I I P _ _ _ ' ' ' _ ~ E E E E E W Y Y T T Q K c s d ! ..m.M.V.iXSXAXAXAXfXw . O * $ $ $ $ $ $ $ $ 3 $.e.M.G.C.D.F.^._.].).(.].].].).)._.OX X).|.{.|.|. X X|.}.{.}.E.D.z.W.[.'.>XmXSXdXe.C M C C C C C O.r r O.C C o.o.#.e.qXkXkXpXkXzXaXkXkXkXpXzXkXzXzXkXkXkXwXwXsXwXwXdXSXZXAXAXAXAXAXAXAXAXAXAXAXAXAXAXAXAXAXAXAXAXAXAXAXAXAXAXAXAXAXAXAXAXAXAXAXAXAXAXAXAXAXAXAXAXAXAXAXAXAXAXAXAXAXAXAXAXAXAXZXcXrXqXqXqXqXwXqXqXqXkXkXpX0XpXpXpX0X0X>X;X;X>X;X&.O.O.S S S S S C C C O.O.D C S S I.MXZXMX7X{.T.T.).{.[. X{.{.{.{..X|.|.|.|.(.|.T.(.].).).)./.U._./.V.F.F.m.p.i.D.g.Q 4 4 8 1 3 , , - - - - , - M.ZXZXZXZXvXU.A n b [ { ! / / ~ -.' ~ _ E _ ~ ^ _ E E ~ ' { { ' ' _ ^ E E E _ _ E Y P L L J i t 5 v ) 3                                                                                                                                                   ",
"                                                                                                                                        .   X i =.I I _ _ ' I I =.I I -.I -._ _ ~ ' ' ~ { ] ' ~ _ ~ E ~ ~ E ~ ~ ~ W W U b h w c ( 1.V.m.`.lXCXAXCXCXXX, o # O * $ O $ $ $ $ - 0 e.m.G.G.(.^.(.oX|.].(.(.].oX^.F.].:XOX X|.OX X X{. X[.].{. X].(.G.g.'.[.[.uXmXSXlXe.M C C C C C O.r O.O.r C o.o.o.@.e.[.kXkXqXqXqXqXzXkXqXkXkXkXhXhXkXkXrXpXwXwXwXlXZXZXAXAXAXAXAXAXAXAXAXAXAXAXAXAXAXAXAXAXAXAXAXAXAXAXAXAXAXAXAXAXAXAXAXAXAXAXAXAXAXAXAXAXAXAXAXAXAXAXAXAXAXAXAXAXAXAXAXAXZXdXuXwXrXqXrXqXkXqXkXqXkX>X>XpXqX0XqX:X;XeXqX&X#.o.C C C S O.S V C O.O.C M O.S S R.MXZXMX8X'.'.'.'.{.[.{.{.|.|.{.+XOX|.|.|.).|.|.).].).).)./.).U.)./.H.U.N.l.d.g.A.e.0 1 8 1 3 , , - , - - - $ K MXZXZXZXCX.X} g n ! ( ` [ ' ( ~ ' _ -.-._ ;._ ^ _ ' ~ ' _ { ' _ -._ I I ~ E ' E _ E P P L L i t 5 v ' 5   X                 X                                                                                                                             ",
"                                                                                                                                      X     . j w.E I _ ] _ _ _ ) _ ]  .] ~ [ _ { '  .' ' ~ ]  .] ~ ~ ~ E ~ ' ~ / ~ W U U x d p T $.l.M.M.8XNXZXAXAXSX .* + * $ $ + # # $ > - - b G.A.G.)./.(.oX[._.^.'.[.].(.(.XXOX|.'.]. X|. X|.|.[.'. X]. X'.U.z.g.[.E.G.7XMXAXdX2.M C V C C C C C C C C C o.C o.C *.[.kXkXkXqXkXkXkXqXkXzXjXjXzXhXkXqXkXkXkXpXzXBXAXAXAXAXAXAXAXAXAXAXAXAXAXAXAXAXAXAXAXAXAXAXAXAXAXAXAXAXAXAXAXAXAXAXAXAXAXAXAXAXAXAXAXAXAXAXAXAXAXAXAXAXAXAXAXAXAXAXAXZXvXwXqXqXqXwXrXwXpXwXpXkXqX0XqX>XqX;X>XrX;XG.O.O.S S S C C S S C O.V V C V V A G.NXZXMX7XT.E.T.T.E.'.].{.|.].{.].'.|.|.].].|.|.).)._.)./.).)./.U.).U.V.U.z.2.h.l.p.n 4 4 1 3 1 , - , - > - $ q iXZXBXZXCXaXp.Z g T %.X.` / [ / [ / [ { { } ~ ~ ~ _ ' {  .' [ ' ~ ] { ' ~ _ ^ _ _ _ P P P B l h t 5 H ] 5                         X                                                                                                                         ",
"                                                                                                                                    X       . a w.I I _ _ _ ] ) _ _ ' _ | W E _ _ ]  . .' '  .=.] ' ~ E ~ ~ ' ' W Q E U U c s y z { u.V.Z.(.fXSXAXZXAXdXf . + # # O $ + @ & - & 8 / e.G.(./._. X].(.^._._._._.].XX|.).(.Y.{.|.|.OX X|.). X].[. X'.T.D.k.I.Q.'.7XmXZXlX2.F V C C V C C C C V V C C V S S O.k.>XkXqXqX;XqX0XzXzXjXjXjXhXkXkXqXkXqXsXkXBXAXAXAXAXAXAXAXAXAXAXAXAXAXAXAXAXAXAXAXAXAXAXAXAXAXAXAXAXAXAXAXAXAXAXAXAXAXAXAXAXAXAXAXAXAXAXAXAXAXAXAXAXAXAXAXAXAXAXAXZXvXkX0XqXwXrXpXqXkXpXkXkXpX>X>X>X;XqXeX%X,.O.O.S O.O.S O.C O.C C C V C V D S D.DXAXmXpX|.[.{.).].E.'.{.'.].'.|.].{.|.|.|.|.|.].)./._.).).U.(./.V./.V.N.N.s.u.x.z.T 4 8 1 8 1 , , - - - - - 3 ).ZXZXZXAXmXP.^ x Z 1...X.[ [ X.[ [ ! W ~ { | { -.{ ' { =.r. .' [ [ | ' ~ _ E _ E ~ _ E E L L J j t 3 v _ 5   X                                                                                                                                               ",
"                                                                                                                                        X   . a _ E I _ ] _ _ E _ ] ) '  .' ' _ ' =.] ] ] ] {  .| ' ~ E E ~ ~ ~ W W E Y U b b g d Y <.h.N.m./.fXSXAXCXAXaXy . # $ $ + # # & % % % 0 %.n.G._.(.].[.)._.(.(.].[.`.).|.|.).|.|.|.|.oX XOX X].T.-X[.'.Y.P.A.z.W.E.{.8XmXAXlX4.C C C C C V C C C C V V O.C O.O.O.#.[.rXkXqX9XqXzXlXzXjXzXzXkXkXkXkXkXkXlXCXAXAXAXAXAXAXAXAXAXAXAXAXAXAXAXAXAXAXAXAXAXAXAXAXAXAXAXAXAXAXAXAXAXAXAXAXAXAXAXAXAXAXAXAXAXAXAXAXAXAXAXAXAXAXAXAXAXZXZXZXvXkXqXqXwXqXkXrXwXpXkXkXkXqX>XqXqX;X6.@.O.A S A O.S O.S C O.C O.C V V V S ).SXAXSXpX{.'.'.'.{.{.'.].E.'.{.|. X).{.|.|.|.|.|.).).|.+X)./././.U.M././.M.h.d.z.x.} w 8 1 3 1 3 , , , - - % > h.SXZXAXZXmX|.( n M $...X.X.( [ / [ [ / ~ ~  .' { _ _ ~ _  .=.{ ' ] ' ] ' _ ~ E Y ~ _ _ _ E P J J l t 2 z E 3   X                 X   X                                                                                                                         ",
"                                                                                                                                      X     . h w._ _ _ ) _ _ _ _ _ ] ]  .] ] ' ' '  . .] ' ' { ] ~ ~ E ~ W ' ' W Q E Y U U U n m d T X.l.N.Z.U.dXZXAXZXAX8X3 . + + # $ @ % & = & + M e.M.(._.).XX^.^.G.^.oX_.`./.)._.|.|.|.|. X]. X:X X>XoX[. X'.(.Y.U.z.z.W.Q.Y.7XNXSXhX6.C C C C C C C C C C C V C C M C O.O.6.5XwXkXqXjXnXjXjXjXjXkXkXkXkXkXkXkXCXAXAXAXAXAXAXAXAXAXAXAXAXAXAXAXAXAXAXAXAXAXAXAXAXAXAXAXAXAXAXAXAXAXAXAXAXAXAXAXAXAXAXAXAXAXAXAXAXAXAXAXAXAXAXAXAXAXAXAXAXvXgXrXqXrXwXwXwXkXkXpXqXkXrXqXeX&X&.O.O.O.O.O.O.V S S O.O.C O.C O.V C D }.mXZXMXuX{.[.}.'.'.{.{.[.'.].[.[.[.|.].|.|.|.|.].).|.|.)./.).{./.U./.U.U.N.l.1.p.N.5.m 7 8 1 1 3 , 3 , , - $ $ $.MXAXAXAXMXOX} B n ( i.( X.X.X.{ [ ` / [ ~ ~ ] ] ' E ~ ^ ~ ] ] { ' ' ~ ~ ' ~ _ E _ _ ~ E _ P L L J i u 5 H ] 5 X                                                                                                                                                 ",
"                                                                                                                                  X     X   . l w._ _ _ _ ) ] _ ] ] ' ' | | | ` ' ' ' ] ] | ] } ] ' ' ~ ~ ~ ~ R E W W Q Q b Z K n p d / } i.l.N.).DXZXZXZXCXOX3 o + % $ + % = & - % 3 Q e.G.G.'.)./.U.V.'._.(./._.+X|._.)._.).).'.].>X].-X|.[. X).].).Y.G.A.j.I.E.R.>XMXZXvXJ.A C C C C C C C C C o.C C o.O.C C V #.W.wXsXjXnXjXjXjXjXkXwXkXrXkXsXjXBXAXAXAXAXAXAXAXAXAXAXAXAXAXAXAXAXAXAXAXAXAXAXAXAXAXAXAXAXAXAXAXAXAXAXAXAXAXAXAXAXAXAXAXAXAXAXAXAXAXAXAXAXAXAXAXAXAXAXAXZXMXzXrXqXqXrXrXqXwXkXsXkXrXwX2X6.O.o.o.O.S O.C O.V D V O.V O.o.O.C F @..XNXZXmX8X|.{.).T.'.'.].{.].].[.[. X]. X X].|.].).).).+X)./.`.U.U./.U.U.N.H.M.2.3.N.l.A 7 1 3 1 1 3 3 1 3 - - = X.mXCXZXZXmX:X$.Z g ^ 4.$.{ X.} ..{ [ / [ [ [ ' ~ ' ' _ _ _ [ ]  .' ' ~ ~ E E ~ E _ E W _ _ E E P H l j t 3 j ] 7 X                                                                                                                                                 ",
"                                                                                                                                            X l w._ _ ] ] _ ' ' | ] ] ] ] ] ] ) ' ' ' ) W | ' { ] ' ' E E ' ' E W W ~ W W U E Z N g w n X.<.l.M.l.`.dXZXAXAXAX+X3 X O O % $ $ $ - % $ 7 e.e.G.^.(.)./.(.(.(.(.).).|.).)._.).).).].]. XOX|.[.).'..X X[.[.].E.A.j.U. X|.:XMXZXNX XS F C C C C C C C C C C C C C o.O.o.D ,.$XwXgXcXjXjXjXjXwXkXqXzXrXlXZXAXAXAXAXAXAXAXAXAXAXAXAXAXAXAXAXAXAXAXAXAXAXAXAXAXAXAXAXAXAXAXAXAXAXAXAXAXAXAXAXAXAXAXAXAXAXAXAXAXAXAXAXAXAXAXAXZXAXAXAXbXzXkXrXrXqXkXrXkX0XkXrXqXJ.@.D D O.o.O.S O.S S S C V S V C C C C 7.9XVXNXvX4X{.}.{.).E.).{.'.'.].{.[.].].].|.|.]._._._./.`./.)././.U.Y././.U.H.M.p.p.N.x.-.6 3 1 1 1 3 1 , - - ; = Q mXZXAXAXSX>X1.N n / 2.$./ } } X.X.X.X.X.{ { { { ~ ~ ' ~ ~ _ ' ~ ] ' W E E E E E E E E E _ E E P L H v j t 3 l ] 5   X     X                                                                                                                                         ",
"                                                                                                                                      X     . z w.E I ] ] ] ] _ _ ] | | ) ) ` ) ' _ ) ) ) ] ~ ] ' ' ~ ~ ] { ' { [ W W W { ! ` U U v n p B -.2.h.M.h./.dXCXZXNXCX.X6 * $ O % & % $ % % - m e.M.(.(.).`.(./.(.^.(.)._.|._.).).)._.(.[.[.|.XX'.[.].{.[.{.{.[.).P.A.j.T..X[..XlXVXZX:X( F C C C C C C C C o.C C o.C C V V V @.6.2XcXzXjXhXkXrXkXuXkXgXhXZXAXAXAXAXAXAXAXAXAXAXAXAXAXAXAXAXAXAXAXAXAXAXAXAXAXAXAXAXAXAXAXAXAXAXAXAXAXAXAXAXAXAXAXAXAXAXAXAXAXAXAXAXAXAXAXAXAXAXZXAXMXzXkXrXqXqXrXpXkXrXwX=X,.O.D @.@.C C O.O.O.S O.O.S V O.S C O.M &.sXZXBXvX4X X{.T.T.T.{.[.].{.'.).'.].].|.].].].).).+X_./.).).).Y./.H.).U./.U.x.s.d.z.x.p.m , 4 8 1 8 1 3 - - $ 3 %.mXCXZXZXNX>X1.N n T 2.p.} ( } } } } ......{ { ..| [ { ] ~ ~ ~ E E ~ E E E E _ E E E E E E _ E E P L v l a y 3 a _ 5   X                                                                                                                                               ",
"                                                                                                                                        X   . l ] P P ] ' _ ) ] ] ' ] ' ' ' ] _ ~ E ' ' ' E E ' ' ' ] ' ' ' ~ { ' [ W ' [ | [ W U N n g d Z } u.Z.l.h.@XiXNXCXCXZX7Xs * O # % % - % & $ 1 K e.G.U.'.Y.(.F.).(.(.].+X_.|.|.).).(.'.).].].XX'.].[.'.].].{.[.Y.Y.Y.D.g.D..XE. XlXBXZXsX2.C C S S V C o.C O.O.O.O.C o.V V o.O.V 6.gXzXjXjXkXkXrXkXzXgXxXVXAXAXAXAXAXAXAXAXAXAXAXAXAXAXAXAXAXAXAXAXAXAXAXAXAXAXAXAXAXAXAXAXAXAXAXAXAXAXAXAXAXAXAXAXAXAXAXAXAXAXAXAXAXAXAXAXAXAXAXZXvXjXzXkXrXqXkXpXkXsXsXJ.S ( O.O.O.C O.C C C S V C C V C V C A G.cXAXZXsX}.{..XI.U.'.{.{.{.'.'.{.[.{.].|.[.].].].).+X).).).).).`.!.+X/.@XV.U.H.h.u.z.M.p.Z , 8 4 8 3 , 3 , - = 3 l.mXSXCXCXDXOX( b n T ..1.$.( } } } ..%...%...{ {  .{ =.] ~ ' ' ' E E E E E E ~ E E Y P R R R U Y P L L L v j t 3 u R 5     X X       X                                                                                                                                   ",
"                                                                                                                                  X X       # J _ P R _ ' _ ' ' ) ) ) ) ] ) ] ) ' ' ' ' ' E _ _ ] ] { { ' ' ] [ [ [ [ [ [ [ [ W Q Q Z n g d Z } 4.Z.z.p.m.8XmXCXZXAXfXU # # $ % & $ $ $ - 8 T s.C./.(.U.U./././.|.|./.|.|.).).'.].).[.[.].].[.'.].].|.].].).).'.I.D.f.D.[.[.}.9XNXZXlXA.S F S S C C O.O.O.O.S O.D V D o.V F 6.gXzXjXkXkXkXkXgXgXgXbXZXAXAXAXAXAXAXAXAXAXAXAXAXAXAXAXAXAXAXAXAXAXAXAXAXAXAXAXAXAXAXAXAXAXAXAXAXAXAXAXAXAXAXAXAXAXAXAXAXAXAXAXAXAXAXAXAXZXAXAXAXMXzXzXkXrXrXkXkXkXkXrXK.O.*.S.J.K.J.W.R.W.J.R.W.A.A.J.J.J.S.=XMXZXBXdX=X}.{.Y.T.!.'.{.{.[.[.[.'. X[.|.].].].].].'.|._.).U.`.)././.U./.H.M.N.H.f.l.H.z.T 4 8 1 8 3 1 3 , - % 7 (.mXZXCXZXlXY.( b b ! %.1.} { ..X.{ } } ..1.=...}  . . .] _ E E ] ' ~ E E E E E E _ Y L L L P N L L G H G G c j t 5 h R t     X                                                                                                                                             ",
"                                                                                                                                          X 2 U _ _ E _ ) ' ) ) ) ) ) ) ) ) ) ) ] ' ' | ] ]  .=.=.r.b.s.' ] { ] {  .| [ { | X.{ / ! U Z n g d B } 1.l.m.p.l.OXdXNXAXZXmX1.3 O $ $ % & $ - , 4 } l.C.U.(.V.).(.).|._.U._._./.(._.(.]._.(._.].'.].].].[.|.'.'.'.'.[.].G.A.A.;X}.|.:XmXAXMXuX>X>X>X>X>X>XoX>X>X:X>X:X5X2X=X9.V 5.wXzXzXkXkXkXkXgXkXhXcXVXAXAXAXAXAXAXAXAXAXAXAXAXAXAXAXAXAXAXAXAXAXAXAXAXAXAXAXAXAXAXAXAXAXAXAXAXAXAXAXAXAXAXAXAXAXAXAXAXAXAXAXAXAXAXAXAXAXAXZXZXbXcXzXkXrXrXkXqXkXkXpXA.V @.kXNXmXbXMXvXmXbXmXMXMXMXmXmXbXvXMXMXvXiX X X}.R.R.}.}.{.{.{.|.{.].[.].].[. X].].].].].)._.)._./.).)./.H.U.H.H.N.u.p.N.z.{ q 4 1 3 3 1 1 3 - , c iXZXZXAXNXaXM.T n n W i.p.X.[ ..<.1.} =...1...1.%.{  .{ { ' P g l d.s.s.r.=. . .' { ' ' E E E E ~ E E ) ) E _ E R K b G G h .         X                                                                                                                                       ",
"                                                                                                                                    X       5 ) E _ E _ ) ) ' ] _ W E W ) ) ) ) ) ) ] ] { { =.=.r.b.Z.m.E ~ ]  . . .{ | {  ...{ [ / W U U n z p b -.d.l.N.h.r.C.yXmXCXCXZX|.s + O $ - % % - - d %.s.V._.)._.).)._.).)._.).).).`.[._.].XX].].].'.T.[.|.].|.}.].'.'.'.[.G.G.A.Q.;X'.|.jXmXmXmXvXvXmXMXDXcXvXvXmXmXmXbXvXVXwX5.S.xXzXjXjXkXrXkXkXgXgXcXBXAXAXAXAXAXAXAXAXAXAXAXAXAXAXAXAXAXAXAXAXAXAXAXAXAXAXAXAXAXAXAXAXAXAXAXAXAXAXAXAXAXAXAXAXAXAXAXAXAXAXAXAXAXAXAXAXAXZXAXAXMXcXzXzXkXrXkXkXkXkXsX=X5.A.lXVXpX8X8X7X8X7X8X6X6X>X7X>X6X:X6X;X>X4X.X}.!.T. X.X X{. X}.[.|.[.].[.]. X].].'._.(.).).+X)./.)././.+X@XH.H.Y.m.u.l.C.1.m 1 8 3 1 1 3 3 , 0 e.mXCXZXCXmXOXg.U K A / d.p...X.( =.1.1.=.=.=. .=.=.0. .{ ' ] E B y k m.Z.Z.r.r. .=.=.{ ] ' ~ E ~ E E E ~ W E E E E E R L R R H # X                                                                                                                                               ",
"                                                                                                                                            5 ` ) ) ) ' ' _ ) ) ] ) W ) ` ` ` |  . . .r. . .r.r.d.h.Z.h.] { =. . .{ { |  .{ { { [ ) { W Y U b k d n ..p.Z.N.m.d.d.).sXMXZXAXdXu.3 o % $ & % & > x i.m.(.OX|._.|.).|._.)./.).).).`.[.].].].].'.'.). X|.|.].[.|.].[.].[.T.Q.I.A.[. X X:X7X7X6X7X>X>X>X>X7X9X>X>X>X8X7XpXMXVXvXMXCXbXkXkXkXkXkXgXjXjXcXCXAXAXAXAXAXAXAXAXAXAXAXAXAXAXAXAXAXAXAXAXAXAXAXAXAXAXAXAXAXAXAXAXAXAXAXAXAXAXAXAXAXAXAXAXAXAXAXAXAXAXAXAXAXAXAXAXAXAXZXZXMXcXzXkXrXrXwXkXkXkXkXNXMXMXCXNX0X7X7X7X7X6X>X6X>X:X6X8X6X6X>X>X>X7X8X X{. X XOX X}. X|. X|.).OX[.{.{.'.).).(._.).).)._.)._._././.H.V.D.m.j.m.N.k.g 4 8 8 1 8 3 , - M OXBXZXSXNXdX(.=.Z K W i.g.i.X.X...%.u.u.=.=.=.=.=.=...=.}  .{ ~ ~ l q k m.B.h.b.d.r.r.=.r.r. .{ ' ' ' ' ~ ] ) ) ' ] _ ) ) ) _ ) K &                   X                                                                                                                             ",
"                                                                                                                                          X 7 w.` ] w.w.| ] ] ] ] w.] | | | w.w...0.0.u.r.a.a.d.v.Z.v.Z.] =.=.] | | | { { {  . . .{ [ [ / W U Z n d d { 2.u.z.N.p.1.m.OXdXCXZXSXOXc # $ % & $ & - U d.l.).|.]._.+X|.+X)././.)./.^.(.[._.].)./.].).]. X].|. X|.|.|.|.[.[.;X[.G.I.6XpXkXsXkXhXhXlXzXkXsXhXdXsXhXdXdXdXvXmXNXNXZXZXzXkXrXkXgXgXzXjXjXcXBXAXAXAXAXAXAXAXAXAXAXAXAXAXAXAXAXAXAXAXAXAXAXAXAXAXAXAXAXAXAXAXAXAXAXAXAXAXAXAXAXAXAXAXAXAXAXAXAXAXAXAXAXAXAXAXAXAXAXZXZXMXcXzXrXrXrXrXkXkXkXkXZXZXVXVXbXdXhXlXdXhXsXhXsXhXkXhXhXkXaXkXkXsXsX7X:X.X X|.:X X'. X X[. X X X].[.]. X].).(._.).`.+X)._.+X@XU.Y.H.N.C.h.Z.N.h.B 4 4 8 8 5 1 , q M.lXZXAXBXlX|.i.~ Z T } i.l.i.[ [ ..=.u.1.u.u.u.r.=.=.=.=.....{ ' W E b y l s.B.h.b.s.u.=.=.=.=.{ { { { ' ' _ E E _ ) W E _ E E R R G &                       X                                                                                                                         ",
"                                                                                                                                            # 5 7 5 7 5 7 7 5 5 5 5 7 p a p a a d s s s k j k x l x v L P _ r.' ' ' ]  . .{ { ..0.=.{ [ { | ~ Y Z x m g ^ r.p.m.H.m.=.p.V.8XmXCXZXlXM.7 & $ % & O 3 W g.N._._.+X_.|._.)././.).`.^.(.XX]._.].].).). X|.].|.[.]. X[.[.[.oX X=XW.W.;X>X>X>X>X>X>XpXuXuXsXsXaXaXaXaXdXdXsXdXdXdXVXZXbXkXgXrXrXzXzXzXzXvXBXAXAXAXAXAXAXAXAXAXAXAXAXAXAXAXAXAXAXAXAXAXAXAXAXAXAXAXAXAXAXAXAXAXAXAXAXAXAXAXAXAXAXAXAXAXAXAXAXAXAXAXAXAXAXAXAXAXAXZXAXMXbXzXzXkXkXrXkXkXrXhXCXZXlXsXdXsXdXkXhXdXhXsXhXfXaXpXaXpXpXuX7X>X8X.X:X X{. X:X X|. X|.|.OX[.]. X].]. X[.].'.(./.)._.)._.+X`.!./.H.N.m.M.x.h.^ 4 8 4 8 8 3 8 ~ aXSXAXZXmX>Xz./ Z T / l.g.n.e.X.( } 1.u.u.u.1.u.=.1.d.u.=.=... .| ~ Y U B s s b b v x k f a f f a p y d a a d y 3 9 & & 2 & & & & & & & X   X           X                                                                                                                                 ",
"                                                                                                                                    X           X     X   X   X     * 3 3 3 3 3 5 5 5 5 7 7 q y y y u u N ' { ] ' ' { } { { {  ...........{ ) { ` U v s s B r.m.m.N.N.h.=.u.N.iXvXNXZXfX{ 8 # $ % - 7 X.g.N.`._.|.oX+X`.).).`.).[.oX_.(._.].]._.|.).].|.].]. XOXoX X].].;X X'. X-X>XqX0X0XsXpXsXzXkXsXhXhXhXlXlXhXdXlXlXlXdXBXBXcXjXrXrXzXzXxXjXcXbXBXAXAXAXAXAXAXAXAXAXAXAXAXAXAXAXAXAXAXAXAXAXAXAXAXAXAXAXAXAXAXAXAXAXAXAXAXAXAXAXAXAXAXAXAXAXAXAXAXAXAXAXAXAXAXAXAXAXAXAXZXMXnXzXkXkXrXpXkXkXwXkXZXZXsXpXhXlXhXdXhXdXdXlXhXlXdXhXkXsXkXsX0XpXsX8X-X-X:X X-X X X}.{. X X X X]. X].].].].].(.(.+X+X).+X/./.H.V.h.h.l.x.h.;.q 4 8 3 1 4 M ].mXAXZXNXaXD.[ Y U / 1.g.C.l.%.( X...a.s.h.r.r.h.d.=.d.r.u. ... .{ { ~ W E U c d d p u j s a a u a y y q 6 7 7 q 7 X           X                                                                                                                                                             ",
"                                                                                                                                      X X   X   X   X           X X * 3 3 3 8 5 5 7 7 5 6 j k z B x B B P / ' ' ' ] { { .. . ...............[  .X.! Y A n f x =.m.h.N.H.N.u...=.N.iXmXAXCX8XQ 2 # & - w ..i.M.].+X+X+X_.).+X+X|.XX_.'.^.(.].].].].'.].]. XOX].].|.[.[.;X[.[.=X>X;X=X;X-X:X-X>X>X>X>X>X>X>XuX>XpX7XiXiXdXvXdXCXCXgXrXrXgXzXjXzXzXxXMXZXAXAXAXAXAXAXAXAXAXAXAXAXAXAXAXAXAXAXAXAXAXAXAXAXAXAXAXAXAXAXAXAXAXAXAXAXAXAXAXAXAXAXAXAXAXAXAXAXAXAXAXAXAXAXAXAXAXAXZXZXMXbXzXzXrXrXkXkXrXwXgXAXAXhX7XsX7X0XpXpX0X>X7X8X>X>X>X>X>X>X>X;X:X:X.X.X X X:X X X].|. X X].[.].].[.].].[.].].].).@X+X).U./.!.H.V.h.h.x.l.-.w 8 4 4 1 x D.mXZXAXNXfX).=.~ U Q $.M.G.M.n.%...a.i.u.u.n.h.1.y.p.p.d.1.r.r...=.=. .} | ~ Q Y U v b v B v B v x f a s d p w p d p q X X   X     X                   X     X     X                                                                                                                             ",
"                                                                                                                                        X   X       X   X       X   * 5 5 5 5 5 7 q q 7 u L L U P Y E E E ] E ' | { ..0.r.=.=............. .{ ..{ { W T W Z z x U } m.N.N.m.s.u.{ X.m.8XmXAXMX).5 % > & 0 } p.N.).+X_.).`.).).+X(.].].(.(._.].].).].].]. X].[. XOX[.'.[.;X.X}.;X[.E.}.[.}.}.-X[.;X-X:X-X4X7X7X7X8XpXiXpXvXvXZXZXxXrXrXjXxXzXzXjXxXbXZXAXAXAXAXAXAXAXAXAXAXAXAXAXAXAXAXAXAXAXAXAXAXAXAXAXAXAXAXAXAXAXAXAXAXAXAXAXAXAXAXAXAXAXAXAXAXAXAXAXAXAXAXAXAXAXAXAXAXAXZXVXbXzXrXrXrXrXgXrXwXkXZXZXlX>XpX0X8X0XpX7X7X0X0X8X;X;X;X-XOX;X.X;X}. X}..X.X.X X;X X|.].{.{.].|.[.|.].].].].].]./.(.(.U.U.U.H.H.h.j.x.l.-.f 4 4 4 4 / dXZXZXMXpXY.2.W Q / X.p.V.G.s.i.%.i.l.g.s.a.u.n.s.u.u.r.d.p.u.1.r.r.r.u...r.{ ~ W W E U K U K U E E b x k k s d s f k k d .             X                     X                                                                                                                                     ",
"                                                                                                                                      X   X X     X           X     * 5 5 5 5 t q q q 7 a P I E E E E E E ' ' ~ | q...u.0.......0.=.=.r.0.=. .r.{ { ' Q T W Q n n N / d.V.V.H.h.d.<.~ ' s.iXCXZXB O % - % w -.p.V.|.|.).).).`.Y.(.^.)./.G.(.`._.).oX_.).|. X X].).).).'.[.[.'.[.[.Q.}.}.}.}..X X.X:X>X6X8X7X8X8X8X8X7X0XvXbXZXVXxXrXjXrXzXcXzXgXzXMXZXZXAXAXAXAXAXAXAXAXAXAXAXAXAXAXAXAXAXAXAXAXAXAXAXAXAXAXAXAXAXAXAXAXAXAXAXAXAXAXAXAXAXAXAXAXAXAXAXAXAXAXAXAXAXAXAXAXAXZXZXMXnXzXtXrXrXrXrXrXwXjXCXZXsX;X9X0X0X0X0X8X8X9X7X8X>X:X:X-X-X-X;X X}. X;X X[.;X[.[.{.[.{.[.{.|.|._.oX].]._._.].Y.G.].(.U.F.m.N.z.p.N.N.=.m 4 4 1 8 3 T.AXCXdXV.$.! U T / s.V.(.V.d.....i.d.p.d.u.u.a.d.d.d.h.u.r.a.u.=.=.....u.r.r...| ~ W ) ) Q E W E Q ) Q c c k z z k k z z a .             X     X                                                                                                                                                     ",
"                                                                                                                                        X     X                     * 3 5 5 t t q u u y a ~ ' ~ E ~ ' ' ' ' ' {  . .r.=... .{  ...=.0...=.r.r.=...{ [ ! / ! ! Q U v k n } U.V.V.N.m.=.W n /.BXNXZ o > % @ % d 1.d.P.+X)./.+X/.U.^.^.G./.(.^./.`.]././.)._.'.).T.G.(.Y.Y.'.Q.E.E.}.}.}.}..X X-X-X-X:X6X6X>X7X7X7X8X7X7XpXvXvXZXZXxXrXzXzXzXzXcXzXnXbXZXAXAXAXAXAXAXAXAXAXAXAXAXAXAXAXAXAXAXAXAXAXAXAXAXAXAXAXAXAXAXAXAXAXAXAXAXAXAXAXAXAXAXAXAXAXAXAXAXAXAXAXAXAXAXAXAXAXAXAXZXMXnXxXrXrXrXrXrXrX0XkXZXAXsX.XpX6X0X0X8X0X9X8X8X8X6X6X:X:X-X:X;X|. X-X X.XQ.[.[.{.{.}.E.'.'.{.{._._.].)._._.].F./.(.F.G.N.V.h.p.x.j.3.g 4 4 8 1 8 3 P.ZXVXOXZ n Q ( s./.].(.m.e.%.%.u.d.s.d.d.d.d.i.u.d.d.d.d.d.a.u.r... .{ r.r.=... .[ | [ ` ) ) ) _ ` ..` K G G b b b b b b x .     X   X           X               X     X                                                                                                                             ",
"                                                                                                                                      X   X       X     X   X       # 3 7 t t u u u f i k _ ] ' ~ ' { {  . .] |  .r.r.=... .{  .r.=.r.0.=.r.=.r.%...{ { { [ [ / W W U c z Y Z.V./.C.1.U v @XNXBXn O # % % % - g 2.d.P.+X+X+X`.U.G.(./.F.(.^.(.(././.).U.U.Y.U.G.P.Y.E.Y.I.E.E.E.'.'.}.}.}.;X X:X-X:X8X8X8X7X7X7XpX7X7XpXvXMXZXBXxXrXrXzXjXcXzXzXcXMXZXAXAXAXAXAXAXAXAXAXAXAXAXAXAXAXAXAXAXAXAXAXAXAXAXAXAXAXAXAXAXAXAXAXAXAXAXAXAXAXAXAXAXAXAXAXAXAXAXAXAXAXAXAXAXAXAXAXAXZXZXVXnXxXtXrXrXrXrXrX0XkXBXZXsXFXsXwX8X8X8X0X8X9X8X8X>X6X4X:X-X:X-X X.X-X;X;X'.'.[.[.{.{.'.E.'.).).).).+X_._._.).^.(.Y.G.C.m.z.f.l.j.5.g q q 4 1 1 3 1 Y.ZXZXOXN d m 1.].(.D.d.%.i.p.d.s.s.s.s.d.s.d.s.b.d.d.u.d.d.p.i.a.1.{ { u.=.r.=.{ { ...... .[ ) ` ) X.` E E U U U U U L Y L O X     X                   X                                                                                                                                             ",
"                                                                                                                                          X   X     X       X       * 5 t t u a i l j u l ' -.-.' '  .=... .| | |  .0.....{  . ...r.=.r.r.=.=.r.1.e.%...u...} X./ / W E U c c  .V.Z. .b L ).mXvXz.~ ^ ( / ( ( { 3.2.d.P.+X+X`./.F.^.F.F.(.^.T.G.U.U.F.D.x.D.G.P.D.I.U.P.Y.I.R.E.'.E.[.}.}.}. X-X:X>X>X8X8X8X8X7X8X7X7XsXvXMXZXZXxXrXzXzXxXxXzXbXnXMXZXAXAXAXAXAXAXAXAXAXAXAXAXAXAXAXAXAXAXAXAXAXAXAXAXAXAXAXAXAXAXAXAXAXAXAXAXAXAXAXAXAXAXAXAXAXAXAXAXAXAXAXAXAXAXAXAXAXAXAXZXVXbXtXtXrXrXrXrXrXrXjXZXZXsX.XsX9XwX0X8X8X0X8X8X8X6X6X6X-X:X-X.X;X}.}.=X XQ.E.T.E.E.'.{.E.Y.Y.).).U.).).].).U.)././.D.l.f.3.f.f.x.I.N.x.x.x.N.N.C.x.8XMXmXOXZ w w 1._.l.X.%.d.n.n.l.n.s.s.s.v.d.s.d.s.s.b.u.d.d.s.s.a.u.....u.....0. .{  .......|  .[ ` | | W E R E Y U Y U ' U .           X     X             X       X       X                                                                                                                         ",
"                                                                                                                                        X                   X       # 5 7 t u i f f f i l _ I ' ] { ] ' |  . .| | { .. .{  . . .=.u.d.d.d.u.r.=.0.u.1...%.0.0.......[ ) W W v U C.Z.{ N Z d.M.l.j.p.2.<.( [ { A n Z } i.x.U.U.U.F.F.F.F.).(.G.^./.F.z.x.N.D.A.D.D.D.G.A.D.I.R.I.T.'.'.'.E.'. X-X:X4X:X:X8X7X7X7XiX8X7X0XmXMXBXZXcXxXzXzXzXnXzXjXnXbXZXAXAXAXAXAXAXAXAXAXAXAXAXAXAXAXAXAXAXAXAXAXAXAXAXAXAXAXAXAXAXAXAXAXAXAXAXAXAXAXAXAXAXAXAXAXAXAXAXAXAXAXAXAXAXAXAXAXAXAXZXVXnXzXtXtXrXrXrXrXwXhXZXZXsXFXwX9X8X0X0X8X0XpX0X8X6X:X:X-X-X-X{.}.}.'.E.}.[.E.T.E.R.Y.I.R.T.Y.Y.Y.).Y.U.)./.H.P.N.G.V.f.2.z.l.h.2.j.N.N.P.U.T.+X!.)./.P.N.p.Z d d u.].g.d.n.m.n.l.m.n.n.s.s.s.b.v.d.t.s.s.p.d.b.s.s.u.0.%........... .{ |  . .| [ [ | | ) ` ` W E Q Q W ~ [ { W #     X         X       X X                   X                                                                                                                           ",
"                                                                                                                                      X   X X                       # 5 7 q u a f i f u k ~ ] _ ] =.] ' {  .{  .{  ...{  .{ { ..r.r.u.u.1.r.r.u.0.u.u.u.1.%.u.%.%.......| W G E C.Z. .E / { ~ / ( ^ T T T A Z Z Z / =.1.p.h.Z.x.z.M.M.M.D.C.G.G.N.N.x.x.D.A.G.x.x.D.D.D.D.Y.T.Y.U.'.[.E.[.E.[.;X-X:X:X:X8X8X0XiX8X0X0XaXbXVXBXZXxXrXxXzXnXnXcXnXnXMXZXAXAXAXAXAXAXAXAXAXAXAXAXAXAXAXAXAXAXAXAXAXAXAXAXAXAXAXAXAXAXAXAXAXAXAXAXAXAXAXAXAXAXAXAXAXAXAXAXAXAXAXAXAXAXAXAXAXAXZXZXVXnXnXtXtXrXrXrXrXwXgXBXZXwXFXsXsXaX0X0X0XaXwXpX0X6X6X:X-X-X}.}.[.}.}.'.E.E.W.E.E.P.G.I.Y.Y.).'.Y.U.U.U.U.U.P.N.D.N.V.l.l.z.l.p.4.1.3.u.3.1.1.-.-.-.} } ( ` M g d X.XXM.n.B.m.m.n.n.n.v.n.v.v.d.s.s.b.s.s.s.a.a.u.u.0.u.%.0...........{ { { | | [ | | ` ` ) ` W W W W | ' [ { ' # X   X           X                       X X                                                                                                                             ",
"                                                                                                                                      X     X     X   X             # 5 q q u a f f s u l ~ ] I ' ' ] {  .] |  .[ {  . . .{ { ..=.r.=.r.r.=.u.=.1.u.u.0.0...u.0...r.r...{ [ U W ~.B.{ { =.1.-.<.1.} ( } <.<.u.<.<.1.1.p.1.3.1.<.f.p.g.g.g.l.g.g.f.z.l.z.x.x.N.N.N.A.A.G.P.I.I.Y.W.'.'.'.E.E.'.{. X6X:X:XFX0X8X8X8XaX8X0XMXMXZXBXcXxXzXzXnXnXnXnXnXMXAXAXAXAXAXAXAXAXAXAXAXAXAXAXAXAXAXAXAXAXAXAXAXAXAXAXAXAXAXAXAXAXAXAXAXAXAXAXAXAXAXAXAXAXAXAXAXAXAXAXAXAXAXAXAXAXAXAXAXAXZXBXnXzXrXrXrXrXrXrXqXxXZXZXsXFXpX0XpXpXwX0X8X8X8X8X4X-X-X-X}.{.}.Q.{.}.Q.E.[.I.[.Y.E.E.T.T.Y.Y.I.U.P.U.U.D.P.D.N.H.x.z.j.l.l.j.p.j.3.3.h.p.4.<.1.<.1.<.} { ! ! K d } ).M.m.M.m.M.M.m.l.n.n.v.d.v.s.Z.s.d.r.s.d.s.u.0.u.0.e...0.....{ {  .{ .... .[ ` | ` ] ) ) ' ) ' ' [ / |  .W #           X                                                                                                                                                             ",
"                                                                                                                                                          X         # 5 q q y f f f l y l ~ -.-.~ ' ' { ..[ ' [ [ | [ { { [  . .=.r.=.=.r.d.r.=.u.u.u.u.u.u.d.d.d.u.s.a.....W ` F.m.W Z B N N n n x B B B B A Z T Z T T A T ^ ^ W T ! / ! ! / } 4.$.f.x.P.x.N.J.z.x.D.A.P.P.P.U.E.'.Y.Y.Y.T.'.'.'. X.X:X8X:X6X0XpX0XiXpXMXVXBXZXxXtXzXzXnXbXbXnXnXMXAXAXAXAXAXAXAXAXAXAXAXAXAXAXAXAXAXAXAXAXAXAXAXAXAXAXAXAXAXAXAXAXAXAXAXAXAXAXAXAXAXAXAXAXAXAXAXAXAXAXAXAXAXAXAXAXAXAXAXAXBXVXnXzXtXtXrXrXeXrXrXgXZXZXdX4XsXpXsXsXpX0X8X6X8X4X.X.X}.}.}.{.}.}.{.;X[.(.E.E.[.I.I.T.Y.I.Y.Y.U.I.P.D.l.1.=.;.-.;.( X.} ( ( ( ( ( ( ^ ^ T ^ A Z A Z Z B n g g f w %.U.M.V.B.m.C.C.B.C.n.n.g.s.s.s.s.d.d.d.d.d.s.d.a.u.......{ X. .( ` [ [ [ ..X.` ) |  . .) W ) ` ' ~ { { { ..' #           X                                                                                                                                                             ",
"                                                                                                                                                                  X # 5 7 q y u u f f u f I ~ ] ' '  . . .| [ ) ) ) ) ' ) [ { ....r.r.d.r.r.a.r.u.a.u.d.i.u.d.u.d.s.d.a.%...W / V.m.U f g x g g m m g f g g n n n B B n B A N A Z A A U Z Z Z A } } 3.N.N.x.x.z.x.D.D.D.P.P.I.I.I.I.I.'.E.E.'.'.{. X.X.X:X.X8X9X7XpX7XsXvXVXBXZXxXxXzXzXnXnXnXnXbXbXZXAXAXAXAXAXAXAXAXAXAXAXAXAXAXAXAXAXAXAXAXAXAXAXAXAXAXAXAXAXAXAXAXAXAXAXAXAXAXAXAXAXAXAXAXAXAXAXAXAXAXAXAXAXAXAXAXAXAXZXZXVXnXnXtXrXrXrXrXeXqXgXBXZXsX=XhXsXsX0X7X7X8X8X4X4X.X.X X}.}.}.{.}.'.[.E.R.E.E.T.Y.).R.(.Y.Y.R.Y.U.P.H.j.<.;.-.( { [ / ( / / / ^ ^ ^ ^ ^ A A Z N N Z B n n g g d w ..F.G.V.V.m.m.B.G.B.n.n.n.v.v.g.h.d.s.s.d.p.s.p.u.e.....X.X.| [ ` ` [ X.X.X...[ X.| ` ` | ) W [ ~ ~ { {  ...' &     X     X       X                                                                                                                                                     ",
"                                                                                                                                                                    & 5 q q q s u f f u l ;._ ] { {  . . .{ ) ) [ | [ [ [ [ { X...=.=.r.=.r.a.a.u.u.u.a.u.u.s.s.s.s.u.u.e...W [ C.s.W Y / / { ^ ^ ^ T A T ^ ^ ^ ^ ^ ^ / ( ^ / ( ( X.} ( ( ( ( ! } ( 1.N.N.N.N.x.z.A.D.D.G.U.U.Y.I.I.'.'.'.{.{.'.}. X.X.X-X:X8X0XpX7XpX0XbXVXVXZXxXgXzXnXnXnXnXnXbXVXZXAXAXAXAXAXAXAXAXAXAXAXAXAXAXAXAXAXAXAXAXAXAXAXAXAXAXAXAXAXAXAXAXAXAXAXAXAXAXAXAXAXAXAXAXAXAXAXAXAXAXAXAXAXAXAXAXAXAXAXZXVXnXnXnXtXrXrXwXeXeXxXZXZXsX4XgX0XpXpXpX0X7X6X4X.X.X.X}.}.}..X}.}.'.'.{.[.I.T.E.E.E.Y.Y.I.U.Y.Y.Y.P.N.x.3.1.3.3.3.2.4.1.2.-.=.<.<.=.-.} { ( ( ~ ^ / / ^ T A Z f w ( ^.G.^.^.V.C.C.C.B.B.n.g.s.s.s.s.d.d.d.i.u.u.1.1.....X.....X.[ [ [ [ ` ` X... . .| [ [  .| [ ' ~ ~ ~ { =.=.{ #               X                                                                                                                                                         ",
"                                                                                                                                                                X   & 5 q q q s f i f u i ] -.I  . . .| [ [ [ [ ` [ [ ` [ [ [  ...=.r.u.=.u.u.a.a.a.d.i.u.u.s.n.g.s.u.a.u...Q W V.v.W W { } } ( { { [ / [ / } { { { { ( ( ( ;./ } ( ( ( } } ( ! ( T 1.P.P.x.N.P.x.A.A.D.P.I.[. X X].'.'.E.'.E.].{..X.X:X:X8X7X7X0X0X0XsXMXMXBXBXvXrXnXnXnXbXbXbXbXVXZXAXAXAXAXAXAXAXAXAXAXAXAXAXAXAXAXAXAXAXAXAXAXAXAXAXAXAXAXAXAXAXAXAXAXAXAXAXAXAXAXAXAXAXAXAXAXAXAXAXAXAXAXAXAXAXAXAXAXAXZXVXbXnXtXtXrXrXrXrXeXrXZXZXsX4XsX0XpXsX9X8X6X8X6X6X:X.X.X.X X.X}.}.;X-X-X:X;X'.E.T.Y.T.T.Y.Y.I.Y.I.P.H.x.l.j.h.h.p.p.4.i.3.4.1.3.3.2.4.=.-.-.} ( { { ( } ( ~ B g d / /./.^.^.F.M.V.C.B.B.m.v.s.n.s.v.s.d.d.u.u.u.u.0... .X.X...X. .[ ` [ [ ` [ { [ | [  . .[ ! W W [ ~ { { { r. .%                                                                                                                                                                         ",
"                                                                                                                                                                  X # 5 q q y j f f f q l ;.] =.[ [ [ [ ` ) [ ` ` [ [ [ [ [ [ |  .....u.d.u.r.r.s.d.a.e.a.d.d.v.v.s.a.e.e...W W V.v./ ~ { { } | { { { / / { } { { { { ;.;.;.;.-.} ..} -.} } ( / ( T <.N.P.N.x.N.D.x.N.A.U.T.'.[. X'.(.E.'.'.'.{..X-X:X>X8X:X6X0XiX7X7X0XMXbXZXZXxXtXxXzXnXbXbXnXbXVXAXAXAXAXAXAXAXAXAXAXAXAXAXAXAXAXAXAXAXAXAXAXAXAXAXAXAXAXAXAXAXAXAXAXAXAXAXAXAXAXAXAXAXAXAXAXAXAXAXAXAXAXAXAXAXAXAXAXAXZXZXBXnXzXtXrXrXrXrXrXqXgXZXZXsX}.kXpXpXpX0X8X6X7X6X6X6X:X-X}.;X;X X X[.}.-X.X;X'.'.R.Y.T.Y.Y.Y.Y.I.U.P.H.N.x.l.l.l.l.f.h.h.3.2.u.3.u.3.1.u.=.=.-.} -...} ( ~ Y B g d ` ^.F.^.G.~.C.n.m.B.m.B.n.d.n.v.v.s.s.d.u.d.d.u.e.....X.| ..X.` / [ [ [ [ [ { [ | | | { ] W E W ~ [ ~ /  .u. .& X     X                                                                                                                                                                 ",
"                                                                                                                                                                  X & 3 7 7 u a e f a u j -.=.I ] | [ [ [ ) ` ) ) ) ) [ [ [ [ { ......=.r.r.u.u.d.a.e.0.e.a.a.s.s.d.a.e.e.} E [ C.s./ [  .-...{ ' { } { X.} } } -.-.-.-.=.-.-.-.} 2.1.2.<.X.! ^ ( A 1.N.D.N.x.M.D.D.N.A.I.U.U.E.Y.U.Y.'.'.E.[.}..X:X:X>X:X8X6X6X7X0X0X0XbXbXZXZXcXrXzXnXnXbXbXnXnXMXZXAXAXAXAXAXAXAXAXAXAXAXAXAXAXAXAXAXAXAXAXAXAXAXAXAXAXAXAXAXAXAXAXAXAXAXAXAXAXAXAXAXAXAXAXAXAXAXAXAXAXAXAXAXAXAXAXAXAXAXZXbXnXnXtXtXrXrXtXeX5XrXBXZXsX;XsXpXsX0X0X7X7X8X8X8X8X8X4X.X X.X-X X}.[.].[.'.E.[.E.T.Y.T.R.Y.Y.U.P.P.P.N.x.l.A.N.l.f.h.h.j.p.h.p.3.2.2.p.2.=.=.-.=...} [ ~ Z n f w ` G.G.^.^.~.C.n.m.B.m.m.n.d.d.d.v.n.d.d.u.u.u.u.e.%.....X...X.` ` ` W ` W [ [ [  . .| | [ W W W ~ [ [ { ..=...& X           X                                                                                                                                                           ",
"                                                                                                                                                                  X & 5 5 q y f i i f q j I =.=.[ | ' { ' / ] W ) W ` { [ [ { |  .....0.0.u.1.u.e.e.e.e.a.e.s.a.d.a.a.a.a.} U ` M.d.W { { { =.{ { -.=.} ....=.=.=.=.=.-.2.=.-.=.1.1.3.2.<.( / ^ } ^ 1.M.N.N.N.x.D.D.D.D.D.P.T.'.Y.(.).'.'.E. X]. X X|.-X:X:X7X6X7X0X7X0XMXMXBXZXnXrXzXnXnXbXbXbXbXVXAXAXAXAXAXAXAXAXAXAXAXAXAXAXAXAXAXAXAXAXAXAXAXAXAXAXAXAXAXAXAXAXAXAXAXAXAXAXAXAXAXAXAXAXAXAXAXAXAXAXAXAXAXAXAXAXAXAXAXAXZXVXnXnXtXtXrXrXrXrXqXgXZXZXsX=XsXwXpXpX0XpX8X4X8X4X:X-X-X-X-X X[. X;X X[.[.[.'.'.E.E.Y.I.'.T.Y.U.P.P.P.H.N.x.N.N.x.m.j.l.h.j.j.h.2.d.i.2.u.u.=.=.1.=.} / ( T n g w ` G.~.^.C.C.C.C.g.^.^.e.n.v.a.d.d.d.d.a.a.e.u.u.e.....X.[ X. .[ ) ! W [ W | [ [ [  ... .[ W W ) [ ~ { [ { ....&                     X                                                                                                                                                   ",
"                                                                                                                                                                    & 5 7 y u a f f a q J ;.-.-.] ' ' | ' | ) ) ` X.{ X.| [ X.[ { 0.....0.r.0.0.e.0.e.e.d.a.d.v.d.i.u.a.e.} U ` B.d.W { { =.{ {  . .=.} =.-.=.=.=.<.=.=.=.1.1.u.2.2.2.1.1.-./ T { A 1.x.P.P.U.P.A.D.D.P.G.I.U.E.E.'.W.Y.'.'.-X-X-X-X;X;X;X>X6X0X0X7X0XsXMXMXCXZXcXrXzXzXnXbXnXnXbXVXAXAXAXAXAXAXAXAXAXAXAXAXAXAXAXAXAXAXAXAXAXAXAXAXAXAXAXAXAXAXAXAXAXAXAXAXAXAXAXAXAXAXAXAXAXAXAXAXAXAXAXAXAXAXAXAXAXAXAXZXZXVXnXnXtXtXtXeXtXeX9XkXCXAXsX-XsXpX7X0XpX0X8X8X:X8X8X8X:X>X>X X X}. X.X}.[.[.'.E.E.'.(.Y.T.Y.Y.Y.P.P.N.N.N.N.N.N.l.x.Z.l.j.f.h.p.u.u.i.u.u.1.=.r.1.=.} / / U b h p K ~.C.^.G.^.C.^.e.n.^.n.v.n.i.d.e.a.i.d.a.a.u.1.0.......X...X.X.{ [ [ { [ [ [ [ [ | 0.X.[ ) W ) [ ~ [ [ / .. .2             X     X                                                                                                                                                     ",
"                                                                                                                                                                    & 5 q q q d s s d u z ' { ' ' [ ] [ [ ' ' ' [  .X.[ [ X.X.X.....e...r.u.a.r.r.u.e.a.a.b.a.v.v.e.a.a.e.%.U ` M.a.` [ / =.=.-.' =.=.{ =.=.=.=.1.1.=.-.=.=.1.2.u.2.1.u.1.1./ ! / T 1.N.F.A.D.F.G.P.P.P.U.U.U.).I.'.E.E.].[.-X{. X-X-X-X>X>X9X>X0X0XqXpXcXMXBXZXcXrXxXzXnXbXVXnXVXVXZXAXAXAXAXAXAXAXAXAXAXAXAXAXAXAXAXAXAXAXAXAXAXAXAXAXAXAXAXAXAXAXAXAXAXAXAXAXAXAXAXAXAXAXAXAXAXAXAXAXAXAXAXAXAXAXAXAXAXAXZXVXnXnXtXtXtXrXtXtXeXrXCXAXdX-XsXpXpX0XpX0X0X>X6X7X8X:X8X:X:X X X[.;XOX}.[.'.'.'.'.E.).Y.Y.Y.!.U.P.U.P.N.N.N.N.M.z.x.Z.l.h.p.p.i.3.i.u.i.1.1.=...1.{ { { W A Z g y Q G.G.^.^.~.XX^.e.^.^.e.e.e.e.e.e.e.e.B.e.e.n.e...0...%...[ ..X.X.[ [ ) | ' ~ ' { | [ [ [ ) W [ { ~ [ { {  ...&                                                                                                                                                                         ",
"                                                                                                                                                                    : 7 q q u f s f f y z ' ~ ' ] [ { ' [ ' ' E ) [ { { ` 0.0...%.....r.u.u.u.a.u.a.u.u.a.e.a.v.v.d.a.e.e...K W m.a.` [ ] =.=.] { =.=.=.{ =.{ =...} -.{ <.1.=.1.1.3.u.2.1.%.( ! ( T 1.N.P.N.D.P.U.Y.U.U.U.Y.G.'.(.'.).'.{. X X|. X-X:X:X:X>X>X>X7X0XiXpXcXMXNXZXxXrXxXnXnXnXbXbXnXVXAXAXAXAXAXAXAXAXAXAXAXAXAXAXAXAXAXAXAXAXAXAXAXAXAXAXAXAXAXAXAXAXAXAXAXAXAXAXAXAXAXAXAXAXAXAXAXAXAXAXAXAXAXAXAXAXAXAXAXAXZXVXnXtXtXtXtXrXeXeXrXrXCXAXdX:XwX0XwX0XpX0XpX0X7X7X6X8X:X-X6X:X X}.[. X X}.{.E.E.'.'.{.!.T.Y.Y.Y.U.P.U.H.H.N.N.z.M.l.h.l.z.p.i.2.u.i.i.i.1.=.1.1...( X.{ ~ Y b g p Q G.~.^.^.e.e.`.XXe.oXe.`.e.e.`.e.^.~.e.B.e.e.e.u.......e.X.X.| { ' ~ ' ~ [ { { | ' ) [ [ [ W ~ [ ' } }  .=...3           X   X X                                                                                                                                                       ",
"                                                                                                                                                                    : 7 7 q d f f f k u v ] ] ' | ' ' ~ ] { E ' ) [ [ ` [ [ X.e.......u.r.r.r.a.e.u.r.u.d.d.d.v.v.e.v.e...| Q W n.d.[  .=.r.=. .=.=.-.{ } { =.{ { } } ..=.=.=.=.1.i.i.1.%.} / / X.T 2.U.V.N.D.D.D.U.U.U.Y.U.Y.(.'.'. X.X-X:X:X-X X X:X:X>X0X7XpXpXiX0XsXbXNXCXZXxXtXtXnXnXnXbXbXVXVXZXAXAXAXAXAXAXAXAXAXAXAXAXAXAXAXAXAXAXAXAXAXAXAXAXAXAXAXAXAXAXAXAXAXAXAXAXAXAXAXAXAXAXAXAXAXAXAXAXAXAXAXAXAXAXAXAXAXAXZXZXZXnXtXtXtXtXtXtXeXwXkXCXZXsX4XsXpX0XpX0XpXpX9X8X7X8X:X-X8X7X:X:X:X-X X X'.].'.'.E.).).T.Y.Y.Y.Y.U.U.U.N.N.x.m.M.D.N.x.M.M.l.p.i.u.i.i.i.u.r.1.e...{ { X./ T Z z w Q G.e.XX~.~.e.e.OXe.e.`.e.e.e.e.~.~.e.B.v.e.e.e.u.u...| ..{ | | [ ) ' ] ' [ ] ' ' ' ) ` [ [ { .. .{  ...=.d.d.3                   X X     X                                                                                                                                             ",
"                                                                                                                                                                  X : 4 7 q u i i f l u x / ' ' [ ~ _ ' ' ' ] ' [ [ ` X.{ [ X.X.e.0...u.r.u.d.d.a.a.a.u.a.d.a.e.d.n.d.a...| K ` g.d./ { =.=.=.=. . . .=.=. ...=.=.-.} } 1.p.p.d.u.2.1.%.$.( ` T ( T u.U.N.D.D.N.D.U.P.U.U.Y.U.Y.'.].'. X.X.X-X-X:X:X:X:X7X7X7X0XpX0XpXpXMXVXCXZXxXrXxXtXnXnXVXnXbXCXAXAXAXAXAXAXAXAXAXAXAXAXAXAXAXAXAXAXAXAXAXAXAXAXAXAXAXAXAXAXAXAXAXAXAXAXAXAXAXAXAXAXAXAXAXAXAXAXAXAXAXAXAXAXAXAXAXAXAXZXZXVXbXnXnXtXtXtXeXeXrXkXCXAXsX-XsXwXpXsX0XpX0X7X6X7X7X7X:X>X:X:X:X:X X X{.'.'.'.'.).E.T.Y.Y.U.I.U.U.U.H.H.N.z.z.l.M.M.M.z.m.B.l.h.i.u.d.i.d.d.u.u.{ X.{ X./ U K h w ` ^.`.B.^.~.G.~.oXe.oXe.XXe.XXe.e.e.~.e.v.d.d.b.e.e.....%.X. .[ [ ` ) ) [ ' | ' [ [ { [ ) [  ... .{ r.0.u.Z.s.3           X     X                                                                                                                                                       ",
"                                                                                                                                                                  X & 7 q q a f f f l u v _ {  .W ~ ) ) ~ ~ { ] ` ` | X...q.X.X...e.i.a.e.u.d.d.a.a.e.a.a.d.v.v.b.a.d.e...) K ) B.u.~ {  . ... ... ...1.r.r.=.=.%.} } ..=.2.u.u.1.1.1.%.} ( ! ! / T 2.D.M.x.D.D.P.U.U.U.U.(.Y.U.Y.'.'.'.{.{. X-X-X:X:X8X>X6X0X0X7XpXiXsXmXNXBXCXxXtXxXnXnXnXbXVXVXVXZXAXAXAXAXAXAXAXAXAXAXAXAXAXAXAXAXAXAXAXAXAXAXAXAXAXAXAXAXAXAXAXAXAXAXAXAXAXAXAXAXAXAXAXAXAXAXAXAXAXAXAXAXAXAXAXAXAXAXAXZXVXbXnXtXtXtXtXtXtXrXkXZXZXsX:XsXwX0XpXpX0X0X8X8X7X8X:X:X:X-X>X;X X X[.|.{.].].{.'.).).T.Y.U.Y.U.U.Y.P.H.V.m.l.l.l.Z.l.h.l.l.h.d.i.i.i.d.u.u.d.r...{ [ / Q A n f 0 ` G.n.B.C.n.e.C.e.`.`.e.^.e.e.^.b.n.n.e.n.d.d.d.e.......e...X.` `  . .| | [ [ | [ | | [ [ [ [ .. .{ ....u.s.d.2               X     X                                                                                                                                                   ",
"                                                                                                                                                                    % 7 q q d f i l x u v ]  . .] | ] | | | | [ ` ` | | | X.......u.d.d.a.a.d.v.a.e.e.a.a.a.a.a.v.d.e.e.0.| U ) B.d.W [ |  ... .........=.....{ } ..} ......1...} ..%.} X.( W T ! U 1.D.M.N.N.F.F.D.G.P.G.Y.(.Y.Y.'.'.'.'.]. X X X-X:X:X:X>X7X7XaX7XpXaXMXVXZXBXxXtXxXnXnXnXnXVXbXBXAXAXAXAXAXAXAXAXAXAXAXAXAXAXAXAXAXAXAXAXAXAXAXAXAXAXAXAXAXAXAXAXAXAXAXAXAXAXAXAXAXAXAXAXAXAXAXAXAXAXAXAXAXAXAXAXAXAXAXZXZXbXVXbXnXtXtXtXtXtXrXkXZXZXdX:XsXwXpX0XpXpX7X0X8X8X8X:X:X-X-X:XOX X X]. X[.{.'.).T.T.T.R.Y.Y.Y.Y.U.U.P.N.x.z.l.M.M.j.h.s.j.i.d.2.u.2.u.d.u.1.%.....[ [ ! T Z x h t Q ~.C.`.C.n.^.C.`.e.e.`.^.e.e.`.e.n.n.v.g.v.d.g.i.%.e.....X...| ` [ X. . .| ' |  ...X.` [ | [  .{ [ { ..r.d.d.3                                                                                                                                                                         ",
"                                                                                                                                                                  X & 7 q q u f f f k u H  . . . .| [ [ |  .| | | q.X.| X...e.e...e.a.s.s.v.s.a.v.e.e.e.e.v.n.v.b.a.e.e.0.| U ` C.d.~ [  . . ... .......e...} { { { ..{ } } $.} $.X.} %...X.T T W U 1.V.V.V.N.G.F.U.U.P.U.T.Y.G.(.).'.).[.[.}.}. X:X-X:X-X:X8X7X7X0X0XpXMXVXZXBXtXtXnXnXbXVXbXbXVXZXZXAXAXAXAXAXAXAXAXAXAXAXAXAXAXAXAXAXAXAXAXAXAXAXAXAXAXAXAXAXAXAXAXAXAXAXAXAXAXAXAXAXAXAXAXAXAXAXAXAXAXAXAXAXAXAXAXAXAXAXZXVXnXbXnXnXtXtXtXtXrXkXCXAXsX4XpXpXpXpX0XpX7X0X6X8X:X>X:X-X-X-XoX X X}. X|.{.'.T.).).).).Y.Y.U.U.U.F.P.N.M.l.M.l.g.f.l.s.i.u.2.u.1.1.1.1.u.u.1...} { ! ` T K c s 0 ` ~.B.^.~.C.n.n.e.XXe.e.e.^.e.e.v.n.n.g.v.n.n.v.s.i.e.u.e.e.X.| .. . . .| ] ] | | ....q. .[ ) X. . ...r.u.d.s.3                     X     X       X                                                                                                                                     ",
"                                                                                                                                                                  X % 7 q u u u f x k u H  . . . .[ | | | | |  .X.q...X...0.e.e.a.e.%.a.d.d.u.i.v.b.e.e.e.e.v.v.v.v.v.e.e.X.E ) B.b.) | .. . ..... .........X.{ X.X.{  .} { { } } } } { X.` ! Z ! Z 2.N.m.N.N.N.N.D.D.P.Y.(.T.'.'.T.T.'.[. X X X-X:X:X:X:X8X6X7X0XiXiXsXbXVXZXBXnXtXnXnXnXnXnXbXVXZXZXAXAXAXAXAXAXAXAXAXAXAXAXAXAXAXAXAXAXAXAXAXAXAXAXAXAXAXAXAXAXAXAXAXAXAXAXAXAXAXAXAXAXAXAXAXAXAXAXAXAXAXAXAXAXAXAXAXAXZXZXVXnXnXnXtXtXtXtXeXrXtXCXAXsX6XsX0XpX0X0XpX0X7X8X4X7X>X:X:X>X-X-X-X[.'.{.|.].{.).+XT.).Y.Y.U.Y.U.U.N.M.C.l.z.z.g.g.s.p.p.i.1.1.1.=.1.=.=.=.0.%...{ [ [ ! T Q c s 0 Q G.C.^.^.G.~.C.XXe.XXe.^.e.e.e.e.g.n.g.v.v.g.i.a.s.e.a.e.e.0...0... .| |  .[ | X.X...q. .) [ q...=...u.u.s.d.3                                         X                                                                                                                               ",
"                                                                                                                                                                  X - 7 q q a f j l x u B  . . . .|  .| | ..| | ` | w.X.0.X.e.e.u.e.e.a.u.e.u.a.e.a.e.e.b.v.e.v.v.v.b.b.e.e.U ` B.a.) { ............{ ..X.| X.X.` [ X.X.{ { { } } X.} X.} ` U Z ! K %.M.z.M.N.D.N.U.U.U.(.Y.(.'.'.'.T.'.[. X X:X:X-X>X-X:X:X6X7X7X7X0XpXmXVXVXVXtXtXnXnXbXVXVXVXVXZXZXAXAXAXAXAXAXAXAXAXAXAXAXAXAXAXAXAXAXAXAXAXAXAXAXAXAXAXAXAXAXAXAXAXAXAXAXAXAXAXAXAXAXAXAXAXAXAXAXAXAXAXAXAXAXAXAXAXAXAXZXZXnXnXtXtXtXnXtXtXrXrXBXAXhX-XsXqXpXpX0XpX7X7X6X6X7X:X:X-X:X-X X X{.].{.|.{.{.!.{.).Y.(.U.G.(.U.F.M.n.z.g.m.g.g.p.p.i.2.2.1.1...=.r.%...} ..X...X.X.! W W K z h 6 K F.G.^.G.C.n.~.e.^.e.^.B.^.B.~.n.v.C.n.e.e.e.g.g.e.e.e.e.e.e.X.%.w.` %.w.` ` e. . . .| | X.X.X.0.0...u.u.v.v.5                   X       X X                                                                                                                                           ",
"                                                                                                                                                                    = 7 q u a f j l k i J  . . .| |  .| q.0.| ` ` | | X.q.X.0.e.e.e.e...0.e.e.e.e.e.a.a.e.n.d.v.n.n.b.e.e.0.E { m.a.) [ ....q. . . ...X.X.| | [ X.| X.[ / [ [ X.X.( ( X.} X.Q Z Q M $.z.m.M.V.N.V.D.U./.(.U.F.G.G.).).'.[. X[.-X X X X-X:X>X6X7XiX7XiXpXmXVXCXBXnXnXbXnXnXnXbXVXZXBXZXAXAXAXAXAXAXAXAXAXAXAXAXAXAXAXAXAXAXAXAXAXAXAXAXAXAXAXAXAXAXAXAXAXAXAXAXAXAXAXAXAXAXAXAXAXAXAXAXAXAXAXAXAXAXAXAXAXAXAXZXBXVXnXnXnXtXtXrXeXtXrXZXZXsX;XsXpXpX0XpXpX0X8X6X:X:X:X:X:X-XOX X[.{.|.{.{.+X].)._.(.).Y././.F.F.G.D.z.m.z.z.g.f.i.p.i.u.2.1...1.=.=...{ ......X.X.[ ! ` U M z s 6 K G.^.^.^.^.C.C.`.e.^.^.e.e.e.e.n.e.e.e.e.v.e.n.d.e.i...X.0.e.w.` ` e.w.%.e.w.` | q... .| | | q.0.0.u.u.a.s.v.5                 X                 X                                                                                                                                     ",
"                                                                                                                                                  X               X & 6 q u a k k z l a B ' ] ] | q.| | ` ..| ` | X.w.0.X.e.0.0.0.i.a.%.0.0.e.0.e.e.b.e.d.a.n.v.b.e.n.e.e.0.R | B.a.` { |  . .| [ [ | [ | X.| X.| [ [ [ X.X.} ....X.X.X.( X.Z Z ! n $.m.l.M.G.G.N.N.F.D.F.F.F.U.G.(.Y.'.[. X}. X[.-X-X;X:X:XqX7X0X7X7XpXbXMXZXBXnXnXnXnXnXVXbXnXbXZXZXAXAXAXAXAXAXAXAXAXAXAXAXAXAXAXAXAXAXAXAXAXAXAXAXAXAXAXAXAXAXAXAXAXAXAXAXAXAXAXAXAXAXAXAXAXAXAXAXAXAXAXAXAXAXAXAXAXAXZXZXBXbXbXnXnXzXnXtXeXrXtXZXZXdX-XkXpXsXpX0X0X0X6X6X:X:X:X>X-X-X;X-X X|.'.].).).U.Y.Y.(.(.U.U.F.F.U.G.M.m.g.z.g.g.f.n.i.3.f.g.%.1.1.} %.........X.X.[ [ ` T U K z s 6 K ^.^.^.^.^.C.~.`.e.e.e.^.e.e.e.e.e.e.e.n.e.e.e.n.f.e.e.| ..0.0.w.w.%.` w.%.e.w.| ..| | | X.q.X...r.u.a.s.v.v.5                             X       X         X                                                                                                                         ",
"                                                                                                                                                                    & 6 q a j a k l l i L ] ' ] ] ` ` ) ` | | | q.w.X.X.| 0.0.0.e.a.e.e.0.......e.e.a.e.e.b.v.v.n.n.v.e.e.e.R ` B.d.) | | | | [ [ ] [ | X.` | X.X.X.[ [ [ / [ } } [ X.( ` ! T Z W n ..m.l.M.M.N.P.U.F.G.F.U.G.Y.T.Y.U.).]. X X X X X-X-X;X>X>X>X7X7XpXpXMXVXZXVXnXnXbXbXnXbXbXVXVXZXAXAXAXAXAXAXAXAXAXAXAXAXAXAXAXAXAXAXAXAXAXAXAXAXAXAXAXAXAXAXAXAXAXAXAXAXAXAXAXAXAXAXAXAXAXAXAXAXAXAXAXAXAXAXAXAXAXAXAXZXZXBXVXnXnXnXtXtXtXrXtXtXBXZXdX-XpXpX0X0XpX0X0X8X7X4X:X:X-X-XOX XoX[.{.).).).).).)./.Y.(.Y.U./.F.F.V.G.M.z.g.g.g.g.f.p.i.a.&.1...1...........X.|  .[ W Q Q Z b m d 7 Z F.F.^.^.^.n.n.`.`.`.^.^.e.n.n.n.e.v.e.e.e.e.v.a.e.e.e...e...0.` %.w.%.w.` K %.| | | | | w.X.X.0.=.r.b.s.s.v.5                 X                                                                                                                                                       ",
"                                                                                                                                                    X     X     - w q 7 q u a k l l x i G | ` ) ) ` [ ` | ` ` q.X.| 0.e.0.| X.0.e.u.a.e.e.e.a.e.e.e.e.e.a.v.n.v.n.n.b.e.0.0.U [ B.u.' { | | | | | [ X.` ` X.X.| X.[ X.{ { [ [ ..X.X.X.( ( ` Q n T N $.g.s.z.m.N.D.N.F.P.F.F.F.U.'.^.[.'.'.[.[. X X XOX-X-X:X>XuX>X0XpXsXmXNXZXCXnXnXnXnXbXnXVXVXVXZXZXAXAXAXAXAXAXAXAXAXAXAXAXAXAXAXAXAXAXAXAXAXAXAXAXAXAXAXAXAXAXAXAXAXAXAXAXAXAXAXAXAXAXAXAXAXAXAXAXAXAXAXAXAXAXAXAXAXAXAXAXZXVXnXnXnXtXnXtXrXrXtXBXZXsX;XaX0XpXpX7X>X:X8X8X:X:X:X-XOX-XOX X{.].+X).).(._.).(.(.F.U.G.F.V.G.D.C.G.l.l.v.f.g.g.i.g.g.p.%.1.%.u.e...0...X.X.| X.[ ` ` Q K g m 7 M C.~.^.^.~.C.n.G.`.oX`.C.n.e.e.n.~.n.n.n.n.v.e.e.e.e.e.e.e.e.e.e.` e.` e.Q w.w.| | X.0.` q.X.e.u.e.a.d.s.b.Z.l & X     X X X       X         X     X                                                                                                                                   ",
"                                                                                                                                                          * 3 b M.OXB 4 y u j k l v B i L  .| ] | | ` |  . .| | | 0.0.0.e.X.| 0.e.e.0.e.a.n.d.a.e.e.e.e.e.v.b.e.B.e.v.e.0. .G  .B.u.) ..X. ..... .| [ | | | | | X.X.X.X.X.X.{ { X.X.X.X.$.( Q A T b %.M.M.M.M.N.F.F.F.U.F.U.F.F./.Y.Y.'.'.].[.[.[. X-X:X-X;X;X>X0XpX>XpXbXNXZXCXVXnXbXnXnXnXnXbXVXVXZXAXAXAXAXAXAXAXAXAXAXAXAXAXAXAXAXAXAXAXAXAXAXAXAXAXAXAXAXAXAXAXAXAXAXAXAXAXAXAXAXAXAXAXAXAXAXAXAXAXAXAXAXAXAXAXAXAXAXAXAXZXVXnXnXbXnXxXtXrXrXkXZXAXfX;XhXpXqXpXwX7X8X>X6X:X>X-X;X:X X X X[.[.).).Y.(.(.(.).).'.(.(.U./.F.V.C.D.M.m.l.g.d.g.v.d.i.e.u.a.u.0.%.0.1.%...X.` | [ [ ! Q K k s 6 b ^.G.^.^.n.C.n.e.e.e.e.e.e.e.e.e.e.e.C.B.n.e.e.g.d.e.e.e.e.e.e.e.e.` %.w.e.` e.| | q.` q.X.q.v.v.a.u.d.s.B.b.oX~.c 3 X                                   X   X                                                                                                                         ",
"                                                                                                                                                    X O w -.Y.7X0XOXn 5 q u f l l x v u L  .| ] | | | | | q...| | q.X.X.e.e.q.e.e.e.u.e.e.e.b.e.b.0.e.e.e.e.e.e.v.v.e.e.q.) G { V.a.)  .0...0.......| | | X.X.| X.X.| { X.X.} X.X.( X.X.( ` Q A W Z =.M.M.M.C.N.D.F.V.U.U.F.F.F.G.G.(.'.).'.'.[.[. X-X:X;X9X>X>XpX7X7XsXMXNXZXCXVXnXnXbXVXVXVXVXBXZXZXAXAXAXAXAXAXAXAXAXAXAXAXAXAXAXAXAXAXAXAXAXAXAXAXAXAXAXAXAXAXAXAXAXAXAXAXAXAXAXAXAXAXAXAXAXAXAXAXAXAXAXAXAXAXAXAXAXAXAXAXZXVXbXbXnXnXtXrXrXwXsXZXAXsX;XkX0XkXpX0X7X6X>X>X6X>X:X-X:X:X[.[.[.].).).Y.Y.(.).(./.Y.U.F.F.F.G.N.D.M.M.M.M.g.g.g.g.g.d.e.u.u.u.e.%.0.e.0.X.X.X.| [ [ ! Q b z m 6 M F.~.^.B.n.B.C.e.~.^.e.e.e.~.e.e.e.n.e.n.e.e.e.d.e.a.e.e.0.e.e.e.` q.%.e.Q w.e.X.| | X.| q.0.e.t.e.a.b.Z.C.C.iXDXdXXX| 6 #   X                                                                                                                                                         ",
"                                                                                                                                            X   X % s l.8XpXpXFX8X Xx 5 q u f j l l k i L  .{  .[ ' | ` |  ...` X.q.e.e.0.X.| e...e.a.a.e.e.e.e.e.q.q.e.e.0.0.e.e.d.e.0.w.) b ' m.a.' ` X.q.X...|  .X.X.....| X.....X.X. .{  ...X.X.X.X.! ` A Z T n } s.h.z.z.m.z.z.z.x.D.G.F.I.Y.^.G.).'.]. X X-X:X>X-X>X7X7XpXiXpXaXhXbXSXZXZXVXnXbXbXbXVXZXZXZXZXAXAXAXZXAXAXAXAXAXAXAXAXAXAXAXAXAXAXAXAXAXAXAXAXAXAXAXAXAXAXAXAXAXAXAXAXAXAXAXAXAXAXAXAXAXAXAXAXAXAXAXAXAXAXAXAXAXAXAXAXAXZXZXVXVXbXcXcXxXxXhXxXAXAXdX;XkXpXpXsXsXpX6X7X7X6X>X:X:X-X:X.X'.].'.).Y.Y.U.U./.U.F.F.G.C.G.C.D.N.M.M.M.z.g.g.i.e.i.f.a.p.u.e.%...e.0.e.e.X.| ` | X.` ` Q K z p 7 b M.C.^.B.n.e.n.`.^.e.e.n.e.n.n.e.e.e.e.e.e.i.n.e...e.0.e.e.e.e.e.%.q.e.e.e.w.e.q...w.q.w.w.X.0.0.e.a.v.Z.Z.~.iXDXDXmXdXiXC.v &   X X X           X                                                                                                                                     ",
"                                                                                                                                            . > b l.{.8X|. X|.).I.G.k 5 q a j h z l k s G | ] | | ` ..[ [  ...| X.%.e.e.%.q.| q.0.0.0.e.e.e.e.b.e.e.0.0.0.0.0.e.e.e.e.e.e.` K ` B.a.W _ | X.X.| ..| q.| | | ..| | | X. .X.( ....X.[ X.( ` ! Q K Q n } g.f.g.l.g.j.M.l.l.x.N.N.P.U.F.Y.).].[. X X:X>X>X>X>X9XqXpXkXpXsXhXNXCXZXAXCXBXBXZXZXZXZXAXAXAXAXAXAXAXAXAXAXAXAXAXAXAXAXAXAXAXAXAXAXAXAXAXAXAXAXAXAXAXAXAXAXAXAXAXAXAXAXAXAXAXAXAXAXAXAXAXAXAXAXAXAXAXAXAXAXAXAXAXAXAXAXAXAXAXZXZXCXCXBXVXVXBXAXZXhX:XsXsXsXpXpX>X0X>X0X7X6X:X>X-XOX-X[.].].Y.U.Y.U.F.G.U.F.F.G.C.n.M.M.D.z.m.M.g.v.f.e.g.i.i.g.e.i.e.%.0.u.e.e...X.q.| | ` ` Q Q K h t 5 K C.G.^.^.e.e.~.e.e.e.oXe.e.e.e.e.e.e.^.e.e.e.^.e.e.e.e.e.e.e.e.e.w.e.e.e.K e.e.0.0.q.q.q.q.q.q.0.a.b.v.v.C.^.oXoXyXiXiXiXfXiX`.w.5 * X X   X     X     X     X                                                                                                                         ",
"                                                                                                                                      X * 3 z u.m.d.d...[ { ~ T T Q w 7 t a j l l c k j P  . . .[ | | [ [  .....| q.X.e.X.X.q.%.e.e.e.e.e.b.a.e.e.e.0.w.e.e.0.e.e.e.e.e.e.w.K ` v.0.) | w.q.q.|  .| X.| | X.q.| [ |  .X.X.X.} ..$.X.X.` ( ! A Z Q M { f.p.g.z.m.l.V.M.m.z.x.N.D.D.F.Y.'.'.[.[. X X;X-X;X:X>X9X7XuXsXaXjXNXCXZXZXZXZXZXAXAXAXAXAXAXZXSXAXCXSXAXAXAXAXAXZXAXZXZXCXAXAXCXAXAXZXSXAXZXAXAXAXAXAXAXAXAXAXAXAXAXCXAXAXZXAXAXAXAXAXAXAXAXAXAXZXAXAXAXAXAXAXAXAXAXAXZXAXAXZXAXAXZXZXAXSXZXZXAXAXsX4XkXsXkX0XwXqX>X0X6X>X6X:X:X:X-X[.'.'.Y.U.U.U.U.U.U.U.F.F.G.G.C.G.G.g.z.z.z.n.g.f.g.g.g.e.d.d.i.e.0.e.0.0.0.e.0.X.0.| ` ` Q Q K c p 5 h ~.e.^.^.~.~.e.e.e.e.`.e.e.e.e.e.G.e.e.e.e.e.e.e.e.e.e.&.e.e.e.%.` e.e.e.e.e.e.q.e.q.e.e.q.q.e.a.a.v.n.B./.`.^.`.~.`.oXyXoXyXuXuX^.| t # .                                                                                                                                             ",
"                                                                                                                                    . 3 d b E L v b v k a p q 6 7 5 5 6 t d j l c z j a G ..| X. .|  .` | ..0...X.X.q.e.e.e.%.` e.e.d.d.e.d.d.e.e.e.0.e.e.0.e.e.e.e.e.e.e.| K ` v.| E | X.X.w.X.q.| w.X.0.` X.....X. .[ X...%...$.X.X.( ` / T K Q n ( s.p.l.p.l.h.l.l.l.z.z.m.N.N.D.N.G.U.(.'.[.].-X;X;X;X:X>X>XpXaXpXhXNXCXZXAXAXZXAXAXAXAXZXAXAXSXAXCXZXZXAXAXAXAXAXZXZXZXZXZXAXCXAXAXAXAXAXZXAXAXAXAXAXCXAXAXAXAXAXAXAXAXCXCXAXAXAXAXAXAXAXAXAXAXAXAXAXAXAXAXAXAXAXAXAXAXAXAXZXAXAXAXAXSXAXZXZXZXAXAXhX:XhXpXsXpX0X6X>X>X>X>X-X:X X X[.'.G.F.D.N.D.U.F.F.U.U.F.F.V.m.z.M.G.n.M.M.g.g.n.i.g.e.d.g.n.d.d.i.e.e.e.e.e.e.0.X...[ w.` Q Q K h p t c e.e.`.~.^.G.^.oXe.e.e.e.e.e.e.e.e.e.G.e.e.e.e.e.e.e.e.&.e.e.e.e.w.e.%.e.e.e.e.q.e.e.q.e.e.v.v.n.C.~.^.`.`.^.XX`.^.~.~.`.`.`.`.`.^.XX^.a.s 9 .         X                                                                                                                               ",
"                                                                                                                          X X . # 3 y z z k f k k s a a a p p a p d d d s a s h l l d p G [ ` | ` ` ` ` ` | 0.X.` ` ` ` X.` q.` | %.a.d.e.e.e.e.0.e.e.e.e.e.0.e.v.e.e.e.0.` K K a.0.) X.0.0.e.X.| ` | X.` | ` `  .X. . .X.%.X...$.X.X.! ! ` A n K n { g.p.s.p.p.j.l.l.l.m.x.k.x.z.x.N.G.U.Y.G.I.E.-X>X>X7X0X0XkXkXaXsXsXNXNXCXAXAXZXAXAXAXAXAXAXAXSXAXCXAXAXAXAXZXZXAXCXCXZXZXZXAXZXAXAXAXZXCXAXZXAXZXAXAXAXZXAXAXAXAXAXCXAXCXAXAXZXAXZXAXAXAXAXAXAXAXCXCXAXCXCXSXAXAXAXAXZXCXZXCXAXAXAXAXZXAXZXZXAXAXZXdXOXsXpXpXpXpX0XpX0X0X0X:X:X X{.'.'.).U.G.D.D.G.P.U.U.U.F.D.G.M.g.z.M.G.M.n.f.i.d.i.i.i.i.d.a.%.e.e.X.e...0.e.e.e.e.0.| ` ` ` K K h p 5 Q G.B.^.e.e.e.e.e.`.e.e.G.e.e.e.e.e.e.e.e.e.G.e.e.&.e.e.%.*.%.%.%.%.` K K ` e.e.n.e.n.e.e.e.n.B.v.C.n.m.m.v.n.n.B.B.b.t.e.e.v.v.b.v.b.n.B.B.0.U 7 # X     X . X                                                                                                                         ",
"                                                                                                                          o 2 p v L b v z c x v L v k x v v v H b b v G v c z v z v z k K Q W Q U Q ` ` ` ` | | ` ` K ` Q ` ` Q ` X.%.X.X.e.0.0.Q q.` | w.` e.e.e.q.| | ) E b ' a.X.E | | | X.` ` ` ` ) ` ! W ` [ [ W W ! ` W ! ! W U T T Z n b n n { s.d.h.j.h.j.h.h.j.x.z.x.z.x.x.x.G.P.U.G.G.W.:X>X7X7XuXpX0XwXpXsXkXNXBXAXAXZXAXAXZXAXAXAXAXAXZXAXCXAXAXAXZXAXAXAXZXZXZXZXZXZXAXAXAXAXAXZXAXAXAXAXAXAXAXAXAXAXAXAXAXCXZXCXZXZXAXAXAXAXAXAXAXAXAXAXAXZXAXAXZXZXAXAXAXAXZXZXAXAXAXAXZXAXAXAXAXAXAXAXZXSXlXlXdXsXpX>X>X6X>X>X-X8X X:X.XE.I.(.P.D.G.D.D.D.P.U.P.G.N.A.M.M.g.g.z.D.g.e.&.e.&.e.e.%.e.i.e.%.e...u...e.X.e.q.%.0.X.e.X.` ) $.K K h K e.~.~.e.e.e.e.e.e.e.e.e.e.G.e.G.e.e.e.e.e.e.e.e.e.e.e.e.e.e.e.e.*.e.e.e.%.G.e.e.e.e.e.e.e.B.e.y.b.0.e.n.n.n.n.v.d.e.0.0.e.e.e.0.e.q.0.d.s.C.`.n.[ z 9 X X X                                                                                                                           ",
"                                                                                                                    X X 3 y k v N N v v v b v U ~ E E E R E Y R U K Z U E E W R U E E E W ) E W E W X.e.e.....X.X.` | e.%.%.%.%.%.%.X.$.%.e.e.e.e.X.X.%.q.%.` ` e.0.| ` ` / W [ e.0.X.` X.` ` X.X.X.( X.X.X.X.$.} %.{ ..( X.X.X.X.[ ` } %.$.( X./ X.-.p.s.p.f.f.p.h.p.p.f.p.p.j.j.l.l.k.z.A.x.z.D.[.;X>X0XkXkXlXlXmXMXVXZXAXAXZXZXZXAXZXZXAXAXAXAXZXAXAXAXZXZXZXCXAXZXAXAXAXAXAXAXAXZXAXZXAXAXZXAXAXAXAXAXAXAXAXAXAXAXAXAXAXAXAXAXAXAXAXAXAXAXAXAXSXZXAXAXAXAXZXAXAXAXAXAXAXAXAXAXZXCXZXZXZXZXCXAXZXAXZXCXZXCXBXNXMXlXbX0X0XwX8X;X.X'.Y.G.Y.G.D.z.N.D.D.G.U.U.G.F.M.g.f.e.g.e.g.g.z.g.g.g.g.f.g.i.u.s.d.i.d.p.l.v.v.i.u...e.e.e.e.X.` 0.e.e.e.%.e.e.e.e.^.e.e.e.e.G.e.e.e.e.e.e.e.e.e.e.e.e.e.e.e.e.e.e.e.e.e.e.e.e.e.^.e.e.e.e.~.^.~.^.^.e.^.n.~.B.v.B.n.~.~.n.m.B.~.n.~.~.^.~.n.n.B.v.m.v.n.B.e.d.B.0.c 5 * X                                                                                                                         ",
"                                                                                                                  # 7 z P P N N v B B N P R R E ] |  .' E E W E E Q U R E W ' ) [ { 0.X...X.%.X...X...%.%.X.%.e.e.e.&.%.X.X.X.%.e.&.e.i.%.e.&.%.e.%.&.e.&.e.%.e.e.&.u.....%.} =.%.%.%.%.&.e.e.&.g.&.%.2.&.f.f.f.l.f.i.g.u.d.d.s.g.d.i.p.2.i.i.l.1.u.i.f.p.l.N.V.l.h.h.h.h.j.j.l.z.D.P.P.D.G.;X:X:X>XsX9XkXvXmXbXmXvXmXmXMXMXvXBXVXMXMXMXMXNXMXMXMXNXMXNXMXMXVXMXMXmXMXMXMXMXmXmXVXVXVXVXMXSXVXVXNXNXVXMXNXNXNXNXVXMXBXBXSXMXVXVXNXNXNXMXVXNXNXMXVXVXMXVXmXMXNXmXmXMXMXvXmXmXmXMXMXMXMXMXMXvXMXmXmXDXmXvXvXmXvXvXlXbXvXvXvXvXhXlXsXsXpX:X X-X.XE.Y.T.[.D.T.Y.z.U.'.G.(.G.G.z.M.M.M.g.z.n.g.z.g.g.m.g.g.i.g.s.d.s.G.m.g.m.z.l.l.l.f.i.f.n.G.e.G.e.e.e.e.e.C.e.e.e.G.e.e.e.e.e.>Xe.>X^.e.[.e.e.G.e.e.e.e.e.e.G.~.`.e.e.oXe.^.e.e.`.n.`.`.`.^.v.B.~.n.B.~.^.^.C.n.C.m.n.C.n.v.e.n.B.n.b.v.n.d.d.d.e.e.i.a.a.e.` K 3 .   X                                                                                                                   ",
"                                                                                                              X 3 z N T L P L E I R P P L L L E W ~ E ' ) ) W E U E Q W E ! { =.u./ ..%.[ e...0.e...0...%.%.%.i.e.e.e.e.e.e.X.e.e.2.f.i.&.d.p.p.e.&.g.e.g.n.G.G.n.l.l.z.m.l.z.l.l.l.D.z.z.g.G.;XT.G.A.G.g.A.G.F.'.z.1.1.X.X.&.} $.( ` $.%.u.%.u.} ..d.u.=.2.=.-.<.=.3.3.3.f.3.f.3.3.p.f.f.f.P.I.G.Y.G.T.I.G.T.T.E.E.E.{.8X-X{.-X4X6XFX8X8X4XFX4X4X.XFX8X9X8X8X8X9X8X9X9X4X0X8X:X8XsXwXsXsX0XwXwX0X0XwX0XqXsXwX9X9X8X0X0X6X7X9X9X0X7X9X3X6X6X6X9X8X9X9X8X6X8X4XFX.X6X9X6X4X4X4X}.}.4X-X-X.X4X-X{.|.[.[.E.[.E.'.E.I.E.E.I.I.I.A.G.D.G.A.D.I.G.z.z.x.z.M.f.f.f.G.U.D.l.G.g.i.&.&.e.e.e.g.&.e.e.e.e.i.u.1.....( Z Z l.:X:XG..X:X(.Y.[.[.).].[.>X[.[.>X>XiXfXG.e.>X;X[.[.[.[.aX>XoXe.e.oXoXG.>X^.[.G.[.oX>X[.e.>X[.oXuX>XoXoXoXoXuXuXoXoXoX>Xn.`.^.^.^.~.B.~.n.e.e.%.` ` ) ` q.] ` | | ` W K K K W E W K K K G R ` K :                                                                                                                       ",
"                                                                                                              X 6 U L N N L P E R U W R L L b L R P E E W U U G R W ..X.{ ..1.u...=.d.d.i.i.a.a.i.a.u.u.d.i.a.d.g.g.d.i.v.g.g.M.M.M.G.z.p.z.g.z.G.G.(.[.'.(.].[.!.H.T.Y.).).T.T.).Y.[.OX X X'. X[.;X;X;X>X>X;X>X XU.p.2.X.} ..X.} { ( ( { 1.1.1.%.%.} { { } X.-.=.-.2.j.h.j.j.k.k.f.f.f.f.f.D.D.I.G.f.G.I.A.G.G.I.Q.I.I.{.{.E.}.{.!.Q..X4X4X$XQ.<X<XQ.=X4XFX$X4XFX4XFX8X4X4X9X9X2X5X9XeX9X5X9X9X9X9XeX2XeX9X9XeX9X9X4X5X3X9X9X5X5X9X9X5X2X2X2X4X5X5X4X9X4X5X5X4X2X4X5X3X4X4X4X3X4X3X4X6X3X3X4X}.}.}.}.}.}..X.X;XR.E.;XE.R.R.G.G.W.G.R.I.Y.I.P.G.x.x.M.g.f.z.G.x.l.D.M.z.p.g.2.p.f.f.i.s.i.i.l.s.d.i.2...( T ;.<.^ Y.DXcXvXvX7X X>XsXaXhXaXpXaXaXdXlXlXuXuXoX>X>X>X>X>X>XuXuX>X|.uX>XuXaX>XuXuX>X>XoX[.oX[.>X>X>X>XuX>X;X[.>X>XuXuXuXuX>XG.[.`.^.^.XXoXB.`.`.n.e.e.K K ` e.) K ` ` ) ) K K H K R K b G b b K Q Q 3     X                                                                                                                 ",
"                                                                                                              X 6 L U L N E E I E P P P U b v G Y L U U E K U | X.u.e...u.s.s.d.1.C.U.H.V.V.m.m.C.^.(./.N.C.m.D.^.).).).(.[.;X;X].-X[.I.I.'.[.[.[.>X>X>X>X-X>X>XFXFX8X8XpXFXFXyX6X7XpX7XpXpX8X0XpXuXsX>XqXpXkX0X'.T. Xf.%.X.( ( %.{ ( X./ X.1.s.i.1.1.} =.<.{ ( -.} -.3.f.3.3.j.3.3.3.k.j.k.k.k.S.S.S.S.A.k.A.A.A.A.S.G.c.J.c.J.R.!.!.!.Q.Q.W.!.Q.Q.W.!.L.!.!.Q.Q.<XQ.Q.=X2X4X5X9X5X4X4X<X2X9X2X2X2X,X<X<X4X<X2X5X9X2X2X2X3X2X,X5X9X3X<X$X#X$X<X1X<X$X2X<X2X4X=X$X<X$X,X<X$X<X=X4X,X.X4X6X4X-XQ.}.Q.W.W.R.R.Q.'.P.R.T.I.E.A.I.R.z.G.W.R.I.I.D.A.D.A.k.x.z.A.G.A.z.z.f.i.i.g.f.i.g.f.$.i.p.i.u.i.3.1.( T A g Y R.x.{ !.dXcXlXvXvXlXmXmXbXNXMXmXNXmXNXSXmXcXvXDXjXuXfXaXdXlXlXjXpXaXfXzXmXDXzXlXdXfXaXuXuXuXuXaXuXpXaXfXuX>X;XuXdXfXuXuX>X>X[.>XoXoX^.>X>X>X`.`.`.^.d.q.R Q R K ) ` K K K K U c R K z K K b s c c 9       X                                                                                                               ",
"                                                                                                              . 7 U P W L L I I P P W L L L b G Y G G c K X.u.n.s.m.n.g.l.m.m.N.H.N.@X|..XOX|.).(.).U./.F.(.Y.:X>XF.].iX>XuX>X>XuXsX>X>X;X-X>X7X>XuXkXlXkX>XpXlXdXsXdXsXlXhXhXvXjXhXjXlXcXcXhXdXhXhXjXjXcXcXlXpXOX8X X1.<.$.} ( } <.( / { / } 3.p.3.f.1.=.2.<.<.i.2.<.<.} ( <.<.4.<.<.3.4.3.3.k.f.k.f.k.j.c.c.S.A.c.S.A.x.J.k.J.W.!.Q.W.R.W.W.!.W.!.!.K.!.W.L.!.Q.Q.<XQ.2X4X<X4X4X4X<X$XQ.$X9X5X5X5X5X,X4X4X2X<X<X<X<X5X,X5X<X<X9X5X,X2X<X=X2X}.<X<XFX$X<XQ.$X<X$XQ..X$XQ.Q.=X=X$X=X$X=X6X;X;X=X!.!.R.J.W.W.J.I.R.E.W.I.I.A.I.R.D.A.l.G.I.D.3.I.I.I.G.x.G.z.z.z.G.z.g.4.4.p.p.1.g.d.i.1.u.d.1.( { } ;.A n e g ( T.!.k. XcXVXMXMXVXNXBXMXmXNXVXMXNXNXNXCXmXNXlXlXbXaXjXbXcXcXlXMXDXDXDXDXDXlXlXzXlXDXdXdXlXdXfXlXfXlXDXDXuXfXfXDXlXlXdXfXfXuXuXfXuXuX>XoXoX>X>XXXoX>XoX~.0.` Q K H ) K ` K K Q K Q K c U c h b c & X                                                                                                                     ",
"                                                                                                          X   . 7 P k v Y L x _ ~ P E L G P E G L v v ` &.l.C.C.M.N./.].U.U.).U.).V.|.8X X|. X|.[.).Y.Y.'.E.P.pX9X{..X.X>XkXqX>XqXqXsXkXpXkXhXhXsXhXlXjXhXdXkXlXvXpXxXxXdXvXlXxXxXcXlXjXmXbXbXbXMXMXMXMXNXBXcXlXsX8XP.2.<.} } ( } / $.<.1.<.=.1.X.i.p.h.i.2.3.3.2.2.2.3.<.4.4.<.5.3.4.3.4.4.3.j.f.A.S.A.z.k.S.x.5.k.J.J.J.R.J.S.W.!.J.R.R.W.W.R.Q.Q.W.W.K.!.L.Q.Q.!.<XQ.Q.#XQ.!.Q.<X<X!.W.K.#X4X4X5X5X2X<X$X2X2X<X<X<X2X2X4X<X4X2X2X2X2X5X5X2X<X<XFX<X$X$X!.}.4X=XQ.,XQ.=X$X=X,X=X2X=XQ.4X;X$XQ.K.K.W.W.J.W.J.J.W.I.E.Q.G.I.I.J.A.I.P.x.x.A.x.I.Y.P.D.z.z.A.f.f.l.z.3.3.p.i.i.2.&.*.$...j.1.p.4.3.-.T A g w e S -..X0X!.8XmXBXNXBXNXSXZXCXSXSXmXNXSXZXSXmXmXNXNXmXvXmXMXSXmXmXmXDXmXzXDXlXDXzXDXlXDXlXDXzXDXlXDXlXlXlXDXmXMXmXSXDXDXDXDXDXDXlXDXlXDXuXuXuXuX>XuXyXuXiXuXuX^.v.W b K K K Q W ` ` ` W b R b n K G 9                                                                                                                       ",
"                                                                                                              . 6 P B J N L L v L R P P b R G L E X.n./.`.OXoXOX|.oXfXiXOX|.OX.X+X{.8X X XFXOX}.+X X-X X{.4X7X8X0X}.4XpX8X0X0X6XsX>XpX>X4XsXbXvXxXlXdXdXlXvXjXmXmXsXMXMXvXMXvXbXvXvXbXvXbXNXVXVXbXVXVXMXBXBXVXbXdX-XP.3.*.} } } *.} ( 1.p.c.p.1.} 2./ 1.3.j.j.l.p.2.3.<.2.<.$.4.<.<.3.3.3.4.5.f.k.k.z.k.A.x.5.3.5.k.J.J.x.J.S.J.R.J.J.P.R.R.W.W.K.Q.Q.W.K.!.!.L.Q.Q.W.W.Q.$XQ.$X4X<X,X2X$XQ.Q.<X2X<X$X<X<X2X4X<X<X#X<X4X4X<X$X<X2X9XqX2X<X<X4X4X$XQ.<XFX#X!.<X$XQ.Q.$X=X=X<X4X5X3X4X=XQ.4X;X=XQ.R.W.J.R.W.R.I.I.G.A.R.J.J.W.G.G.W.G.G.A.P.A.k.G.I.I.E.I.G.T.G.D.g.f.&.f.l.z.p.1.1.-.<.2.4.( { 1.^ A T B e w e M -.D.8XdXsX7XvXCXCXmXmXNXSXNXNXSXmXNXCXSXNXBXZXZXSXSXNXNXCXCXSXMXMXCXSXMXmXMXMXSXlXMXSXNXSXSXmXDXmXmXMXSXmXSXSXSXSXSXSXSXMXMXmXmXmXDXmXSXDXDXDXuXuXfXfXdXfXiXfXXXe.` ) K W K b R K U K K K c c v 2 X                                                                                                                     ",
"                                                                                                              . 7 L l B L L L L l R v L G P L u.m.XXoXOXuX>XOXyXuXuXiXiXOXoX|.|..X{.iXFX8X:X X.X}. X{.}.{.R.6X0X3X.X7X0XsXpX0X}.pXsX9X:X8XsXaXsXsXgXhXhXdXvXvXmXhXsXsXdXsXhXdXhXvXvXvXvXvXbXMXvXcXvXbXVXZXVXVXbXdX8XP.3.3.2.$.} ( ^ T ( 1.p.f.=.i.p.1.2.h.p.1.3.2.1.4.<.<.<.4.4.1.4.3.3.4.4.f.6.f.5.k.f.k.5.5.k.k.6.k.c.J.S.J.x.J.J.J.A.J.J.W.W.K.!.!.K.Q.Q.Q.!.Q.Q.W.W.Q.4XQ.2X<X=XQ.4X2X2X4X<X2X<X=X$X=X<X4X2X<XQ.$X<X<X4X=X<X,X5X3X$X$X#X<XQ.Q.$X<X<X<X$X4X$X$X<X$X4X5X4X4X5X;X=X=XE.$X3X4X;XJ.W.R.J.J.J.I.R.I.I.J.G.).I.A.I.G.G.A.P.I.A.A.k.f.2.x.G.z.z.'.A.G.G.l.M.l.D.N.3.2.} } } -.{ ( ^ A A A B e w e M <.x.T.6XbXlXiXdXfXuXdXdXuXpXfXfXaXaXaXfXfXaXdXaXdXdXfXdXdXfXaXfXdXfXaXfXfXuXuXuXuXuXfXuXuXfXuXuXuXuXuXuXfXDXfXuXuXfXuXuXuXuXuXuXiXuXiXuXuX>XoXoX^.oXoXuXyXOXoXOX`.a.) K Q K U K W b K K K b b K 3                                                                                                                       ",
"                                                                                                            X . 7 J B L L v B B l L v L G G K ..| e.e.e.e.e.a.e.a.e.0.u.u.=.u.=.1.u.=...1.1.f.i.} } $...1.} 1.p.4.4.p.z.j.f.<./ ( f.p.p.j.x.h.4.=.3.} 2.1.p.4.} t.y.-.-.-.r.=.-.( 7.i.3.^ 5.x.1.1.u.].BXZXBXVXbXxX4XY.f./ / } <.^ ! ( <.} } 1.1.u.3.g.p.$.} { 1.<.<.4.<.4.$.<.4.&.4.4.3.4.3.6.j.6.3.6.4.k.A.A.6.6.6.k.S.c.x.S.J.J.J.J.J.J.R.R.W.R.W.!.R.J.J.K.!.Q.L.Q.L.Q.<X4X4X$X<XQ.4X4X4X=X4XL.Q.4X<X#X<X<X<X<X<XFX<X<X$X<X$X$X2X=X$XQ.#XQ.2X#XL.!.<X!.<X4X4X$XQ.$X=X$X<X5X0X5X=X$XQ.Q.Q.$X4X!.W.Q.!.W.R.R.I.G.I.I.R.R.G.G.I.G.I.I.A.D.A.x.j.k.2.4.z.f.4.f.2.i.D.%.$.-.^ 1.5.1.<.<.} { ( ( ^ A A Z g e q w Z <.x.Y.}.sXvXlX>Xz.e.l.l.i.a.e.e.%.%.$.....0. .{ X.n.v.e.a.e.e.e.e.0.` e.e.Q e.w.w.q.e.e.e.e.w.w.` Q Q e.0.e.e.e.e.e.e.e.q.e.e.q.X.e.0.0.e.e.X.X.` q.) X. .|  .X...) ) Q Q Q K K Q K K K K b c v 3                                                                                                                       ",
"                                                                                                        X     . 7 L L L J P J P v I L v v h E ) ]  .[ ` ..%.0.%.( [ ( { } / ~ 1.-.-.Z ~ U ! ` ! [ ) W ! ~ Y / { [ [ U  .=.~ W T T / { ( ^ ^ ^ -.=.1.-.{ { -.X.( -.-.] ;.;.=.;.T U T { / N T Z A ( } I.vXVXBXVXbXdX.XD.<.Y } <.1.$.} <.1.1.<.X.} 1.2.p.2.i.<.<.f.2.2.4.2.2.2.<.2.2.$.4.4.3.p.x.x.A.k.k.6.A.D.6.j.k.k.k.c.J.J.c.J.J.J.J.P.R.R.R.W.K.R.Q.Q.L.!.L.L.Q.Q.Q.Q.Q.Q.$XQ.FX$X=X$X,X<X<X$XQ.2X1X2XQ.<X!.$XFX<X<X<X<X$XFX$X$X4X2X$X2X2XQ.<X!.#X<X!.<X!.!.$XW.W.Q.L.Q.Q.Q.=X2X;X=X;X=XR.I.J.W.Q.!.Q.W.Q.Q.T.J.R.G.J.I.I.J.S.A.I.I.x.j.x.x.j.5.z.x.j.z.z.3.i.$.( $.$.1.1.} ~ Z { X./ ( / ( / B A B m e w w M } x.I.{.>XaX7XOXz.i.s.g.%.n.M.e.X.} X.i.V.V.M.M.n.^.C.^.B.~.~.n.C.B.e.e.e.w.e.e.q.q.B.e.e.e.e.e.` w.q.e.e.e.q.q.B.~.e.e.e.e.w.e.q.X.| e.e.e.e.X.` X.` ) ) | .. ...) ` W R ) Q U K Q K b b K z v 3 X                                                                                                                     ",
"                                                                                                            X X u E P L v P l v z U P x B J ;.' =.] =.] ' =.=._ ' ' ' =.' =.=.[ ^ ( ' { Y U ^ { ..[ Q ) U U W W Y ~ ~ E ' ^ Y E Y Y ^ ^ B n n Y ..OXOX+X_._./.@XH.H./.@X`.`.XXZ.] ~ ~ ~ ^ ~ ~ ( / Y / h.sXVXVXxX0X{.M.1.T } <.2.1.X.-.<.1.1.( ( 1.1.} 1.p.} <.<.3.p.2.f.1.<.4.3.3.3.j.2.4.3.j.5.R.6.6.x.j.J.c.x.c.6.A.A.J.J.A.J.P.J.J.R.J.R.R.R.W.R.L.W.R.W.K.Q.Q.Q.Q.Q.Q.W.$XQ.-X=X2XQ.$X2X,X<X4X4X2XQ.<XQ.2XQ.Q.2XQ.<XQ.,XQ.Q.2X4X2XQ.=X$X#XQ.Q.L.L.W.Q.E.Q.Q.Q.&XQ.Q.$X$XQ.W.;X;X&X=X&XQ.W.R.c.W.I.R.R.S.R.x.I.T.J.A.E.P.k.A.G.I.j.k.j.A.A.z.j.5.f.f.f.f.2.2.%.$.$.1.2.d.( T ~ ( ^ ^ { / ( [ Q M g m m w w M *.z.I.;X;XpXG.%.X.X.X.! W [ ..e.[ ( K f.iXOXyXoXoXXX`._.`.XXXXXXOXOXb.q.' |  .0. . .| '  .r.0.] ' '  .| 0.q.) | ]  .q...` _ ) 0.) ] | '  . .q.` | ) Q ` ` ` | ] W K K ) W ) Q K ` Q K K K c K K 3 X X     . X X       X                                                                                                 ",
"                                                                                                          X   . y v x z k L B L l N v x i B ' P I E _ ~ ' ~ _ ' -.' Y Y ~ E ^ s f ^ ' ~ Y Y P Y Q E E U K U E Q P Y ~ ] ~ N N Y Y N B B b x z d | 8XoXXX+XXX_.+X`._.`.+X_.oXyX~. .' ^ ^ A ~ { ^ ~ ^ { l.lXMXVXcX0X|.x.1.T ( <.} } $.<.X.1.-.{ -.-.} <.} 2.1.<.2.4.2.3.3.f.3.<.2.5.<.<.<.4.4.( D ;.6.h.x.6.R.H.A.A.A.c.J.R.R.!.J.J.J.J.J.J.J.R.R.W.W.W.Q.W.W.K.K.W.K.W.W.Q.Q.$X$XQ.Q.$X2X2X<X.X#XL.,X<X<XQ.,XQ.,XL.<XQ.L.<XQ.L.#X#X$X$X<XL.$X$X<X%XQ.L.L.Q.&XQ.Q.Q.Q.*X*X&X=XQ.E.%X=X;X$XW.W.W.W.c.J.R.R.R.P.J.c.A.A.I.I.T.T.D.I.J.D.z.S.A.j.A.z.D.f.3.4.3.2.4.$.%.<.%.$.f.1./ ~ W ( ^ Z ^ ^ / T M K g m e w w n $.z.G.;X>X7XT.X.X.X.` X.X.X.[ [ U / x X.uXiXOXOXOXoXXXXX+X_.XXoXoXOX~. .' ' r.0.] _ _ | | 0.0. . .' ] ) 0.] ' q.]  .w.| | ] |  .| ] | ) a. ._ X.| ` e.| ` ) ` ` ] ` R W Q ` W R Q K K ` K ` K K 5 X   X           X                                                                                                     ",
"                                                                                                            X . q v x k k z k B z z z k i l -._ -.] P Y ~ E E E E ' ' E ~ ' ' ~ Y { { ~ T E ~ _ U U W W R Q ) Q E ~ I =.' Y Y Y P ^ P N Z U v k s.uXOXXXXXXXXX_.`.`.`.`.XXOXOX`.a.~ Y / ~ A / ~ T / ^ 2.vXBXbXcXpX Xx.} ( ( %.<.-.X.( <.=.1.<.-.( } 1.} 2.2.} <.2.1.4.-.3.f.f.3.4.( ( 5.3.4.( 3.=.6.6.x.6.H.!.x.k.R.J.A.c.c.J.R.I.J.R.J.J.J.W.J.J.J.R.J.K.W.W.W.K.W.K.W.Q.$XQ.=X$XK.K.Q.$X$X$XQ.Q.<XQ.L.$X,X,XQ.<XQ.#XQ.Q.Q.#XQ.Q.Q.$XL.Q.L.Q.Q.=XQ.W.Q.Q.W.Q.L.Q.Q.*XQ.Q.&X$X$X&X;X;XQ.T.W.R.W.J.J.I.J.R.J.k.A.P.P.A.j.x.E.P.D.A.k.z.f.f.f.z.2.4.z.k.z.z.f.2.$.$.$.$.} 1.%./ T W { T Z n N A n M M M d w 0 w M ( A.G.E.[.>XG.$.%.X.X.%...X.{ [ Q U n Q OXiXOXoXOXoXOXoXoXXXXXOXoXyX`.] W ] | ' | R |  . . .] w.| ) ' ) | [ | 0.0.| ] ] | ....| ] ) ] `  . .| [ ` q.| | X.Q K W | ` ` ) Q W Q K Q Q K ` Q Q Q R 5         X X   X   X   X                                                                                               ",
"                                                                                                          X . . y l z j v v l z k l k a f B I -.-.] ] P ] ' ' { _ =.=.=._ -.=.=.{ =.N ~ T _ ~ ~ U U W ' W ' X.[ ~ _ I ;.] ~ P N N Y P Y U b f v _.iXOXXXXXXXXX_.XX`.XXXXXXoXOX~.a.{ 1.{ T { 1.W U X.Z Y sXbXbXxX9X[.A.$.( %.T } 3.<.u.p.p.1.3.1.-.} <.( 2.3.4.<.} <.1.;.2.p.p.f.3.4.2.2.4.4.3.k.=.6.c.h.6.x.6.;.3.J.J.P.c.6.c.P.R.I.J.J.R.R.R.I.J.J.J.J.J.W.J.R.W.R.J.W.Q.E.=X=X=X2X,X2XQ.Q.Q.2X,XQ.2XQ.Q.<X$X#X,X$XQ.L.<XQ.Q.L.!.<XQ.L.Q.Q.L.Q.=XQ.W.Q.Q.W.$XW.*XQ.Q.E.*XW.*XQ.W.=X&XI.W.W.J.W.!.R.J.P.I.P.J.x.A.A.A.j.x.D.D.z.f.f.A.z.k.f.j.f.3.j.G.x.j.g.3.%.$.} } } [ ( / ~ ^ ~ Z Z N M Z n m m m p d 0 0 g ! 3.G.[.;X;XG.$.X.X...0...{ [ ) U z d x OXfXOXOXOXOXOXOXoXXXoXoXoXyXoXy.R | | ] | ' q. .| ' W | q.|  .] | ] |  .0.| )  .| | | q. .| | ] ) w.) ) ) _ G | q.w.) | R ) ) ) ] X.W ) ` K e.` K ` K K 5 X X X   X   X X       X                                                                                               ",
"                                                                                                          X X * 6 v l l l l x l k z x k a f I H I ' _  .E ] ' E I Y H -.=.=.I -.=.{ ~ =.Y P E ' ~ ' E ~ L P ' } =._ _ _ I ;.;.P ~ ^ Y Y N B s U yXiXyXoX+XoXXX+XXX_.XXXXXXXXXX`.r.W 2.1.p.l...1./ u.Y ' dXbXbXgX0X(.z.$.<.} { } / T ( -.2.1.3.f.i.1.1.{ ( i.z.3.3.p.l.p.3.<.3.4.4.4.3.2.4.4.( 4.5.-.6.c.5.c.x.c.c.6.6.c.J.x.k.k.P.!.R.R.R.J.J.J.J.R.W.J.K.W.R.W.K.K.W.K.K.Q.Q.&X=X$XQ.,X$X$XQ.2X2XQ.Q.<XQ.<X,X#XQ.Q.Q.<X#XL.Q.W.#XQ.#X$X2X#XL.Q.K.Q.Q.K.L.W.Q.W.Q.&XW.W.*XW.L.W.W.&XR.R.R.J.W.J.R.J.S.J.J.D.J.x.j.x.A.k.k.A.D.A.x.A.x.4.f.2.&.f.g.j.f.&.%.f.D.M.f.1.} { ( T T ^ T Z Z Z A Z M N m e m m w 0 0 M ! 3.A.R.;X;XG.` / { { {  .) ) W b s p k @XdXuXOXyXyXOXOXOXXXoXOXOXOXOXv.| | ) |  .| ] ..| | ) w. .|  .| .. .q...0.| [ [ | ..w...q.| ` ` ` ) R q.) ) ` K 0.X.w.| R G ) R W | X.e.w.K K c K Q K K 3 X X X X X       X             X                                                                                       ",
"                                                                                                    X   X     . t v c G B x B L v l N P k J ~ i P { E { L ' ~ E =.~ ' P J ~ P _ ' N P ] N L ~ ~ P L Y N b L P E =.;.-.r.-.E P ;.Y E E N B x y ) yXyXOXXXOXoXXX`.+X`.XXXXXXXXXX`.] L Z x Z N Y 1.1.~ 1.m.sXVXMXgX7XT.f.X.{ <.p.1.<.1.( { 1.Z.p.d.i.2...2.1.( =.<.3.z.x.j.3.<.1.1.4.1.<.2.2.4.<.j.c.x.P.k.-.c.P.P.j.j.j.c.x.c.S.J.6.S.J.W.R.J.J.Q.Q.Q.K.W.J.K.K.J.J.K.R.Q.Q.I.Q.W..X$XQ.$X2X,XQ.3XQ.J.K.Q.Q.<XQ.W.Q.Q.Q.L.Q.$XQ.L.Q.Q.#X#X=X&XW.L.Q.W.K.W.Q.W.W.Q.;X$X$X$X*XW.W.Q.Q.*XW.W.K.J.W.J.c.J.A.A.J.J.x.k.j.k.A.j.x.I.c.k.4.2.k.5.k.3.5.f.f.&.4.$.$.$.f.&.1.g.l.i.( ( ~ ~ W Q M b n K b M c m m m w 0 4 m ( 2.G.(.;X;XG.` [ | | | ` E E E N d 6 z b.fXyXOXOXOXyXoXXXXXXXOXyXoXOX`.] ..q. .| | | q.a..._ |  .0.q.] ) |  .] e.X.q.q...0...q.q.X.| | | q.` e.] | q.q.] R K ) _ R U U Q J K ` Q K Q K K Q K K t X   X X X . X X   X   X                                                                                               ",
"                                                                                              X             X & u v v v x a k x k a s j y J Y I ( ~ P E ' Y P Y ' ~ =._ _ -.I ;.E x x -._ L E l B P P P E L U L P N I -.;.I Y Y E P P L v k p r.yXyXoXyXOXXXoX_._.`.XX+XXXXXoXXX) W W T N b Z Z U B T ;.dXbXxXgX7X'.p./ T %.i.2...u.u.p.1.=.s.1.1.u.u.2.=.1.1.p.l.p.p.1.4.3.3.3.3.3.3.4.p.j.j.D.!.h.k.h.h.3.j.c.c.c.c.P.S.k.k.x.6.6.k.J.R.J.R.J.Q.Q.L.R.J.J.S.S.R.K.A.J.Q.L.L.J.K.4X4X2XL.2X$X$XQ.Q.<XQ.Q.4XQ.L.Q.K.Q.<XL.Q.4XQ.Q.L.W.Q.Q.W.W.Q.&XQ.Q.Q.Q.W.J.Q.$X=XQ.=X&XW.K.*XW.W.K.W.W.J.A.A.6.c.c.c.c.A.A.k.j.S.k.f.k.A.5.5.4.*.3.k.2.&.2.2.4.2.&.2.2.$.( T ^ ( / 1...( / A T Z b M M M n n M m m m w 0 0 m ! 4.A.R.[.>XC.X.{ [ ' ' ' E E b B p 5 x =.aXuXyXyXyXOXOXoXoXoXoXoXoXOXXX0.0.0.| | | ]  .a.0.|  .q. .r.r.E | | [ e.| q.e.q.0.` | w.0.` q.` q.` w.w.q.X.] ` _ W ) | ) G U ` K ) Q %.Q Q w.w.K K Q J 5 * X X   X   X     X   X             X     X   X                                                                     ",
"                                                                                                    X   X # 3 p s z k s s i f s j j a a u l ;.;.-.{ ] / E ' E E _ _ I P =.E I -./ _ B E ~ ( E v v E P P E E E N J ;.P P Y E I E ~ Y Y N v j a C.iXyXOXOXOXXXXXXXXX`.XXXX+XXXoX/.[ W Q T ~ / / W T { ~ ;.sXbXxXwX7X'.p./ / / { d.1.3.m.j.l.p.M.m.u.p...%.1.2.2.i.5.3.1.-.2.3.3.1.1.2.1.2.3.j.-.<.;.6.=.6.5.h.j.j.c.j.c.x.x.S.S.j.6.6.5.5.J.P.8.5.R.P.6.Q.J.J.J.K.K.K.W.*XW.Q.Q.W.W.4XQ.$XR.W.,X.XQ.,XQ.$XQ.Q.L.W.K.L.Q.L.R.K.Q.Q.$XW.R.Q.Q.W.K.K.R.W.W.Q.W.W.L.K.Q.Q.L.Q.Q.W.A.J.L.W.W.I.S.A.A.5.5.x.c.c.k.z.k.6.k.P.k.5.6.j.3.f.f.f.2.2.4.2.f.2.! ( &.%.%.$.$.%.$.X.T / ~ ^ ~ Z Y Z A K A n n c z m m 0 w t 4 w A 4.A.W.;X[.M.` %.W E | ' E R L k y 8 k ~ iXuXyXOXyXyXOXoXoXoXoXyXoXoXXXs...] q.0. . .q...w. .r.) |  .| ]  .q.e.| | X.0.` ` ] ` X.X.w.` | q.| q.q.w.w.) _ | ) W | ) G G ` E Q K K ` K K Q Q w.K ) 0.G t * X   X X     X   X         X                                                                                   ",
"                                                                                                X   X * 3 j j k f f l l f f k i j j j f i i P =.I I P P P _ ;.I _ ;.I _ -.J -.I H P H B ' ' N P E ~ P ~ P P I H P I J B J P Y Y U U U G c j J ^.iXyXOXyXoXOXXX`.XX`._._._.+XXX@X{ ! / / / W / ! ^ ~ ~ 4.dXbXxX0XFX!.h.;.-.<.3.2.1.3.p.2.f.i.i.f.3.} $.2.1.1.1.2.3.;.=.1.<.4.1.1.<.<.=.3.4.} ( -.;.-.-.3.-.3.3.3.4.3.3.j.k.k.k.6.6.f.k.S.k.j.k.k.J.D.k.G.J.J.J.J.J.J.W.Q.W.R.W.R.W.!.Q.W.W.W.Q.Q.W.Q.W.Q.!.Q.L.L.W.K.J.K.R.R.R.K.W.W.W.W.Q.W.Q.W.J.W.R.R.J.R.R.R.W.W.W.R.W.I.J.J.W.I.I.G.A.S.A.A.c.l.k.k.c.x.c.j.j.z.k.j.k.k.f.3.f.f.f.f.j.f.A.f.2.2.%.1.<.$.&.%.1.1.} { X.} / [ ( / Q Q T Z A n m c m e e w 0 m A &.k.[.;X;XD.( X.[ ` W _ P v J z q 5 d ~ OXiXyXyXyXyXoXoXoXoXoXXXXXXXXXB.] t.q... .q. .|  .' 0.w.0.E ] e.e.0.e. .q.q.e.q.| | ` | w.q.` | w.` q.0.q.w.) ) | ] R ) ) W K R ` ) G Q K Q K K K K K w.e.e.~.K 5 9 9   X             X                                                                                       ",
"                                                                                                X X 3 t i i a u u f k l z k f l j f a a u i -.r.I _ -.;.I ' Y P _ _ E -.H _ _ I ;.;.P N ;.~ Y _ [ P L P ;.P I B ;.;.P P I ;.N P L G b c l j I yXyXyXXXyXyXXXXXXX+X`._.`._.XXOXC.{ { / [ [ W W W Y X./ =.wXxXsX0XFXH.h.f.z.z.x.j.x.z.x.f.M.j.z.M.x.j.g.z.M.z.f.l.h.h.j.l.l.x.x.x.z.c.N.N.z.x.k.j.h.l.l.x.c.6.x.A.x.P.R.I.D.J.Y.T.E.E.'.Q.}.}.}.{.}..X=XE.E.Q.!.$X}.;X.X-X4X-X.X.X8X6X4X4X6X9X4X0X9X4X4X6X6X4X3X6X4X5X9X5X4X2X9X2X4X0X6X9X3X6X0X9X3X9X6X4X6X5XFX8X9X:X4X:X6X:X;X-X-X-X;X;X;X-X-X X.X!.{.{. X}.}.{.E.E.R.'.].T.Y.U.I.'.'.Y.(.T.'.(.).U.M.G.N.M.D.l.z.m.z.m.z.l.s.d.i.p.%.&.&.%.&.! *.*.K M M m r g A &.k.W.(.;Xg.Q [ [ | ' ~ Y Y N k q 8 u E ).dXyXyXiXuXOXoXXXoXXXyXoXXXXXB.q.t. .| 0.r. .q.| ' | ..0.e.` q...q.q.0.X.a.e.b.q.0.e.| 0.q.| q.q.q.e.q.w.` ) ) w.) K ` ) W R ` ] E K K K K K K K e.K w.`.e.~.e.w.K t * X X                 X                                                                                 ",
"                                                                                    X       X * 2 t u y u y 7 7 x l u B B l l k f f j i u l -.I _ I =._ ' _ I Y I ^ -.J I ~ _ -.I ;.P ~ P I ' ' _ P ~ -.I P ;.J I ;.;.B Y Y B B v v c k a i w.uXyXyXOXyXyXXXXX`._.XXXX_.XXXXOXZ./ W W W ~ / ( { / } ^ 2.sXxXhX0X XY.Y.!.}.E.!.Q. X}.-X-X-X-X X}. X-X-X:X-X>X7X8X8X8X8X8X8X7X0X7X7XpX0X7X7X7X0X0XpXpXwXsXsXsXsXhXxXvXvXvXvXvXvXbXvXbXMXCXBXMXmXMXbXMXMXMXbXMXVXMXMXVXVXVXBXCXBXVXCXCXBXCXZXCXCXZXNXMXMXBXBXZXCXBXBXZXBXCXBXCXCXCXCXCXZXCXSXSXZXZXZXSXCXCXCXSXZXBXCXNXMXNXNXCXNXSXBXBXBXNXMXSXSXMXMXMXmXMXmXmXMXMXmXbXmXmXvXbXvXvXlXvXlXcXlXlXlXmXmXlXdXdXdXiXiXiXiXiXiXOXOX8XOX>XOX:XOX X`.G.Y.G.G.e.e.e.&.&.*.@.O.e.f.G.;X[.z.Q W [ ' [ ~ Y B B s q 5 q L m.dXfXyXiXyXyXoXXXXXoXXXoXoXXX~.r.t.| [  ...q. ... .| | 0.0.q.q.` ` W ..q.0...e.e.| 0.e.a.q.X.0.q.q.e.0.w.` w._ ` ) ) ) ` ) W W ) ` ) K c K c K K e.K e.e.e.e.e.e.e.b.G 5 . X   X . X                                                                                         ",
"                                                                                          O 2 y j y y y y y 7 7 f x k B f i x f f f f a u l =.-.;._ ' _ =.-._ Y ~ I _ P =.I -.-.I I P J P P E ~ -.' P Y ;.P J P ;.;.J P P B x B N v h j y t ~.dXiXyXOXyXXXXX`.XXXX_._.XX_.oXOXb.[ { ( / { 1.g.X.W ~ ^ u.pXvXxX0X4X-X8X9X9XwX0X0XsXgXkXkXsXkXhXsXgXlXcXlXcXvXvXvXmXMXMXNXSXVXNXNXMXNXVXMXmXNXZXZXVXBXSXBXBXBXZXVXBXBXBXZXZXZXZXZXZXZXZXZXZXZXZXZXZXZXZXCXZXZXZXZXZXZXZXZXAXAXZXZXZXAXZXAXCXZXAXAXAXAXAXAXAXAXAXAXAXAXZXAXAXAXAXAXAXAXAXAXAXAXAXAXAXAXAXAXAXAXAXAXAXAXZXAXAXZXZXAXZXAXZXZXZXZXZXZXZXZXZXZXZXZXZXZXAXZXZXZXZXZXCXZXBXZXCXCXCXCXCXCXCXZXAXZXCXNXNXSXNXNXNXmXmXmXDXmXMXmXvXlXlXaXdXaXuXpXqX>XG.G.e.G.G.e.e.z.W.;Xm.! / [ ~ W Y P N l p q 3 8 L s.fXiXiXyXyXyXyXoXXXOXoXXXXXXX`.B.r.....u.u..... ...0.0.0...[ | | _  .e.q.e.| X.q.X.| 0.0.q.q.0.0.w.w.q.q.w.` ] ) ` ` ) ) ) ) W ` X.W e.K e.%.e.e.K K e.e.~.e.e.e.e.n.a.0.z 3 #   X   X         X     X                                                                       ",
"                                                                                      . 2 7 u u y y y y 6 7 7 5 f l l l f f x f f i j u i l P J ] -.I I -.I I I I ] _ -.~ P E -._ P ;.I _ P N _ ' _ -.P P ~ N J ;.l J B N B B x v v k j y u ~.iXfXyXXXyXyXXX`.XX_._.`.XX_.OXOXd.Q { / [ ! U ( W { / W 2.pXxXsX0X0X0XgXxXxXnXnXxXnXnXnXcXnXbXbXbXVXVXVXMXVXVXVXNXVXVXBXZXZXZXZXZXZXZXZXZXZXZXZXZXZXZXZXZXZXAXAXZXZXZXAXZXZXAXZXAXAXZXZXZXAXZXAXZXAXZXAXZXZXZXZXZXZXSXZXAXAXAXAXAXAXAXAXAXAXAXAXAXAXAXAXAXAXAXAXAXAXAXAXAXCXCXAXSXAXAXAXAXAXCXAXAXAXAXAXAXZXAXAXAXAXAXAXAXAXAXAXAXAXAXAXAXAXAXAXZXAXAXAXCXAXZXAXAXAXAXCXZXAXCXZXZXAXZXAXAXAXZXZXAXAXCXZXCXZXCXAXZXZXZXAXAXZXZXCXCXCXCXNXSXNXMXNXmXmXDXsXuX7XuX>X;X;X[.G.z.[. Xz.T [ W E E Y x x f p q 8 8 B =.iXaXfXyXyXuXuXoXXXoXoXXXoXXX_.v.| =...b.u.......r.0...u.q.X.....0.0.q.e.0.0.0.) _ ) U ) 0.q.| ` 0.0.X.w.w.` | ` w.` ` ) ` ` ` ` ` X.` K K w.w.K c w.e.e.~.~.e.e.e.b.0.e.e.X.v 5 #   X                                                                                       ",
"                                                                            X     o 2 5 y y y t 7 5 5 t 5 7 5 5 i f s f f l f a u i u u q i ;.P E _ -.;.I -.~ ' -.' _ ;.I P P ~ I ^ J ;.~ P N E _ P ~ ~ P ;.;.H B J P J x P B x v k k j y J yXfXyXyXoXOXOXXX@XXXXX+X_.XXXXuX|.1./ { T U b M N A $.{ / 3.pXdXsXxXMXvXvXbXMXbXVXMXVXMXVXVXVXMXMXNXVXBXBXVXBXBXBXBXCXCXZXBXBXBXBXZXZXZXZXZXZXZXZXZXZXAXAXZXZXZXAXZXZXZXZXAXAXAXZXZXZXZXZXCXCXZXAXZXZXAXZXAXAXAXAXZXAXAXAXAXAXZXAXZXAXAXAXAXAXAXAXAXAXAXAXAXAXAXAXZXAXAXAXAXAXSXSXSXZXAXAXAXAXAXAXAXAXAXAXAXAXAXAXAXAXAXAXAXAXAXAXAXAXAXAXAXAXAXAXAXAXAXAXAXAXAXAXAXAXAXZXAXAXAXAXZXAXZXAXAXAXAXAXAXAXAXAXAXAXAXAXZXAXAXAXAXAXZXAXCXAXCXCXCXCXSXSXSXNXMXmXzXlXkXaXuXqXuX;XG.U..Xz.! ~ T U Z Z z f f q q 5 4 x { OXDXfXyXuXuXyXoXoXoXoXoXoXXXoXv.E r.%.u.W { ....r.d.r.u. ...0.q.e.0.e.e.0...0.[ ` ` ..P K q.q.q.q.e.w.` ) ` | ` X.q.q.w.) ) ` W K R %.w.Q K K K K K e.~.~.e.e.y.e.e.e.e.e.e.a...K 7 # X     X X   X                                                                         ",
"                                                                              . : 7 q q y y y u 7 5 t 7 5 5 3 5 f f i f i f f u f u u a q i P P l H E I P E I -.-.I E I E ~ ~ I I ;.P I E E P P ~ ~ E E P N Y P B B J N B N B J l k k a u I iXfXyXyXyXoXyXOX`.XXXX`.XXXXoXOX/.../ X.} A T $.$.T / <.n 4.sXdXbXVXVXVXVXVXVXVXMXVXVXVXVXBXBXVXVXNXVXZXVXSXBXCXCXBXSXBXZXSXZXVXNXNXZXSXBXCXBXCXZXBXCXZXSXSXCXSXCXCXCXZXBXCXCXCXCXCXZXBXZXBXNXNXZXCXSXNXSXZXSXAXSXSXZXCXSXZXCXZXZXCXSXZXZXAXSXNXCXAXZXAXZXZXZXZXCXAXZXSXSXCXSXSXvXSXAXSXAXCXAXAXCXZXCXSXCXCXAXSXSXZXSXAXZXZXAXCXZXZXCXBXCXZXSXNXCXCXNXCXNXNXCXSXSXCXSXSXSXSXNXBXBXCXBXCXCXCXSXCXCXSXCXSXSXSXNXSXCXSXSXCXBXSXCXSXSXNXNXSXCXSXSXCXmXmXSXNXMXcXDXzXdXfXkXuXuX;XD. XN.W W U N Z L k f m q 7 4 3 s [ ).lXfXuXuXuXyXoXoXoXOXXXoXoXoX`.) 0.s.W ..{  .d. .s.s.d.a.0.0. .0.0.0.0.0.0. .q.` | ` ] ) Q ..b.| | | w.w.w.q.w.q.q.` w.q.q.` X.` Q w.K c w.K K J h w.~.~.e.b.n.e.n.b.v.e.e.e.e.0...K 7 #             X                                                                     ",
"                                                                          . 3 7 u y y y y y y u y t 7 5 5 5 3 5 i f u f f u i i a u q u q f P E J -.I J ;.P ' =.I _ -.' -.P N I I N P P ~ ~ N L P E Y E H P N B x B B N P B J x k k j a i w.fXiXyXyXOXXXyXXXXXXXoXXXoXoXOX8X/.X.T ` ( ( [ ( X.! ^ ( W 1.0X0XR.R.R.R.T.!.R.!.!.!.'.].]. X|.].{.+X+X!.).).).).).]._.!.T.T.+XU.!.).).(.).).)./.Y.Y./.Y.Y.(.Y.T./.Y.U.U.Y.U.).+X+X+X!.{.+X X.X{.!.).!..X+X|.+X+XFXFXOXoX XFXOXFXOXOXFXFXOX X.XOX.XFXOX.XOXFXFXFX.XOX.X.XOX.X.XOX!.FXOXOXFX.X.X.X4XOX4XFXFX.XOX X XFXOX+X X X X X|.|.{.|.:X}.E.E.!.!.!.T.!.!.).)./.`.).Y./.)./.U.).U.H.V.V.V./.F.C.M.V.U./././.~./.N.B.m.C.C.B.M.B.m.n.n.n.^.n.e.e.e.e.e.n.n.e.e.` *.%.$.Q M ~ D.g.U U b U Y B f d q q 7 8 8 w / B.dXiXyXuXuXyXyXyXoXoXoXoXoXOX`.B.s.} [ / U W { ) 0.r.r.u. .` 0.X.q.0.0.a.0..... .| _ ..q.| ) ` q.| ` _ ) ` ) ` w.w.` ` Q q._ | W ` K K h K c K K K w.e.~.~.~.n.n.e.e.e.b.e.v.e.X.0. .` P 7 * X   X X                                                                       ",
"                                                                      . : 7 p d p d d p p u a i u u u q 5 7 5 5 i f a j j y u s u u q q q f ;.;.P E E _ P P ' I ^ -.] ' _ P P P P P Z _ _ ~ E L P ;.;.Y B N N B k l v B L B B v z l s d p v.fXuXyXyXOXXXoXXXXXXX].XXoXoX>X>XG.` Z T ( T ! } ( ( ( -./ 2.sX.X( -.<.( <.( $.( ( <.2.u.3.u.1.} } 2.1.4.=.-.-.} { ;.-.-.-.{ { } } } } X.( X.} ( { ( ( ( { ( -.{ ( / ( { ( ( -.-.1.4.;.=.3.6.=.-.-.-.=.6.;.-.=.6.6.=.l.j.6.6.6.6.A.c.6.c.6.6.x.x.c.6.!.J.S.S.!.J.J.8.J.J.J.J.J.J.8.c.J.x.A.J.A.J.J.R.J.R.L.J.J.A.A.J.J.x.x.c.A.A.J.P.6.x.J.c.k.j.k.c.k.k.6.5.1.h.j.p.p.3.d.p.1.p.r.u.h.=.u.1.p.r.=.=.u.u.u.u.u.u.d.2.=.=.=.=.......} ..X...%.{ X.` ` ` Q ` ! ( ` T Z M M g d g g.s.Y Z N Y B x f f e 6 7 8 8 6 ! d.fXiXyXuXyXyXyXyXoXXXoXoXoXyXXXB.q.` %.$.X...u.u.......u.0.0.0.q.e.e.0.q.....q.0.| | | e.` ` K W e.e.w.w.w.` ) K K %.K K %.w.K %.e.K K K K w.w.K K w.e.n.e.w.e.e.q.0.X.e.e.%.e.Q ` ` ` %.Q h 8 * X     X                                                                   ",
"                                                                    # 6 a a z b f q q u a a j i i f f k i u u y a f k k a s u q u u u q q J ;.l E ~ -._ E ~ Y P _ ' ~ E ' -.~ ~ ~ _ ~ ' ~ _ E L ;.I J P J ;.J J B B v l v B v l k l j d v oXfXyXoXyXOXXXoXyXyXXXXXXX>X`.oXOXD.X.U ` ` A ! ` ^ / { ( / 1.sXE.4.3.<.<.3.1.2.1.1.1.p.1.d.s.u.u.1.=.{ 1.u.3.-.=.=.=.=.=.=.1.} 1.} -.%.$.%.1.i.3.} X.} ( ;.4.4.( ( 7.4.4.4.1.=.3.3.3.-.6.6.5.=.k.6.6.6.5.6.8.6.6.6.6.6.6.6.6.6.J.J.9.J.J.9.S.J.8.9.S.J.S.S.6.9.!.!.J.J.J.J.J.J.J.J.J.J.J.J.A.J.J.J.J.J.K.Q.J.8.A.8.c.J.J.J.A.J.6.J.!.A.c.A.c.6.k.6.c.k.x.6.j.5.j.j.j.p.j.3.2.3.p.1.h.r.=.3.r.p.u.u.u.d.d.d.d.d.i.u.d.r.s.u.u.u.u.u.......e.{ X...e.X.X.Q W T W W A Z Z M n m g z.z.T B g B B B x q q 6 4 8 3 0 W i.fXdXuXiXuXyXyXoXyXyXoXoXXXoXoX~.q.( ..1.....d.d.d.h.a.e.0.X.q.e.e.0.0...X.| 0...| ` q.q.W w.] Q q.e.w.` ` K w.` R w.K w.w.e.K K K K K K K Q Q K K ` K ` K K K ` ` c h K G c K c h h h m h c h $ X   X                                                                     ",
"                                                                    & a a g B x a f s a f u j j s i a l k j j l f l x j j u y y q u u u u J J J I ' =.E ;.I I P P Y P E E ' ' ' -.' _ ^ P E N P H I P Y B J l l B k B x z x v z h s a p G uXiXyXyXyXyXXXoXoXoXXXXXXXXXXX>XuXB.X.! ! ! ! ! / ! ( ^ ( { 3.8XU.4.p.3.1.3.u.1.<.1.....%.%.p.d.1.u...} =.=.=.{ -.=.=.-.{ =.1.1.=...} } { } i.p.4.=.-.} -.<.;.7.;.;.;.( <.5.5.5.3.;.4.-.3.k.6.6.c.6.6.=.6.;.;.=.=.6.6.6.6.6.6.6.A.A.8.8.c.A.c.6.S.c.x.c.J.!.J.;.J.K.J.J.J.J.S.J.J.J.J.J.J.J.J.J.R.!.!.R.9.!.R.6.8.c.P.J.8.J.J.J.A.x.c.R.J.P.x.A.D.c.c.h.6.j.d.6.6.6.p.j.5.3.1.1.h.3.p.=.=.3.u.r.1.p.u.1.a.d.p.d.d.u.1.1.u.d.d.e.0.%.......u.X. .X.| X.X.W W W ~ W N n c g h d m 2.M.Q Y n x B B f f q 0 4 8 3 6 E 0.OXfXiXyXuXuXoXXXoXoXXXyXXXyXOX`.e.( X.2.%.{ %.a.u.i...0...X...b.e.0.0.q.| q.0.0. .| ..e.e.q.) ` w.w.w.| ` ) ` ) R Q ` K w.e.K e.K K K K w.Q Q ` Q ` K ` w.` ` K K h p h c h h h t d h z c h a $ X                                                                         ",
"                                                                  X & d a d d a p k k f g u u a f j y j j k f f k x x l v u f a u u u u 5 u -.J E ^ I _ I -.-.I ~ P ~ Y P P E E P E E P P ~ ~ ~ Y P P ;.f ;.;.x B B J x z z z k s d p t ) uXyXyXoXyXoXXX`.XXXXXXXXXXoXoXoXOXG.` T T ! T ! / ! / ( / } m.FXl.<.p.2.2...2.1.%...%.<.2.1.1.p.1.<.1.=.r.=.=.-.=.=.-.=.=.-.{ { / } X./ { ( } p.u.1.1.<.<.<.;.( ;.( ;.;.;.( ( ;.;.-.4.;.-.3.r.k.-.-.6.6.6.=.6.9.=.6.6.k.k.6.6.c.6.S.6.c.c.6.S.A.c.6.J.8.J.S.9.K.c.J.J.J.S.c.J.c.6.J.J.c.S.S.J.6.9.K.Q.!.J.J.K.R.R.J.J.c.J.x.x.J.J.x.c.A.x.x.c.j.j.x.l.j.h.j.j.l.j.j.j.j.p.3.2.=.3.=.p.h.p.p.1.p.=.h.r.u.2.d.a.u.d.u.d.a.s.u.=.u.......{ ..e.X.[ | X.X.` [ [ ` ~ ~ W N n c g p 6 / z.Q ( ^ Y B B g f q 6 7 5 3 t U w._.fXiXyXiXiXyXoXXXXXXXyXXXoXOX`.b.X.T X.$.%.{ ..u...........q.q.0.0.0. .|  .0.q.| 0.` w.| | W ` 0.q.e.q.` I w._ w.K w.K e.w.K w.w.e.w.K Q K K Q w.` ` K K K K K c c c j h K h h m h h m h h j & X X X                                                                     ",
"                                                                    & a f a a a f f f f s u u d f f a a a k k f f u k k a a a 6 7 5 5 u 5 i -.J ~ ~ I _ ~ _ ' =._ E _ ~ ~ E _ P L J L ^ ' ~ _ -.=.-.;.I N ;.P N J i H x k k f f s h p 6 a.iXyXyXyXyXoXXXXXXX`._.oXoXoX>XuXOXG.%.T T ( ( ! ^ X.( / / / 3.8Xm.2.i.1.1.=.2.1.%.1.1.u.i.u.3.2.{ X.} { =.=.-.1.1.=.-.-.=.1.-.-.{ } } { } } { -.=.<.1.<.-.{ ;.;.( <.( <.<.;.;.;.3.4.-.4.3.3.6.6.3.c.=.6.-.6.6.-.-.6.A.c.c.6.c.c.c.c.c.c.c.c.6.6.J.6.c.6.J.R.!.J.J.J.J.J.c.c.c.S.J.c.c.c.c.c.c.J.J.9.J.!.!.J.A.A.A.J.c.A.P.J.J.A.A.A.c.S.x.3.3.c.j.3.6.j.x.3.l.c.h.j.p.5.h.p.p.j.j.3.3.3.p.=.=.p.1.p.=.u.p.s.a.r.d.d.d.d.u.e...e.}  .X.X.X.....` | ..X.` [ [ [ ~ T Y Z M z c m 6 W &.n T / ^ P f g a q 5 4 5 8 q n ( V.fXiXiXuXuXuXXXXXXXoXoXoXyXoXoXb.%.Q Q ` u...u.u.e.0...X. ...e.` 0.0.w.e...0. .| 0.E E _ R ) q.q.q.e.w.Q ) w.R ` Q w.w.w.e.w.` Q e.K Q Q K K Q K K K K K K K K c c K c c h c c c c c d h l z , X X   X                                                                   ",
"                                                                  X % a a a a f u u q d u i d a j f f j a a a j a a a a a i y 6 t q q q q l =.I P _ ( ' _ E ~ _ _ { ~ _ ' -.' Y P P P Y P B P ~ Y P P -.P I P x Y x l x k k f f s p y a Z.iXyXyXyXyXoXoXXX`.`.`.oXoXoX>XuXOXC.$.! T A / ( ( / Q / ! T 1..XM.u.i.u.i.1.u.1.=...1.1.<.<.1.%.} } -.-.-.{ -.u.u.1.=.....} ....} ( $.-.} *.-.=.-.;.( ( -.;.( ( ;.( <.<.1.-.4.;.-.3.1.3.=.;.;.=.-.-.6.6.-.6.=.;.-.;.c.6.k.A.x.c.A.c.A.x.J.6.x.A.6.c.c.J.J.c.J.J.J.6.6.c.9.J.8.S.c.c.J.J.c.c.S.J.A.J.R.!.J.J.A.c.J.c.k.x.P.J.l.A.k.j.A.P.c.6.j.c.5.3.1.-.j.x.h.3.3.j.j.h.j.5.p.l.3.3.h.=.1.h.3.1.u.u.h.u.=.u.h.p.d.s.d.d.u.u.1.r...[ ` ..a...0.[ ..X.....` / ` ~ W U L n c g d w K i.n g B B B s m g u 7 6 4 4 4 B ( h.iXiXfXuXuXyXyXXXXXoXoXXXXXyXyXv.e...%.X.p.u.i.u.u.a.a.e.q.X.e.e.b.e.0.q.| 0.u._ ) | _ | _ W | ] q.` w.` ) w.I ) K Q ` K Q q.e.e.e.e.Q K w.K w.Q K K K I K K K K K K K c h h h c d h h h h a & X                                                                         ",
"                                                                    # d f a a a f u u q u u a u a f f a j a p p a s a d u y y y u u q u u i -.J P ~ { P ~ ' ~ E / _ ' ~ _ { ' E _ -.' ^ N N E E x J x P ;.-.-.B J L f f k k g f s d 6 s /.iXyXoXoXyXoXXXXXXX`.`.XXoXoXoX>X>XG.$.T S ( / / ( ( ( $.} } 3.!.s.2.d.u.i.u.4.1.} <.} 1.-.} 2.1.} } =.=.-.-.=.1.1.1.1.} <.%.} %...{ } <.( -.;.-.;.( ;.( <.;.7.;.;.-.( ;.;.-.=.=.;.;.4.;.;.6.=.3.6.6.3.-.=.-.6.9.6.6.6.3.k.3.6.6.j.x.A.c.A.x.c.c.x.c.c.!.9.J.J.S.S.J.9.J.c.c.c.c.c.c.c.A.A.c.c.J.J.J.J.J.J.A.A.H.J.A.x.c.J.J.N.c.c.j.A.J.x.A.l.j.5.3.4.4.6.3.3.3.j.j.p.p.5.3.j.j.h.3.=.p.1.1.p.p.u.3.r.1.u.p.h.1.u.u.u.d.u.u.u.i.e...[ X.......X...%...( [ { [ W W Y b n b d m 0 g 1.n g a k f m f g f q 4 3 4 q A X.u.iXfXuXiXuXyXyXoXoXoXoXoXyXoXOXn.` e.1...d.[ a.i.1.a.e...X.` | a.| ` E W ] ..E ' | q.0.0.) ] | ) ` ` w.q.Q w.R w.K w.%.K w.e.q.w.e.K e.w.e.K Q K ` ` K ` K ` K K K K K K c c K K s h c s s s # X                                                                         ",
"                                                                  X & a a y q a f q u q f d d a a k f f f j f a y u u y y a u 6 q 7 q q 5 u ;.I ~ ' ~ P ~ { _ ' ~ E ~ ' Y E ~ ' ' ~ ~ B P ~ ~ E ^ ;.N B N l J x P ;.B x v z p d q q 6 z oXiXyXyXOXOXoX^.XXXX^.XXXXXX[.-XuX>Xn.%.! ! ! T T ( ` $.1.} X.p.U.1.=.2.4.4.u.i.u.3.2.1.2.2.u.2.1.-.=.} =.-.-.=.=.( / } 1.1.$.%.$.} ( ( =.} ( ( ( / ^ ;.( ;.( ( ( ;.<.<.;.;.;.;.;.;.;.4.3.-.3.3.6.3.-.c.9.6.-.8.6.=.6.6.3.c.c.6.3.6.6.J.c.c.P.J.6.6.6.6.-.8.!.J.J.6.6.J.c.J.c.J.c.J.J.J.l.c.A.A.R.R.J.S.J.J.c.c.6.c.6.A.c.A.A.S.6.6.k.k.6.c.J.x.x.p.4.3.3.6.p.3.3.3.3.j.p.h.l.h.3.3.h.3.4.1.3.1.=.p.h.u.=.h.d.1.u...{ u.u.u.e.i.d.d.d...| ( ` [ | ......[ | { W [ / ! U K M z h w d ! Z x x x g m q q 6 6 7 4 8 4 N } r.yXfXfXuXuXuXyXXXXXXXoXoXoXyXoX`. .d.d.T ..{ ....[ [ X.X.q.e.` X.` ) ` e.u.0.) q.| 0.0.q.| | q. .K w.` w.q.w.R ) ` Q K Q e.e.e.e.e.e.K e.K e.K e.` K ` ` K K K K K K K K G c c G c c c h p c 9   X   X   X     X                                                         ",
"                                                              X   X : w q u a p d f u f q u f u j z f j f f j p d a d a s l a t q q t q 5 f ;.I I ~ P I ' _ ~ ' ' E W | ) W ) W E P N L ~ E ~ ^ ^ P B N Y B J u k Y L x k a a a y 6 7 P yXiXyXyXOXoX_.`.XX_.`.XXXXoXoXuXuX>Xn.*.` ( ( ( ( *.( ( d.} T i.U.<.3.p.p.3.u.3.1.1.=.{ { } ..X.{ } } =.-...-.} } } / { } %.1.%.( X.} ( %.1.( ( ( / ( ^ ;.( { D ( ( -.<.-.( <.;.;.;.;.1.3.3.j.j.3.4.3.c.6.=.=.6.6.c.5.6.6.6.x.6.k.6.6.6.c.6.A.x.c.x.c.x.J.H.9.J.!.A.J.8.6.9.x.c.J.6.c.6.6.c.c.9.!.J.J.J.H.J.c.6.x.c.x.6.x.x.k.k.j.x.k.c.f.5.j.j.k.k.6.f.j.6.f.3.5.3.p.4.3.3.1.p.<.1.f.2.p.i.3.1.{ 1.u.1.1.u.i.u.e...%.u.u.a.%.%.%...0...{ X.` ` ` ` [ X.X.X.X.W ` W Q U Z c g h w d W U Y B f B f f q q q q : 1 q B =.r.yXfXfXuXuXyXoXXXXXXXoXoXXXoXyXoX0.0.0...l.d.a.X.Q X.....%.a.[ ..e.e.e.0.0...0.0.q. .0.| ' ) ] t.w.w.w.e.q.K R ) R K ) e.e.e.e.e.e.e.e.K e.e.e.e.e.K e.e.` ` ` ` K Q K c c c K h K K c K c K t . X                         X   X                                         ",
"                                                                X # 7 a s f j s d f f u f f f g v x f f f f a u a j a j j h p y u q u 7 q i I P E ' P P ~ _ _ ~ ~ E ' | W ' [ W E P Y { E N ^ P E Y B H P Y ;.g p l N f f x f y y q 7 r.iXyXyXOXyXoX`.~.XXXX`.XXXXoX>XuXpXuXg.$.! ( ( $.( T ` X.p.l.} i.M.1.3.h.h.d.p.u.1.1.-. .1.1.1.1.1.} } -. .-.1.=.1...-.=.{ { $.X.$.{ X.( $.<./ / ( ( ;.;.;.( / ( ( ( ( ( ( ( ( ( ( ( -.<.3.3.=.3.-.5.p.3.6.6.8.6.3.-.6.4.6.6.=.6.k.6.-.=.6.6.k.6.6.6.6.P.c.A.c.6.A.9.J.A.J.=.6.k.8.J.c.c.A.x.6.6.J.J.6.6.J.J.c.c.c.c.6.H.x.6.c.x.k.l.S.l.j.5.6.6.j.j.j.5.4.p.4.p.j.1.$.2.2.2.2.1.p.1.} u.l.1.2.u.2.i.h.d.2.i.u.2.u.1.u.X.a.u.0.....e.u.....[ %...X.[ [ W W ` X.` / W Q b b M n x q w T Z Z B g x f e q q q q 3 , q g ;.r.`.fXfXfXuXyXyXXX`.XXXXXXoXoXyXyXb.] q.d.g.s.i.{ ..0.%.e. .` e.` e.n.d.b.a.v.b.| ) ) ' 0.| ' U q.e.w.q.e.0.R ) w.` ) ) q.e.e.e.e.e.e.e.e.e.e.e.e.e.e.e.K e.e.e.e.e.K e.e.e.` K K ` ` ` ` ` ` %.c 3 * X     X X X   X X                                                   ",
"                                                            X * 5 y s s f f j f f f i f f f f f v x k f f f f a a a a s p a y y u u q u 5 i -.P N P P Y E ~ ~ ' U L ~  .' | | ' E P { ' L E T Y P N B B P B H B f j N z k f w q 6 q q @XfXiXyXOXoXoX`.`._.XX].XXXXoX>XuXuX>XG.%.! T ! ( [ ( ( ` ( 2.$.1.z.1.1.4.p.3.p.2.1.u.1.2.1.1.-.2.1.=...} } -.=.-.} } { 1.2...{ / ( ( } $.1.1.} ( ( ^ ( ( ^ ( ~ ( ( ;.*.} ( ( <.( ;.( -.<.4.3.3.-.3.4.;.6.h.=.6.5.-.5.5.;.6.6.=.6.=.6.6.6.x.c.x.j.6.6.6.J.c.6.A.6.6.9.J.!.6.6.x.6.x.c.6.x.6.6.H.6.6.c.6.c.H.J.6.6.c.6.c.x.k.k.k.6.6.k.k.k.k.6.5.f.f.5.3.2.4.<.4.3.p.j.j.p.u.3.i.2.<.<.$.<.$.2.2.<.u.2.p.p.=.u.i.u.1.....X.a.1...0.0...X...0.{ [ X.X...X.[ { %.| W ` ` W U b N n g q 0 Z n n B g x f u q q q 5 3 5 q e ;.=.B.fXfXuXuXuXoXXX`.XXXXXXXXyXXXXXC.R  .| %.u.i.u.) ....e...| u.q.q.X.e.a.a.0.0.[ ) ' E .. .| ' ) w.R ` R 0.e.w.W ) ` R w.e.e.~.^.XXe.e.oXe.e.e.e.e.e.e.e.e.e.e.e.e.e.e.e.e.e.e.e.X.q.q.w.Q ` Q K R l 3 .               X X   X                                           ",
"                                                    X     # 3 q a f s f f f f f f f f x f f f x k z k f k k k a a a s k a a y t q q 7 7 q i I P P P Y N E ' ~ ' R R U W E E W E L Y ' I E Y E E Y N B B N x B P B f a a f u y p y p f +XfXuXyXOXoXoX`.`.`._.XXXXXXoXOXuXlX>Xz.&.! ! ( $.X.X./ $.^ A ( 2.l.1.1.=.2.u.4.2.-.-.1.2.=.1.=.1.1.2.2.-.} =.=.=.=.=.=.=.=.-.1.} } $.} 1.} 1.3.( ~ ( -.-.( ;.( / ( ( $.<.<.( ( <.} ( <.<.4.-.4.4.4.=.3.-.6.;.6.;.;.7.7.5.-.6.k.6.6.6.6.6.h.6.6.c.=.x.6.c.6.6.6.6.=.6.=.J.c.c.6.6.6.c.6.c.6.c.6.c.8.=.6.c.6.x.J.J.H.9.!.=.3.c.x.k.j.j.j.k.k.k.5.f.3.5.5.4.4.2.2.1.$.2.2.i.p.3.2.<.1.$.<.%.<.1.1.1.u.3.p.1.1.u.%.} 1.} ..$.} ..1.....X.X. .X.X. .X.{ X...} | ` [ [ U T T b n M n s q q n Z B n m w f f q u q q 4 , q e ~ -.a.iXfXfXuXuXyXXXXX`.XXXXoXoXoXoX`.0...i.%.E [ ..W  ...X.....X.0.d.a.e. .[ [ | | ) W ) | ) ]  .| K ) ` c ) e.| ` w.| Q e.B.e.`.G.e.e.XXoXoXe.oXoXoXe.`.e.oXe.e.`.e.e.w.e.e.e.e.%.` q.%.` ` w.` ` ) ) Q h 3 .     X X   X                                                 ",
"                                              X . X X # 3 y k z f f j f f j f f f f f f f f f f z z k f h z k c h d j h a p t 7 5 7 q 5 5 j _ _ Y ~ _ ' ' ' ' { | E W W E R W ' N ' P E W P E N P N B J v N B B b f f d d s z d y 6 b OXiXuXOXOX+X).`./.).XXXXoXoXoXuXfXdX>Xz.%.( ( ( ` $.e.%.&.} 2.{ p.f.-.=.} <.1.2.i.p.%.&.%.X.-.1.1.=.<.=.1.=.=...=.} =.=.} ..} 1.1.2.} $.} } ( } <.} ;./ D / / ( / ( ( *.$.$.} *.} ( *.} <.3.4.4.4.5.-.c.;.=.-.6.6.,.;.;.;.-.6.-.6.=.6.6.6.6.h.6.3.6.6.x.6.6.6.6.-.6.6.6.6.c.J.6.6.x.c.6.x.6.=.A.6.6.x.6.c.x.9.c.c.=.6.!.6.5.z.z.j.5.5.5.5.f.f.f.5.2.3.5.&.i.p.3.4.<.2.%.2.2.2.%.$.} $.1.%.1.2.&.i.i.1.%.%.1.=.1.u.&.e.%.e.........X...........[ ` [ ` [ / W Q Q K ! Q U K K n z m w 7 g n g n f f f q q q y q 5 3 q g / 2.0.OXfXiXyXyXyXXXXX`.XXXXoXXXoXXXoXv.w.%./ ' X.W ` / W [ X.....X. .0...r.e.u.0...` ] )  .) | | | ` w.X.K K w.` | ` e.e.e.e.`.XX~.XXe.e.`.`.e.uXoXuX`.oXe.e.e.^.e.e.e.e.e.w.e.e.w.%.%.K %.` w.Q ` | ` K ` Q u 3 . X X           X                                         ",
"                                                  . 3 p z f z k f f f f f f j f f l f f f f f J z l k k k a s j l k a a y t 7 t q u u 5 5 J -.E ' ~ ~ E ~ ' ' ] ] Y E ' W ) E U U L U ] R Y L N B x B f v B v J z k k a u a s t 6 5 ) iXiXuXOXOX_./.~.^.`._.XXoXoXoXfXfXdX>Xz.&.X.&.2.f.%.f.l.g.4.<.^ 3.j.-.u.2.p.d.=.} 2.u.%.%.1.1.1.} } } } 1.1.-.1.=...=...=.=.=.....{ } } } } ( } T -.( / ^ / ^ ( ( ( ( } <.$.*.} } <.<.} 4.-.;.-.-.-.;.-.;.;.6.-.;.;.;.5.;.6.6.6.6.6.6.h.6.k.x.6.6.P.c.6.c.h.6.6.6.6.6.6.6.6.=.6.6.3.x.6.x.6.x.6.c.c.6.x.A.6.J.y.6.6.6.9.y.k.P.k.k.f.3.3.5.&.4.5.f.5.3.f.2.4.2.3.3.$.2.f.2.3.f.i.$.1.%.<.<.$.$.%.%.2.i.} } -.2.p.h.e.X.} X.....%...X...X.X.X.X.X.X.X.` W W W U K Q Q U Q T Z x g d w 7 s n g n m w f e w u q 3 3 8 q g / 2.0._.fXaXfXuXyXXXXX`.XXXXoXyXXXXXOXb.X.X.W [ 1...! X.{ ` [ X..... ...r.u.a.a.a.0.) ..) [ ) ) ..) ` q.w.R K ` q.` Q Q ` e.e.~.`.XXoXoXoXoXoXoXe.oXe.e.oXe.e.oXe.e.e.e.e.e.w.e.e.e.w.w.e.w.w.` ` ` Q ` ` ` Q R H p 9 X X   X                                               ",
"                                              * - 6 d z x z z z z f k k f f f k B l x f l B f f d g s z v z a a y t t p a u 7 u q u q 5 2 i =.] ' _ ' _ E _ T ' ' Y Y P L U ) R W ) ' U v Y Y L B B x x x x x f z f z s p q a p 6 6 d.iXyXyXOXoXXX`.V.`.`.`.`.XXoXoXfXlXhX>Xz.&.&.e.i.&.f.%.1.} f.2.{ <.1.( 4.z.3.4.} <.1.1.e.&.2.u.1.1.1.i.1.} =.i.d.u.<...[ ..u...} ..( %.} <.} ( ( ( ( ( ( 7.( ^ ( / ( ( } <.$.( ( ..} $.2.<.-.3.-.3.;.-.-.6.-.;.-.6.;.;.;.6.6.6.=.6.8.6.=.6.r.k.h.P.k.3.k.x.k.6.6.6.6.=.-.6.6.c.=.8.6.6.6.6.6.H.A.c.A.6.6.6.A.6.x.=.6.6.=.6.p.k.A.k.5.j.f.f.f.f.f.f.2.3.3.3.3.3.1.%.2.2.2.2.2.i.1.1.$.$.$.1.2.%.$.%.2.%.} } $.2.p.u.%.X.%.X.X.` ( e...e.X.{ | ) X.X.X.` W Q Q W W ! ! Q Z K b z g m w 4 m n g g g s f g a q q 5 8 1 4 g / 1...B.fXiXuXuXyXXXXX`.XXXXoXXXXXoXoXv.| | [ ` e.e.` [ %.[ X.( ..u.u.0...u.a.0...0...| ! ` ) 0.0.) Q ` ) ` K ` | ` K K ` q.~.C.n.`.oXoXe.e.e.e.e.oXoXe.e.e.e.G.e.e.e.e.e.e.e.e.e.e.%.K e.e.w.e.` e.) Q ` ) R K K K U t &     X   X                                         ",
"                                          . & 7 z h s z z z z z z z z x k f x B z B B x B x f f s z x c z s s a a y a p d a a a 7 5 5 5 2 l -.=.=.=.=.=.' _ E E W | _ ~ E E U L R ) W P ' E Y Y B v B B l B l f f f k z p q a a 7 a ~.iXyXyXOXoX`./.^.`.`.`.`._.oXoXiXfXsX>Xg.&.$.! ! A 2.$.( %.$.$.p.4.-.{ 4.1.2.2.} ..1.1.%.&.p.d.2...p.2.{ %.<.=.1.2.d.1.} 1.1...} { } 1.} ( X.( ( ( ^ / ( ( ( / ( ^ ( ( $.$.} 2.4.4.2.<.$.( 3.3.3.-.;.-.-.;.;.-.6.;.;.5.;.;.5.-.=.6.=.6.=.=.6.6.6.c.h.3.6.6.c.6.=.6.6.6.-.=.6.6.6.6.3.5.6.-.6.6.x.J.H.6.H.c.J.H.A.x.c.6.J.y.f.f.z.g.3.5.5.f.f.j.f.5.4.f.4.f.3.3.%.1.%.$.1.2.2.i.2.$.$.$.$.$.} $.$.2.X.X.$.$.} 1.u.p.i.%.X.%.1.( ` ..X...X.{ X.) [ [  .[ X.` W Q Q Q W U b n g g g d w 7 w n x g s d g d a q q q 7 1 q r ^ } =.v.fXiXyXyXyXXXXX`.`.XXyXXXXXyXOXC.X.` | | %.u.| ....[ {  .....u... . .0.....{ 0.e...q.X...[ ) ) K K K K ` | ` ) Q K e.`.XXoX~.e.XXuXe.e.fXuXe.e.^.e.e.e.e.e.e.e.e.e.e.e.e.w.w.e.w.w.e.Q ` Q w.| ` ) ` ` ) R W ) L H t & . X X     X   X                               ",
"                                        : 6 z x z v v c x x z z z z z z z z v b v v n c z f x f d z s s d s s a a a a a a u y y y y 6 7 3 k E R {  . . .'  .=.' ~ ~ ~ { ....' ) W Q L G [ N P Y L B B l x z z l h z h z d 0 s p 6 k oXiXyXoXoXXX`.`./.`.`.`.`.`.XX>XuXlXjX>Xz.&.*.! ! ! ! &.&.*.$.*.f.$.$.( <.$.&.&.%.$.1.%.&.%.%.%.%.( ..<.} %.<./ X...1.u.p.1.{ 1.1.} } 1.-.( / ^ T ^ ^ ^ ( ( ( ;.;.-.( / { ( } } <.} <.1.( ( -.<.<.4.-.;.( ;.;.;.;.;.7.1.4.<.<.4.;.<.4.-.3.6.3.l.3.3.6.j.3.5.3.3.5.5.6.5.3.5.3.3.6.3.6.6.3.4.A.J.c.x.c.J.P.P.k.A.A.k.k.A.j.3.p.f.z.j.p.p.3.3.<.4.-.3.1.4.2.2.2.4.%.$.$.1.%.$.<.2.<.$.} $.} ( ( %.$.} X.%.$.$.$.%.&.%.&.X.X.X.` Q ` ` ` ` ` %.X.K ` ` ` X.` Q W K Q K K K K v c m m p 0 6 w n g a d g m p d d q q 5 8 q e / -.-.=.iXfXuXuXuXoXoXXXXXoXoXXXXXoXOX^.X.| | ` X.e.X.X...[ ..| X.e.u.....|  .r.r...e...X.q.X.X. .0. .U U K K Q X.| ` ] E 0._.^._.n.e.XX`.`.oX~.~.^.~.^.~.e.~.~.e.e.e.e.e.e.e.e.e.e.w.e.e.` e.` ` ` w.` ` ` ` ` ` ` ` K K ` K t 9 # X   X     X                             ",
"                                  X # 7 k v b k x N n x n c z z z c n c c n c b x b b z x z c x z f k g z h h h j k v a f p y 7 t 7 t 7 2 p ]  .] ' ' ~ P U E ~ ' E E ~ ' ....{  .....) ' N U U L B x l v N B k m s z h h s p p t K uXuXyXyXoXXX`.`.`.`._.`.`.XXXXuXuXcXkX>Xz.&.&.&.*.$.$.&.$.( &.n.2.&.&.$.f.j.&.&.&.e.l.s.z.e.g.f.1.$.1.i.i.2.u.1.} ..=.=.1.=...} ....} ( { } ( { ( ( ;.{ -.-.{ -.1.<.2.-.-.1.<.<.*.} <.<.( { } -.<.-.-.-.-.<.<.<.=.4.4.4.4.3.2.5.4.4.5.j.h.6.k.k.k.l.j.l.k.k.6.j.l.l.k.l.j.6.j.6.k.h.x.A.c.c.J.=.x.6.A.P.A.A.D.D.D.N.P.x.j.j.j.l.z.j.f.l.z.l.f.f.3.2.3.4.3.i.i.2.p.3.2.1.1.1.2.2.1.$.$.$.<.%.1.2.%.1.%.%.} &.%.$.X.$.} ..%.%.` $.%.e.e.e.%.e.e.%.q.%.X.` ` K K W Q K b b b z h h d p t 0 w n B f m n s p d s q 7 8 8 q g A <.1.{ OXfXuXuXuXuXXXXX^.XXoXoXXXXXoXoXa...| X.` ` ..%...} X.X...X. .........u.e.0.....X...X.q.e.0.e.[ ) ) Q | ` E W ] ] 0.^.~.^.b.~.`.`.^.`.XXe.e.e.B.e.~.`.`.e.e.~.~.e.e.e.e.e.e.e.e.w.` e.e.e.e.e.e.w.` ` K ` ` w.K K w.K K K t #   X     X                             ",
"                                * 4 s b L N B k v L x v z x b b L b Z b b K n N b K b b b U b K v b c z k z v z x k H L v a d k a y u y 5 j  . .r. .]  .=. . .{ Y Y Y E ~ b W s.s...` ..W L Y L L B B B v f k v M h h h k z p p t 0.uXuXyXyXOXXX`.`.`.`.`.`.`.XXXXuXuXlXkX>Xz.&.*.A Q &.*.&.&.5.T ( f.4.2.f.D.D.z.z.G.z.m.g.z.z.l.z.G.z.p.g.G.z.z.f.f.i.1.1.1.3.f.p.p.g.2.2.;.1.<.1.=.<.-.3.1.1.1.3.p.1.3.d.p.p.3.j.p.5.p.4.3.4.h.3.5.p.j.5.j.5.k.z.3.5.5.6.j.j.l.z.k.l.x.N.x.N.N.H.A.P.P.P.J.N.H.N.J.P.P.H.P.R.R.H.P.P.P.U.R.U.!.H.!.H.!.R.!.!.).).).).R.P.D.U.U.P.G.G.U.H.N.P.D.D.x.f.h.x.x.N.m.f.N.M.g.g.g.g.f.p.p.i.l.l.l.z.g.x.l.z.z.z.l.g.g.g.f.e.i.g.g.e.e.e.e.e.e.e.e.e.e.e.e.e.e.e.e.X.X.%.| ` [ ` ) E Q Q K M c m m K n n d z m d d d q 7 5 4 4 g S <.%.q.XXfXfXuXuXuXoXoX[.XX`.oXXXoXoXoXn.` | ` e.` [ ......{ ) ..[ =.r.r...u.e...u.0...X. ...0.a.X. . .) W q.X.E Q Q ) ` | B.~.v.a.e.^.e.e.e.e.e.e.e.e.e.e.e.e.e.e.w.e.e.w.e.w.e.e.e.w.w.w.I ` ` ` ` ` K K K h K K h K K K K K K c h 3 .                                   ",
"                              $ d f f v v x k k s k v x x x b W U b b b U b v U v c W Z n U U b U W U v z v L G L L v N P v v N L L B L v L R Y _ E E ~ ' =.' ~ Y Y U N ~ Y n E [ z K [ W U U b L P B k f L d f K c b c k s s p y n.iXyXyXyXoXXX`.~.~.`.`.`.XX`.>XuXpXhXkXuXS.&.&.*.&.&.! A 4.f.*.&.5.G.'.[.;XE.(.&XG.G.G.Y.G.Y.G.'.;X:X[.E.}.[.E.E.).T.Y.).U.U.U.E.U.).Y.U.P.H.U.U.H.D.P.Y.Y.R.Y.R.T.P.U.R.R.Y.].Y.!.{.{. X X{.Y.T.T.!.T.T.T.!.{.8X.XFX X|. X.X XOX.XFX8X4XFX8XFX8XFX8X8X8X8X8X8XFX8X8X8X8X8X8X8X8X8XFXFX8X8XpXsXpXpXsXaXsXaXiXpXiXpXpXiX0XpX7X0XiXOX7XOX>X8X>X8X8X8XOXOXOX.X.X8X7X8X>X>X-X.X>X:X XOX.X:XOX X:X>X:X:X>X>XOX].:X-XoXOX>X>X X[.;X>X;X>X>X>X;X`.[.].[.].>X-X[.>X[.[.^.(.Y.F.P.G.D.M.M.G.z.z.g.e.%./ A n g m d w 7 7 7 5 4 4 g Y { %.0.B.dXuXuXuXuXoXoX^.^.XX^.XXoXoXoX~.| ` ` X.` ` X...e.e.d.i.1...r.u.u.a.a.e.e.0.....X.X.e.%.[ [ ` ` ` w.` ) ` R ] W ) q. .W ) Q w.K K ` e.Q Q Q e.` K Q w.` R w.K w.K K w.w.w.K K K K c c h c h h i h h i t i t h t h p p i t y 7 .   X                               ",
"                              # h s d s f k s f f f x x z x v E N b Z c b v k B b U Q b x n U L b U U U U P U E R E E R P R E W ' ' R E R W E E U Y E P W ~ { E E ~ Y L B B ~ U E ) ) E R Q E G b v v x b x s d d d h d d h h p s ~.uXyXoXOXXXXX`.^.^.^.`.`.XXXXoXuXdXlXpX>XG.p.e.e.f.f.k.z.z.G.G.OX>XpXsXjXkX>X>X>X0XuX7XsXwXwXkXhXkXkXwXkXsXsXsXaXpXsXlXhXsX0XsXdXdXhXlXdXdXaXpXpXsXpXaXdXsXdXsXsXsXsXsXxXhXlXvXsXcXhXsXDXvXcXdXlXdXsXdXdXhXdXdXsXlXvXvXvXvXvXvXmXvXMXmXvXbXMXMXmXMXmXMXbXMXMXMXMXMXmXMXMXmXMXvXMXmXMXmXNXSXCXBXNXNXSXNXZXVXNXNXMXNXMXMXMXMXMXMXNXmXNXMXNXNXNXNXMXmXvXvXvXvXMXmXMXNXNXMXmXvXMXmXvXvXvXvXmXmXmXMXvXmXlXlXmXmXvXlXmXvXlXlXlXlXlXcXcXmXmXvXlXlXDXlXmXlXMXcXvXmXcXlXhXsXlXdXfXsXpXuXaXuXuX>X>X;X;X:X}.N.u.X.W K z a q 7 4 7 m A ` e.0.n.fXuXuXuXuXoXoX[.XX`._.XXoXoXoX~.e.[ 0.{ ` ..%...X.[ [ e.e.U W { ..i.n.d.e.e.%.......| X.| X.{ ..| ` ) | ) ] _ K ` | W R W w.` w.` ` w.` w.w.%.K ` Q ` ) ` K c c K c K K K K ` K K c c c c c h h i h h h h t t p h p p h t p 7 .   X                               ",
"                          X   3 s d s f f s f s a a k k z z z b U ~ U v U N v N U K b U W Y b v z U U L U b U E W U E Y L Y E Y E _ R R E U Y P L L L Y L L  .' E / ^ P B E / W ` ! U K b U U U L Z v z c z c n c h h d p t h t v XXuXyXyXoXXXXX^.^.~.`.`.`.XXXXuXuXlXlXpX;XG.G.G.;X'.[.6X>X7XsXhXkXhXlXlXvXcXlXdXhXhXlXjXlXcXcXbXmXmXbXnXcXlXcXjXcXcXlXvXbXvXvXvXbXMXVXMXMXMXbXMXmXmXMXmXMXvXvXvXvXbXvXbXMXbXMXMXVXNXMXbXmXmXvXMXNXVXVXVXVXMXNXVXVXMXVXMXNXBXZXBXCXBXBXBXVXZXZXBXBXZXBXBXBXZXZXZXCXZXCXCXZXBXBXZXBXBXZXZXCXZXSXSXZXZXZXSXSXZXSXCXZXZXZXZXCXCXZXZXCXZXZXZXZXZXCXBXBXZXZXBXZXCXBXBXNXNXBXCXVXBXBXBXZXZXBXBXBXBXNXCXMXNXNXSXSXSXSXCXSXNXNXSXSXCXNXSXSXSXSXNXNXMXMXSXCXCXCXNXCXCXCXCXmXlXvXmXmXvXvXbXvXcXzXsXlXDXsXdXdXiXuXOX`.F.g.=.E n f w m U *.1.u.d.uXiXuXuXuXOXoX^.^._.^.^.XXoXoX^.e.X.e...0.e.} X.[ E K Q W U  .` E W q.e.%.e.a.e.....X.[ X.[ `  .| ` ` W | _ W ) w.) E R _ ` ` Q w.` ` K K K Q ` K R Q ` Q K K h K K K K c c K K K K c K c c c h i h h i h h h p h t t h t t 5 X   X                               ",
"                          X   2 h m s f s g j f v b k v x k z z k x v E Y E Y k U N Y E L G U b B U L b b v b ' P E W L L P E E W Y Y L P L L L b L B L U Z Y [ _ { / _ n B W ` W W U U b b Z Q U n n c z b x m m d p p p p t t E oXuXOXOXyXXXXX^.^.^.~.`.`.XXXXuXfXlXjX>X>X-X>X>X0XpXaXlXlXjXlXlXmXmXNXMXmXmXmXmXMXmXMXSXNXNXNXNXMXMXMXMXmXlXcXcXcXMXbXbXMXbXMXMXbXMXBXVXNXNXCXCXCXSXCXBXCXBXBXVXBXNXVXNXBXZXZXBXBXBXBXCXNXBXSXVXCXBXBXBXZXZXZXBXVXBXBXBXBXZXZXBXZXZXZXZXZXZXBXZXBXZXZXZXZXZXZXCXZXZXZXZXZXCXCXZXCXBXZXZXZXSXZXCXZXAXZXZXBXBXCXBXZXZXZXZXZXCXCXCXZXZXCXCXCXCXZXZXBXZXBXCXCXNXZXZXZXCXZXCXCXZXNXNXCXBXBXBXNXNXMXBXNXBXNXSXMXNXNXNXSXSXSXNXNXNXSXSXMXMXSXSXSXSXMXSXCXCXSXSXSXSXSXSXSXSXmXmXmXmXmXmXmXMXmXDXmXmXdXdXdXdXfXuXuXOXoX/.C.d.X.A Z Q ( $.&...oXfXuXuXuXoXoX^.XX`._.XXXXoXoX`.e.) X...X.W [ [ ) X.e.e.W Q | ' W ) K W ..0.a.` ` 0.e.X.` ) W ` ) W E ) ` W ) | _ ) ] ] ) w.K Q ` K K K K Q K e.K c K ) K K K c K K c K h h K K i c c c K c c h i h c h h c h p t h t t p p 5 .                                   ",
"                            X 9 h h s s s j s z x L ~ L z f b v z z k b W / L x b b b b x Z L c N U n v L E L R L ' ..E U U ~ L _ _ L L L N v G v L H B L L v / =.-.' ~ U b W ! W W U K K b b Q U b x c c h z z h p p p t 7 t t w.uXuXyXXXXXXX`.^.~.^.~.`.XXXXoXuXfXlXjX>XE.W.G.[.[.].;X:XOX>X X X X X X>X>X>X-XyXOXOXOXOXoXOXOX XOX[.].+X).].'.E.T.T.E.'.'.W.I.R.T.E.}.+X+X+X!.).+X!.).Y.).).!.!.).+X+X+X).).).!.+X+X|.+X|.{.{.|..X+X|.{.{.{.+X.X{.+X{.}.|.}. XOX.X.X|. X.X|.{. X{.|. X|.|.{.|.OXFXyXOX|.OX+X.X+X.X{.+X.X|.OXFX+X+X|.+X|.|.|.|. X+X|.OX|.oX|.|.].].].].].'.].].+X+X).).).!.)././.).|.|.|.U.U.U.Y.U.U.U.U.P.V.P.F.D.F.U.V.N.F.F.F.^.F.F.C.G.G.C.n.C.n.^.G.n.B.n.^.^.^.^.B.B.n.C.^.C.C.B.Z.~.~.~.v.v.n.n.n.B.e.e.s.u.r.i.a.X.[ X...~ B n n m g T X...X.^.fXuXuXuX>XoXXXXX`.XX^.XXoXoXoXB.b.e.W X.Z [ | ! 0.e.a.X.{ ..Q W ` ` W  .X.X.` Q ....| |  .) [ ! | ) E ) ] ] W W ) | ] | K ` K Q K K w.e.e.e.K K G c | K K K K w.K K K h K c K K K K c c c c c h c c i i p h h p h h h h a 7 . .       X     X                   ",
"                              9 z a a f f d d a a f k v k k k L x B k i B B B E U z x b c b x b U W U v L L B v B P ] N B P ~ L U N n b L b b c b b b b b b b K ~ N P W ~ W Q b / U z L U b b v z L U Q Z d h z s d p t t t t d e.uXuXoXoXoXXXXXXX~.`.~.`.`.XXoXfXlXlXkX[.&.$.$.$.1.&.2.2.2.i.1.$.X.X.$.=.=.=.=.=.{ ' =.{ [ { / ` ( { [ / / / / / T ! T ! ! T Z A Z A Z T ^ ^ A T / T Y T Z A Z U T ^ ( ~ ^ A Q T ( <.} ~ ^ Y ~ -.;.;.( ( ( ;.( ( ;.} ;.<.} / } -.<.<.<.1.-.-.=.-.<.-.-.-.<.h.j.h.3.p.f.j.3.=.3.j.3.4.3.3.3.h.=.=.2.3.1.3.1.3.p.=.3.u.p.f.p.l.j.f.i.1.1.1.4.p.2.-.-.<.=.p.1.2.1...<.3.1.<.X.} %...%.1.1.2.X.( ( X.X.} %...$.$.X.$.X.%.` } ..[ ` %.e.X.` 0.0.` ` | [ X.| | | | ` | ..| [ | | | q.` ` ` Q _ ` w.` W R U U U N U z c k s m w w w A ` $.&.G.fXiXuXiXuX>XoX`.`.XX`.XXXXoXoX~.b.b.[ %.%.Q e.e.e.e.Q e.u.a. .W `  ...) ..e.u.{ ` q.X... .` ' W ) _ R ` ` ] ] Q R w.W R Q ` R w.` ) w.` E W Q E K b K Q w.K c c K Q K K K K K K c c h c c c c h h t t h h h h h h h h h j 7 .   X   X     X     X               ",
"                            X 3 z f f a f f f k z n v k g x v v l B z k B k x B U U Q K b b x K z N E b B l L E Y N Y B v B P N L N v L b N b U v b b b b b c b Y E W W E W U n b L W ~ N b z x L U b n v x x z s s p p p t p h `.uXyXoXyXoXXX`.~.`.~.`.`.XXXXyXuXfXjXkX^.%.&.&.&.1.2.p.2.i.p.1.%.i.} ..} =.=.u.] { ] -.{ { { { ..X.} { ..{ / W W ! { [ { ..( / / / ! A A ^ / / / A ! ^ ( ( { X.{ { ~ ^ / / ( ( } } -.} -.-.-.;.{ ^ / / ^ ( / ( ( -.-.;.} } =.4.1.1.d.2.1.p.i.1.1.2.1.1.2.3.3.p.h.=.-.3.j.j.3.3.p.4.p.3.-.3.c.l.h.u.3.3.3.3.=.3.3.3.k.l.l.f.N.z.p.$.1.2.-.1.3.2.u.3.u.2.p.3.z.h.p.f.d.u.4.1.2.%.1.1.%.%.1.%...} $.} } &.&.$.X.X.X.X...X.....X.{ ` %.` ` X.q.q.X.| ......X.X.| ..0.X...X.X.e.X.| w.w.w.` ` ` ` ` ) ) E E E U U v z f h p 6 6 7 K *.$.%.e.iXuXuXuXuXoXoXoX`.`.`.oXXXXXoX~.e.b.e.e.e.e.) e.e.w.K e.{ [  . .W  .X.0.e.0.e.` ` X.0...X.| | W ) [ Q E ) ) ) K q.K ) _ ` ` ` I ` Q ) e.) Q K Q ` K z W K c K c K K K e.K K K K c h K c c h K c h h h h h h c h h h h h p t . X         X   X X                 ",
"                            X 2 k f a f f a f f z x x x k k B k x B v B k k B f z Y Q b b z b b v f b U N B P E Z P Y N k v v N U L b N b K b b b b b b b v x v U ~ ' Y U U N v U Y U ' U W b U W U z z b b x b k s p s p p d c XXyXyXyXyXoXXX`.~.`.~.~.`.XX`.yXaXlXlXuXG.%.&.&.%.<.2.2.%.%.2.2.1.u.2.} -...=...{ ' ' { | ' { ' [ [ { { / / W W T Q W { X.{ { / ~ / / T / / ! ! / T ^ T A ^ / / / ( ~ ~ ^ ~ W ! ( ( { { -.-.} ( / ~ / ( ( ( ( / ( ( ;.} ( } } 1.-.<.1.<.1.1.<.1.1.<.1.1.1.<.4.p.5.h.1.-.-.4.3.3.3.4.3.3.3.-.3.j.<.4.4.1.3.3.3.3.3.h.x.H.z.f.f.z.f.2.2.2.1.<.4.p.p.d.3.4.p.1.4.=.p.p.s.i.2.1.u.1.1.} } %.} } } $.%.$.{ ..$.} X.X.X.X.X.X..... .[ X.| ` %.q.X.0.X.X.0.0...q.0.....X.| X.q.| X.0.| ` ` ` w.w.` w.) W R E R U L b G z h m s 0 w 0 c Q %.e.&.>XiXuXuXuXuX>XoX`.`.XXXXXXXXoX`.n.q.X.l.v.e.e.K ` e.K `  .) ) 0.0.) E X...e. .W | X.X.| ..` | ) ` | ) R ) ) K R ` G ) R R w.R h R K ` ) U Q Q W Q W K K h K K K K Q h K K K K K K c c c K h K h c c h c h h h h h h h h s u * X X   X X   X X   X               ",
"                              8 f d f k g k f f z v z k k l B z x v v B x x l k f z z f k b n z x x v k N Y E E E E L L N N x x N b N b b b x v N n c v v c x v E U L Y Z E U U Q z c Y U U L U N z b b v x x k h s h a p p t ) oXyXoXyXyXoXXX`.`.~.`.`.`.`.`.yXuXdXlX>Xe.%.e.&.1.2.i.p.2.1.u.1...{ } =.-.=.{ ..=.] -.' ' ~ / / ! / / W U / W U W W ! W / [ { [ / ( ~ ^ / ! ^ W ! T T T T T / T T T / T / ~ / ^ { ( { } { ( ( ( { ;.^ / / ;.( ;.-.{ -.{ / ( ( -.=.=.4.1.<.<.2.2.1.=.-.1.=.2.3.p.h.3.3.3.1.j.-.-.=.3.1.-.3.3.-.3.3.=.4.=.-.1.3.-.3.p.5.j.M.j.g.f.1.2.i.3.p.3.3.3.5.2.=.3.2.p.-.<.$.<.%.} } 1.} } } } 1.1.1.1.X.$.} X.X.X.X.$.X...} ..%.X.X.0.q...q.X.X.q.| | X.| X.........X.X.q.q...0...w.` ` | ` ` R Q R Q R w.K R E Q R b v c z s m d w 6 0 h ! ` e.e.[.iXuXuXuXuXoXoXXX`.`.`.XXXXoXoXv.q.K ..z.i.e.` ` ` %.Q [ [ ) [ e...| X... .| ` X.X.0.0.0.[ | ) |  .| ) ` R Q ` ) G R Q K K ) K K G K K W ) U Q K K W G K K K c h K h c c K K c c c K c h K h c c h h h h h c c h h p h p t #     X                             ",
"                              3 f d f z k f f x l B B x x k k l B x x x v x z k x b k f z z c z x x v f L E ~ Y L N P N B x v v v x l B b v x z v N v v U b b W Z v K v W U z U L x U N k x k B b z B v k v z s d d a a h t i e.yXyXoXoXXXXXXXXX~.`.`.~.`.`.`.uXuXDXdX>Xf.%.1.2.i.2.1.1.1.} <.-.} { } } } } } { { { =. .{ { / { / [ [ / T / W / / / [ / / ~ ~ ^ W ^ T ~ T T T T T T T T T / T T / ^ / T ^ ( / ~ ^ / / / [ ( { { ( [ ;.( / / ^ Y ~ -.-.=.2.1.=.-.=.-.1.<.1.1.2.2.2.=.<.-.<.1.3.3.-.4.3.=.3.;.-.-.-.1.3.-.-.5.1.=.4.4.1.<.-.=.3.3.3.h.p.p.x.h.f.p.1.1.i.1.4.2.3.p.p.3.1.1.1.3.1.2.i.2./ / X.1.} / ( ( / %.%.u.1.X.X...$.X...X...X.X.%.%.X...|  . .| [ [  .| [ ..| | ` ..0.e.e.0.q...q.X.q.| ` | w.` q.` K ) | w.) ] ) R U R K G b z m d p w 0 7 d Q ` %.e.`.aXuXuXuXuXoXoXXX`.XXXXXXXXXXoX~.d.%.Q K e.e.| ` Q w.w.[ [ [ [ ) [ e.a.0.X.X.` | W w.` ` w.| ` ` ` R W ) _ K ) ) Q _ ) E K Q K I R K G Q ) G Q K K K G c K K c c K K K K K K K K h c c c h K h h h c h h c K p c c h h j 6 . X X X                             ",
"                            X 3 s s f k f f f f f k x x x k B B x k l x x v x k N b x b c z g c z z x k N N x b N N N l B B k x x x N x x x k v v v N Y ) b E T z v Z U U b L N v x Y U B L f k k s x k z z s a d d y a y t p n.uXoXoXoXXXXXXX~.`.`.`.`.`.`.oXuXfXlXaX>X%.%...$.1.%.%.%.} ....{ } { { { { {  .{ { =.{ =. . . .{ { ( / { / ~ W ! / / / W / W ^ T T A T Y T T T / ^ ~ / ~ ~ ~ T ~ ^ ~ T / T / ( { ( { ( { { { { / ( { ( ( / { / / ( -.-.=.X.-.1.<.-.1.2.1.1.1.} <.1.1.<.-.<.<.2.p.j.p.p.4.3.;.4.3.4.3.-.3.4.=.1.-.1.=.1.<.-.-.=.p.5.1.1.j.l.j.p.1.2.2.1.1.3.1.<.=.p.i.1.-.1.-.=.p.i.2.1.1.} %.( ( } / W } ( X.X.[ X.X.} ..X...X.} X...u.X.[ ...... .X...[ [ ..0.| | ..0...| [ [ ..X.X.0.X.` e.` e.` ` ` ) w.w.w.R R R E E E U G b z m d p w 6 5 w Q *.%.%.G.fXuXuXuXuXoXXX`.`.XXXXXXXXXXXXn.0.i.` e.X.X.| K K ` %.[ [ | ` )  .[ | X...` ` W ` ) ) ) | | | ` w.G W ) _ K Q ) _ K K W E G R K K G R G Q U K Q W K K K K c K K K c K K c K K K K c c c K c h h c K c K c c h h K h h v t *   X X                             ",
"                              5 s d s z f u f w u s f B x x v z z N x k v x k k v z n b c x z z x x z z v k x N P P B k k B B N x v B f k k x v N b v U v b U c g v Z v f c v Z v v B B k l x B f u z z f k x d p p p u 7 7 a ~.uXoXXXXXXXXX~.~.`.~.`.`.`.`.yXuXaXlXsX[.e.%.$.%.<...1.2...2.-.-.=.=.} { { { { { ] { ' [ ' { { { { [ / ~ T ~ Q T ~ [ / W U Z Q T T ^ T ~ T T Q ^ / ~ / / / ~ T A N T T ^ T / / / -.-.<.{ ( { } -.-.;.{ ( -.;.( ( } { -.4.-.=.} 1.1.} / <.1.1.p.p.3.1.} } } -.4.<.p.h.l.5.4.;.3.=.=.1.3.1.=.3.1.3.p.-.1.3.4.=.3.j.h.p.3.j.h.p.3.2.2.1.1.1.<.-.<.1.2.1.<.<.<.( -.-.$.<.2.2.i.1.X.( ( X.$.....X.X.X.} ( X.( X.{ ..( ....{ ..X.{ [ { [  .{ )  .0.e.X.X.| ..0.0.X.` ) `  .%.` w.q.` X.w.w.w.) K K K K K K R E G G v l k s p p t 7 3 4 K ( %.e.e.aXiXuXoXoXuXoXXX`.XX^.XXXX`.XX^.e.) K %.` W ` ` ` Q e.[ ] [ |  .e.0.e.` W ` | ` | W ` q.| | ` _ | ` ) _ K R ) Q R R R R W E Q Q Q R ` ) R G G W Q Q K K K K K K K K K K K c K K K c h K h K K c K h h c t c h h c h h z p * X                                 ",
"                            X 3 s s f k f f k u f u a j x B B x l B k k B k s z n n c c n n c z z z z z v v B v N N B k j k x k x v z z x k k z b N k x v g z x z c K z k f s c z z z z z k g B b a f g a d f f s p s t t 5 c oXyXXX`.XXXX`.~.~.~.~.`.`.~.`.yXfXlXlXuX(.e.%.1.%.} } 1.=.-.} -.} { } { ( / { { { { ~ [ / / / | / ( / / ~ ^ T ~ ^ ~ T W Z Z T A Y T ~ T W A T Y T T T / T ^ T / ~ ^ ~ ~ ~ ~ / { ..{ { -.{ { ( -.-.' { ;.-.( -.{ ( / ( { -.-.1.-.} -.( / ( } } <.1.1.1.1.<.<.1.2.1.p.3.4.h.p.h.1.4.;.1.=.-.-.p.-.1.3.-.-.-.1.1.1.j.p.3.1.p.p.4.2.} { } } 1.=.2.1.=.2.1.} X.} } } ..%.{ / ..} <.i.%.%.X.X.( ( X.%.$.{ / [ [ ( / / / [ / / { ....X.{ ) ( [ ` X.u.0.X.| ....0.0.X.| | | ` q.q.` ) R ] ` ` ` ) ) K K R K H K K v G c c z s p t 6 6 7 7 n / X.%.e.>XfXuXoXoXoXXX`.^.XX`.~.XX`.XX`.b.w.w.| | | ` w.e.w.w.` ) | X.X...e.e.| ` e.e.| | | ) X.K K ) Q _ R E K G _ ` R R G R K R E ` K W K H K K K v K G ` K K K K K K h h c K K c h K K c K K h h c K c t t K h h h h h c c k p & X                                 ",
"                              3 s s f f s i x u f u i f f f l x N x k v x k k z x v k k z z z z z n c z z k x v N N x f f k f k k k k k k x g x x B x l x v x f h b b z m s z k k k k f k k z l f u j p y d p p t t t t t 5 I yXyXXX~.~.XX~.~.~.~.~.`.`.`.~.yXfXdXlXuX[.&.%.%.` e.e.&.%.<.1.=.-.} { X.{ / { { X.X.X.X.{ [ [ [ [ ! ! [ / / / ~ / / ( T T T T Y T A Y T A Z Y T T T T T T T T T T T ^ ~ D ~ ~ ( { / ^ ~ / { ( } 1.-.;.[ / { / ( ^ / ^ [ ;.-.;.-.{ <.X./ -.} } } $.} $.1.} 1.3.4.2.<.3.<.<.<.3.j.4.} <.$.( -.1.( <.<.<.} 2.%.<...2.2.$.$.p.f.2.4.%.} -.=.-.-.-.-.-.-.-.<.} <.( $...X.( X.( %.$.X.$.} ( [ X.` ( X.X.} ....} } ..[ { { ~ / W W / { / X.( ` [ X.....| X.e...X.X.| | [ ` w.` X.X.` ) ` ` ` w.) Q K K K U G L L b z z h z f p q q q 7 7 x ! X.&.&.oXuXuXuXoXuXoXXX`.^.^.XX`.XX`.XXe.w.e.w.` w.w.e.Q ` Q ` X.X.X.q.` ` %.` ) X.e.e.X.w.` | G G Q R ) R K _ R K G ` W K _ W ) [ { Q L v z c Q U b K ` K K K K K K K K c K c K K t h c i i K t c c h h h i c h h h h h h h m t & X X X                             ",
"                            X 5 s f f k f k i k g f x u f x x f v k B v f x x k f f k g f z z z z z z x z s l k v v k x x x f f s s k k k k f l l x k B x f k f z x n h k k d s d s s d a k f k y y k u 7 p p t t t t t 5 t e.uXoXXXXXXXXX~.~.~.~.~.~.`.~.XXoXfXaXlXpXG.$.%.%.%.%.%.%.%.u.1.u.1.-.{ -.( / { } { } [ ` ! / [  .! ' / ( W T ^ ~ / / { / ~ T Y A T Q T ^ Y T T Z T T ^ T Q T T T T ~ Y W ^ T T ~ ~ ( ~ { { { ( { { ( ^ ^ ^ ^ / ^ / ^ ~ ~ [ -.-.=.-.-.} ( -.( ( } %.$.( ( ( } <.1.<.1.-.( ;.<.[ 1.p.( } 1.( } 1.X.} =.%.} $.} <.} } $.X.( %.1.$.%.%.$.} } <.=.} } -.2.1.} { } $.$.} $.X.X.! %.X./ } X.^ X.! ! X.! ! X.X.%.....} } / { / / / W / W W ' W W [ %.X.%.X.` [ | X.X.[ [ | ` ` ` q.w.` ) R ) R ` Q w.I K R L U U G G G v h k s p p t q 7 3 s T [ X.e.`.uXuXOXoXoXoXXX^.^.`.~.`.~.XX`.~.w.e.e.K K %.Q K Q Q w.q.` ` ` ` ` Q ` ` K Q X.e.` ) q.Q R R P ) Q K G K K K G _ R G b W E d b U L W N n c c K ` K K K K c K c c K c h h K t h K c h h i K K h K c h K i h h i h h h h h 5 #                                 ",
"                    X X   X O 7 s f z f B f f k u e x u f x f f s k x f f k l k g s s f h k z z h z a j s z x f f x x x k f u f f f d f f k f f a s f B k a z f z z h s s d d s d s s p a f p a y q y q 6 a t t t t t 5 5 t e.uXoXXXXX~.`.`.~.~.~.~.~.~.~.`.uXDXfXzX>XG.%.%.%.%.1.$.X.( =.-.-.=.-.{ / { ( [ ( ! ( { ` ! ` [ X.[ ! [ { { / T ^ / T T ( ^ ^ T U Y W A A T Y ~ ^ ^ ~ T ^ / T T Y ^ ^ W ^ ~ T ~ ^ ~ ~ ~ / ~ ~ ( T / -.^ Y ^ ^ ( ( ~ ~ ^ ^ ^ { -.( ( ( { X.( } ( } ( $.$.1.1.1.1.$.} -.} } <.1.} X.( <.<.1.1.2.1.1.{ } 1.<.} ..$.$.%.%.1.$.1.i.%.} $.1...} =.2.} / 1.u.1.} } $.*.X.X.*./ ( ( ( } ( / X.! ( ` ` ( ! ` ` Q X.{ X.{ [ ~ / ! / ' / / [ / W W X.( X.X.X.$.X.` ` ! [ ` [ X.w.` ) ) ` w.Q ) _ R Q ) ) ) Q K L G G b k l j s p p 6 6 6 6 5 3 p U T } %.n.uXuXuXXXoXoXXX`.`.~.~.~.`.~.`.~.w.w.e.K K c ` e.Q K | ` ` ` Q Q ` Q K %.` ` ) K R ) Q R G J K ) ` K R R H H G G c K a v b s v U W n s z K b c K K ) K K K K K K K c h c c c c c K c i h c c K h i h h h h h h h h h h h Q h 2 o X                           ",
"                        X 3 3 q s s s a f d a f u f u f f f i f k v f s k z k g z v f f f h z z z k s s a z a f z v k k f f f f d u d a a y j a u f g l s p s f z f d k d d s f s f s d y u q y y q y y u w 6 6 t 7 t 5 5 i ~.oXXXXXXXXX~.~.~.~.B.~.b.~.~.`.uXfXkXkX>Xe.%.%.%.%.%.%.} ..{ { { } } { ( X.} { { X.{ ! [ [ ! ( X.! / X.{ [ T T / / ~ T T U T ~ Y A A Z Y Z N A ^ T / ^ T / ^ T T Q Z ~ / / ^ ~ { { ~ / ~ T T W / { ( T ^ ~ ~ ( ^ ^ ~ / ( ;.-.( -.-.( ( } } } -.$.<.} $.$.1.<.<.$.$.} $.} =.<.( ( / { X.} } } { u.2.$.1.} } %.&.%.<.%.<.1.%.i.2.$.$.} ..( } } } { <.1.-.{ ( ` ! T W Q ! ` X.} X.( X./ [ ( / ` X.Q ! X.( / X.X.} [ / / ~ / / [ / / / ! ( W X.%.` W ` [ ! ( %.e.| ! ` ` R ) ` | ` Q ` ) w.R R ) _ K ) E G G v z s s a p p t 6 6 7 5 3 w U ! ( &.e.uXuXOXXXXXXXXX`.^.^.~.~.XX`.~.~.w.w.e.w.e.%.Q w.K K ` ` ` ` ` ` Q ` ` ` X.q.` ` ` R ] Q c c K K K K H G G K K H G K b U n c U Q U U K Z v b c K K K w.K K K K K K w.K K c w.w.K h h h c K h h c h h c h h h h h h h h h e.e.` d $ X   X                     ",
"                    . & 4 q 7 y s d f a u a f u s k a l i u q f s a s a s z z z v z k z f f h z c k k d p a p k a z f x z k f k f a f s s a f k f f f f a p s f z f s h d p d s s s a a 7 q q q y q q y t y t t 7 7 5 5 t H `.oX`.XXXX`.~.~.~.~.~.~.~.~.~.~.yXfXzXuX>XG.` %.%.%.$.1.i.1.} ..} } -.{ { ( ( { } 1.../ [ ` / [ { / { { { W / [ ~ ~ T Y Q ! Y A Y Z A T T U Z Z T W T T ^ / T T ! / ~ ^ ^ / / ^ ~ { / ~ / ~ W W / / ( ~ ( ( / ~ T ^ ~ -.( ( -.-.} { ( / X.( ( ( 1.2.2.$.X.( $.4.$.( ( } } } ( ( / ( } <.X.( X.X.-.2.%.$.%.%.2.2.1.%.%.%.$.1.i.%.%.} { { } } } { { } $.} ( ` X.X.$.*.X.$.$.( X.( X.( / ( ! X.` ` ! ! W [ [ { X.X.{ ! / ~ / / / / / ~ W ! ( ` ` ( ! ! ! X.X.` %.` ` Q K ` ` Q K R w.) _ R ) R R R c G K R b c c k s a a a y q t 5 3 2 6 Z / ` } %.XXuXyXoXyXXX`.~.~.~.~.~.XX`.`.`.w.w.K Q K K K K K K c K K Q K Q K Q ` Q Q ` Q Q ` ) ) K K K Q G G G G R G K W R ) J z G K G Q Q G K U b c c G b K K K K K K K K K K K K w.h K h h h h K h c h c c c c h h h h h h h d c *.K Q Q c 9 X                       ",
"            X     . 7 y d p d z j d d d d a s a s d k f f f f f d a k k s d d b k a z h d d d h k s t t y q p k u f s f f B k f v f p a s f k Y z f s d s s s s s s d w s s s w 6 w p p 7 7 7 5 7 7 5 7 3 3 3 2 9 9 & & 2 K XXXX~.`.`.~.~.~.`.XX~.~.~.~.~.XXuXfXaX>X[.e.&.%.%.X.%.1.2.2.} { ! } { { { [ ! { X............./ [ { { ! W W / ~ ~ ~ Y Y Z A Y U Z / Q A Z T A Z Z A U A ` ! Q / ( } { ( / { Z Y ^ ~ ~ ~ ~ ~ Q ! W T ^ ~ ! / T / ( ~ / ~ ^ / ( ( ( / W ( ( ( ( } $.} $.} $.*.} %.$.$.} $.*.} -.( ( -.} <.( ( } $.<.} } ( 2.g.i.i.%.i.i.i.i.2.2.%.%.&.} } $.{ X.} X.( X.$.[ ( ( X.( ` *.&.` $.$.! [ [ [ X.! ` / ` Q Q Q ! [ / ( [ { ` [ ~ / / / ` W / W W X.Q ! X.Q ! ` ` ` %.X.$.X.` %.K ) Q K K R Q I ) K Q K K G H G G c v c k s d u t t t 7 7 5 3 7 n Q ` ..[ ^.uXoXoXoXXX`.B.`.~.~.~.~.`.~.~.e.l i i t t i t t t y h a q p h i h p p d p p p d d d a h h j s d a h h j a h h h h p s h s s d k d d d p t h h h l h h h c h h h h c h h i h c h h h h h h h h c K c h t t t K t h t h h h h h c m 5 .   X X               ",
"              X & 7 s y u f l x f a y a p p u a u a g a s s x x z d s v v z f U n k U b z z c c c c z c v v v L L L b L T ~ E ~ ' U Y R Y Y E E E E W W E W ~ W T U z d c U c h a f v c s f a u q q q q 7 5 5 5 5 2 2 5 t w.`.^.`.XXXX`.~.~.~.e.~.e.~.~.~.XXuXfXaXuX;Xg.*.*.*.*.( [ ( ( ( / U ^ } / } ..` ) [ ..X.....a.u...{ { { ..{ { [ / W Y U Z Z U Z T U T T T U T ! Q U A ^ T ^ ! / / Z T T ^ ~ Y ^ ~ ~ ~ ~ ^ A A Z A A Q Z T T ^ T A T ~ ^ T T ^ / ^ ( T T / / ( } %.-.-.$.$.$.} } $.( $.( X...} } } ( { ~ [ / X.} $.4.<.2.2.2.1.&.1.i.i.g.g.l.i.&.i.i.3.$.( ( X.{ ( ( / %.( X.` ` ! ` Q ! ! ! Q ` X...X.` Q ! ! ` / ! Q T T ! ( ( [ / ` / W W W ! Q Q ! X.! ! Q K $.` ( X.` ` $.X.` W ` ` ` w.K K K Q K K ) K R K K G G K b c c c h s p t t 7 7 t 5 7 8 7 z U W X...C.yXoXoXXXXXXXXXXX~.~.`.~.~.`.~.~.w.w.c c K K K c K ` K K b K Q K c K c K c c c h z c c h s a d d d y p p p p p p p p p p p 6 t t t q p p t y y p y t t t i t t t t t t t t t p t t t t i i t h h h h t t t t h h t h m h h h c m c c 6 .                   ",
"            X 8 d f k a k f f k z f f k k f k k N g k B J B N N U U W ~ Q W Q ` ~ W / E Q W Q W W W ) ) E _ ' E R ~ ' ' E ~ E E ~ Y ~ E E ~ ~ ~ ~ E Q Q U b N U U v K b b b n c v x n c a z z f a a y a h j t t t t t t l e.`.~.e.oX~.~.~.~.e.~.b.`.~.~.~.yXuXDXkXuX[.e.&.&.&.&.*.( X.X.( / ( ( ~ T ..e.| [ ..e.......1.%.{ X.X.{ ..} 1...} [ T Q A ^ W T / / / / / T T ! ^ ! W / T ! ( ( / ! / / ~ ~ ^ { ~ / / / ~ Y Y Q Q ! Q A ~ ~ ( ( ^ / ^ T ( ( { ( / } ~ ( ( } ( $...;.-.} $.$.$.$.$.( %.( } 1.1.} -.-.;.<.<.<.<.=.-.3.=.%.$.$.$.%.%.i.f.i.g.d.f.f.f.i.p.2.%...} } } -.} u.%.%.$.X.$.( ! ` $.` ! ` %.%.X.( W $.$.( X.$.` [ X.[ X.$.%.} } { / [ / X.! X.$.X./ X.` Q X.X.X.$.X.X.| %.%.` %.` e.q.) K w.` ` ` Q ` I R K G K K b b b c h h d p p t t 7 7 5 3 8 a U ! X.e.a.>XoXoXXXXXXX`.`.~.~.~.~.~.~.~.XXq.w.e.e.e.e.e.K w.Q K X.` Q Q ` Q ` ` Q Q ` ` ` ` K ) Q ` ` K K K K K K G G G v c b v c c v c c b v c b v G c G c c c c c K K c c c c c c h c c h K K c c K h h h h c h h h h h c h m h m h m d d d p &                   ",
"            . p x x j k f k k g k k f k z g f z x k f f f f f f z z k z f c z z z z c m k h m h h s z l s s z k a f k f k z g j z k k k s k f g k x x z v x c z k s z z s s s s f s f s s m f p f f u a a u s u y t t t h B.`.~.~.~.~.~.~.B.e.B.~.~.~.~.~.yXyXfXuX>X(.e.g.f.f.e.i.f.i.2.%.&.$.%.<.2.&.e.%.e.e.i.e.%.%.....2.2.&.$.$.e.&.2.$.%.( X.{ } / X.X.1.$.} ( / / / ! / / ! / / ( ( / X.X./ / / X.} } %.%.} } ( X.` $.&.*.` $.%.%.&.<.-.1.<.} $.%.$.$...} -.1.3.=.3.3.3.3.i.i.3.p.2.4.u.1.1.3.p.3.p.3.p.h.h.h.h.p.=.j.h.p.l.g.f.p.g.M.l.z.Z.V.Z.s.x.p.z.i.1.p.h.r.=.p.d.d.i.d.u.2.u.i.&.%.%.i.i.1.f.i.i.2.&.e.e.e.%.%.%.&.i.&.p.d.f.i.p.g.g.p.i.i.u.i.e.&.%.%.e.e.%.e.%.e.%.%.e.e.%.e.e.e.e.e.e.e.q.%.e.e.` %.%.%.X.$.! Q W ! Q A K K M c h h h w 0 7 4 8 8 w K ` ` e.e.uXoX^.`.~.`.`.e.^.~.~.~.~.`.`.`.q.w.` X.e.q.) K W ` c K ` Q K ` ` W ` U K W W Q Q K ) ) K K R Q K K G K U G G b G K c b b b c v b G c G c G c c K K c K K c h c c c c G c h c c c h c h c h c c h c h K h c h c K h z m m c h m h s s &                   ",
"            * p x k k k f k k k k k z z z z z z k k z f k z z z g z k k g z h g h k g h h h k k h z k h h k j k k f f f j a d s d s f f d k s s j f k g k k s g s z s s s s s p p d p q f p u p a x f y q 5 q s t t t t G ^.^.~.~.XXe.~.~.~.B.b.q.~.b.~.XXyXuXfXpX>X[.z.g.z.z.g.z.l.g.p.f.f.f.g.g.z.g.i.g.e.e.&.i.%.2.&.$.f.z.D.g.z.k.z.f.i.p.f.j.5.p.p.1.2.i.3.p.d.i.1.1.%.%.1...u.%.2.i.2.%.i.2.i.2.%.<.f.f.f.f.f.s.f.&.i.e.g.f.g.i.f.g.4.3.l.D.z.l.g.f.g.s.l.l.m.M.x.m.x.N.N.N.U.N.N.V.H.N.H.M.N.H.H.H.N.H.B.m.H.N.N.H.H.H.!.'.].].F.(.[.)./.@X!.Y.U.F.F.N.H.H.H.H.m.N.H.H.H.F.G.U.~.F.Y.n.M.l.N.F.F.F.F.F.M.g.G.G.G.n.n.G.G.G.m.G.^.G.~.G.^.F.C.C.G.M.m.^.G.D.C.G.~.n.F.M.^.G.n.C.n.n.&.n.C.~.~.C.C.C.n.G.e.e.n.e.e.e.e.f.e.e.f.e.&.&.&.! ! *.Q K K M m h m p w K Q Q %.&.uX`.~.oX~.`.^.^.`.~.B.~.~.~.`.oXe.` q.c ` ` w.K Q K R h ` e.K %.` E ` Q Q Q R Q K Q ) W ) Q Q Q G c v v v G G v G K c b v b c b b c G c K K c K K K K K c K K c K c G G c c c c c h c c c c c c c h K h h h h h h h m c z h c c h d h &   X               ",
"            . p k x k f f k k k g k k f k s f h k k g z g z s z k m k k f f h h s s h h h h h k h z h h k j s a a a d a s a a s d d d d s d s s f s f z d d s c x s z f f d p d p p p q s f a p f p q y s a a q 7 t t t R `.~.~.~.~.~.~.0.~.B.~.~.b.~.~.XXyXuXDXpX>X;X[.[.;XG.;X(.I.G.D.G.G.(.;X X(.G.G.D.D.G.T.G.G.Y.I.W.[.{.'.Y.T.'.(.[.W.I.'.Y.'.'.|.).Y.'.}. X|.'.).U.U.U.Y.U.U.).(.Y.Y.Y. X)._.].}.[.>X].T.[.[.[.[.;XoX[.[.[.Y.).'.].'.|.}.-X;XOX;XOX.X.X8XyX8X8XyXyX8X8XyX8X8XiXiXiX8XaX8X8XiXaXiXiX8X8XyXFXyX8XFXFX8XiXaXsXfXaXaXaXpXpXaX8XiX8XiXiXiXiXiXiXiXiXFX8XiXiX8XiXiXiXiXuX>X>XOXOXOX8X7XuXaXiXuXuX>XuX>XuX>XuX>XOXiXiX>XuXuXOXOXoXuXuXuXuXOXyXuXoXOX>XiX>XuXuXiXuXuX>XuXuXuXaXfXdXuXuXuXuXuXuX>X>X>X;X>X;X>X;X;X[.[.;X[.(.;X[.(.G.g.z.e.e.%.` X.Q K c K Q e.Q e.oXXXoX^.`.~.^.^.~.B.~.~.~.~.~.e.w.w.` ) K ) Q ` R ` c K Q Q %.` W X.` ` E E W ) ) K W Q Q R K G v G c z b G E c c K c G b G c K K c c c G c c c c c c c c c c c c c c c c c c c K c K c c c c c h h h h h h h h h z h h h h h h h s 9                   ",
"            . p z k f k k f f f f f f s s s h m k g f f j s s s m h h z k d d d d d d h d h s f h h z h s a a a p d a a d s d f s s s s k d s s s s s p h z s z z p d z d q t p p d p y a p a a u 7 q 7 f k i 7 7 t t u q.~.~.e.e.~.B.q.B.B.~.e.b.~.~.~.XXyXuXfX0X:X>X7X>X>XuX>X>X>X>X-X-X>X;X>XpX9X;X[.[.;X;X;X;X>X-X;X7XpX>X;X-X-X;X:X0X>X-X8X7X7X7X4X:X>X7XpXfXaXpXiXiX7XpX>XpX7X7X0XiXiX>XiX8X7XpXaXpX>XiXpX>XiXpXiXkXaXuXpXpXuX0XiX7XsX7X0XpXpX>XsXfXsXsXfXfXsXdXdXlXdXDXDXdXlXdXdXdXlXdXdXdXdXvXDXDXvXlXDXDXDXDXDXDXvXDXDXmXlXvXdXdXdXdXdXlXdXdXDXlXmXdXdXdXDXDXdXdXDXvXDXvXvXmXdXlXdXlXfXcXfXDXdXlXlXhXdXfXzXlXlXsXcXlXcXdXlXfXdXdXlXuXdXDXlXdXlXlXlXfXfXdXdXfXlXlXiXDXDXDXdXuXdXfXDXDXmXDXDXDXDXDXhXfXaXuXfXpXpXuXuXuXpXiX7XuXpXuXpXuXuXuX>X;X(.[.G.M.&.&.e.%.K Q K ` e.uX`.e.uXXX~.~.~.~.~.~.~.~.~.~.B.) K ` ` K K K ` q.Q Q Q K K q.` ` } ` W Q ` W W Q K K K K K Q G c c K K U G L U c c c K c K k c K K l c G K K K K c K c c c c c c h c c h h c h h c c c c c c c c K h h h h h h h h z h c z c m s k 9                   ",
"            . p f s s s f f f f a j f f h h h h h s s s s s s s s h d h k h s s d h d d p d p s s k k f p s v s f a y a z h d s h f k z z c d s b b c k d p 6 6 p p p d p d p p p p p d u q y q q 7 7 q q 7 5 7 t t 7 y e.`.B.B.~.B.B.e.B.B.b.B.B.~.~.`.XXyXuXfXiX>X>X>X0X0XpX7XpXpX0X>X>X>X0X>X>X9X0X>X>X>X>X7X7X0X>X6XpX0XpXpXsXpX>X:X0XpXpXsXpXsXsXpX0XsXsXsXfXaXsXaXsXaXfXaXdXpXsXsXsXaXsXaXpXpXpXaXsXsXkXaXpXsXsXsXsXsXsXdXlXdXaXdXsXdXdXlXxXdXdXxXdXdXdXdXdXdXdXlXmXdXmXdXmXmXdXmXvXDXDXvXvXvXvXdXDXvXDXdXdXlXvXmXDXvXDXvXvXvXvXmXlXdXmXlXdXDXDXDXvXlXdXDXmXDXvXmXvXDXvXvXmXmXmXmXDXmXDXlXvXvXvXDXlXdXdXlXlXlXdXDXlXlXDXDXDXmXdXlXdXlXDXDXDXmXDXDXDXdXfXlXDXDXlXDXdXlXmXdXdXDXdXlXlXDXDXDXDXDXmXDXlXDXDXDXdXdXdXkXdXaXdXsXdXuXuXDXlXaXuXhXsXuX>X>X>XoX^.~.n.z.e.e.K Q K e.uXoX`.XXXX^.^.~.~.B.~.B.~.^.B.B.q.q.K Q ` ` Q z K X.) ` ` ` ` ` / [ ! W ! K E ` K K K K K K K G c b G K G U v G K K K p c M K h h p c c h K K c K c c K c c c c c h h h h c c c h h h j h i h h h c c h c h h h c c c c z b z k k h 2                   ",
"            * q s s s s s a a f f f s s s m d h d s a d s s s f s s d d s s p p d h d m d s p s h k d h t y s d d f a q d s d d d d d s s s z f z x x p p q p k p d p d d s p y p y d s q 5 u u y y 7 q 6 7 7 7 7 t 4 d B.^.B.B.~.~.~.e.y.B.b.b.q.B.e.e.oXoXfXfXpX0X0XpX7X>X>X7X7X>X>X>X>XpXaXpXpX>XpXaXsXsXsXsXaXsXhXdXaXpXpXaXaXpX6X>X7X7XpXpX0X0X6XpXpXiXsXlXhXhXlXsXsXhXlXhXhXhXsXaXaXlXkXlXhXaXhXaXaXhXhXhXpXhXcXlXcXvXdXcXcXlXdXhXdXlXxXsXsXdXsXsXdXdXdXlXdXdXvXDXdXdXDXvXDXdXDXdXlXvXlXDXlXDXvXvXlXDXDXvXDXDXDXdXDXDXDXvXDXvXDXlXDXlXdXmXvXDXvXdXvXDXDXdXDXDXdXlXDXDXDXDXdXmXdXdXlXDXdXmXDXDXdXDXDXfXdXaXdXfXfXdXlXfXfXfXlXlXfXdXdXdXfXdXdXdXfXdXdXDXdXdXdXdXfXdXdXfXfXfXfXfXfXfXfXDXDXDXDXDXDXdXdXdXdXDXfXkXdXdXfXaXuXaXpXaXdXfXaXaXuXaXfXuX>XuXuX>X>X[.^.n.n.e.` K Q ` XXoXe.XX`.^.`.e.~.e.~.B.B.B.e.B.0.0.K K K K K K G K ` ` ) K K ` [ Q U U U b K Q K K K K G G K G h h c G G U G z K K K c c h K c h h K c h K h c h h m c c c K K c h h K h c c h c h c c h c c h h c h h h t h h h h h h h c c c z z 3                   ",
"            * 6 s s a f s a a a s d d d d d d d s d d a d d s f h d s p p h s p s p d d p d p p s z f z s p p f y a z z p d s s s d h f d k k s d z d d f y p p y d y p p d p p p p p 7 q y y y y q y q 6 q a 7 5 5 7 c n.B.~.e.e.e.0.e.e.e.e.y.b.b.b.e.oXoXyX^.D.G.D.D.G.G.U.F.G.G.G.A.D.G.^.G.G.(.G.^./.^.^.(./././.Y.G.N.M.G.G.D.D.l.z.l.l.x.P.x.z.z.z.M.M.z.D.M.D.D.F.D.D.z.D.z.N.M.z.A.M.l.D.D.D.A.G.D.G.G.z.D.G.N.B.M.N.N.U.H.G.M.N.x.D.H.x.N.A.H.H.H.V.V.U.H.U.F.H.H.N.H.V.C.V.V.H.H.H.U.H.U.U.H.H.@X@XH.H.!.N.N.N.H.Y.H.C.H.H.U.V.V.C.V.H.V.N.m.@XZ.@XH.H.V.m.N.V.N.N.V.V.V.C.N.V.V.C.V.V.m.z.m.C.m.D.v.M.g.z.g.g.g.g.n.d.v.d.g.d.v.b.a.v.a.d.d.v.v.B.g.a.g.g.e.i.u.d.s.n.n.b.b.e.n.n.e.e.n.e.n.n.e.e.e.e.e.e.e.e.v.e.e.e.e.e.e.e.e.e.e.e.e.e.e.e.X.X.` Q K M h t K w.K e.XXe.`.`.e.e.e.B.e.n.B.n.n.n.e.q.` K K ` K K K c c K ) ` K K ! ( Q N L U Z K Q G G K G K K K c b b h H H H G v c h K c h h c c c K h c c c h h h c h c h h h h c h c c h h h h c c h h h j c h c c h h p p h h d p i a h m h h j a 2                   ",
"            * d f s d d f a a a a p d p s d s s s f d p d p d s d p q w d z s p s p s p 6 6 p p t w y a s p y d p a p s d s s h d p s m s s s d p p y p p t p w 6 6 6 y p d w q 6 7 7 5 7 7 5 5 5 7 7 7 7 6 y 7 5 3 3 G n.e.e.e.e.q.q.q.0.0.e.0.b.y.e.e.~.oX`.w.^ ^ T T ! W W ! ! ` Q K Q Q ! W Q Q Q U Q Q Q K Q Q U U U U Z K G M b b Z b B B Z Z Z Z M Z M M K K n N n b n M n n b n b M N M M b N N K A Z K Y Z U Z Z N N B N N Z B N B Y A N N N A N N N P Y P T Q E W P Y Y Y Y Y E ~ T _ ^ ^ E ^ { ~ ( Y I E E ^ ~ Y / ~ ~ ^ T T Y Y Y ~ ^ E ~ E -.-.' ' -.;.~ P Y Y Y Y E T W W W ~ W ~ ~ Y W W / ~ T ! K Q Q Q T T Q Q K Q Y W U Q R Q Q Q K K K R Q K K Q Q Q U U U Q U E ) Q K R Q Q _ _ ) R ` ` ` ` q.Q ` %.` K ` ` Q Q R Q ` R K ) R Q R K K c G c m d w 6 5 h K K ~.XX`.XXe.e.e.e.e.e.e.e.n.b.B.e.q.p 3 5 5 3 3 5 3 , 3 3 3 3 3 8 8 3 3 3 3 3 3 3 3 3 3 5 3 3 3 , 3 3 3 2 3 3 3 3 3 9 9 - 3 3 9 9 3 9 9 & 9 9 & - - & & 9 & & - 9 # # 9 9 9 9 9 3 9 9 9 9 9 9 9 9 9 9 9 9 9 9 - 3 & & $ & & # # & & & *                   ",
"            X & & & & & & & & % & & & & # # # & # # # # # & # & # # # # & & * . * $ # # # # # & * # . . # # # # # . . # # # # # # $ & # & # & # . * # # # # # # . . . # # # . * . . . . * . * . . . # . . . # . . . & R v.i.e.e.X.X.| X.0.0.a.a.b.b.y.v.~.oX~.T T Q Y Y Q Y Q Q U U U U K U K K U U U R U U P L L G G Z L G G L b L H v Z N b N B B Z N Z N n B B b Z b B Z Z b b B b N b N N N N N Z Z N U Z U Z U Z U U U N N Z N B B B B N Z Y T E Y Y T ~ ( Y ~ E E Q W Y T W Y ^ Y E ^ W T E ~ / ^ ^ ~ ~ P ~ Y P Y T P T P _ ~ E ^ W T W ~ ~ ~ / { } =.{ [ / ~ ~ ~ ~ ~ W / / ' / / W ! / ~ ~ ~ E ~ ^ Y A ^ T Y Y Y E W ~ Y W W E Y E Y E E E W Q Q ) Q W ! ! Q Q Q Q T W Q Q T / W Q Q ) ` ` ` ] ) ) ] ] ] ] _ _ E ) _ R _ K E _ ) E R _ _ R ) _ U K K K G h m p t 7 w K M e.^.e.e.e.e.e.e.e.e.n.b.n.b.b.e.q.5     X       X                   X         X         X     X X                                     X   X X     X                   X X     . . X X   X     X X     X X           X X X   X X                         ",
"                                                            X                                                     X X X                       X                                                   X                 & | d.e.e.e.e.| | 0.X.0.0.e.0.y.0.b.v.uX~.` W Y Y Y U U E U U E R U U K U G U U P L P L L G L U L G L G L L L v v G b G b B B B B B x B B B n n Z b N N N b N b b U N b b K b L b L U U U L U U U U U A Y U N Y Y A Z Y P Y ^ ^ ^ E Y E ~ ^ Y ^ E T Q T Q T Q Q T T T W W T ~ / { ~ ^ W ~ ^ / ^ ~ T E ^ ~ ^ ^ ^ T ~ T T T / / ( ~ ' { {  .' ~ Q T T T ~ / / W / ) W W W W W ~ Y ^ ^ E ~ ~ E Q Y Y Y Y U T Y E U E U P U E E E E Q U E Q W Q Q U U U T U U Q Q Q ` W Q ) W ) W ) ) ) ) R R ) ] _ _ _ ) _ ) _ _ R I _ P R R G K P R U R K K G h h p 0 8 6 K K X.^.~.e.C.e.e.e.e.B.e.e.b.e.B.e.0.t X X X   X X     X   X       X     X   X     X X       X   X     X X X X X X X X X X X X X         X   X                                   X X                 X       X X   X   X     X X     X X                   ",
"                  X                             X                     X       X X   X         X     X       X       .                           X                                 X   X X X     X                 X 3 0.d.0.0.e.e.X.X.e.0...q.0.e.0.y.B.v.OXM.` W T U Y U W E Q U E E U U U P P P N L L b H L G L L L U L L G G G b G v L N b v x x B B B B B B b v v n B x b b b B b b G N K b N B v L G N U P L U U Y U U Y Z T N Y N Y Y N N N P P Y N Z ^ Y Y Y Y Y T Q Q Y Y T W Q W T T T / ~ T ~ W ~ Y P P Y P T E E Y R Q T Y Q T W T T ~ [ Q T ~ | / W W Y Y U Y ~ ~ ! W ! ! W T Y U U U Y Y Y Y Z T T T W Q Q E Y U E E U U Y Y U R R E U U E R U U Q U Q U U Z U U Q Q W W E Q E E W W R R R _ _ R _ E E I I G R _ _ _ I I G I H G I G G I P K H G c h d t 0 7 7 K Q Q C.C.e.e.e.| q.X.q.e.q.` X.e.` q.i * X                                                                     X   X                           X           X     X         X       X     X                   X X X   X   X X         X                     ",
"                                                                                                                                                                                                                  X t ) U U U U K K c K K K G K _ I _ e.C.OXa.W Q Q U U Q Q U U U U U K L L G L L P N B N b L N N G b L L G N L L b G L N N B v x x x x n v v x b v x x B B x v B B b N N N B B L B L L L L L L L L P R N N L B B B B B B B B N Y N Z T P Y P Y P Y Y Y Y Q Y Q Q Q Q Y Q Y Y Y Y Y U Y T U U Y Y Y Y Y Y T E T Y Q Y Y W T T Q E U U U Y W W E Y Y Y T Q Q W U Q W ) W Q U L U L Z U N Z Y Y U Y Z U U U U Y U U L U P P R R R U E U Q U U K U U U Q U U U Q W Q E Q Q Q Q ) W _ W R R Q R R _ E R _ R I P I P R E _ _ E H R G R P G G H z z z h p t t 5 5 h K K K h K s s d d p j h h i j h i K J * . X                                                                                                                                                               X                                               ",
"                                                                                                                                                                                                        X         . w p t 6 p p t t t t t t t t p j l ) ~.XX..E U U Q A U U U U U Z Z N G N L L L U L N U B b b B b U L b N b G Z N B B x B n B B n x x n x v v b v c n v n n b b B N b B b N L L B B P L L L B N L N N N N N N B B B B B B B B N L Z P U Z Y Z Z T Y U Y Y W T T Q Q Y T Y Y Y Y Y Y R Y Z N N Y T Q T U Q Y U A Y Y Q T W W W W W W W ~ ' [ W E U Y Y U Q W Q U Q W W Q E U U N U Z U Z Y Y U Z K Z Z K K U U U U G G U R R E U R K U U K R R U K U K U U Q U Q U Q Q R E W E Q W ) _ R _ R G G H L P P P P R P R R P K P R G U G b b v z z z a w y 7 5 3 a K Q K c c h h h d h h h d h h h h G H &                                                                                                                                                                   X                                               ",
"                                                                                                                                                                                                                  * z K K z k z c h d h h h c h c l H K ~./.` E U A Q Q U A Z Z Z b N B b v N v b n N L Z U Z U U L b N Z L U L L N b B x x x x n n B v c v b b v v n x c v x b b b N N B B N N B L B L B L B B N N b v N N x B B B B B B B B B Z N Y Z U U Z L N U Z U Y Y U A U Y U Y U Z U Y Y U Y Y Y U U Y U Z U T T Q T T Q Y Q Y W T W W W W W W ) [ [ ) W W Q T T Q Q T U Q W W W U L N Z L U Z L U U Z U U U Z b K K U U K K G U U U R E E K E U U K U U U U U U K Z K K U R U Q Q E Q E _ Q R _ R R R U P U R U P R P _ H P G U U P R U R R K G v c z m p p t 5 3 y G ` X.` ` ` ` U G c c c c c c c G H h * X                                                                                                                                                                     X                                           ",
"                                                                                                                                                                                                                  & c U G G b G c c h c c c c c c l c c B.C.W U U U Q U U Q M K b b b b b b v v b b b b b b n Z N U U b b b U E N N n n B n x x v n v b b b b b x x x x x c x g x b x b b b v z l N B B J B v B b b v b N x v B B B B B B B Y N N N N N B N U U L Z Y Y U U Z U U U Z U U Z U U Y A Y Y Y Y Y Y U Y U T U U Y Q T E ! Q W W W W W W / W ) ) W E W U Y Y U U U U U Q U Q K Q U L L N U N L N N T U U U U K U K K G K K U L U U E R Q E ) W E Q U U Q Q K Q U U Q U U K Q Q E R Q R R W _ R ) _ K R R L I R P R R R G R G R _ U G U L b K K b c c h y y 7 8 3 7 G ` ` ` ) K ) R G K H c c c G K G v h *                                                                                                                                                                                                                   ",
"                                                                                                                                                                                                                  # c K v c c c c c c h c c c c c c J c v.m.W U U Z A n Z Z M v n n b b N N N B v v v v v v z z z v v U U b b b b b x n Z B B x n n v v b b b b c v c x x x x x x x x v v b b v B v v J B B B B b v B B N x x B n n x B B n B Y U Z Z N N N Z N Z L L A Z Y Y Y U U T U Q U U Z U Y U Y W T ^ U Y Y U Z n B Y W / / [ ~ / W / W W W Q W Q W Q E E Y U U Q Y U Q U Q E W Q R K U N Y L U Z T N B Z K Z Z K K U K U E Q E U E U U U U U U U U U U Z U U Q K U Q U U U Q Q K U U R R R R R R R R _ _ E R R R R R L U P P G G R G R G b c b c c z k h t y t 5 2 7 J ` ` Q K K Q K G G G G H c c J c H l #     X                                                                                                                                                                                                             ",
"                                                                                                                                                                                                                  # z b c z z c c h c c l c c c z c c c d.v.Q K K K M n n b n n x x n n v v b c z z c z z z c c c v c b b Z v v b b x x x B x n x x z x z b G v c n v c c c z n n v n z z x b z b b b B v B B N b n b N N n c z g x g x z z x B n B U N Z Y Y U U U U A U Z U Y T Z Q Y Z Y U Z U Y Y Y Y Y Y Y T U U A Z Z Q T W W / Q T U U W W W Q U E U E E E Y U U A Q U U Q U Q W E U b L N Z L Z U U U U U U Z U U U K U K U U U R U U L G G L Z L Y U U U U U U U U E U U U Q U U U U E R R E E E W W R K G R R U P G b G P G K H H G U K G G v c z h h a t t 7 5 3 5 h ) W E U L U G H G v v G v H J v G h *                                                                                                                                                                                                                   ",
"                                                                                                                                                                                                                  # z v z k h c c h h c c h l l c c v v a.a.U b b b K M n b n n b v n c z x c c h h l z k z k z k z n x v v v v n x x x x n z n x v z x z v v c c c b c n c n x x v c c z z x k z c x v z v x x n x x x n g x n n x g n n n n x x x x B Y L N Z U Z U U U Q Z Y Q U Z U U Z U U Z U U Z U Y U Z Z U Q Q U U T Q T T ~ Q b Z Z U T U U L L U Z U Y U U U Y U T U U U Q W R U Z L L U N Y N U L Z U U U Z b b Z b G b K U G G b b b U E T Y Y E Q K G K b Z U U Q Q E U K U U U U R U R R Q R R Q K H G G U G G L G G c c K P G G L G v c k h s d t t t 5 5 2 9 a E E K G G G b v c v c J H c v G v j &                                                                                                                                                                                                                   ",
"                                                                                                                                                                                                                  # k v c h h h h l l h h c l c l c v H ..q.U b n b c z x c n g n x g f z b n z h z l z z z z k c x c c c b b b x g g z z x x v v v x x b G G v b b c G b n b c v x c c n c b c v v c v z z x z x n n b b n b b B M B B v B B B b N Z b U L L N N U U U U Z U Q U Q Q U U U U Z U U U U U U Z Y U Y U U U T ) W ! W ^ W U U U U Z U Z Z U U U L A U U U U T A U U Q Q U U Q U Z Y Y Y T U Z Z B K U U U Z K U U U R U U U U U U U U W Q Y U Y Z K Z U b U U K U Q Q U K K Y ' W W W W W E _ E E K J H L L P P P P U c J U G L G v l l k z h a p y t t 7 5 2 2 t Q W G b U G U G v G J c c c c c v s .                                                                                                                                                                                                                   ",
"                                                                                                                                                                                                                  # k v c h z z c h h h h l l h l l h z | ` c d d d w d w d w p w w q 6 p p p p d d a a d d d d d s a p y p y p q q 6 6 6 q 6 q q y 6 6 7 t t y y t y y q p t t p y q t 0 6 6 0 6 6 q q y q q q 6 q 6 0 6 6 6 7 q q q q q q q q 7 7 q 7 w q 6 7 6 6 7 6 w w 6 6 q w w y w w 6 6 6 6 6 6 q 6 q 6 6 6 6 6 6 6 6 6 6 6 6 w 7 7 7 6 6 7 6 7 7 7 7 7 7 7 7 7 7 7 7 6 6 7 6 4 7 5 7 7 5 4 7 7 5 4 5 5 8 4 5 5 5 8 5 5 5 5 5 5 5 5 5 5 7 5 5 7 5 5 8 5 5 3 8 8 8 3 3 8 8 5 3 3 8 5 3 8 3 5 5 3 3 5 5 5 8 3 3 3 3 3 3 3 3 3 3 3 5 3 2 2 8 3 3 2 3 9 9 9 & & & & # # 9 t R Q G G b b b v z z z c c z c c k a #                                                                                                                                                                                                                   ",
"                                                                                                                                                                                                              X X $ h c z h m c h h h h h h j j h h j j ] ) 5 X X . X o o X X X . . X X X . X X . . . X . . . . . X   X . X   X . X . X X X X X X     X X X X X .   X X X     X X X   X   X     X X     X X X . X X   X X X   X X X   X X X .     X X X   X X           X   X X             X       X     X         X X     X       X X X       X   X     X   X         X     X       X       X   X                                                                                       X     X               X                   X           X X   X     X           X * & 5 K U G h z l h s j h h h l h j k j a #                                                                                                                                                                                                                   ",
"                                                                                                                                                                                                                  $ h h s d a d p p t t u p i j a a p a ' a X   X                                 X           X X                                                 X X         X     X     X   X       X                   X X   X X X         X X             X   X   X   X X   X X X X X   X     X   X     X   X         X X   o X X     X X   X X   X X   X   X X . X X   X   X   X   X X           X   X X       X   X       X         X X                                                             X X           X             X X   X           X               X   . 5 U K c l c z h s h k k h h j h h z p .                                                                                                                                                                                                                   ",
"                                                                                                                                                                                                              X   & h h h h h u u u u i i a j j j j s h c # X                                             X X         X                                     X   X       X       X         X   X       .   X X         X     X   X X       X         X X   X       X   X     X     X X     X   X X     X   X   X X   X     X   X X X   X X     X       X X o     X     X       X         X   X         X X X X   X X   X     X   X           X   X             X                                             X                       X   X         X X     X                   3 s a d p y y 7 7 7 t t 6 t t t t 6 7 .                                                                                                                                                                                                                   ",
"                                                                                                                                                                                                                  . 3 5 3 3 3 2 2 2 2 2 3 2 2 3 2 2 3 3 &   X                                                     X                                         X     X   X     X     X             X             X       X   X   X X     X     X     X       X X       X X   X     X     X     X       X   X   X     X   X     X         X   X     X   X         X     X     X X   X X   X         X X           X     X   X                                                             X   X             X                             X X     X               X             X X . . . . . . . . . . . . . X X X X .     X   X                                                                                                                                                                                                           ",
"                                                                                                                                                                                                                        X     X       X X X     X   X X                                                                                                                                                   X     X X     X             X   .       X       X           X   X X     X   X     X   X     X   X     X   X X   X   X   X     X   X     X   X X   X   X     X     X     X   X   X   X   X                           X                     X                                                                                         X                                                         X                                                                                                                                                                                                                               ",
"                                                                                                                                                                                                                                  X X       X   X       X                                                                                                                                     X         X             X     X     X           X X     X X       X   X         X X   X   X         X X   X     X   X     X     X X   X     X   X X             X   X X   X     X       X         X   X   X X   X X   X X     X       X           X                                                                                                                                                                                                                                                                                                                                                                                       ",
"                                                                                                                                                                                                                                    X   X                                                                                                                                               X                       X   X     X X       X   X   X             X   X     X   X         X       X     X     X   X X   X   X X   X           X   X   X   X     X X           X           X                                 X         X X             X                                                                                                                                                       X   X                                                                                                                                                                                                                             ",
"                                                                                                                                                                                                                                                  X                                                                                                                                                                             X               X   X X               X   X X     X   X     X     X           X           X   X   X X   X   X     X X X     X   X     X   X X   X   X   X   X X   X     X   X             X   X             X                 X                                             X                                                                                                                                                                                                                                                                                                                           ",
"                                                                                                                                                                                                                                                                                                                                                                                    X                 X                               X     X X         X     X   X             X     X             X X     X   X   X     X         X       X   X   X   .         X     X X       X         X       X           X     X X   X     X   X             X                               X                                                                                                                                                                                                                                                                                                                                                   ",
"                                                                                                                                                                                                                                                                                                                                                                                                                                X                 X   X X     X     X   X     X         X X   X X         X X         X X       X X       X   X   X     X     X       X       X   X X         X X             X X               X         X               X                                                                                                                                                                                                                                                                                                                                                                             ",
"                                                                                                                                                                                                                                                                                                                                                                                                          X                                     X     X X               X   X     X X   X   X     X X   X       X             X     X X   X   X       X   X         X     X X       X     X     X   X     X X                                       X                                                                                                                                                                                                                                                                                                                                                                                   ",
"                                                                                                                                                                                                                                                                                                                                                                                                                  X         X           X                       X   X     X     X     X           X     X     X     X X     X     X   X     X   X   X           X . X                                         X           X           X         X                                                                                                                                                                                                                                                                                                                                                                                       ",
"                                                                                                                                                                                                                                                                                                                                                                                                                                    X                                 X   X X           X   X X       X     X     X     X   X   X   X   X     X     X     X X X   X                           X         X           X       X                             X                                                                                                                                                                                                                                                                                                                                                                             ",
"                                                                                                                                                                                                                                                                                                                                                                                                                  X                               X                             X   X           X         X X   X   X     X     X   X     X X   X     X               X     X         X             X                           X                                                                                                                                                                                                                                                                                                                                                                                                       ",
"                                                                                                                                                                                                                                                                                                                                                                                                                                          X                 X                                         X           X               X   X       X   X     X             X               X   X         X     X     X         X     X       X                                                                   X                                                                                                                                                                                                                                                                                                                           ",
"                                                                                                                                                                                                                                                                                                                                                                                                                                                                    X                               X     X         X     X             X       X                                                                                 X     X         X         X                                                                                                                                                                                                                                                                                                                                                                           ",
"                                                                                                                                                                                                                                                                                                                                                                                                                                                                                                          X           X         X     X                                               X                     X       X           X     X   X                                                                                                                                                                                                                                                                                                                                                                                             ",
"                                                                                                                                                                                                                                                                                                                                                                                                                                                                                                      X                                                                                                     X                                                                                                                                                                                                                                                                                                                                                                                                                           ",
"                                                                                                                                                                                                                                                                                                                                                                                                                                                                                                                                                                                                                                                                                                                                                                                                                                                                                                                                                                                                                                        "
};
