/* XPM */
static char *purplebrick[] = {
/* columns rows colors chars-per-pixel */
"500 333 256 2 ",
"   c #0C0200",
".  c #090205",
"X  c #120202",
"o  c #16030C",
"O  c #1B041C",
"+  c #180416",
"@  c #0B0317",
"#  c #22061B",
"$  c #2A0B19",
"%  c #1C0525",
"&  c #1C0433",
"*  c #24022C",
"=  c #270628",
"-  c #240233",
";  c #2B0234",
":  c #2C023C",
">  c #270838",
",  c #32013D",
"<  c #36063A",
"1  c #300F32",
"2  c #2C0343",
"3  c #2B0646",
"4  c #340244",
"5  c #3A0244",
"6  c #340B44",
"7  c #34014B",
"8  c #3B014C",
"9  c #3C0A4C",
"0  c #370B48",
"q  c #3A1247",
"w  c #350253",
"e  c #3C0153",
"r  c #3C0A53",
"t  c #3D015B",
"y  c #380858",
"u  c #3B1157",
"i  c #2D084D",
"p  c #3E0162",
"a  c #3B0464",
"s  c #3E1365",
"d  c #42024C",
"f  c #45094C",
"g  c #44154B",
"h  c #420255",
"j  c #430A54",
"k  c #43015C",
"l  c #4B025C",
"z  c #440A5C",
"x  c #4B0A5D",
"c  c #4A0654",
"v  c #53055C",
"b  c #4C135B",
"n  c #471657",
"m  c #52155C",
"M  c #440163",
"N  c #4B0264",
"B  c #460A64",
"V  c #4B0A63",
"C  c #45016B",
"Z  c #4B016D",
"A  c #4C0A6B",
"S  c #450C6B",
"D  c #520365",
"F  c #520A64",
"G  c #53026C",
"H  c #5A026C",
"J  c #530B6C",
"K  c #5A0767",
"L  c #4C136A",
"P  c #4A1464",
"I  c #531465",
"U  c #54146B",
"Y  c #541A6B",
"T  c #581769",
"R  c #460273",
"E  c #4C0071",
"W  c #4D0B73",
"Q  c #4E007A",
"!  c #480B7A",
"~  c #530174",
"^  c #5B0274",
"/  c #530B74",
"(  c #5C0B74",
")  c #56007B",
"_  c #5A027C",
"`  c #540D7B",
"'  c #5C0B7B",
"]  c #4A1275",
"[  c #541373",
"{  c #591577",
"}  c #63027C",
"|  c #630C7C",
" . c #660678",
".. c #631973",
"X. c #63137C",
"o. c #66177A",
"O. c #660E71",
"+. c #5D2470",
"@. c #4D0485",
"#. c #550183",
"$. c #5B0183",
"%. c #550B83",
"&. c #5B0C84",
"*. c #54008A",
"=. c #5B018B",
"-. c #5B0C8B",
";. c #560C8A",
":. c #5D128B",
">. c #5B1483",
",. c #5C0293",
"<. c #5C0B92",
"1. c #5C019A",
"2. c #560595",
"3. c #5D1293",
"4. c #640283",
"5. c #6A0285",
"6. c #640B83",
"7. c #6B0C83",
"8. c #63018B",
"9. c #6E038C",
"0. c #630B8C",
"q. c #6D0B8B",
"w. c #70048E",
"e. c #720C8D",
"r. c #750688",
"t. c #641383",
"y. c #6C1383",
"u. c #64138D",
"i. c #6C128B",
"p. c #6A1A85",
"a. c #72118B",
"s. c #741789",
"d. c #630294",
"f. c #6D0293",
"g. c #640B93",
"h. c #6C0C94",
"j. c #64039B",
"k. c #6C029C",
"l. c #640B9A",
"z. c #6C0C9B",
"x. c #750295",
"c. c #790296",
"v. c #740B94",
"b. c #790D96",
"n. c #760199",
"m. c #7A009C",
"M. c #740C9B",
"N. c #7D0E9A",
"B. c #641394",
"V. c #6A1394",
"C. c #69139A",
"Z. c #751294",
"A. c #7B1296",
"S. c #7D109A",
"D. c #771798",
"F. c #6502A3",
"G. c #6C02A4",
"H. c #6D0AA3",
"J. c #6D02AB",
"K. c #6905AA",
"L. c #7202A4",
"P. c #7D01A2",
"I. c #730BA4",
"U. c #7D0BA2",
"Y. c #7302AB",
"T. c #7B02AC",
"R. c #740BAB",
"E. c #7A0BAD",
"W. c #7511AB",
"Q. c #7811A5",
"!. c #6D01B2",
"~. c #6B07B3",
"^. c #7401B2",
"/. c #7C01B4",
"(. c #7B0AB2",
"). c #7500BB",
"_. c #7C01BB",
"`. c #760BB4",
"'. c #7111A8",
"]. c #72278C",
"[. c #7C00C2",
"{. c #7800C7",
"}. c #7611D2",
"|. c #81029D",
" X c #810D9D",
".X c #840898",
"XX c #81119C",
"oX c #83179A",
"OX c #890892",
"+X c #8202A4",
"@X c #840CA4",
"#X c #8B0DA5",
"$X c #8302AB",
"%X c #8B02AC",
"&X c #850CAA",
"*X c #8C0CAB",
"=X c #8903A5",
"-X c #920AAD",
";X c #8412A2",
":X c #8411A9",
">X c #8D13AB",
",X c #8A15A5",
"<X c #9213AC",
"1X c #9213A8",
"2X c #8302B4",
"3X c #8C01B3",
"4X c #8302BC",
"5X c #8B01BB",
"6X c #8409BB",
"7X c #890BB4",
"8X c #9302B4",
"9X c #9A01B5",
"0X c #950DB3",
"qX c #9B0DB4",
"wX c #9402BA",
"eX c #9C00BD",
"rX c #940ABA",
"tX c #9B0CBB",
"yX c #8B16B6",
"uX c #9412B2",
"iX c #9815BA",
"pX c #A000BE",
"aX c #A10CBB",
"sX c #A415BD",
"dX c #A006A1",
"fX c #8727A6",
"gX c #8401C3",
"hX c #8A01C4",
"jX c #8400CA",
"kX c #8C01CC",
"lX c #8C09C5",
"zX c #9E00C1",
"xX c #9301CD",
"cX c #9905C5",
"vX c #8C1AC4",
"bX c #9517C5",
"nX c #8B01D3",
"mX c #9601D5",
"MX c #9815D2",
"NX c #A101C4",
"BX c #A30BC4",
"VX c #A501CA",
"CX c #AA01CD",
"ZX c #A709CA",
"AX c #A314C4",
"SX c #A713CA",
"DX c #AC01D3",
"FX c #A802D5",
"GX c #B201D4",
"HX c #B301DB",
"JX c #B704D9",
"KX c #B110D5",
"LX c #AC0CD1",
"PX c #BA02E5",
"IX c #AF02E7",
"UX c #C501EA",
/* pixels */
"bXbXbXbXbXbXbXbXbXbXbXbXbXbXbXbXbXiXbXiXvXiXiXvXiXbXiXvXiXiXvXiXvXiXiXvXiXvXiXbXiXbXiXbXyXbXbXbXbXbXbXbXbXvXbXbXMXMXMXrXvXMXvXvXvXvXvXvXvXvXvXvXvXvXvXvXvXvXvXvXvXvXvXvXvXvXvXvXvXvXvXvXvXvXvXvXvXvXvXvXvXvXvXvXvXvXvXvXvXvXvXvXvXvXvXvXvXvXvXvXvXvXbXbXbXbXMXbXbXbXbXbXvXbXvXiXbXyXbXbXiXvXiXvXbXiXvXbXbXbXbXbXlXlXMXMXbXbXbXbXbXyXbXbXiXvXbXiXvXyXfXbXbXMXMXMXyXbXbXvXyXvXvXvXvXvXyXvXyXvXvXbXyXvXyXvXbXvXyXvXvXbXbXvXyXvXvXvXvXbXvXvXbXvXbXbXvXMXvXbXbXMXyXyXvXbXbXvXMXbXMXbXbXbXvXbXvXbXbXbXbXvXvXMXvXvXvXrXbXMXlXMXMXbXvXyXyXyXyXvXW.D.P A z iXAXAXAXAXAXAXAXAXAXAXAXAXAXAXAXAXAXAXAXAXAXAXAXAXAXAXAXAXAXAXAXAXAXAXAXAXAXsXAXAXAXAXAXAXAXAXAXAXAXAXAXAXAXAXAXAXAXAXAXAXAXAXAXAXAXSXAXAXAXAXAXSXAXSXSXiXsXsXZXBXBXSXMXSXAXsXsXsXsXsXsXsXsXsXsXsXsXsXsXsXsXsXsXsXsXsXsXsXsXsXsXsXsXAXAXaXsXsXsXsXAXSXSXSXSXAXAXAXAXSXAXAXAXBXAXSXAXAXAXBXSXAXAXAXAXAXAXSXAXAXAXsXsXsXsXsXAXAXAXAXSXSXLXSXAXbXsXAXAXAXAXAXAXbX>XyXbXmXqXcXSXKXKXKXKXKXKXKXKXKXKXKXKXKXKXKXKXKXKXKXKXKXKXKXKXKXKXKXKXKXKXKXKXLXKXAX8XiXKXKXLXLXLXSXLXLXSXLXSXLXSXSXLXLX",
"4.8.4.=.4.} 8.4.8.=.$.4.8.4.4.4.} 5.4.4.4.4.4.4.4.$.4.4.4.5.4.4.4.$.4.4.4.$.4.4.} 5.$.4.4.4.8.8.=.4.8.4.8.$.6.$.$.f.E.4X4XkX_ M $._ $.=.$.=.$.$.=.$.$.=.$.$.$.#.$.=.$.$.$.$.=.=.$._ $.=.$.*.$._ =.$.$.=.$.$.#.$.$.*.$.$.#.$.$.*.$.) #.$.$.#.$.4._ ' $._ _  .' $.$.$.$.$.$.4.8.=.8.8.8.=.8.8.8.8.8.8.8.4.$.$.) z.hX5X2XE _ 8.$.=.8.8.8.$.8.$.$.$.$.$.$.j.4.~ _ $.8.0.4.9.0.8.8.4.4.4.8.8.8.8.4.4.8.=.4.8.4.8.8.$.4.$.4.8.=.$.&.$.&.;.#.$.#.$.$._ $.$.$.=.$.=.%.#.Q ) ) #.) #.) ) Q ) ) ) ) ` ) ~ #.) #.*.$.&.~ ) w.lXlXd.8.8.=.$.$.$.%.%.) %.Z C N 4.9.9.8.9.9.9.9.9.9.9.9.9.9.9.9.d.9.9.4.9.9.5.9.8.5.9.9.0.5.9.5.5.5.5.5.5.4.5.4.4.4.5.4.4.4.5.4.4.5.4.5.4.4.4.5.4.4.4.8.5.4.8.4.4.4.4.4.8.4.5.5.4.8.9.9.0. .r.m.cX3XM.9.4.} 4.} 5.} } } } } } } 5.} } } 5.} } 5.} 5.} } } } } 4.} } } } 5.} } } 5.} 4.^ / f.8.4.9.5.5.4.9.5.8.5.5.4.9.5.8.4.5.9.4.4.9.5.5.4.9.4.4.5.} } 5.} } }  .} 5.^  .^  .4.$.4.4.$.$.4.Z Z n.7XlXx.4.8.9.9.f.f.f.x.9.f.f.9.f.x.9.f.f.w.f.f.w.f.9.f.9.9.x.f.f.f.9.9.x.9.x.9.9._ } c.x.w.c.r.c.x.x.x.r.w.5.9.d.8.9.",
"................................o...o.o.o...o.........o.o...o.o.o...o.........o.o.o...o.o.o.o.o.o.t.o.o.t.o.o.o.n e u.lXlXlX; o T +.T ........T ....{ ..........{ ..........T ..........{ ..........{ ......................{ ..............o.o...o...+.T T T T ........o.o.p.p.s.p.s.s.p.p.p.s.p.p.o.{ { I & Y mXwX2Xo q p.{ ..p.p.p.p.p.p.o.o.o.s.s.s.x ; % n A.s.s.s.s.s.s.s.s.s.s.s.s.s.s.s.s.s.s.s.s.o.s.y.p.y.o.o.o.p.t.t.>.>.{ j T { Y I T T Y Y T o.s.p.B r r b Y B i q 6 6 6 2 6 6 6 0 q P L Y +...n w I cXcXr w U 7.D.iXD.6.{ p.C.S.S.Q.` [ [ { { { [ { { >.{ { { ` { { { { [ { [ { { { { [ { [ [ [ [ I T Y T Y Y I Y U Y Y Y Y Y { Y { Y Y [ U U U U Y U Y T I Y T Y Y I Y I I I m I Y m I { { p...k [ nX`.M 9 g b b P P P P P P P P P P I P P P P P P P V L P P I U U I P I I P m Y Y T I n o = U L L L L L P L L P P L U P L L U L L L L L P L U P P P P b b b b b b b n b $ $ 1 P [ P P P P n Y > % j.2XkX' e z P L L L P B L P L P L P L L P L P L L L L L P L L L P L L L L L L L L U J A L J L J W L L ] L U L L L L [ ",
"aXBXaXBXBXBXaXBXaXBXaXBXBXBXBXBXBXBXsXBXAXBXBXBXBXBXBXBXBXBXaXBXBXBXBXBXBXBXBXBXBXaXBXBXBXBXAXBXBXZXSXLXLXLXKXKX1XK Y 6XhXxX4 1 JXLXaXBXBXBXBXBXBXBXBXBXBXBXBXBXBXBXBXBXBXBXBXBXBXBXBXBXBXBXBXBXaXBXBXBXBXBXBXBXBXBXBXBXBXBXBXBXBXBXBXBXBXBXBXBXBXBXBXBXZXLXSXZXZXBXBXBXBXBXBXBXaXBXBXaXBXNXBXpXaXBXaXcXbXcXw [ FX5X2X= | KXcXAXBXBXBXcXBXcXZXAXbXSXcX^ h ; b.sXZXBXLXZXZXCXBXBXBXBXBXVXBXNXBXBXaXBXBXBXBXBXBXZXBXBXZXZXBXBXBXZXZXZXZXBXBXSXSXLXSXZXLXLXLXLXoX&.u S C ` ].6.N B ~ A A G A ~ Z A Z 0.iXKXSXrXA t { xXhX~ y 9 ; 9 T j | KXcXSXcXrXrXrXrX5X5XrXrXrX7X7X7X0X6XyX7X7X7X0X7X7X7X7X6X7X6X7X7X7X7X7X0X7X7X7X7X7X7XrXrXtXiXaXbXqXqX0XiX0X<X0X0XuXuX0X0X0XrXuX0XrX0XrX0X0X0XrX0XrX0X7X*XrX0XrXrXtXiXiX1X) :.nXlXZ } q.R.I.N. Xm.N..XU.m. XN.m.N..XN.N.m.N..XN.N.N.@X@XN.@XN.@XM.U.N.P.U.@XQ.;XiXuX| | +X Xm. X X X X X+X X@X Xm. X Xm.N. X X XP..X@X Xm. X.X.Xm. XN. Xm..XP..X X+Xe.}  . XU.I.E.U.U.U.W.X.t z.6XkX6.Z D.Q.N.U.U.+XU.@XU.U.U.U.P.U.U.U.U.+XP. XU.U.U.P.U.U.P.U.U..XP.U.N.+X.X+XN.P.P..XN.+X.X.X+Xm. XP.N.U.N.U.U.U.",
"NXNXNXNXNXNXNXNXNXNXNXNXNXNXNXNXNXNXNXNXNXNXNXNXNXNXNXNXNXNXNXNXNXNXNXNXNXNXNXNXNXNXNXNXNXNXNXVXFXVXDXDXDXDXIXHX.XZ P jXhXkX4 - HXDXCXVXCXVXVXVXNXVXVXVXNXVXVXNXVXVXNXVXVXCXNXCXVXVXVXVXVXVXNXVXVXVXVXVXNXCXVXNXVXVXNXVXNXVXVXVXVXVXNXVXNXVXVXNXCXCXcXDXFXVXFXVXCXNXZXNXNXNXNXNXNXNXNXNXNXNXNXNXVXNXNXNXVXVX7 [ FXhX/.% _ IXNXVXNXVXVXBXVXVXCXVXNXVXVXD.k - m.wXDXVXVXCXCXCXVXVXVXVXVXVXVXVXVXVXVXVXVXVXVXVXCXVXCXCXCXDXZXCXVXCXDXCXCXDXDXVXCXDXDXDXDXDXDXDXm._ 8 Z _ b.Q.n.Z ^ 6.Z E G G ~ R ~ N 4.*XIXVX3Xw w [ lXhXA N V 4 : 5 8  .FXcXzXwXwXwXwXeXhXwXwX5X5X5X3X3X5X5X5X3X3X5X3X3X3X3X5X3X3X7X3X3X5X3X3X3X3X3X3X3X5X5XwXwXwXwXwXwXeX8X8X8X3X8X8X8X8X%X8X8X8X8X5X8X5XwXwX8XwXwX5XwXwX8X5X3XwXwX5XwXeX5X+X9.Q B.nX6XZ _ } L.+Xm.m.m.m.m.m.+Xm.P.m.m.m.m.+XP.m.+Xm.m.m.m.m.m.m.m.m.P.P.P.P.T.P.P.P.$X%Xr.4.|.|.m.|.|.|.m.|.m.|.|.m.|.|.|.|.|.|.m.|.|.|.|.m.m.|.m.+X+Xm.m.m.P.+X+X+XP.P.|.c.w.m.P.P.+XP.P.P.T.7.k d.(.xXX.Z v.n.+Xm.P.P.P.|.P.|.P.P.+Xm.+Xm.|.P.m.+Xm.+XP.P.m.+X|.+Xm.+X+Xm.+X|.P.+X|.|.+X|.|.|.m.|.+X|.m.|.m.m.m.m.m.P.",
"eXeXeX9X9XpX9XeXpX9XpX9XeXpXpXpXpX9XpXpXpXeXeXeXeXpXeX9X9XpX9XeXpXpX9XeXeXeX9XpXeXeXpX9XeXeXzXeXzXcXcXcXcXcXFXIXe.B >.MXhX5X7 = 5.-XCXpXzXzXeXzXeXpXeXeXzXeXzXeXeXeXzXeXeXeXeXeXeXeXeXeXeXeXzXeXeXpXeXeXeXeXeXeXeXeXzXeXpXeXeXpXeXeXzXeXzXeXzXzXeXpXzXeXeXeXzXwXeXeXeXeXeXeX9XpXeX9XpX9XpXeX9XeX9XpXeX9XrXzX7 U FXgX^.% ( IXcXzXcXpXpXNXzXNXcXNXVXNXBXPX_ . L D.DXVXcXcXNXNXNXNXcXVXcXVXzXVXcXVXVXzXVXcXVXcXcXVXcXcXzXcXVXzXcXcXcXcXzXzXzXzXzXcXzXzXcXcXcXzXHXLX|.8XBXUXHXJXi.~ ~ ~ ~ Z G ~ C A C r.>XmXcX%Xt 7 r 7X5Xe 9.BXDX0XG P.rXcX5X%X4X5X5X5X7X5X5X3X3X3X3X3X5X3X5X8X3X5X5X5X5X3X3X4X3X3X3X3X3X4X4X3X3X3X3X3X3X%X%X%X2X$X$X$X2X$X2X2X%X%X3X%X%X2X%X3X2X%X%X3X%X%X%X2X%X3X3X%X%X%X=X$XP.$X3X=X=X%XeX8XK Z C.nX6X~ ^ D c e.P.m.m.m.m.m.m.m.m.P.L.m.m.m.m.m.m.m.P.m.m.m.P.m.m.n.m.m.L.m.m.n.n.m.n.9.x.x.c.m.m.m.m.m.m.|.m.m.|.m.c.m.m.m.m.m.m.m.c.m.m.m.|.m.m.m.m.m.m.P.m.m.m.m.P.m.c.m.m.m.m.P.n.n.c.n.P.F 4 -.&XxX' N e.c.n.c.c.n.n.n.n.n.x.n.n.n.n.n.n.c.n.n.n.n.x.n.c.n.n.n.n.n.n.n.c.c.c.c.c.c.c.c.c.c.n.c.c.c.n.n.n.n.n.n.n.m.",
"eXpXeXpXpXpXpXeXpXpXeXpXeXpXpXpXpXpXpXpXpXpXpXeXpXeXpXeXpXpXpXeXpXpXpXeXpXpXpXpXpXeXpXeXpXNXpXNXVXNXzXzXzXcXVXSXb 8 { lXjX5X8 > Z N.BXzXeXzXzXwXeXzXeXzXeXzXeXeXzXeXeXzXeXzXeXzXzXeXzXzXeXzXeXzXeXeXzXzXzXzXeXzXeXzXeXzXeXzXeXeXeXzXeXzXzXzXzXzXeXzXzXzXcXzXzXzXeXeXeXeXeXeXpXeXeXeXeXeX9XpXpXeXpXeXeXeXzXVX7 U mXhX/.@ ) FXzXzXzXcXzXzXzXzXzXzXNXNXzXCXP.' iXcXzXzXVXVXVXcXzXzXcXcXzXcXzXcXcXcXcXcXcXzXzXVXzXcXVXzXVXzXVXcXcXVXcXzXcXzXzXzXzXVXzXzXNXzXzXVXVXzXqXeXzXVXVXVX8.) 4.C a C C ~ E Q M q.uXFXmXwXM y z 5XcXz $.:XmXtX9.4.v.N.+X+X0X7XuX7X5X7X3X7X5X5X5X8X5X3X5X5X5X3X5X7X5X3X3X3X5X3X3X3X5X3X5X5X3X3X3X3X3X3X3X7X3X%X3X3X3X7X%X3X7X3X3X3X7X3X3X3X3X3X3X3X3X%X%X7X2X%X2X%X3X7X3X%X%X3X3X3X%X8X8XrX7.Z B.MX6XZ } 5.} c.m.n.n.n.m.m.n.m.m.m.m.m.m.m.m.m.m.m.m.L.L.m.m.m.m.m.m.m.m.m.m.m.m.m.n.n.x.n.n.m.|.m.|.m.m.m.m.m.|.m.c.|.m.m.|.m.m.m.m.|.|.m.m.m.m.|.m.P.P.m.m.P.m.P.m.m.|.m.m.m.m.m.P.m.m.n.T.( e 0.yXmX' N q.n.m.m.m.m.m.n.m.m.m.m.m.n.m.m.m.m.m.m.m.n.m.m.n.m.m.n.m.m.n.m.m.c.n.c.m.m.n.m.c.c.m.m.|.c.c.m.m.m.n.m.m..X",
"pXpXpXpXpXpXpXpXpXpXpXpXpXpXpXpXpXeXpXpXpXpXpXpXpXpXpXpXpXpXpXpXeXpXeXpXpXpXpXpXpXeXpXpXpXpXeXNXzXzXzXzXzXzXwX|.* 4 { nXlX5X8 > A b.3XwXzXzXeXzXeXeXzXeXzXzXzXzXzXzXzXzXzXzXeXzXzXzXeXeXzXzXzXzXeXNXeXzXeXzXzXzXzXzXzXzXzXzXzXeXzXzXzXzXzXeXzXzXpXeXNXzXzXzXcXzXzXeXeXeXeXpXeXeXpX9XeXpXeXeXeXeXeXeXeXeXcXVX7 U mXhX_.@ ~ IXzXcXzXzXVXNXzXcXNXNXzXNXNXzXzXcXDXVXcXVXNXcXVXVXzXzXzXzXzXzXVXcXzXVXzXzXVXzXcXcXzXcXcXzXcXcXzXcXzXzXzXVXcXzXzXzXzXzXzXNXNXNXNXNXzXzXNXNXNXzXNXzXU.M.Q.C S ) C ' 0.Z C $.&XFXCXcXM y L lXhXz #.E.FXcX&Xq.N N 4.N.+Xx.9.$X3X3X3X3X%X3X3X3X3X3X3X3X3X3X3X3X3X3X5X3X3X3X5X3X3X3X3X3X3X3X2X3X%X3X3X%X3X3X3X%X3X%X3X3X3X3X2X3X3X3X3X2X3X7X3X%X3X%X%X%X%X%X%X%X%X%X%X3X%X2X2X5X3X8X5XrXr.E u.nX6XZ 5.c.|.m.m.m.m.m.m.m.m.n.m.m.m.n.m.P.m.L.P.m.m.m.m.m.m.P.m.L.m.n.m.n.n.m.m.n.m.m.m.m.m.m.|.m.m.m.|.m.m.|.m.m.m.m.m.m.m.m.m.|.m.m.m.m.m.|.P.m.P.m.P.P.P.m.P.m.|.m.|.m.P.m.P.P.P.m.m.n.T.( e 0.6XmX{ M q.m.m.m.m.m.m.m.m.m.m.m.m.m.m.m.m.m.m.m.m.m.m.m.m.m.m.m.m.m.m.m.m.m.m.m.|.c.m.m.|.m.c.|.c.m.m.m.m.n.m.m.m.m.",
"eXpXpXeXeXpXpXpXpXeXpXpXeXpXpXeXpXpXeXpXeXpXpXeXpXpXpXpXeXpXeXpXpXpXeXpXeXpXpXeXNXpXpXpXpXNXpXzXNXpXeXeXpXeX8X=Xf 5 { lXxXgXe , E @XDXzXzXzXzXeXzXeXzXeXeXeXNXeXzXzXzXeXzXeXNXzXeXNXeXzXzXzXeXzXNXeXeXNXNXeXeXNXeXzXNXeXNXeXNXeXNXeXNXeXNXeXzXeXzXzXcXzXzXzXzXzXzXzXzXzXNXeXeXpXeXeXpXeXeXpXeXeXeXeXeXrXc.Q : [ FXjX2X@ H DXcXNXcXVXzXVXzXcXzXcXcXzXzXVXNXcXcXzXDX0X9.j ;XDXzXzXcXzXzXcXzXcXVXcXVXcXcXzXVXcXVXcXcXVXzXcXVXcXVXzXcXVXzXcXNXNXzXzXNXcXzXNXcXzXNXNXNXNXVXzXzXzXzXcXzX3X7XzX8XbX@X4.$.0.U.ZX@X4.C y r /.6X> ) rXFXcX8X>X^ & ( D.F 4 % 9.$X3X3X3X3X3X3X3X3X2X3X3X3X3X%X3X3X2X3X2X3X7X3X3X3X2X%X3X3X3X3X3X3X3X3X3X3X3X3X3X3X3X3X3X2X3X3X3X3X3X3X3X3X3X3X2X%X%X%X7X%X3X%X3X%X%X3X7X3X3X3X3X%X%X5XrX9.G t.xX6XC 4.r.c.m.c.m.m.m.c.m.m.m.m.m.m.m.P.m.P.m.m.L.m.m.m.m.P.m.P.L.m.m.m.m.L.m.m.m.m.m.m.m.|.m.m.m.m.m.m.m.m.m.m.m.m.m.m.|.m.c.|.m.m.|.m.|.m.P.m.m.P.m.P.m.|.P.m.|.P.m.m.m.m.m.m.L.P.m.L.n.P.( w 0.6XmXX.M 6.M.m.m.m.m.m.m.m.m.m.m.m.m.m.m.m.m.m.m.m.m.m.m.m.m.m.m.m.m.m.m.m.m.m.m.m.m.m.m.m.m.m.m.|.c.m.m.m.m.m.m.m.m.",
"pXpXpXpXpXNXeXpXpXpXpXpXpXpXpXpXpXpXNXpXpXpXpXpXpXeXpXeXpXpXpXpXpXpXpXpXpXpXpXpXpXeXeXpXeXpXzXpXeXpXNXzXeXpX9X8XK e { lXlX5Xt g >XtXVXzXzXwXeXzXeXzXeXeXzXNXeXzXeXzXzXzXzXeXeXzXNXeXNXeXeXNXNXeXeXzXzXeXeXzXzXeXzXzXeXzXeXzXzXzXeXzXeXzXzXzXzXeXzXzXNXzXzXzXzXzXzXeXzXeXeXzXpXeXNXeXeXpXpXeXpXeXpXeXeX8.~ E : U mXkX4X@ G HXzXcXzXVXzXcXzXVXVXcXVXVXcXcXzXzXzXNXDX$X4.N @XCXzXzXzXzXzXzXVXcXzXzXzXzXVXVXzXzXzXzXVXzXVXcXzXzXcXcXcXzXzXzXNXzXzXVXNXzXVXNXVXVXzXNXNXNXVXcXVXzXzXcXzXwXwXNXzXBX0Xn.q.b.A.eXv.~ M w r hX5X; N U.eX5X3X%X9.- k k t e w n.*X7X7X3X3X3X3X3X3X3X3X3X7X3X3X3X3X3X3X3X3X3X3X3X3X3X3X2X3X3X3X3X3X3X3X%X3X2X3X3X3X7X2X3X3X3X3X3X3X3X3X3X3X3X%X3X3X3X3X%X3X%X3X%X3X3X%X3X3X3X3X5X3X8X5XrXe.~ p.xXyXC 4.c.c.m.m.m.c.|.c.m.m.m.m.m.m.m.m.m.m.m.m.m.m.m.m.m.m.m.m.m.m.m.P.m.m.m.m.m.m.m.m.m.m.m.m.|.P.m.|.m.|.m.m.m.|.c.m.m.|.m.m.m.m.m.m.m.m.m.+Xm.m.+Xm.m.P.m.P.m.m.P.P.m.L.m.m.P.m.m.m.m.P.( e d.7XmX' k / c.m.m.m.m.m.m.m.m.m.m.m.m.m.m.m.m.m.m.m.m.m.m.m.n.m.m.m.m.m.m.m.m.m.m.|.m.m.m.|.m.m.|.m.m.m.m.m.m.m.m.m.P.",
"pXpXpXpXpXpXeXpXpXpXpXeXpXpXpXpXpXeXeXpXpXpXpXpXpXeXpXpXpXpXpXpXeXpXpXeXpXpXpXpXpXeXpXpXpXNXpXeXNXNXNXzXzXzXmXZXZ.N { cXhX4Xt +.UXVXzXzXzXeXeXeXzXeXeXzXeXNXeXzXzXzXzXeXeXNXeXNXNXeXeXzXzXeXNXeXNXeXeXzXzXzXeXzXeXzXeXzXNXeXeXNXeXzXzXeXeXNXeXNXzXzXzXzXzXzXzXzXzXzXzXzXzXzXpXeXpXeXpXeXNXeXpXeXeXNX9X: y Q : [ IXkX2X@ H DXcXVXzXcXcXzXcXzXzXzXzXzXVXzXcXNXzXcXCX7Xw.7.0XFXcXzXcXzXzXcXVXzXVXzXNXzXzXcXcXVXzXVXzXzXzXzXcXzXVXzXcXVXcXzXzXNXNXzXzXNXcXVXNXNXcXVXzXzXNXNXVXzXzXVXNXcXBXcXNXzXNX3XA.N.N.wXq.k 4 7 { PXPXf d ( -X3X5XxX7Xj 4 ; V { h.P.2X3X3X3X2X3X3X3X3X3X3X2X3X3X2X3X3X3X3X3X3X3X3X3X3X3X3X3X3X3X3X3X3X2X3X3X3X3X%X3X3X3X3X3X3X3X2X3X7X3X3X3X3X%X3X3X3X%X3X3X%X3X3X3X3X%X3X3X3X3X3X3X3X%X3XrX9.Z :.xXyXC } c.c.m.c.m.m.m.m.m.m.m.m.m.m.n.m.m.m.P.m.m.P.m.m.L.m.m.m.m.P.m.m.m.P.m.m.m.m.m.m.m.m.|.m.m.|.|.m.m.m.m.m.|.m.|.m.|.m.m.m.m.m.m.m.m.m.|.+Xm.m.+Xm.+XP.m.m.+X+Xm.P.m.m.m.m.m.m.+Xm.n.P.( 8 d.7XcX| k F v.P.m.m.m.m.m.m.m.m.m.m.n.m.m.m.m.m.m.m.m.m.m.m.m.m.m.m.m.m.m.m.m.m.|.m.m.m.|.m.m.m.m.|.m.m.m.m.m.m.m.m.P.",
"eXpXpXeXpXpXpXpXpXeXpXpXeXpXpXeXpXpXpXpXeXpXpXeXpXpXNXeXpXpXeXpXpXpXpXpXeXpXpXpXpXpXpXpXeXpXNXNXeXNXNXzXzXzXzXBXo.k { lXlX5Xk Y HXVXNXeXeXcXeXzXeXzXzXeXzXeXNXeXzXeXzXzXzXeXNXeXeXNXeXzXeXNXeXzXeXzXNXeXNXeXNXeXzXzXNXeXeXzXzXeXNXeXzXNXNXeXzXeXzXzXzXNXcXzXzXzXeXeXNXeXeXNXeXpXeXzXeXpXeXpXeXpXpXeXeX8Xx.~ 2 U mXjX_.o H DXcXVXVXzXVXzXNXVXcXVXzXVXcXzXzXzXzXVXCXNXzXBXNXVXzXcXzXzXzXVXcXzXzXVXVXcXzXVXcXzXVXcXcXVXcXVXVXVXcXzXcXzXVXzXcXNXzXzXzXVXzXVXzXNXzXVXNXVXNXzXcXzXzXzXzXzXzXNXzXNXeXNXJX@X_ j x e 7 7 9 y P < e t.xXwX3XwXrX} M A rX6XT.2X2X3X2X3X3X3X%X7X3X3X3X3X3X3X3X3X3X3X3X3X3X3X%X2X3X3X7X3X3X3X7X3X3X3X3X3X7X3X2X3X3X3X3X3X3X%X3X3X3X%X3X2X5X%X%X%X3X7X%X3X3X3X3X%X7X3X%X3X3X3X3X3X8X%X5XrXr.~ u.xX6XC 5.c.c.c.m.m.c.c.m.c.m.m.m.m.m.m.m.L.m.m.L.m.P.m.m.m.P.P.P.P.m.m.P.m.m.m.m.m.m.m.m.m.m.|.|.m.m.m.m.|.m.m.m.m.m.m.m.m.m.m.m.m.m.m.|.m.m.m.m.P.m.m.m.+Xm.P.m.m.P.m.m.m.P.m.m.P.m.P.+XP.$XO.e 0.6XmX| k c v.m.m.m.m.m.m.n.m.m.m.m.m.m.m.m.m.m.m.m.m.m.m.m.m.m.m.m.m.m.m.m.m.m.m.|.m.m.c.|.m.m.m.m.m.m.n.m.m.m.m.m.N.",
"NXpXpXeXeXpXpXpXeXpXpXpXpXpXpXeXpXeXpXpXpXpXeXpXpXeXpXpXpXpXNXpXpXpXpXNXeXpXpXeXpXeXpXpXzXNXpXzXNXeXNXeXzXzXzXcXK k o.lXlX4Xk Y PXVXNXzXeXeXeXeXzXzXeXzXeXeXNXzXeXNXzXzXeXNXzXzXzXeXeXzXzXeXeXzXNXzXeXNXNXeXzXNXeXNXzXeXNXeXNXeXNXeXNXeXNXeXNXeXzXzXzXzXzXzXzXNXNXeXeXNXeXNXeXeXNXeXeXpXeXNXeXeXeXeXeXDXtXZ.2 [ mXjX_.o G DXNXVXzXcXVXVXzXVXcXzXcXcXVXzXzXzXcXcXNXNXVXVXVXcXzXzXzXzXNXVXzXcXzXcXzXzXcXVXVXzXcXzXVXcXcXzXzXzXzXcXVXzXzXzXzXzXzXzXzXVXNXzXVXzXNXzXzXVXNXNXzXNXzXzXcXNXzXzXzXcXcXNXGXiX4.k h 7 7 4 9 z e 4 t p.xXhX%X5X5Xm.q.V.cX5X5X5X3X3X3X3X3X3X3X3X3X3X3X3X3X3X3X3X3X3X3X3X3X%X3X3X3X3X3X3X3X3X3X3X3X3X3X3X3X3X3X3X3X3X3X3X3X3X3X3X3X3X3X3X3X3X3X3X%X3X3X%X%X3X%X3X3X3X3X%X3X3X3X3X3X3X5X8Xe.~ u.xX6XZ } r.m.m.m.c.|.m.m.m.m.m.m.m.m.m.m.m.m.m.m.m.m.m.m.P.m.m.m.m.m.m.m.L.m.m.m.m.m.m.m.m.m.m.|.m.m.m.m.m.m.|.m.m.m.m.|.m.m.m.m.|.c.m.m.m.m.m.m.m.m.P.m.+Xm.|.m.+Xm.m.m.m.m.P.m.m.m.m.x.w.|.( h 0.7XxX6.k z b.m.m.m.m.m.m.m.m.m.m.m.m.m.m.m.m.m.n.m.m.m.m.m.m.m.m.m.m.m.m.m.m.m.m.c.m.m.m.m.m.|.m.m.m.m.m.m.m.m.m.m.P.",
"eXzXeXNXNXeXeXzXNXeXzXzXzXzXzXzXeXNXzXzXzXzXzXNXzXzXzXzXeXzXeXzXeXeXeXzXNXeXzXzXeXNXeXNXzXeXzXeXzXzXzXNXzXzXzXZXK l { lXgX4XM +.HXVXNXeXzXzXzXNXzXeXeXNXNXeXeXzXzXeXeXNXzXeXeXNXeXNXNXeXeXNXNXeXeXzXzXeXeXzXzXeXNXeXzXNXeXzXzXzXeXzXeXzXeXzXeXNXzXzXzXzXzXeXzXeXeXzXzXzXzXeXNXeXzXpXeXNXzXeXNXeXNXeXzXNXBXwX2 U FXhX2X+ D FXVXcXzXzXzXDXDXVXVXzXVXzXcXzXzXVXVXzXVXcXzXzXzXVXzXzXVXcXcXzXzXVXzXVXcXVXNXzXcXzXVXzXzXzXVXzXcXVXzXVXcXzXcXVXcXVXcXVXzXcXzXVXzXNXzXNXzXwXwXNXzXzXVXcXzXVXzXVXzXNXzXzXcXVXNXIX7.- 5 e >.PXPXq.t P DXNXwX3X3X8X5X5X3X3X7X5X3X3X3X3X3X3X3X3X3X3X3X3X3X3X%X3X3X3X3X3X3X3X3X3X3X3X3X3X3X3X3X3X3X3X3X3X3X3X3X3X3X3X3X3X3X3X3X3X3X%X3X3X3X3X3X3X3X3X3X8X3X3X%X3X%X3X3X3X3X3X3X3X3X%X5XrXr.Z t.xX7XN 5.c.c.m.m.m.m.m.m.m.m.m.m.m.m.m.m.m.m.m.m.m.m.n.m.m.m.n.m.m.m.m.m.n.m.m.m.m.m.m.m.m.m.m.n.m.m.m.m.m.m.n.m.m.m.m.n.m.m.n.m.m.m.m.m.m.m.m.m.m.m.m.m.n.m.n.m.n.m.m.m.m.m.m.m.P.v.} e h } J e h.6XmX| t L b.P.m.m.m.m.m.m.m.m.m.m.m.m.m.n.m.m.m.m.m.m.m.m.m.m.m.m.m.m.m.m.m.m.m.m.m.m.m.m.m.n.m.m.m.m.m.m.m.m.m.m.m.",
"zXzXzXzXeXNXNXeXzXeXzXzXzXeXzXeXNXeXeXNXeXzXzXeXeXzXzXeXeXzXeXNXNXeXNXeXeXeXNXeXzXNXeXeXeXzXeXNXzXzXzXzXzXzXcXBXo.N { lXlX4Xt Y HXCXzXzXzXzXzXeXeXzXzXeXeXNXNXeXzXeXNXeXzXeXNXeXzXNXeXzXzXNXeXzXzXeXzXeXNXeXzXzXeXzXzXeXeXzXeXNXeXzXeXNXzXzXzXeXeXzXzXeXeXNXzXeXNXeXzXeXzXeXzXNXzXzXzXeXzXeXzXNXeXNXNXzXBXwX2 Y mXjX2Xo D FXmXVXzXVXZX*XrXwXcXVXcXzXVXzXzXcXzXVXcXcXVXVXcXzXcXVXzXVXzXzXzXzXcXcXzXVXcXVXVXzXcXzXVXzXcXVXzXzXcXVXcXVXzXNXVXzXzXcXzXVXcXVXVXNXNXzXNXNXzXNXNXzXcXzXzXzXcXcXcXzXcXVXcXVXzXNXrXU.j 4 P *XiX~ 7 9 c.7XcX5X3X3X3X5X3X5X3X5X3X5X3X3X%X3X3X3X3X3X3X3X3X3X3X3X3X3X3X3X3X3X3X3X3X3X3X3X3X3X3X3X3X3X3X3X%X3X3X8X%X3X3X3X3X3X3X3X3X3X3X3X3X3X3X3X3X3X%X3X%X%X3X%X3X8X3X3X3X3X3X3X3X%X5XrXe.E u.kX6XG 4.c.c.|.m.m.m.m.m.m.m.m.m.m.m.m.m.m.m.m.m.m.m.m.m.m.m.m.m.m.m.m.m.m.m.m.m.n.m.m.m.m.m.m.m.m.m.m.m.m.m.m.m.m.m.m.m.m.m.m.m.m.m.m.m.m.m.m.m.m.m.m.m.m.m.m.m.m.m.m.m.m.m.m.m.m.n.f.5.9.c.J e h.6XcX6.t L v.m.m.m.m.m.m.m.m.m.m.m.n.m.m.m.m.m.m.m.m.m.m.n.m.n.m.m.m.m.m.m.m.m.m.m.m.m.m.m.m.m.m.m.n.m.m.m.m.m.m.m.m.",
"eXeXNXeXzXzXeXzXzXzXeXNXeXNXeXNXeXzXzXeXzXzXzXeXNXzXeXNXNXeXzXeXeXzXeXNXzXzXeXNXzXeXzXzXzXzXNXeXzXzXzXzXzXzXVXZX .N { kXhX4Xk Y HXNXcXzXzXzXzXeXNXzXeXNXzXzXeXzXeXNXeXzXeXNXeXzXzXeXNXeXzXeXNXeXeXNXeXNXeXNXeXeXNXeXzXeXNXeXNXeXNXeXzXeXNXeXzXeXNXzXeXNXNXeXzXNXeXNXeXNXeXNXzXeXeXzXeXNXeXNXzXeXzXeXNXcXcXzX4 [ mXhX/.+ D VXVXcXzXNXzX$.9.3XzXzXVXVXcXzXVXcXzXcXVXzXzXcXVXzXVXzXzXcXcXVXcXVXVXzXcXcXzXzXcXzXVXVXcXzXzXVXcXVXcXzXzXVXcXzXVXcXzXVXcXzXNXNXcXNXNXNXzXVXZXNXNXVXVXNXcXVXVXzXVXzXVXzXVXcXVXzXIXPXd 8 8 9.@Xt 8 4 N XXcX3X%X8X5X3X5X3X3X2X3X3X3X3X3X3X3X3X3X3X3X3X3X%X3X3X3X3X3X3X3X3X3X3X3X3X3X3X%X3X3X3X3X3X3X3X3X3X3X3X3X3X3X3X3X3X3X3X3X3X3X3X3X3X3X3X3X%X3X3X3X8X3X3X3X%X3X3X3X3X3X3X3X8X5XrXe.E p.xX6XZ } r.c.c.|.m.m.m.|.m.m.m.m.m.m.n.m.m.m.n.m.m.m.m.m.m.m.m.m.m.m.m.m.m.m.n.m.m.m.m.m.m.m.m.m.m.m.m.m.m.m.m.m.m.m.m.m.m.m.m.m.m.m.m.m.m.m.m.m.m.m.m.m.m.m.m.m.m.m.m.m.m.m.m.m.m.m.n.m.m.+X .t d.6XxX&.t A b.m.m.m.m.n.m.m.m.m.m.m.m.m.m.m.m.m.m.m.m.m.m.m.m.m.m.m.m.m.m.m.n.m.m.m.m.m.m.m.m.m.m.m.m.m.m.m.m.m.m.m.+X",
"NXeXzXeXNXeXzXeXeXzXzXeXNXeXeXNXeXzXeXNXeXeXNXeXNXeXzXNXeXzXeXNXNXeXeXNXNXeXeXNXeXNXzXeXeXNXzXeXzXzXzXzXzXzXmXZXe.N { nXhX2Xt Y HXNXeXzXzXzXzXeXzXeXzXzXzXzXeXzXeXNXeXNXNXeXzXzXzXeXzXeXeXNXeXzXNXeXzXeXNXeXzXeXzXzXeXNXeXzXeXNXeXzXNXeXzXNXeXNXNXeXNXeXNXeXzXeXNXeXzXzXzXeXzXzXzXeXNXeXeXzXNXeXeXzXzXzXVXHX7 L mXhX2X+ l rXVXVXzXcX=Xi 6.zXcXzXcXVXzXcXcXVXzXzXzXVXVXcXzXVXVXcXzXVXVXcXzXVXVXcXVXzXzXzXcXcXVXzXzXcXVXVXzXcXzXVXzXcXzXcXVXVXzXzXzXcXVXcXVXNXVXcXxXFXVX=Xc..XNXcXVXcXVXcXcXzXVXcXzXVXzXNX@Xe.< 4 J U e 4 0 4 7 v.FX2X%X3X3X3X3X3X3X3X3X2X3X3X3X3X3X3X3X3X3X3X3X3X3X3X3X3X8X3X3X3X3X3X3X3X3X3X3X8X%X3X3X3X3X3X3X3X3X3X3X3X3X3X3X%X%X8X3X3X3X3X8X%X3X3X3X3X%X3X3X3X3X3X3X3X3X3X%X3X3X3X%X8X5XwXe.~ t.nX6XZ _ w.c.m.m.m.m.m.m.m.m.m.m.m.m.m.m.m.m.m.m.m.m.m.m.m.m.m.m.m.m.m.m.m.m.m.m.m.m.m.m.n.m.m.m.m.m.m.m.m.m.m.m.m.m.m.m.m.m.m.m.m.m.m.m.m.m.m.m.m.m.m.m.m.m.m.m.m.m.m.m.m.m.m.m.m.n.m.n.c.+X^ e h.yXnX{ M 6.b.m.m.m.m.m.m.m.m.m.m.m.m.m.m.m.m.m.m.m.m.m.m.m.m.m.m.m.m.m.m.m.m.m.m.m.m.m.m.m.m.m.m.m.m.m.m.m.m.m.m.m.+X",
"eXNXzXeXeXNXeXNXNXeXeXNXeXzXzXeXeXzXzXzXzXzXeXNXeXzXzXeXeXzXzXzXeXzXzXeXeXzXzXeXNXeXzXNXNXeXzXNXzXzXzXzXzXzXNXZXXXN { lXjX7Xh Y PXNXeXBXzXzXzXzXzXzXeXzXeXNXNXeXzXeXzXeXeXNXeXeXzXNXeXNXzXeXNXzXzXzXzXeXeXNXeXNXeXNXNXeXNXeXNXeXNXeXeXzXzXeXzXeXeXzXeXzXzXzXzXeXeXNXeXeXzXNXeXeXeXNXeXzXNXzXeXzXNXeXzXzXVXDX7 L mXjX/.= c  XcXFXNXzXzXD.uXcXzXzXVXzXzXVXzXzXcXVXcXcXzXzXcXcXzXzXzXcXzXzXzXcXzXzXcXNXVXzXVXzXcXzXzXVXzXcXzXVXVXcXzXVXzXVXzXcXzXVXzXVXNXNXzXNXNXzXwXNXCX8X%X3XNXzXzXNXzXzXVXVXNXVXzXcXzXCX9.l ; , p.Z.Z 4 7 8 4 k f.rX5X3X3X3X3X5X3X3X5X5X3X3X3X3X3X3X%X3X3X3X3X3X3X3X3X3X%X3X3X3X3X3X3X3X3X3X3X3X8X3X3X3X3X3X%X3X3X3X3X3X3X3X3X8X3X3X3X3X3X3X3X3X8X3X3X3X8X3X3X3X3X3X3X3X3X3X3X3X3X3X8X%X5XrXr.Z p.kX7X~ 4.v.c.c.m.m.|.m.|.m.m.m.m.m.m.m.m.m.m.m.m.m.m.m.m.m.m.m.m.m.m.m.m.m.m.m.m.m.m.m.m.m.m.m.m.m.m.m.m.m.m.m.m.m.m.m.n.m.m.m.m.m.m.m.m.m.m.m.m.m.m.m.m.m.m.m.m.m.m.m.m.m.m.m.m.m.m.n.m.n.+XO.e j.6XxX&.M &.m.m.m.m.m.m.m.m.m.m.m.m.m.m.m.m.m.n.m.m.m.m.m.m.n.m.m.n.m.m.m.m.m.m.m.m.m.m.m.n.m.m.m.m.m.m.m.m.m.m.m.m.m.",
"zXeXzXNXeXNXzXzXzXzXzXeXNXzXeXNXNXeXzXeXeXzXzXeXNXeXzXzXNXeXzXeXNXeXzXzXNXeXeXzXeXzXzXeXeXzXzXeXzXzXcXNXzXzXcXZX XG { kXgX7Xk Y HXzXzXzXzXzXzXzXzXzXzXzXzXeXzXzXzXeXeXNXzXeXeXNXeXNXNXeXeXNXNXeXeXNXeXNXzXzXzXzXzXeXNXeXeXeXNXzXeXeXNXeXNXeXeXNXeXzXzXeXeXNXeXNXzXeXeXNXeXNXeXNXNXeXeXzXeXNXeXzXzXzXzXzXBXVX7 L mXhX2X= 5 o.VXFXVXVXCXHXDXzXVXVXzXVXzXcXcXVXzXVXVXzXVXzXVXzXVXzXcXVXcXVXVXzXcXVXVXcXVXVXVXcXVXzXVXzXVXcXzXzXcXzXzXzXcXcXzXzXcXVXVXzXNXNXVXVXzXzX9XpXNXVXVXVXcXVXzXcXcXVXzXVXVXcXVXcXzXDXS.h ; 8 6.7XP.7 l J - - & &XwX3X3X3X3X4X3X3X3X3X3X8X3X3X3X3X8X3X3X3X3X3X3X3X3X3X3X3X3X3X3X%X8X3X3X3X3X3X3X3X3X3X3X8X3X3X8X3X3X3X3X3X3X3X3X3X3X3X3X3X3X3X3X3X3X3X3X3X3X3X3X%X3X3X8X3X3X3X8X5X%X8X8XrXe.~ u.kX6XG _ v.c.c.m.|.m.m.m.m.m.m.m.m.m.m.m.m.m.m.m.m.m.n.m.m.m.m.m.m.m.m.m.m.m.m.m.m.m.m.m.m.m.m.m.m.m.m.m.m.m.m.m.m.m.m.m.m.m.m.m.m.m.n.m.m.n.m.m.m.m.n.m.m.m.m.m.m.m.m.m.m.m.m.m.m.m.m.n.n.+X( e g.2XxX' M ' N.m.m.m.m.m.m.m.m.m.m.m.n.m.n.m.m.m.m.m.m.m.m.m.m.m.m.m.m.m.m.m.m.m.m.m.m.m.m.m.m.m.m.m.m.m.m.m.n.m.m.m.|.",
"eXNXzXeXzXeXNXeXeXNXeXNXeXzXNXeXeXNXeXNXNXzXeXNXeXNXeXeXeXNXeXNXeXzXeXNXeXzXNXeXNXeXzXeXNXeXzXeXcXzXzXzXzXzXVXZX XG { kXgX2Xh m PXzX%XzXVXzXzXeXeXzXeXzXzXzXeXzXeXNXzXzXeXNXzXeXzXeXeXzXzXeXeXzXNXeXzXeXeXeXNXeXeXNXeXzXzXzXeXzXzXzXeXNXeXzXzXeXNXeXzXNXNXeXzXeXeXNXzXeXNXeXzXeXzXzXNXeXzXeXNXeXzXNXzXzXcXVX2 Y mXhX_.- 4 I cXFXcXcXzXVXcXzXzXcXzXcXzXVXzXVXzXcXcXzXzXVXcXzXcXzXcXzXzXzXVXcXzXzXzXzXzXcXzXzXVXcXcXzXzXzXcXVXVXzXcXVXVXzXcXVXcXzXcXzXNXVXzXzXcXVXNXNXVXzXzXzXVXcXNXVXzXVXcXzXcXzXzXDXFXVXFXcX8 4 u lXcXr G A.n.m.P.3XwX3X3X3X3X3X3X3X5X3X3X3X3X3X8X3X3X3X3X3X8X%X3X%X3X8X3X3X3X3X3X3X3X3X3X3X%X3X3X3X3X3X3X3X3X3X3X3X3X3X3X3X3X3X3X3X3X3X3X3X3X3X3X%X3X3X3X3X3X3X3X8X3X3X3X3X3X3X%X%X3X%X5XrX5.~ u.kX6X~ _ e.c.m.c.m.|.m.m.c.m.m.m.m.m.m.m.m.m.m.m.m.m.m.m.m.m.m.m.m.m.n.m.m.m.m.m.m.m.m.m.m.m.m.m.n.m.m.m.m.m.n.m.m.m.m.m.m.m.m.m.m.m.m.m.m.m.m.m.m.m.m.m.m.m.m.m.m.m.m.n.m.m.m.m.m.m.n.c.n.+X| k f.6XxX&.k W N.m.m.m.m.m.m.m.m.m.m.m.m.m.m.m.m.m.m.m.m.m.m.m.m.m.m.m.m.m.m.n.m.m.m.m.m.m.m.m.m.m.n.m.m.m.m.m.m.m.m.m.m.",
"zXeXNXeXeXzXzXeXeXzXzXeXeXNXeXNXNXeXeXNXeXzXeXNXeXNXeXNXeXNXzXeXNXzXeXNXNXeXzXNXeXeXNXeXzXzXeXNXNXzXzXzXcXNXVXNX XE { lXgX2Xk I PXwX=XVXNXeXeXeXzXzXzXwXzXzXzXeXzXNXeXNXzXzXeXNXzXeXNXeXzXzXeXzXeXzXNXeXNXeXzXeXzXzXeXzXzXzXzXzXeXNXzXeXzXNXeXNXNXeXNXeXzXzXzXzXzXNXeXNXzXzXeXNXeXNXeXzXzXzXeXzXzXzXNXzXzXcX4 U mXgX^.* 4 U ZXFXVXcXcXcXNXmXzXVXcXVXzXcXVXzXVXzXVXVXzXcXzXzXVXVXVXVXzXNXzXcXVXVXzXzXzXVXzXzXVXzXzXcXVXVXzXzXzXVXNXzXzXVXVXVXzXcXcXVXzXcXNXNXzXVXNXNXNXpXNXNXzXNXNXVXNXzXzXzXcXVXVXmXVX8X5XLXx 4 9 hXmXj N e.rX5XwX5X3X3X3X3X5X3X3X5X5X8X3X%X3X3X3X3X3X3X3X3X3X3X3X%X2X8X3X3X3X3X3X3X3X8X3X8X3X3X3X3X3X3X3X3X3X3X3X3X3X3X3X3X3X8X3X3X3X3X3X3X3X3X3X3X3X3X8X3X3X3X3X3X3X3X3X3X3X3X3X3X%X8X5XwX5.~ u.kX6X~ ^ e.n.n.n.m.m.m.m.m.m.m.m.m.m.m.m.m.m.m.m.m.m.m.m.m.m.m.m.m.m.m.m.m.m.m.m.m.m.m.m.m.m.m.m.m.m.m.m.m.m.m.m.m.m.m.m.m.m.m.m.m.m.m.n.m.m.m.m.m.m.m.m.m.m.m.m.m.m.m.m.m.m.m.m.m.m.c.n.m.=X7.k g.6XxXX.M { N.m.n.m.m.m.m.m.m.m.m.m.m.n.m.m.m.m.m.m.m.m.m.m.m.m.m.m.m.m.m.m.m.m.m.m.m.m.m.m.m.m.m.m.m.m.m.m.m.m.m.P..X",
"eXNXeXzXNXeXeXNXNXeXeXNXzXeXzXeXeXzXzXeXNXeXzXeXNXeXzXeXzXeXzXNXeXzXNXeXeXzXzXeXzXzXeXNXeXNXNXeXzXzXzXzXzXzXcXNXN.~ { kXhX2Xz m NX+XU.ZXzXwXwXeXeXzXzXzXzXzXzXzXzXeXzXeXeXNXNXeXeXNXeXzXzXeXNXeXNXzXeXzXeXNXeXNXeXNXNXeXzXeXzXeXzXeXzXNXzXeXzXeXeXzXeXzXzXeXzXzXzXeXzXeXeXNXNXeXNXeXeXzXzXeXzXzXzXzXzXzXcXpX7 L mXjX_.% 5 p.BXmXcXcXVXcXNXcXzXzXcXzXVXcXcXzXcXzXzXcXzXVXVXcXzXcXzXcXcXzXzXVXzXcXVXVXcXcXcXVXcXzXzXVXzXcXcXVXcXcXcXVXcXcXzXcXzXVXzXVXNXNXNXVXcXzXNXNXNXNXNXNXNXNXNXcXVXcXzXzXwXVXDX=X9.c _ yXI 8 [ rX6X5 h y.eXwX3X3X3X3X3X8X3X3X3X3X3X3X3X3X3X3X3X3X3X3X3X3X3X3X%X%X$XwX8X3X3X3X3X3X3X%X3X3X3X3X3X3X3X3X3X8X3X3X3X3X3X3X3X3X3X3X3X3X8X3X3X3X3X3X3X3X3X3X3X3X3X3X3X3X3X3X3X3X3X8X3X3X3X5X5XrX9.~ V.lX6XQ ^ 7.x.c.c.|.|.m.m.m.m.m.n.m.m.m.m.m.m.m.m.m.m.m.m.m.n.m.m.m.m.n.n.m.m.m.m.m.m.m.m.m.m.m.m.m.m.m.m.m.m.m.m.m.m.m.m.m.n.m.m.m.m.m.m.m.m.m.m.m.m.m.m.m.n.m.m.m.m.n.n.m.m.m.m.m.m.n.c.m.3Xa.N g.7XmX' C U.P.+Xn.m.m.m.m.m.m.m.m.m.m.m.m.m.m.m.m.m.m.m.m.m.m.m.m.m.m.m.m.m.m.m.m.m.m.m.m.m.m.m.m.m.m.m.m.m.m.m.m.m.m.",
"NXeXeXzXeXNXzXzXeXzXeXzXzXeXeXNXNXeXeXzXeXzXzXeXzXzXzXeXzXeXzXeXzXzXeXzXNXeXzXzXeXzXzXeXeXeXeXzXzXNXNXzXzXzXcXBXb.G { kX4X6Xk m ZX8X7XzXeXwXcXeXzXeXzXeXzXeXzXeXNXeXeXNXzXeXeXzXeXNXNXeXzXzXzXcXeXNXeXzXeXNXzXzXzXeXeXNXeXzXzXzXzXeXzXeXNXeXeXNXeXzXzXzXeXzXzXzXNXeXeXNXzXeXNXeXeXNXNXeXzXzXzXzXzXzXNXzXaXeX0 [ FXjX_.+ G cXcXVXcXVXcXVXzXcXcXVXVXVXzXzXVXVXzXVXzXzXzXVXVXzXVXcXVXcXVXzXzXcXcXzXzXcXVXzXVXcXVXzXzXcXVXzXVXzXVXzXVXzXzXzXzXVXzXcXVXzXNXNXzXVXVXzXzXNXNXNXNXNXzXVXNXNXNXzXNXzXzXcXVXcXwXrX=XN.h 7 L 5X5Xc h ..tX3X5X3X3X5X5X3X3X3X3X3X3X3X3X8X3X3X3X3X3X3X3X3X3X3X3X%X%X5X3X3X3X3X3X3X3X3X3X3X3X3X8X3X3X%X3X3X3X3X3X3X3X8X3X3X3X%X3X3X3X%X3X3X3X3X3X3X3X8X3X3X%X3X3X8X3X3X3X3X%X8X3X8X3X8X8XrX5.Q B.hX6XQ G 6.9.x.c.c.c.m.|.m.m.m.m.m.m.m.m.m.m.m.m.m.m.m.m.m.m.m.m.m.m.m.m.m.m.m.m.m.m.m.m.m.m.m.m.m.m.m.m.n.m.m.m.m.m.m.m.m.m.m.m.m.m.m.m.m.m.m.m.m.m.m.m.m.m.m.m.m.m.m.m.m.m.m.m.m.m.m.c.n.8Xa.N j.:XnX' Z M.U.|.m.m.m.n.m.m.m.m.m.m.m.m.m.m.m.m.m.m.m.m.m.m.m.n.m.m.m.m.m.m.m.m.m.m.m.n.m.m.m.m.m.m.m.m.n.m.m.m.m.m.P.",
"zXzXNXeXzXeXNXeXNXeXNXzXeXNXzXzXeXzXNXeXNXzXeXNXeXNXeXNXeXNXeXNXeXeXNXeXeXNXeXeXNXzXeXNXNXeXNXzXzXcXzXzXzXzXcXNXc.G { lXhX4Xh Y GXNXeXeXeXeXeXzXzXzXcXeXzXzXzXzXeXzXzXeXzXeXNXeXNXeXzXzXzXzXzXzXzXeXNXeXzXeXNXeXzXeXNXeXzXzXzXzXeXNXeXNXeXzXzXeXNXeXzXeXzXzXzXzXeXzXzXeXeXNXeXzXzXeXzXzXzXzXzXzXeXzXeXpXaX9X4 U mXgX_.+  .UXNXmXcXVXcXcXcXVXzXVXzXcXzXVXzXcXzXcXcXVXcXzXcXzXzXNXzXzXVXcXVXzXVXzXzXVXcXzXzXzXVXcXVXcXzXzXVXcXcXzXcXzXVXcXNXcXzXVXcXzXNXVXcXzXzXNXNXpXNXNXNXNXcXzXNXNXVXcXNXNXmXVXVXVXVXFXrX.X8 7 S lXhXc k ( +X$X8X3X3X3X3X3X5X3X5X3X3X5X5X%X3X3X%X3X3X3X3X3X3X3X3X3X3X3X3X3X3X3X3X3X3X3X3X3X3X3X3X3X3X3X3X3X3X3X3X3X3X3X3X3X3X3X3X3X3X3X8X3X3X3X3X3X3X3X3X3X3X3X3X3X3X3X3X3X3X5X5X3X3X5X5XrXr.~ C.hX6XQ G ^ 4.9.c.c.m.|.m.m.m.m.m.m.m.m.m.m.m.n.m.m.m.n.m.m.m.m.m.m.m.m.m.m.m.m.m.m.m.m.m.m.m.n.m.m.m.m.m.m.m.m.m.n.m.m.m.m.m.m.m.m.m.m.m.m.m.m.m.m.m.n.m.m.m.m.m.m.m.m.m.m.m.m.m.m.n.m.n.m.8Xa.N d.6XmX' M f.m.m.m.m.m.m.m.m.m.m.m.m.m.m.m.m.m.m.m.m.m.m.m.m.m.m.m.m.m.m.m.m.m.m.m.m.m.m.m.m.m.m.m.m.m.m.m.m.m.m.m.m.m.",
"eXNXeXzXNXeXNXeXNXzXeXNXNXeXzXeXNXzXeXNXzXzXeXNXeXNXeXzXeXzXzXeXNXeXzXeXNXeXzXeXeXzXeXzXzXeXeXzXzXzXzXcXzXeXcXBX.XG >.lXgX4Xk I JXzXwXzXzXzXzXzXzXzXzXzXzXzXzXzXNXeXzXzXzXzXzXzXzXzXzXzXzXzXzXzXeXeXzXzXzXzXzXzXzXzXzXzXzXzXzXzXNXzXeXNXzXzXzXzXzXzXeXNXzXzXzXzXzXzXzXzXzXzXzXzXzXzXzXzXzXzXzXzXzXeXzXzXtX-X7 [ FXgX_.O } PXcXcXcXVXcXcXcXVXzXcXcXNXcXzXVXcXVXcXVXzXzXzXVXVXzXcXzXcXVXzXzXcXcXVXzXzXcXVXzXzXcXcXVXVXzXzXcXVXzXzXVXVXzXVXzXcXVXVXzXzXVXzXVXzXcXNXNXNXzXNXNXNXNXNXzXcXVXzXcXVXNXVXVXcXzXzXZXJXF e L kXlX< 4.bX^ n.wX5X3X3X3X3X2X5X3X3X3X3X3X3X3X3X8X3X3X3X3X3X3X3X8X8X5X%X3X3X3X3X3X3X3X8X3X3X3X3X3X8X3X3X3X3X3X3X3X3X3X%X3X3X3X3X3X3X3X3X%X3X8X3X3X3X%X3X3X8X3X3X3X3X3X3X3X3X%X3X3X3X5X5X5XrX9.~ C.hX6X) A ^ G } 9.n.n.c.m.m.m.m.m.m.m.m.m.m.m.m.m.m.m.m.n.m.m.m.m.m.m.m.m.m.m.m.m.m.m.m.m.m.m.m.m.m.m.m.m.m.m.m.m.m.m.m.m.m.m.m.m.m.m.m.m.m.m.m.m.m.m.m.m.m.m.m.m.m.m.m.m.m.m.m.n.m.m.m.m.m.=X6.k h.6XxX>.t r b.+Xc.n.m.m.m.m.m.m.m.m.m.m.m.m.m.m.n.m.m.m.m.m.m.m.m.m.m.m.m.m.m.m.m.n.m.m.m.m.m.m.m.m.m.m.m.m.m.m.m.m.P.",
"NXeXNXeXeXzXeXzXeXzXzXeXeXNXeXNXeXzXNXeXeXNXNXeXzXeXeXzXNXeXeXNXzXzXzXeXeXNXeXNXNXeXNXeXeXNXNXeXzXzXzXzXzXzXzXBXb.E ` lX4X4Xz m HXzXeXzXzXzXzXzXzXzXzXzXzXzXzXzXzXzXzXzXzXzXzXzXzXzXzXzXzXzXzXzXNXzXzXzXzXzXzXzXzXzXzXzXzXzXzXzXeXzXzXzXzXNXzXzXzXzXzXeXzXzXzXzXzXzXzXzXzXzXzXzXzXzXzXzXzXzXzXzXzXzXzXNXeXqX7 U mXgX_.O 5.PXcXcXVXcXcXVXcXzXzXVXVXzXVXVXzXzXzXzXVXcXVXcXzXcXzXVXVXcXzXVXzXVXzXVXcXVXcXzXVXcXVXzXzXcXzXVXzXVXcXVXzXcXzXzXVXcXzXzXcXVXVXzXzXzXVXNXNXzXNXNXNXzXVXcXVXzXNXzXVXzXcXcXVXVXcXcXCXGXJ t >.lXkX5 _ N.^ A.=X%X%X8X3X3X3X3X3X3X5X3X3X3X3X3X3X3X3X3X3X3X3X3X3X8X8X3X3X3X3X3X3X3X3X3X%X8X3X3X3X3X3X3X8X%X3X3X3X3X5X8X3X3X3X3X8X3X3X3X3X3X3X3X3X3X3X3X3X3X3X3X8X3X3X3X3X3X3X3X3X5X8XwX5XrX9.Q B.lX2X#.~ ~ ^ 4.f.n.n.n.m.m.m.m.m.m.m.m.n.m.m.m.m.m.m.m.m.m.m.m.m.m.m.m.n.m.m.m.n.m.m.m.m.n.m.m.m.m.m.m.m.m.m.m.m.m.m.m.m.m.m.m.m.m.m.m.m.m.m.m.m.m.m.m.n.m.m.m.m.m.m.m.m.n.m.m.m.m.m.m.n.m.=X' k d.6XxX` k J q.c.m.|.m.m.m.m.m.m.m.m.m.m.m.m.m.m.m.m.m.m.m.m.m.m.m.m.m.m.m.m.m.m.m.m.m.m.m.m.m.m.m.m.m.m.m.m.m.m.m.m.m.",
"zXeXeXzXeXzXeXNXzXeXzXeXzXeXeXzXzXzXeXzXzXeXNXeXNXeXNXeXeXzXeXzXeXNXeXNXzXzXzXzXeXNXNXeXNXeXNXzXzXzXeXzXzXzXzXNXc.Z { lXlX_.h I HXzXeXNXcXzXzXzXzXzXzXzXzXzXzXzXzXzXzXzXzXzXzXzXzXzXzXzXzXzXzXzXzXzXzXzXzXzXzXzXzXzXzXzXzXzXzXzXzXzXzXzXzXcXzXzXzXzXzXzXzXzXzXzXzXzXzXzXzXzXzXzXzXzXzXzXzXzXzXzXzXzXzXNXtXqX8 { FXjX_.O 5.PXNXcXzXcXzXVXcXcXVXcXzXzXzXcXcXVXcXVXzXzXzXzXzXVXzXcXzXzXzXVXcXzXcXcXcXzXVXzXVXzXcXzXzXVXcXVXzXzXVXcXzXzXcXVXzXzXVXcXzXVXzXcXzXVXcXNXNXNXNXNXVXzXNXNXNXNXzXVXzXNXzXzXzXzXzXVXCXDXT k p.mXlXM N N F s.a.#X%X8X3X3X3X5X5X3X3X3X5X8X3X3X5X3X5X3X5X3X5X8X3X5X5X3X3X5X5X3X3X3X3X3X3X5X3X3X3X5X5X3X3X5X3X3X3X8X3X3X3X3X3X8X8X5X5X3X3X5X5X3X3X3X3X5X3X5X5X3X3X3X3X3X3X3X3X5X3X5X8X5XwXrXq.~ C.hX6X) ) ' ~ f.m.n.m.n.m.m.m.m.m.m.m.m.m.m.m.m.m.m.m.m.m.m.m.m.m.m.m.m.m.m.m.m.m.m.m.m.m.m.m.m.n.m.m.m.m.n.m.m.m.m.m.|.m.m.m.n.m.m.m.m.m.m.m.m.m.m.m.m.m.m.m.m.m.m.m.m.m.m.m.m.m.m.m.m.m.m.=X| t j.7XkX' C Q.Z._ c.n.m.m.m.c.m.m.m.n.m.m.m.m.m.m.m.m.m.m.m.n.m.m.m.m.m.m.m.m.m.m.m.m.m.m.m.m.n.m.m.n.m.m.n.m.m.m.m.m.U.",
"zXNXeXzXNXeXzXeXeXNXeXNXzXeXNXzXeXeXNXeXeXNXeXzXeXzXeXNXNXeXNXzXNXeXzXeXeXeXNXeXzXzXeXzXeXzXeXzXzXzXzXzXzXzXzXBXOXZ { lXgX5Xy m JXzXwXNXNXzXzXzXzXcXzXcXzXzXzXzXzXzXzXzXzXzXzXzXzXzXzXzXzXzXzXzXzXzXzXzXzXcXzXzXzXzXzXzXzXzXzXcXzXzXzXzXzXcXzXzXzXzXzXzXzXzXzXzXzXzXzXzXzXzXzXzXzXzXzXzXzXzXzXzXzXzXzXNXtX=X4 { mXjX_.O 7.PXcXVXVXcXcXcXVXcXzXNXVXcXVXcXzXzXzXVXcXVXcXVXcXcXzXVXVXcXNXcXVXzXVXzXVXVXcXzXcXzXVXzXcXcXzXzXVXcXzXzXcXVXcXzXVXcXzXzXzXzXNXVXNXNXVXNXNXzXcXVXzXzXVXzXNXVXcXzXcXVXNXVXVXcXNXNXCXLXJ t >.nXjXz 4 4 F a.+X3X5X%X3X3X3X3X3X3X3X3X3X3X5X3X3X3X3X8X3X3X3X3X3X3X3X3X3X3X3X3X5X3X3X5X3X3X5X3X3X3X3X3X3X3X5X3X3X5X3X3X3X3X5X3X3X3X3X3X3X3X8X3X3X5X8X3X3X3X3X3X5X3X3X5X3X5X3X8X3X3X5X5X5XrX9.) B.hX7X$.) ) ) 9.m.n.n.m.n.m.m.m.m.m.m.m.m.m.m.m.m.m.m.m.m.m.m.m.m.m.m.m.m.m.m.m.m.m.m.m.m.m.m.m.m.m.m.m.m.m.m.m.m.m.m.m.m.m.m.m.n.m.m.m.m.m.m.m.m.m.m.m.m.m.m.m.m.m.m.m.m.m.m.m.m.m.m.m.m.m.$X| t h.(.kX` M i.J d x.n.m.m.m.m.m.m.m.m.m.m.m.m.m.m.m.m.m.m.m.m.m.m.n.m.m.m.m.m.n.m.m.m.m.m.m.m.m.m.m.m.m.m.m.m.m.m.m.m.m.",
"eXNXNXeXNXeXeXNXNXeXzXzXeXNXNXeXNXeXNXeXzXzXeXzXzXzXzXeXNXeXNXeXNXeXzXzXNXeXzXeXzXzXeXzXeXNXzXzXzXzXzXeXpXeXNXBXb.Z { [.4X_.t I GXzXeXNXzXcXzXzXzXzXzXzXzXzXcXzXzXzXzXzXzXzXzXcXzXzXcXzXzXzXzXzXzXzXzXzXzXzXzXzXzXzXzXzXzXzXzXzXzXzXzXzXzXzXzXzXzXzXzXzXzXzXzXzXzXzXzXzXzXzXzXzXzXcXzXcXzXzXzXzXzXzXzXVXaX=X5 [ mXjX_.O  .PXcXVXcXVXcXcXVXcXVXcXzXzXNXcXVXzXcXzXzXzXzXVXVXcXVXzXVXzXzXzXzXzXzXVXzXcXVXzXzXVXzXVXVXzXcXVXzXzXVXzXVXzXcXVXzXcXcXVXcXVXzXzXVXzXVXNXzXNXVXcXcXNXNXzXzXVXzXNXVXcXzXNXNXcXVXcXCXDXU t ` kX5Xk h j D  .c.=X5X9X3X3X3X3X3X2X5X3X3X5X3X3X3X3X3X3X3X3X8X3X3X5X3X3X3X3X3X3X3X3X3X3X3X5X5X3X8X3X3X3X5X3X8X3X3X5X8X3X5X3X5X3X3X3X3X5X8X3X3X3X3X3X3X3X8X3X3X3X3X5X3X3X3X3X5X3X5X5X3XwX8XrX9.~ B.hX6X) $.6.4.x.m.m.m.n.n.m.m.m.m.m.m.m.m.m.m.m.m.m.m.m.m.m.m.m.m.m.n.m.m.m.m.m.m.m.m.m.m.m.m.m.m.m.m.m.m.m.m.m.m.m.m.n.m.m..XP.m.m.m.m.m.m.m.m.m.m.m.m.m.m.m.m.m.m.n.m.m.m.m.m.m.m.m.m.m.m.%X&.t z.7XkX` t 0.K H b.n.|.|.m.m.m.m.m.m.m.m.n.m.m.m.m.m.m.m.m.m.m.m.m.m.m.m.n.m.m.m.m.m.m.m.m.m.m.m.m.m.m.m.m.m.m.m.m.m.m.",
"NXeXeXzXeXzXzXzXzXzXzXeXzXeXeXzXzXzXeXzXNXeXNXeXNXeXzXeXzXzXeXzXeXNXeXzXeXNXeXNXeXNXNXeXzXeXzXeXeXzXzXeXeXeXpXNXe.S >.lXgX_.y m HXzXwXBXzXzXzXzXzXcXzXzXzXzXzXzXzXcXzXzXzXzXzXNXzXzXzXzXzXzXcXzXzXzXzXzXzXzXzXzXNXcXzXcXzXzXzXzXzXzXzXzXzXzXzXzXzXzXzXzXzXzXcXzXcXzXcXzXzXzXcXzXzXzXzXzXzXzXzXzXzXzXNXcXpX=X4 [ mXjX_.O  .UXzXcXzXcXcXVXcXcXzXzXcXVXzXVXcXzXVXzXcXVXcXcXzXzXVXcXcXzXcXVXcXVXcXcXzXVXcXzXcXzXVXcXVXcXzXVXVXcXcXzXVXcXzXVXzXVXzXVXcXzXVXzXVXcXcXzXVXNXNXNXVXNXzXVXzXVXcXVXNXzXVXNXNXNXNXVXZXDX( t >.lX6Xd 4.&X| a. ..X=X-X%X5X2X5X5X3X3X3X3X3X8X3X3X5X3X5X3X5X3X3X3X3X8X3X3X3X5X3X3X8X3X5X3X3X3X3X5X3X3X3X3X3X5X3X3X3X3X3X3X3X3X3X3X5X3X3X3X3X5X3X3X3X5X3X3X5X5X3X3X3X8X3X3X3X8X3X8X3X5X5X5XrX5.) B.hX6X$.$.V.c.n.n.m.m.m.m.n.m.m.n.m.m.m.m.m.m.m.m.m.m.m.m.m.m.m.m.m.m.m.m.m.m.m.m.m.m.m.n.m.m.m.m.m.m.m.m.m.m.m.m.m.m.n.m.m.m.m.m.n.m.m.m.m.m.m.m.m.m.m.m.m.m.m.m.m.m.m.m.m.m.m.m.m.n.L.m.m.$X' t g.(.kX` p 0.@X|.|.m.|.m.m.m.m.m.m.m.m.m.m.m.m.m.m.m.m.m.m.m.m.m.m.m.m.m.m.m.m.m.m.m.m.m.m.m.m.m.m.m.m.m.n.m.m.m.m.m.P.",
"eXzXzXzXNXeXzXzXeXNXeXNXzXzXeXNXeXNXeXNXeXzXzXzXeXNXeXNXeXNXeXzXzXeXNXeXeXNXzXzXNXeXeXNXzXeXNXzXeXNXzXeXeXeXpXpXb.D >.lX4X4Xz I GXzXcXzXzXzXzXzXcXzXzXzXzXzXzXzXzXzXzXzXzXzXzXzXzXzXzXzXzXzXzXzXzXzXzXzXzXzXzXzXzXzXzXzXzXcXzXzXzXzXzXzXzXzXzXzXcXzXzXzXzXzXzXzXzXzXzXzXzXzXNXzXzXzXzXzXzXzXzXzXzXNXzXVXaX|.5 U mXnX[.O  .UXcXcXcXVXcXcXcXVXcXVXVXcXzXcXcXVXzXVXVXzXVXzXzXVXzXzXcXVXVXcXVXzXVXzXzXVXzXVXVXcXcXzXzXcXVXcXzXVXzXVXzXcXVXcXzXVXzXcXVXcXVXNXNXVXzXVXzXcXVXzXcXNXcXVXVXzXNXVXNXNXVXNXzXVXzXVXCXDX[ p >.kXhXd H oXA.A.OX7X%X%X3X3X3X2X3X3X3X3X5X3X5X3X3X5X3X3X3X3X5X3X5X3X3X3X5X3X5X8X5X3X3X3X3X5X8X3X3X3X3X5X3X5X3X3X3X3X5X5X3X3X5X3X3X3X3X5X3X5X3X3X5X8X5X3X5X3X3X3X5X3X3X3X5X3X5X3X8X5X5X8X5XrXq.Q C.hX6X_ 4.A.OX|.m.m.m.m.m.n.m.m.m.m.m.m.m.m.m.m.m.m.m.m.m.m.n.m.m.m.m.m.m.m.m.m.m.m.m.m.m.m.m.m.m.m.m.m.m.m.m.m.m.m.m.m.=Xm.f.m.P.m.m.m.m.m.m.m.m.m.m.m.m.m.n.m.m.m.m.m.m.m.m.m.m.m.m.m.m.m.%X6.M j.2XkX/ t ( N.m.c.c.|.m.m.m.m.m.m.m.n.m.m.m.m.m.m.m.m.m.m.m.m.m.m.m.m.m.m.m.m.m.m.m.m.m.m.m.m.m.m.m.m.m.m.m.m.m.m.m.m.",
"eXeXeXeXeXeXeXeXeXeXeXeXeXeXeXeXeXeXeXeXeXeXeXeXeXeXeXeXeXeXeXeXeXeXeXeXeXeXeXeXeXeXeXzXeXeXeXeXeXeXeXeXeXeXpXBXr.Z ] lX4X6Xe m DXzXeXzXzXzXeXzXzXzXzXzXeXcXzXzXzXzXcXzXzXzXzXzXzXeXcXzXzXzXzXeXzXzXcXzXzXcXzXzXzXzXzXzXzXzXzXzXzXzXcXzXcXzXzXzXNXzXzXzXcXzXzXzXzXzXzXzXzXzXzXzXzXzXzXzXzXcXzXeXeXeXeXmXeX|.4 { mXkX[.O  .PXcXcXzXzXzXzXzXcXzXzXzXzXzXVXzXzXcXcXzXzXzXcXzXzXNXcXzXzXzXNXcXzXzXzXzXcXzXcXzXzXNXNXzXzXzXzXzXcXzXcXzXzXzXzXzXcXzXzXzXzXzXNXzXzXzXzXNXNXzXNXNXNXzXzXzXzXzXcXzXzXcXzXzXzXzXcXCXLXJ M B.lXhXd D a.a.A.N.2X3X%X3X3X3X2X3X3X3X2X3X3X%X3X3X%X3X3X3X3X3X3X3X3X3X3X3X3X3X3X3X3X3X3X3X3X3X3X3X3X3X3X3X3X3X3X3X3X%X3X3X3X3X3X3X3X3X3X3X3X3X3X3X3X3X8X%X3X3X3X3X3X3X3X3X3X3X3X%X3X5X5XwX7Xe.) B.hX2X_ 0.v.OX|.m.n.n.n.m.m.c.m.n.m.m.n.n.c.m.n.m.c.n.m.n.m.m.c.m.m.n.m.n.c.m.n.n.n.n.m.m.m.n.m.m.n.m.n.m.c.n.m.n.n.m.m.=Xn.4.n.P.n.n.n.n.m.n.n.m.n.m.n.m.m.n.m.m.n.m.n.n.n.n.m.m.m.m.m.n.n.5Xs.M f.(.kXW y A v.m.w.c.c.m.m.c.m.m.n.m.m.m.c.m.m.n.m.n.m.m.m.n.n.m.m.n.m.m.n.n.n.n.m.c.n.m.n.m.m.n.m.m.c.m.m.n.m.n.m.m.m.",
"HXHXHXHXHXHXGXGXGXGXGXGXGXGXGXDXHXGXGXHXHXGXGXGXGXGXGXCXDXGXGXGXGXGXGXGXGXGXGXDXDXDXDXDXDXFXDXDXDXDXFXHXHXHXIXPX1XN Y gX4X2XZ ..HXDXDXDXDXDXDXDXDXDXDXDXDXDXFXFXFXFXFXFXFXDXDXDXGXGXGXGXHXGXGXHXHXDXHXGXGXHXDXGXDXDXDXCXCXDXDXDXDXGXDXDXGXGXGXGXJXGXJXGXGXHXGXGXGXGXGXGXDXGXGXDXGXDXDXDXDXDXDXDXCXDXCXDXFXcX0 U mXhXY.+ 4.PXIXFXFXFXDXDXDXDXHXFXFXIXFXFXFXFXFXFXDXFXVXDXDXFXDXGXDXDXDXHXDXDXGXDXDXDXDXDXDXDXDXDXDXHXHXGXHXDXHXDXDXDXDXDXDXDXDXDXDXDXDXDXDXDXDXDXDXDXDXDXDXDXDXDXDXHXDXDXDXDXDXDXDXDXDXDXFXDX; 8 N.hX6Xj _ @X8X#XS.&X3XwXcXFXcXcXcXcXcXFX%XN.wXrX@X%X5XcXcXxXcXxXcXxXcXcXcXcXcXhXhX5XwXwXzXxXhXcXcXxXcXhXzXhXwX8X8X9XwXzXcXzXwXeXzXzXzXeXcXeXcXzXeXzXcXcXeXzXzXzXcXcXzXzXzXcXcXwXeXcXcXhXcXxXm._ X.gX6XQ |.-X5X$X+X%XP.n.cXcX~ M.%Xn.P.2Xn.w.} c.%X%X$X=X%X$X3XeXwXwX3X|.+X=X+X+X+X$X=X=X+X+X+X+X+X+X$X$X$X+X+X$XP.P.%XwXHXwXF  X3X=X%X=X=X=X=X=X=X=X$X$X=X$X%X$X=X=X%X=X$X=X=X|.=X=X|.+Xm.%XIX..: d.(.xXP 7 ~ M.$XP.$X$XP.P.|.c.m.=X+X+X+X+X=X+X+X=X$X+XP.m.5.x.P.2X3X2X%X2X%X2X$X$X$X$X$X%X$X$X$X$X$X$X$X$X$X$X$X$XP.*X",
"1X#X,X,X,X#X,X1X,X#XoX,X,X<X>X>X>X<X<X1X1XoX;X;X1X1X1X1X1XoXOXOXOX,X1X1X1X<X<X<X1X-X<X<X<XuX<X-XuXuXuX>X>X*X@X;XO.e Y lX4X_.z m 1X1X<X<X<XuX<X1X<X>X>XuX,X>X>X>X:X:X>X>X>X>X>X>X>X>X@X>X,X>X<X>X1X1X<X1X<X<X1X1X1X1X<X1X1X<XuX1X.X|.#X1X1X1X1X1X1X1X1X1X1X1X1X1X1X,X1X>X1X1X1X1X1X>X1X,X<X1X,X#X#X>X<XuXyX>X8 { mX4XP.= X.LXrXyX7XiXiXiX>X0XuXrXiXuXqXqXiXiX0X0X0XqXiX<XuXuX0X-X-X-X-X>X-X*X-X>X0X<X-X-X-X-XuX*XuX*X-X*XuX-X0X-XuX*XuX0XuXuXuX<XuXuXiX<XuXuXiX<XuXiXuX0XiX<XuXiX-X*XuXuX-XiX-XuXiX<XuXuX0XuXq 8 M.lX4Xz N s.oXA.D.S.oX@X@X@X XM.U.N.M.@X_ D e.4.D 5.b.@X@X@X@X@X&X&X&X&X&X&X@X*X*X*X&X*X&X*X*X*X&X>X&X>X;X@X X X.Xc.c..X X#X*X1X>X#X#X#X#X#X#X1X#X#X#X#X#X#X#X#X#X#X#X#X#X,X#X*X1X#X&X&X&X&XX.~ D.gX(.Q | r.} } 7.6.4.| f.v.J y.q.} 7.q.7.| H  .5.7.7.7.q.9.Z.;XoXD.5.7.7.4.} i.7.7.q.7.q.q.e.v.v.h.q.4.4.6.4. .}  .e.XX X9.m 7.5.} 5. .5.5.q.7.5.7.5.7.7.q.5.} e.q.} 7.7.7.7.7. .r.|  .G  .rXF 4 I./.hXU 7 e G _ _ _ _ } 0.4.} e.e.e.e.e.w.w.v.f.w.q.q.~ G ^ ) 6.f.q.q.q.w.v.q.f.f.q.q.q.q.f.v.v.h.f.v.f.5.9.8.q.f.q.Z.",
"4 , 4 , 4 , 4 2 4 4 4 2 6 0 5 5 5 5 5 f d ; > > 5 5 d d 5 ; ; * 1 < 5 5 8 h c c c c c c c c c c c d d d d d ; ; # : { hXhX2X< # c d d f d d d d d d d d 5 d d 5 5 8 5 5 5 5 4 5 5 4 4 4 4 4 5 5 8 5 5 d d d d d f h d h d d d 5 4 5 d 5 d d 5 d d d 5 5 5 5 4 5 5 4 4 4 4 5 5 5 5 5 5 5 d d d 8 h d h c l N 8 ~ mX4Xf.= 5 H H D d D G l c l v D D D D K K D D v l v D v l l l c l c l c l l l l l l c l l l l l l l c l l c c l l l c c l l c l l l l l l l c l l c l c l l l l h h l l l k l k l c l l l l * w M.lX).t 4 0 f 5 h h h l k k 8 8 7 5 8 8 ; * - = O , 8 8 h c l l D l N l N l D G H  .^ H G D D D N D N D N l l l c h d < c v D K l D v K v D v D v D v D v K v D v v K D K v v D D D D D D N ; N I.jX(.Q 5 < - - : , : , : : 4 4 , 4 4 , 4 4 4 4 4 , 4 : : 4 7 4 4 7 4 4 , : - : : , , 2 4 7 8 y e e 7 2 : , ; ; ; ; , 7 : : : : : : : : : 2 : 2 4 4 4 , , : ; - 2 , - ; ; : , , : : : ; * - : 4 l _./././ 7 > * & : - - 2 4 7 8 e h h h k e t t t t w 7 : 2 e 7 8 7 7 e e e 8 e e e e e e e e e 8 e e h e e 8 e e e e M ",
"L.L.L.m.L.L.L.L.L.L.J.L.J.G.G.L.L.L.L.k.L.m.L.m.m.n.G.G.n.L.L.L.m.L.L.G.L.n.G.G.L.L.m.L.L.P.P.L.P.T.T.T.T.T.T.T.P.T./.hXhX4XL.n.L.m.m.L.P.m.m.L.n.n.k.L.L.m.L.L.L.P.L.L.L.G.L.G.k.L.L.G.L.G.L.G.L.L.P.L.P.m.L.P.P.L.Y.Y.Y.Y.Y.^.Y./.^.T.Y.L./.Y.T.Y.^.^.Y.^.^.!.^.Y.^.^.^.!.^.^.Y./././.Y.T.T.T.T.T.P.T.T.P.P./.4XhXhXf.k.Y.d.d.k.f.k.k.k.k.k.k.j.j.k.F.k.F.j.k.k.k.k.F.k.k.L.L.L.L.L.L.G.n.k.k.k.k.L.k.G.k.n.k.n.G.L.L.L.L.G.I.G.L.L.L.G.L.L.L.L.L.L.n.L.L.L.L.L.L.L.L.L.L.L.n.m.L.L.L.L.n.L.n.L.L.L.L.L.Y.Y./.gXgXgXJ.G.L.T.P.P.Y.P.L.P.L.P.T.T.T.T.Y.Y.T.Y.T.Y.Y.Y.T.Y.Y.L.Y.L.Y.L.Y.L.Y.L.L.n.k.n.k.m.L.L.L.L.L.L.L.L.Y.L.L.Y.L.L.L.L.L.Y.L.Y.P.Y.L.T.L.Y.L.T.Y.P.L.Y.L.T.Y.Y.Y.L.P.P.Y.Y.P.P.Y.Y.Y.^.T.Y.$X2XgX5XL.k.f.k.k.n.k.k.k.n.k.k.k.k.k.k.k.k.k.k.n.k.k.k.G.k.k.k.j.k.k.k.F.k.F.k.H.k.G.G.G.k.L.n.k.k.n.n.k.n.L.G.Y.P.L.L.G.G.G.G.G.L.G.G.G.G.G.G.G.G.n.k.L.L.m.L.L.m.L.L.G.L.k.G.G.G.n.L.L.L.Y.P.T.E.2XlXhXT.Y.L.L.G.n.G.m.n.L.L.L.L.L.P.L.L.L.Y.Y.Y.L.G.Y.L.L.L.Y.Y.L.Y.Y.Y.Y.T.Y.Y.Y.Y.T.Y.Y.Y.T.Y.T.Y.T.^.T./.T.T.T.L.7X",
"2X2X4X2X2X4X2X4X_.4X[.4X4XgX6X6X4X6X6X_.6X5X5X6X4X6X6X6X6X6X5XlXlX6XlX6X4X6X6X6X6X6X6X6X6X6X4X6X4X4X4X5X5XgXhXhXlX5X4X5XgXgX4X4X6X5X6X5X5X6X5X6X5X6XlX6X4X6X4X4X4X6X4X4X4X4X6X_.4X6X4X6X6X4X6X4X5X6X4X4X2X5X6X2X2X4XgX4XgX4XgX[.gXgXgXgXgXlXgXhXgXjXlXgXhXlXgXjXgXgXgXgX[.jXgXgXgXgXgXgXgX4X4X4X4X5X4X5X5X4XhX5X2XhXhX2X2XlX(.(./.(.2X2X(.6X6X/._.(.`._./.(._.(.(./.(.(.4X(.2X4X/.4X4X6X6X6X4X6X4X6X(.4X4X2X6X6X4X6XlX6X6X4X6X2X2X6X6X6X4X2X6X6X6X4X2X6X6X6X6X4X6X6X2X6X6X6X/.2X6X/.2X2X2X6X4X2X/.2X2X4X_.4X[.gXjX{.gX_._.4X4X4X4X4X5X4X5X5X4X4X4X4XgX5XlXgXgXgXgXgXgX4X4X4X4X4X6X4X4X6X4X6X_.6X_.2X(.6X6X6X2X4X4X4X(.gX4X6X4X4X4X5X_.gX4XgX6XgX4X4XgX6X4XgX6XgX4X4XgX_.gX6X4X4XgX6XgX4X4X4X4XgX4X6XgXgX5XgXhXgXgXgXgX/.(.2X6X6X_.6X6X6X2X/.4X/.4X(.2X_.6X/.2X7X6X/./.(._.(.4X(._.6X_.(.4X[._._.4X_.(.4X4X4X6X4X4X2X2X7X2X4X4X5XgX_.4X6X_.6X_.(._./.4X(.(.4X(.4X/.6X_.6X2X6X2X2X4X2X4X_._.6X_._.2X4X4X4X5X4XgX4X4X4X4XlX2X2X4X_.2X4X4X4X2X4X6X4X4X7X4X4X2X4XgX_._.gX_.4X4X4X4X_.2X4X4X2X_.2X4X2X4X4X4X5XgXhX4XhXgX4X4XhX2X4XgX4X4X4X2XlX",
"hXjXkXhXhXjXhXhXgX4X4X[._.lXhXkXkXhXkXkXkXkXnXnXkXkXkXkXxXnXnXnXnXkXkXkXkXhXxXhXhXhXkXjXhXjXhXhXhXkXhXhXgXlXhXlXhXhXxXxXxXnXkXnXnXkXkXkXkXkXjXnXjXjXjXjXjXjXkXjXkXhXkXhXkXjXjXlXjXhXjXjXjXjXjXjXjXjXjXhXjXkXjXhXjXgXgX[.4XgX4X5XgX4X4X5X5X5XhXhXcXwXwXhXhX5XhXwX5XhX5XwXlX5X5X5X5XhX5X4XgXhXgXhXgXhXhXkXkXkXhXhXhX5X5XhXhXkXxXkXxXhXhXhXhXlXhXkXxXxXnXxXxXxXxXxXxXxXxXxXxXlXxXkXkXlXkXkXxXkXkXxXxXxXxXxXxXxXxXkXkXhXhX4XgXkXkXxXxXkXkXkXkXkXkXhXhXhXkXhXkXhXhXhXjXkXhXkXhXhXkXkXxXkXkXhXhXkXkXkXkXkXkXkXnXnXnXnXnXnXnXjXjXkXkXnXkXkXnXxXnXnXxXnXkXkXkXkXkXkXkXkXkXjXkXjXkXjXnXjXnXjXjXnXnXjXkXnXnXnXmXxXmXnX[.gXgXjXkXnXkXkXkXkXkXkXkXkXkXkXnXkXnXkXkXnXnXkXnXkXkXnXkXkXkXnXnXkXnXkXnXkXnXnXnXkXnXkXkXkXkXkXkXxXnXxXmXmXnXkXnXnXnXkXnXnXnXkXkXnXkXnXkXnXkXkXkXjXkXkXkXkXnXnXnXnXnXnXnXnXnXnXnXjXkXkXkXhXhXhX2X2X4XhXgXgXgXhXhXhXhXhXjXkXhXhXhXhXhXhXhXhXhXhXhXhXhXgXlXgXjXjXhXjXhXjXkXlXkXkXlXkXjXkXkXkXjXkXkXkXkXjXhXhXjX5XhXhXhXkXxXlXkXxXhXkXkXkXkXkXkXxXxXxXxXxXxXxXnXxXkXxXkXkXkXkXkXkXhXhXhXhXhX4X5X4X4X4X4XhX4XhXhXjXhXhXjXhXhXlX",
"Q.'.'.M.Q.Q.I.M.Q.6XlXgXgXI.q.u.V.g.C.V.h.C.C.h.C.g.C.C.h.M.D.M.I.M.I.M.D.M.M.Z.'.M.M.I.'.M.M.'.'.M.C.'.z.M.C.M.z.M.M.'.M.'.M.H.I.M.M.M.I.z.M.M.H.z.M.M.z.M.'.M.C.M.M.'.M.M.M.Q.N.I.Q.I.I.I.I.U.U.I.Q.I.M.I.I.M.I.6XjXlXE.7.z.Q.V.M.M.z.z.M.M.z.z.h.z.M.M.z.z.z.z.z.M.z.z.M.z.z.z.z.M.z.I.H.I.M.I.I.I.I.I.I.I.I.I.M.z.z.z.H.H.H.z.z.H.k.I.H.H.H.H.H.H.H.z.H.H.z.H.z.z.z.z.k.k.M.M.n.n.z.f.k.z.v.M.v.z.h.z.z.C.z.-.Y._.kX(.q.6.8.0.6.4.6.4.6.6.6.4.6.&.4.6.8.8.4.4.6.4.4.4.0.4.0.4.0.0.q.5.g.q.0.q.q.0.0.0.0.0.4.g.0.0.0.5.0.q.g.0.q.q.f.h.g.q.q.f.q.h.5.0.q.q.q.q.h.q.q.0.q.0.q.q.4.4.0.-.6.6.$.6.6.&.$.' ' [.gXjXg.u.B.B.u.u.u.u.u.u.B.u.g.h.h.B.g.B.g.g.u.B.g.B.g.u.g.B.B.V.B.u.u.u.0.0.u.u.u.u.q.0.u.u.u.u.0.B.q.B.i.u.u.u.u.u.u.u.u.u.u.i.u.u.u.u.i.u.u.u.u.u.u.u.u.u.B.u.u.B.u.V.u.B.u.u.i.V.i.u.i.i.v.kX5X4Xv.f.i.C.M.z.M.M.M.M.C.M.z.M.M.C.M.M.C.'.M.z.M.I.H.I.I.I.H.M.I.U.I.I.I.M.C.M.M.M.M.M.'.'.M.I.M.M.I.M.z.z.M.z.M.M.I.I.M.M.I.M.H.M.I.z.M.C.z.l.z.z.B.z.l.g.l.z.g.l.h.z.g.h.h.z.z.M.C.M.E.hX5XhX4X2Xh.M.v.h.Z.M.h.V.v.v.S.",
"C E R R R C G ~ G d._.gX5X_ M t M M M k p k k k k k t M M N C N C R R C C Z C C C Z Z E Z R R C C R R R R Z R E R R Z R Z Z E E E E R Z ~ W G G ~ ~ ~ Z E Z Z Z E ~ E ~ ~ E ~ ~ ~ ~ ~ ~ _ _ _ _ ) ) ~ ~ ~ ~ ^ ~ ~ E.kX_.d.8 ) #.Z ~ ) ~ ~ E Q E Q Q Q R R Q E Q Q R R Q Q R E Q E Q Q E Q ~ ) ) ) #.) #.#.$.) _ ) ) ) Q ~ ) ) ~ ) #.) @.) Q Q ) Q ) ) Q ) Q Q ~ ~ Q ~ ~ ) _ ) $._ $.$._ _ ) ~ ) ~ ~ ~ Z C C C C t 2.^.nXk.k N N N M M N l k h k k k M k k M N l N k N l l k l k k N k M M N M N N N N l l l l l l l l l N l N N Z N N N N N N N N D N N N N N N N N N D l D N l N l M l N k k l k k l k 8 7 _.2XjXM w k k e t t k t k k M k M M M M M p p M p M M M p M M t k k k t t k e e y t t e t e t t t e e t e t h t e t t e t e t e t e t t e t e k e t t t h t t e t e e t e t t z k k k k k k e ~ xXgX5XG N N Z Q Q ~ Q R ~ ~ Q ~ ~ ~ ~ E ~ ~ E E ) Q Q ~ Q @.) ) ~ ) _ _ ~ E ~ Q Z ~ Q Z E E ~ ~ ~ ~ E E E E E ~ Q E Z Z ~ ~ ~ ~ E Q R R R C C C M a a C a a C C a C a C C C C C C C C M Q $.hX5XhX2Xn.M Z Z N Z N N Z Z Z ~ ",
"r F 5.F e > &.M.% t _.lX4Xy ~ v.%X=Xb.0.4.q.v..X@X.XOXb.r.5.5.5.6.' ' 6.7.5.} } } 5.6.} | 6.5.6.7.5.7.5.5.r.r.r.r.x.r.x.r.r.x.r.x.OXOXr.r.r.r.c.|..Xc.e.OX%X=X=X|..X.Xc.|.c.c.c.c.c.w.x.c.w.w.r.5.5.4.5.4.4.c.} 3 Q.kX4X4.% 4.f.x.5.~ G Z Z G A Z G Z Z ~ A Z Z Z Z G Z ~ Z Z A Z Z C Z W E R R R R R E E E R E R E E ~ ) ) #.$.w.w.x.w.x.w.w.x.v.w.w.w.x.x.x.x.n.n.m.m.P.P.+XP.m.m.+XP.+XP.|.m.m.+X|.|.w.4.G O. .~ h.FXz.y m.d.) ~ W W E E A Z C G A Z Z G Z Z G Z G ~ ~ G J A Z N V N N M V Z Z C C A ~ ~ ) / C M N N ^ _ G G G G G G G G G H H H H H H H H H H H H ^  .^  .} _ _  ._ } ^ _ ) ) _ q.2Xi.M /./.4X7 { VX$X#XzXzXZXCXVXVXzXzXwXeXeXeXzXNXNXNXNXzXNXNXzXzXNXzX3XwXcXZXcX%X*X&X%X%X-X8X3X3X8X3X7X8X7X8X3X8X8X-X8X5X3X-X3X8X%X0X8X5X8X%X0X%XwXeXwXwXwXeXwX8XwX9X8X8X8X%X8X8X8X8X8XpXNXNXpXGX< z xX4XhX2 w.UXeX9X9X-X=X .|.GXNXCXNXNXNXeXeXpXeXwX%X8XrX8XwXtXwX8XqX0.p y ) 0.$X+Xv.$X=XU.+X@X$X=X$X%X%XrX8XtXwXtXeX4.W E ' 0.m.@XN.m.m.M.h.h.h.U.3X=X$XU.@X$X@X=X@X=X&X*X0XwXwX%XU.z.z.+XR s lX4X2X4Xd.3 A ~ Z N Z M N _ C >.",
"N.;X*XN.XX| uXZX6 M (.hX6Xt _ >XtXqXtX<X<X-X0XqXcXtXsXqXuX0X0X<X>Xx.N.uXqXqX=X=X=X=X&X=X=X=X=X=X=X=X=X=X=X=X=X%X%X=X%X%X%X%X%X=X=X8X9X+Xc.w.|.|.=X%X=X8.^ l K ^ %X=X=X=X=X=X=X=X=X=X=X=X=X=X=X=X=X+X=X+X@X+XqX|.3 Q.kX5X4.= _ M.rX-X+XU.@X+X@X+X@X+X@X+X@X+X@X+X@X@X+XU.+X@X+X@X+X@X=X@X+X@X+XU..Xn.m.m.P.U.c.c.x.M.m.+X&X$X&X$X%X3X%X3X3X3X3X%X3X3X%X3X-X%X%X8X%X8X8X8X8X8X%X+XP.n.n.+X+X=X3X8X8X8X9X9X%Xm.+XN.D C B.mXd.t f.m.$Xn.n.n.x.f.x.x.x.r.9.9.5.9.9.r.9.9.9.5.^ _ G G ^ } } _ ) _ x.x.n.x.5.M ' ' N Z ) } } 4.^ G w.m..XOXc.c.x.x.c.c.c.m.m.|.|.|.|..X|..X|.|.c.c.x.c.c.c.c.x.c.c.x.w.x.x.m.%X4.M E.2X5X7 p.KXaXbXBXZXZXZXZXZXZXZXZXZXZXBXBXVXBXBXBXBXZXZXNXBXBXBXtXBXZXLXZXBXcXtXiXcXcXcXtXBXBXtXBXcXBXaXcXcXcXcXeXBXcXBXcXcXBXcXeXBXcXBXcXcXBXNXzXpXNXzXzXcXzXBXBXcXzXBXtXcXcXcXBXBXZXZXZXJXh z mX5X4X7 v.PXtXzXpXcXwX#X0XVXNXNXCXNXNXBXBXeXNXBXtXBXBXBXBXBXBXBXSXiXU.M.,XiXaXaXrXtXcXtXtXaXaXbXtXaXBXAXSXBXAXBXSXuX@X1XuXuXtXiXBXiXbXiXiXiXtXiXtXtXtXtXtXtXtXtXtXtXtXcXBXSXSXAXbXqXiXtXE ] gX2X/./.d.w :XzXm.x.4.4.4._ f.*X",
"VXNXeXzXNXwXDXPXj N T.4X6Xy 4.0XeXNXpXpXpXpXVXcXNXcXlXzXNXpXNXpXcXwXrXVXCXGXGXGXCXCXCXCXCXCXVXVXVXVXVXVXVXVXNXVXVXNXVXNXVXNXVXNXNXVXNXeXeX*XwXcXwXNXLXM.t @ % 0 ZXzXNXpXpXNXNXpXpXpXpXpXpXpXpXpXNXNXpXzXzXeXJXwX3 '.kXlX=.= ) :XGXVXDXDXFXDXDXDXCXDXDXDXDXDXCXDXDXDXDXDXDXCXGXGXGXGXGXGXGXGXDXCXCXCXZXCXZXVXCXCXCXZXVXGXDXGXCXCXVXCXVXFXVXVXCXFXVXVXFXFXFXVXVXVXNXVXNXNXNXNXeX%X$Xx.x.$X8XzXNXNXNXNXCXpXVXVXPXcXh R 3.nXh.t 9.rXUXDXFXVXVXDXVXVXZXNXBXpXNXBXZXBXNXNXNXiXr.A.X.7.7.#X*XXX,XuXDXDXGXZXqXJ ^ ^ j ( ;XrXeXrXr.G NXKXJXCXCXpX9X9XeXeXNXzXBXcXNXVXVXmXVXVXNXVXVXNXBXBXNXBXNXNXaXpXBXNXNXaXpXtXa.l T./.7Xw p.PXNXNXNXNXNXNXNXNXVXNXNXVXNXzXzXwXeXeXeXeXeXwXeXeXeXeXzXzXzXzXNXzXNXNXNXNXcXVXzXzXNXzXNXzXNXNXNXNXNXBXzXcXNXVXzXNXNXNXzXcXNXNXNXNXNXzXNXBXzXcXVXzXNXVXNXVXNXNXBXVXVXNXNXNXpXpXpXGXk N xX4X4X7 w.IXzXcXzXzXNXNXNXeXNXpXpXpXeXpXeXeXeXNXNXeXNXeXNXNXNXNXNXVXCXCXVXVXVXNXVXNXNXCXVXNXNXCXNXNXNXpXeXeXNXeXzXNXVXVXVXVXVXNXNXNXNXzXNXNXNXNXNXpXNXNXNXpXpXNXNXNXNXNXNXNXzXNXNXVXZXrXQ s hX4X/.7Xf.s KXUXGXNX>XsX=X' BXJX",
"NXNXzXzXNXcXVXFXj N E.4X6Xy } uXpXpXeXpXpXeXzXzXNXNXNXeXpXeXpXpXeXeXwXeXeXqX9X9XpXeXwX9XeX9XeXeXeXeXeXeXeXeXeXpXeXeXeXeXeXeXeXpXeXeXeX9XeXeXeXeXeXeXeX9XwX%X=X8XeX9X9XeXeX9XaX9XpX9X9XpX9X9XaXeXwXwXeXtXcXeXNX|.> Q.nX4X8.> ~ Q.BX8XwXwXwXeXeXeXeXeXeXeXeXeXeXeXeXeXeXeXeXeXwXzXeXeXeXwXeXzXeXeXeXeXeXzXNXNXpXpXNXpXeXeXeXwXzXeXeXzXeXeXeXeXqXeXeXeXzXeXeXzXzXzXzXzXNXzXpXpXpXNXNXeXeXeXtXNXpXNXpXpXpXpXpXeXVXrXk ) '.nXn.k N } 7XeXeX9XeX9X9X9X9XpX9X9XeXeX9XpXeXeX9XeX$X*Xx 4 < 0XCXpXeX8XeXeXeXeXeXtXwXwXwXcXaXBXzXBXeXwXeX+XA.pXpX8XpXpXpXeXeXeX9X9X8XeXqX9XwX9X8XeX9X9XeXwXeXwXeX9XeXeX9X9XwXeXeXzXq.M Y.2X6X2 >.UXNXzXzXzXzXzXzXzXzXzXzXzXzXzXeXzXeXzXeXeXeXeXzXeXeXzXzXzXzXeXzXzXzXzXzXNXzXzXzXzXzXzXzXzXeXzXzXzXzXeXzXzXeXeXzXzXzXzXzXzXeXzXzXzXzXzXzXzXzXzXzXzXzXwXzXzXzXzXzXzXeXeXeXeXpXpXpXCX7 z xXgX4X4 v.PXzXzXzXzXNXNXzXNXNXpXpXpXNXeXNXNXNXeXeXNXzXzXzXNXNXNXpXeXeXzXeXzXNXpXNXNXNXNXNXpXNXNXNXNXNXNXNXNXNXNXzXzXpXpXpXeXpXpXpXpXpXeXpXpXeXeXpXeXeXeXeXeXeXeXpXeXeXeXeXeXeXzXeXVXcXtXE S 5X4X2X6Xn.P SXUXCXDXDXGXCXCXKXGX",
"NXNXzXzXNXNXNXCXj M U.4X6Xt _ uXpXpXeXpXpXpXeXpXzXzXNXzXeXeXzXeXeXeXzXeXwX9X9X9XpX9XwX9XeXeXeX9XeXeXeXeX9XpXeX9X9XpXeXpXeXpX9XeXeXeXeXeXeXeXeXeXeXeXeXpXpXpXpXpXeX9X9XeXeX9X9XeXpX9XeX9XpXeXpX9XzXwXwXcXeXzXBX+X> '.nX4X-.> R $.rXcXwXwXeXeXeXwXeXeXeXeXeXeXeXeXeXeXeXpXeXzXeXzXzXeXeXcXeXeXeXzXzXzXzXcXNXcXNXNXNXzXeXeXeXeXzXpXeXeXeXeXeXeXeXeXeXeXzXzXzXzXcXzXzXzXzXzXpXpXpXpXNXNXeXeXeXpXeXeXeXpXpXeXpXeXCX0Xc #.H.nXM.l  .} =XaXpX9X9X9XpXpX9XpXpXpX9XeXeXeXeXeXwXeXrXrX .G P aXCXeXeXwX9XeXeXwXeXeXzXBXzXzXzXzXpXeXBXNXeX9.N 8XpX9X9XpXpXpX9X9XwXeXwXeX9XwXwX9XwXeXeX9X9XwX9XwX9XeX9XeXeXeXeXeXeXcXq.k ^.6XlX2 N IXzXwXzXzXzXeXzXzXeXeXzXwXwXzXeXeXeXeXeXwXeXeXeXeXzXeXzXwXeXzXzXzXzXzXeXzXzXzXeXeXeXeXzXeXzXeXzXzXzXzXzXzXzXzXeXzXzXzXzXzXcXzXzXeXzXzXcXeXzXzXzXwXwXzXzXwXzXeXzXeXeXzXwXeXeX9XeXCX7 y xX5X4X7 q.PXzXzXcXVXVXzXNXNXpXNXNXeXzXzXeXeXzXNXNXNXeXNXNXNXzXNXzXzXNXpXzXzXpXNXNXpXpXNXpXNXNXpXpXNXNXNXzXNXeXeXNXeXpXeXpXpXpXeXpXpXpXeXpXpXeXeXeXeXpXeXeXpXeXeXeXeXzXeXeXeXzXeXeXzXNXbX) s hX5X2X4Xk.y AXUXDXGXGXGXGXGXCXGX",
"zXNXNXNXNXeXVXFX5 k R.2X6Xy 4.uXpXeXpXeXeXeXeXeXeXzXeXeXeXeXeXwXeXeXeXwXwXzXwXeXeX9XeX9XwX9XeX9X9X9XeX9XpX9X9XpXpX9XpX9X9XpX9XpXpXeXeXeXpXeXpXpXpXeXeXeXeXpXeX9XeXeXpX9XeXeXeXeXpXpXeX9X9XeXeX9XeXzXzXzXcXwXVX=X& H.lX4X8.< U N 3XZXVXeXeXeXeXzXeXeXzXeXpXNXeXpXeXeXpXeXeXpXeXeXeXeXeXeXeXeXeXeXeXzXzXzXzXzXzXzXeXzXzXpXpXeXeXeXeXeXeXeXeXeXeXeXeXeXeXeXeXzXzXeXzXzXzXzXzXNXeXNXpXeXeXNXeXzXzXeXpXpXeXpXpX9XVXrXh @.'.nXk.v 5.=XVXpXNXpXpXeXpX9XpX9X9X9XpXpX9XeXpXwXzXzXeXeXVXZXzXzXeXeXeXeXwXeXeXeXeXeXwXeXzXzXeXeXeX8XeXwX9X7.% ^ 1XpXpXpXpXeXeXeXwXeXeXeXeXeXeXeXeXeXeXwXeXwXeXeXeXeXeXeXeXwXeXeXcXzX| d Y.6X5Xt D.UXVXzXcXcXcXeXcXzXzXeXzXzXzXzXzXeXzXzXzXzXzXzXeXzXwXzXeXzXzXzXwXzXzXzXcXzXeXeXzXcXzXcXzXzXzXzXzXeXeXeXwXzXeXzXeXcXzXzXzXwXeXeXzXeXzXzXzXeXzXwXzXzXzXzXzXzXzXzXzXzXeXeXNXeXeXeX9XCX7 y mX4X5X4 9.PXcXzXzXzXcXzXzXzXNXzXzXNXNXeXzXzXeXeXeXeXzXeXeXNXeXeXNXeXeXzXNXeXzXeXzXzXeXpXzXeXzXzXzXeXeXeXzXeXeXNXeXzXzXeXzXzXzXzXzXeXzXzXzXzXNXeXpXzXzXpXzXeXzXNXzXzXzXeXeXeXeXeXzXzXNXcX) s lX4X/.7Xj.y bXUXGXGXDXGXGXGXDXGX",
"pXzXNXNXNXeXcXFX0 k E._.6Xr } 0XeXpXeXpXeXeXeXeXeXeXeXeXeXeXeXeXeXzXeXeXwXeXeXeX9XeX9XeXeXeXeXeXeXeX9XpX9XpX9XeX9XpX9XpXpXeXpXeXeXeXeXeXeXeXpXeXeXpXeXpXeX9XpXeXeXpX9XeXeXpXeXpX9XeX9XeXeX9XeXeXeXeXwXzXwXeXZX3X& '.mX4X$.6 [ R %XcXVXeXcXeXeXzXeXeXNXeXeXzXzXeXeXeXzXzXzXeXeXeXzXeXzXeXeXwXeXwXzXzXzXzXzXzXzXzXzXzXzXeXNXeXzXpXeXpXeXeXeXNXzXpXeXeXeXeXeXzXzXzXNXeXzXeXNXeXpXzXNXeXzXeXzXzXzXeXpXeXNXeXNXeXVX7Xe Q '.nXf.G 4.c.CXpXpXeX9XeX9XpX9XpXpX9XeXpXeXeXeXwXeXwXeXeXwXtXwXeXeXwXeXeXwXwXwXeXeXeXeXzXzXzXzXeXpXeXNXVXNXtX#X|.qXpXpXpXpXeXeXeXeXeXwXeXeXeXeXwXeXeXeXeXeXeXeXeXeXeXeXeXeXeXeXeXeXhX .e ^.6X4X2 Y +XwXcXzXzXzXzXzXwXwXzXzXwXwXzXzXwXwXzXzXzXwXzXzXwXzXzXzXzXwXzXzXwXcXzXeXeXzXcXeXeXzXeXeXeXzXzXzXzXzXcXeXeXzXNXeXzXzXwXzXzXeXzXzXcXeXeXzXeXzXzXcXzXzXzXzXzXwXzXcXeXzXcXeXeXpX9XeXCX7 u xX2X4X4 9.HXzXzXzXcXzXzXVXzXzXzXNXzXNXzXzXeXNXeXzXzXzXeXNXeXzXNXeXzXNXzXeXzXeXzXzXeXeXNXeXzXNXeXeXNXeXNXeXNXeXNXNXeXeXNXzXeXzXzXeXNXNXeXzXeXeXNXNXeXeXzXeXNXeXzXzXeXzXzXeXzXNXeXzXNXzXcX) s lX4X/.2Xd.u iXUXCXDXDXCXDXGXDXDX",
"eXNXpXeXNXNXcXFX4 k 7X4X6Xy 4.<XeXpXpXeXeXeXeXeXeXeXeXeXeXeXeXeXeXwXeXwXeXeXwXeXeXeXeXwXeX9XeX9XeX9XeXeXpXeXpXeXpX9XeXpX9XpX9XeXeXpXeXeXpXeXeXeXeXeXeXeXeXpX9XeXpX9XpXeXpX9XeX9XpXeXpXeXpXeXeXeXeXeXzXeXeXeXDX3X> W.nX_.&.> / Q .XbXmXeXeXzXzXwXzXeXeXNXeXzXzXeXNXNXeXzXeXzXzXcXzXzXeXNXeXeXNXNXzXzXzXzXzXzXzXzXzXzXeXNXeXzXzXeXpXeXpXeXeXpXeXeXpXeXzXeXeXzXzXeXeXzXzXpXNXpXzXpXpXNXeXNXeXNXeXNXpXNXpXeXNXeXVX0Xt R '.nXf.N  .c.GX9XeX9XpXeXpX9XpXeXeXeXpX9X9XeXeXeXeXeXeXwXeXwXwXeXeXeXeXwXeXeXeXeXwXeXzXeXzXwXzXeXpXpXpXNXNXpXCXeX9XpXpXeXeXeXeXeXeXeXeXeXeXeXeXeXeXeXeXeXeXeX9XeXeX9XeXeXeXeXeXeXzXrX| e Y./.hX2 2 q.rXVXzXzXzXzXzXzXzXeXzXzXzXeXzXzXeXzXwXzXzXeXzXzXwXzXeXwXzXzXeXeXeXeXzXzXeXzXzXcXzXzXcXzXzXzXzXwXeXzXzXcXzXwXzXzXzXzXzXwXzXzXeXzXzXcXzXzXzXeXeXeXzXzXzXzXzXzXzXeXzXzXeXeXeXeXeXCX7 y mX4X4X2 9.IXcXzXzXVXcXzXcXzXNXzXNXzXNXeXzXNXeXzXeXNXeXNXeXzXzXeXNXeXeXzXNXeXNXeXeXNXzXeXzXzXeXzXzXeXzXeXzXeXNXeXzXzXNXeXzXNXeXzXzXzXeXzXzXzXzXzXeXzXzXzXNXeXNXeXeXNXzXeXNXeXzXzXzXNXNXcX) B hX4X/.6Xf.u iXUXCXDXGXCXDXDXCXCX",
"pXNXpXpXpXNXtXm.; k E.4X6Xu 4.0XeXpXeXeXeXeXeXeXeXeXeXeXeXeXeXeXwXeXeXeXeXeXeXeXeXwXeXeXeXeXeXeX9XeX9XpXpXeX9XeXpX9X9XpXeXpXeXeXeXpXeXeXpXeXpXeXeXeXeXeXpX9XpXpXeXeXpX9XeXpXpX9XeXeXeXpXpX9XeX9XeXeXwXzXzXwXLX%X3 H.nXgX=.6 ` Q q.cXmXeXzXeXwXzXzXzXzXeXzXzXeXzXeXNXeXzXeXzXzXeXzXzXeXzXeXeXeXeXeXeXNXzXzXeXNXzXzXzXzXzXzXeXNXeXeXzXpXeXpXeXeXpXNXeXeXpXeXNXzXeXNXeXeXNXpXpXNXeXpXzXzXzXzXeXNXeXNXNXeXNXpXeXVX0Xc Q '.nXh.k } m.NXeXeXeXeXeXeXpXeXpXeXpXeX9XeXeXeXeXeXeXzXwXzXeXwXeXwXzXwXeXeXwXeXeXwXzXzXwXzXcXeXeXeXeXwX9X9X9X9XwXeXeXeX9XeXeXeXeXeXeXeXeXeXeXeXeXeXeXwXeXeXeXeXeXwXeXeXeXeXeXwXNXZX3X .e Y./.hXe 2 b AXHXCXVXeXeXzXzXzXwXcXeXeXwXzXzXeXzXwXeXzXzXwXzXzXcXeXeXeXzXwXeXzXzXeXeXzXzXeXzXcXzXzXzXeXzXzXzXzXeXzXzXzXwXeXzXzXzXzXeXzXzXeXzXeXzXzXcXeXeXzXeXzXeXeXzXeXzXzXzXzXwXeXeXpXeXeXZX7 y xX4X4X2 5.IXzXzXcXzXcXNXNXVXzXzXzXcXNXzXzXzXNXeXNXeXNXeXNXeXeXNXzXeXeXNXzXeXeXNXeXzXzXeXNXeXNXeXzXeXzXzXNXeXzXNXeXNXeXNXeXzXeXNXzXzXeXzXzXeXeXzXeXzXzXeXzXeXzXeXzXeXzXzXzXzXzXzXzXzXtXcX~ s hX4X2X7Xd.u iXUXCXCXGXCXGXCXCXCX",
"NXeXpXzXpXNX-X4.; N T.gX6Xt 4.uXpXpXNXeXeXeXeXeXeXeXeXeXeXeXeXeXzXzXwXeXeXwXeXeXeXeX9XwXwX9XeXeXeXeXeXeXeX9XpXeX9XpXeXpXpX9XpX9XeXeXeXeXeXeXeXeXeXpXeXpXeXeXeX9X9XpX9XpXeX9XeXeXpXpX9X9XeXpXeXeXeXeXeXeXeXeXqXw.3 '.kX4X4.6 ` E ' uXVXeXeXzXzXeXeXzXzXzXzXeXzXzXzXeXNXeXNXeXzXzXeXzXzXzXzXwXeXwXwXeXwXeXzXzXzXzXzXzXeXzXeXNXeXNXpXeXeXpXeXNXpXeXeXpXpXeXzXeXzXeXzXzXzXpXNXeXpXNXpXNXeXzXeXNXeXzXeXpXeXpXNXeXCX0Xc Q '.nXz.k } N.NXeX9XeXeXeXeXeXeX9XpX9XeXeXeXeXeXzXwXeXeXeXwXeXeXeXeXwXeXeXwXeXwXeXwXzXeXzXzXeXeXeXeXeXeXeXeXeXeX9X9XeXeXpXeXeXeXeXeXeXeXeXeXeXwXeXeXeXeXeXeXeXeXeXeXeXeXeXeXeXeX9XqXv.J d Y.4XlX7 2 h 4.m.%XwXzXzXwXzXzXzXeXzXeXzXzXeXzXzXzXzXzXwXzXzXzXeXeXeXzXeXzXzXeXcXcXzXwXzXzXzXeXeXzXwXzXzXzXeXzXzXeXzXzXNXeXcXeXzXzXzXzXeXzXzXcXzXzXeXzXzXzXzXzXcXeXzXzXzXzXeXzXzXeXeXeX9XpXLX7 u xX2X4X4 q.HXzXzXzXzXzXzXzXzXcXzXzXNXNXzXzXzXeXzXeXzXeXzXeXNXNXeXzXNXzXeXzXNXzXeXNXzXeXNXeXzXeXNXeXNXNXeXeXzXzXeXzXeXzXzXNXeXzXeXeXNXNXeXeXNXNXeXNXeXzXNXeXNXzXNXeXNXeXzXeXzXeXzXzXzXNXcXR P xX4X_.2Xd.y iXUXCXGXDXCXCXGXGXCX",
"NXeXzXNXpXNX X^ : N /.5X6Xt _ 0XpXeXpXeXeXeXeXeXeXeXeXeXeXeXeXeXeXwXeXwXwXeXeXwXeX9X9XeXeXeXeXeXeXeX9XeXeXeXeX9XpXeXeX9XeX9XeXpXeXeXeXeXpXeXeXeXeXeXeXeXeXeX9XeXpXpXeXeX9XpXeXeX9XpXeXpXeXpXeXeXeXeXeXwXwXzX XH 3 Q.kX6X=.1 { ~ F uXVXeXzXeXwXzXzXeXzXeXzXzXzXzXzXeXzXNXzXeXzXeXzXzXzXeXeXeXeXzXzXzXzXzXzXzXzXzXzXzXeXzXzXNXeXeXeXpXeXeXeXpXeXpXpXeXeXpXeXNXeXNXeXNXeXNXeXNXpXzXNXeXzXzXzXeXzXzXpXeXNXpXNXeXCXqXl ) '.xXM.h ^ n.NX9XeXeXeXpXeXeXeXeX9XpXeX9XeXeXeXwXwXeXeXwXwXeXeXeXeXeXeXwXwXeXeXwXeXzXzXeXzXzXeXeXeXeXeXeXeXeX9XeXeXeXpX9XeXeXeXeXeXeXwXeXeXeXeXeXeXeXeXeXeXeXeXeXeXeXeXeXeXeXeX9Xr.N I e Y._.gX7 u Y I [ XX%XNXeXeXeXeXzXwXeXzXeXwXzXzXwXzXwXzXeXzXwXzXeXzXwXeXzXeXzXeXeXzXeXzXzXzXzXzXeXzXzXeXzXeXzXcXzXzXzXzXzXzXzXzXeXzXeXzXzXzXeXeXzXeXzXeXzXwXzXzXzXzXcXeXzXeXzXzXeXeXeXpX9X9XCX4 y mX_.4X2 q.HXzXzXzXzXzXzXzXNXNXNXzXzXNXeXzXzXeXzXzXeXzXzXzXeXeXzXzXeXzXeXNXeXzXeXNXeXeXNXNXeXzXeXeXzXeXzXeXzXNXeXeXNXNXeXeXNXzXeXNXeXzXeXNXeXeXNXNXeXeXNXNXeXeXNXNXeXNXeXzXeXzXzXzXeXzXcX~ P hX4X/.7Xd.u bXUXCXGXCXGXCXDXCXLX",
"pXNXpXeXNXpXNXBX, N T.jXlXt _ <XpXpXeXeXeXeXeXeXeXeXeXeXeXeXwXeXeXeXeXeXeXeXeXeXeXeXeXeXeXeXeXeXeXeXeXeXeXeXeXeXeXeXeXeXeXeXeXeXeXeXeXeXeXeXeXeXeXeXeXeXeXeXeXeXeXeXeXeXeXeXeXeXeXeXeXeXpX9X9XpXzXeXBXNXeXzXK 4 i C.nX6X$.6  ._ m.rXVXeXeXzXzXzXeXzXeXzXzXeXeXzXeXNXzXeXzXzXzXzXeXzXzXNXzXzXzXzXzXzXzXzXeXzXzXzXNXeXNXzXzXeXzXzXNXeXzXzXNXeXzXzXeXzXzXeXNXeXzXeXNXeXzXeXNXeXNXeXeXNXeXeXeXNXzXpXNXNXzXpXeXeXDXbXl ) H.nXz.k _ c.NXeXeXeXeXeXeXeXeXeXeXeXeXeXeXeXeXzXeXeXeXzXeXeXeXeXeXeXeXzXeXeXeXeXeXeXeXeXwXeXwXeXeXeXeXeXeXeXeXeXeXeXeXeXeXeXeXeXeXeXeXeXeXeXeXeXeXeXeXeXeXeXeXeXeXeXeXeXeXwXeX| h : I h gX2X_.e p.GXeXtXpXeXeXeXeXzXzXeXzXzXeXeXzXzXeXzXzXzXeXzXeXzXeXzXzXzXzXeXzXeXzXzXzXzXzXzXzXeXzXzXzXzXzXzXzXzXeXeXeXzXeXzXeXzXzXzXzXzXzXeXzXNXeXzXzXzXzXzXzXzXeXzXeXeXzXzXzXeXzXzXzXeXpXpXpXCX7 u xX2X2X2 q.HXzXcXzXzXzXzXzXeXzXzXzXzXzXNXeXzXNXeXzXNXNXeXzXeXNXeXzXeXeXNXeXzXeXNXeXzXzXeXzXzXzXeXNXeXNXeXNXeXeXzXzXeXeXzXzXeXeXNXeXzXzXNXeXzXzXzXeXzXNXeXeXzXzXeXeXzXeXNXzXzXeXzXzXzXzXHX$.s kX4X/.E.d.y tXUXCXCXCXCXGXCXGXDX",
"pXzXNXeXpXpXNXCX5 M E.jX6Xy $.uXpXpXeXeXeXeXeXeXeXwXeXeXeXeXeXeXeXeXeXeXwXeXeXeXeXeXeXeXeXeXeXeXeXeXeXeXeXeXeXeXeXeXeXeXeXeXeXeXeXeXeXwXeXeXeXeXeXeXeXeXeXeXeXeXeXeXeXeXeXeXeXeXeXeXeXeXeXeXpXeXeXeXwXNXeX%Xh 4 i '.kX4X$.< ' v.rX9XzXeXeXeXzXeXzXeXeXzXeXzXzXeXeXzXNXeXzXzXzXeXNXeXNXeXNXeXNXeXNXeXeXNXzXeXNXeXeXzXzXeXNXeXzXzXNXeXeXNXeXzXeXNXeXzXzXNXeXNXeXNXzXeXzXeXeXeXzXzXeXNXeXNXeXNXeXNXpXeXpXzXNXeXDXtXN ) '.mXM.k ^ S.KXeXeXeXeXeXzXwXeXeXeXeXeXeXeXeXeXeXeXeXeXeXeXeXeXeXeXeXeXeXeXeXeXeXeXeXeXeXeXeXeXeXeXeXeXeXeXeXeXeXeXeXeXeXeXeXeXeXeXeXeXeXeXeXeXeXeXeXeXeXeXeXeXeXeXeXeXeXeXeXBXN.^ c x 8 gX_.6Xt s.PXeXeXeXeXpXeXeXeXeXzXeXzXzXeXeXzXeXzXzXeXzXeXzXeXeXzXeXzXzXeXzXeXzXeXzXzXeXzXNXeXzXzXzXeXeXzXzXeXNXeXzXzXzXzXzXzXzXzXzXeXeXNXeXeXeXzXeXNXNXeXNXeXzXeXzXzXzXzXeXNXpXeXpXeXeXpXpXCX, r xX2X_.2 q.HXzXzXzXzXzXzXzXNXeXzXNXeXeXzXeXNXeXNXzXeXeXzXeXNXeXNXeXNXNXeXNXeXeXzXeXzXzXeXeXNXeXzXeXNXeXNXzXeXNXeXNXeXeXNXeXzXeXzXeXNXeXNXNXeXzXeXNXeXeXNXeXzXeXzXeXzXzXeXzXzXzXeXzXzXcXHX4.s hX4X/.2Xd.s sXUXCXCXCXGXCXDXCXDX",
"NXpXeXNXeXNXNXZX6 k E.gXlXy 4.qXeXpXeXpXeXeXeXeXeXeXeXeXeXwXeXeXeXeXeXeXeXeXeXeXeXeXeXwXeXwXeXeXeXeXeXeXeXeXeXeXeXeXeXeXeXeXeXeXeXeXeXeXeXeXeXeXeXeXeXeXeXeXeXwXeXeXeXeXeXeX9XeXeXeXeXeXeXeXeXeXeXeXeXNXrX=X8 : 0 H.hX6X$.> } @XDXwXwXeXeXzXeXzXeXzXzXeXeXeXeXzXNXzXeXzXeXzXeXNXeXzXeXzXeXzXeXzXeXzXzXeXzXzXeXNXNXeXeXNXeXNXeXeXeXzXzXeXzXzXzXeXNXeXzXeXzXeXzXeXzXNXeXNXeXNXNXeXNXeXzXeXzXeXzXeXpXNXpXNXpXeXVX0Xe Q '.nXk.k V _ BXeXpXeXeXeXeXeXeXeXeXeXeXeXeXeXeXeXeXeXzXwXeXeXeXeXeXwXeXeXeXeXeXeXeXeXeXeXeXeXeXeXeXwXeXeXeXeXeXeXwXeXeXeXeXeXwXeXeXeXeXeXeXeXeXeXeXeXeXwXeXeXeXeXwXeXzXwXwXeXeXVXZXNXH ; jX2X/.t p.HXeXeXeXeXeXeXeXpXzXeXzXeXeXzXeXzXzXeXeXeXeXzXeXzXzXeXzXeXeXzXeXzXeXNXeXeXNXzXeXzXeXzXzXzXNXeXeXNXeXNXeXeXzXeXzXeXeXzXzXzXzXzXzXzXNXeXNXeXeXzXeXNXzXzXeXzXeXNXNXeXzXNXeXpXpX9XpXLX7 u mX4X6X7 q.DXzXzXzXzXzXzXzXeXNXzXeXeXzXzXzXzXzXeXeXNXNXeXzXeXNXeXzXeXeXzXzXzXNXeXNXeXeXNXNXeXNXeXNXeXNXeXzXNXeXzXzXzXzXzXNXeXNXeXNXeXNXeXeXNXeXNXeXNXzXeXeXzXNXeXNXeXeXNXNXeXzXzXzXzXzXZX_ s hXgX/./.=.n AXPXCXCXCXCXGXDXDXCX",
"eXNXpXpXNXNXNXZX6 k E.jX6Xy 9.qXeXpXeXeXeXeXeXeXeXeXeXeXeXeXeXeXeXeXeXeXeXeXeXeXeXeXeXeXeXeXeXeXeXeXeXeXeXwXeXeXwXeXeXeXeXeXeXeXeXeXwXeXeXeXeXeXeXeXeXeXeXeXeXeXeXeXeXeXeXeXeXeXeXeXpXeXeXpXeXpXzXeXzXNXeXZXe.N i '.jX4X=.> } U.DXzXwXeXeXzXzXeXeXzXeXzXzXeXzXeXeXNXNXeXzXzXzXzXeXzXeXNXzXzXNXeXzXzXeXzXeXzXzXeXeXzXeXzXzXeXeXNXNXeXeXzXeXzXzXeXeXzXeXzXzXeXeXNXeXNXNXeXeXNXeXNXzXzXzXeXzXeXeXNXNXNXeXeXNXeXCX0Xr ) H.mXn.k ' G 6.tXzXeXeXeXzXeXeXeXeXeXeXeXwXeXeXeXeXeXeXeXeXeXeXeXeXeXeXwXeXeXeXeXwXeXeXeXeXeXeXeXeXeXeXeXeXeXeXeXeXeXwXeXeXeXeXeXeXeXwXeXeXeXeXeXeXeXeXeXeXeXeXeXeXeXeXeXeXeXeXzXtXcXF - hX_._.e s.HXeXpXpXeXeXeXeXzXeXzXzXeXzXeXzXeXeXzXeXzXzXeXzXeXeXzXeXzXzXeXzXeXNXeXeXNXeXNXzXzXzXeXzXeXeXzXeXzXzXeXeXNXeXNXzXzXzXzXzXeXNXeXNXeXeXzXzXzXzXzXzXeXzXzXzXzXzXeXNXeXzXeXeXeXpXpX9XCX2 n mX2X6X2 q.HXeXzXeXzXNXeXNXeXeXzXeXNXeXzXzXeXeXzXzXeXeXzXzXeXzXzXzXeXNXeXeXNXeXNXNXeXNXeXNXzXeXeXNXzXeXzXzXeXNXeXeXNXNXeXNXeXeXzXzXzXeXNXeXeXzXNXeXeXeXNXNXeXeXNXNXeXeXNXeXNXeXzXzXVXwXD t L xXgX/.(.d.u AXUXCXCXCXGXCXCXDXLX",
"NXeXpXzXpXeXNXZX5 M R.lXgXr 9.cXpXeXeXeXeXeXeXeXeXeXeXeXeXeXeXeXeXeXeXeXeXeXeXeXeXeXeXeXeXeXeXeXeXeXeXeXeXeXeXeXeXeXeXeXeXeXeXeXeXeXzXeXeXeXwXeXeXeXeXeXeXeXeXeXeXeXeXeXeXeXeXeXeXeXeXeXeXeXeXpXzXeXzXNXeXVX<X_ i '.jX5X8.> 6.@XHXzXcXeXeXzXeXzXzXeXzXeXeXzXeXzXzXeXeXNXeXeXNXeXNXeXzXeXNXeXeXNXNXeXNXeXNXzXeXNXNXeXNXzXeXNXzXzXeXzXNXeXNXzXeXNXNXeXNXzXeXNXzXzXzXeXeXzXzXeXzXeXeXNXeXNXeXNXzXeXeXpXNXpXpXeXVXrXz ) '.mXH.k | ) p.tXzXzXwXzXzXwXeXeXeXeXeXeXeXeXeXeXwXeXeXeXeXeXeXeXeXeXeXeXeXeXeXeXeXeXeXeXwXeXeXeXeXeXeXeXeXeXeXeXeXeXeXeXeXeXeXeXeXeXeXeXeXeXeXwXeXeXeXeXeXeXeXeXeXeXeXeXeXeXeXeXwXzXv ; jX2X_.t s.HXeXeXeXeXpXeXeXeXzXeXeXzXeXzXeXzXzXeXzXeXeXzXeXzXeXeXzXeXeXzXeXeXeXNXzXeXzXeXeXzXzXzXzXzXNXeXNXzXeXNXzXeXNXeXzXeXzXeXzXzXeXzXeXNXeXzXeXNXNXeXzXzXeXzXeXzXeXNXeXzXzXzXpXeX9XpXeXCX2 u xX_.2X2 f.DXeXeXzXzXeXzXeXNXeXzXNXeXNXeXeXNXNXeXeXNXNXzXeXNXeXNXeXNXeXzXzXeXzXzXeXzXeXzXeXzXzXzXeXzXNXeXeXNXeXzXzXeXeXzXeXNXeXzXeXNXzXeXzXzXzXeXzXzXNXeXzXzXzXzXeXzXzXeXzXeXzXzXzXVXwX8 w S hX5X2XE.8.s iXUXCXDXCXCXGXDXDXCX",
"NXzXpXpXpXpXNXCX6 M E.gX6Xy 9.tXpXeXpXeXeXeXeXeXeXeXeXeXeXeXwXeXzXwXwXpXeXeXeXeXwXeXeXeXeXeXeXeXeXeXeXeXeXeXwXeXeXeXeXeXeXeXeXeXeXeXeXeXeXeXeXeXeXeXeXeXeXeXeXeXeXeXeXeXeXeXeXwXeXpXeXpXeXeXeXeXNXeXeXNXeXwXcXP.i z.hX4X=.> 5.@XDXzXwXeXeXeXzXeXeXzXeXzXzXeXzXeXeXzXzXeXzXzXeXNXeXNXeXzXeXNXeXeXeXzXeXNXzXeXNXzXeXNXeXzXNXeXzXeXNXzXeXNXzXeXNXzXeXNXeXzXNXeXzXeXzXeXNXeXeXNXeXNXeXeXNXeXeXzXeXNXpXNXNXeXpXpXDXcXZ ) H.nXI.k 7.c.NXpXpXeXeXzXeXzXzXwXeXeXeXeXeXeXeXeXzXeXeXeXeXeXeXeXeXeXeXeXeXeXeXwXeXeXeXeXeXeXeXeXeXeXeXeXeXeXeXeXeXeXeXeXwXzXeXeXeXeXeXeXeXeXeXeXwXeXeXeXeXeXeXeXeXeXeXeXwXzXeXzXcXVXv ; jX_./.t s.HXzXeXeXpXeXeXeXzXeXzXzXeXeXzXeXzXzXeXzXeXeXzXeXzXzXeXzXeXzXeXzXeXzXzXeXNXeXzXzXeXNXeXzXNXeXzXeXNXzXzXeXNXeXNXeXzXzXeXNXzXeXNXeXzXNXeXNXeXeXzXeXNXNXeXzXeXzXNXeXNXNXeXeXpXeXpXpXCX7 u xX2X4X2 q.HXzXzXzXzXzXeXNXzXeXNXzXzXNXeXNXeXNXeXeXzXeXNXzXeXNXzXeXNXzXeXNXeXzXeXNXeXeXzXNXeXeXzXeXNXeXzXeXNXeXeXNXeXNXeXNXeXNXeXzXeXeXNXzXeXeXNXzXeXeXzXNXeXzXNXeXNXeXNXeXeXNXeXzXzXBX%XC s hXhX2XE.,.u bXUXVXGXCXCXGXCXDXDX",
"eXpXzXNXzXNXVXZX0 k E.gX6Xt 4.0XpXeXeXeXeXeXeXeXeXwXeXeXeXeXeXeXeXeXeXNXZXCXeXeXeXeXeXeXeXeXeXzXeXwXeXeXeXeXeXeXeXeXwXeXeXeXeXeXeXeXeXeXeXeXeXeXeXeXeXeXeXeXeXeXwXeXeXeXeXeXeXeX9XeXeXeXpXeXeXpXeXeXpXNXeXBX>X_ r z.jX2X=.> 5.|.VXzXeXeXeXzXeXzXzXeXzXeXeXzXeXzXNXeXeXNXeXNXNXeXzXeXeXzXzXeXzXzXNXeXzXeXeXNXeXzXNXeXNXeXeXNXeXNXeXzXzXeXzXeXeXzXNXeXNXeXeXNXeXNXeXNXeXzXNXeXzXeXzXzXeXNXNXeXNXeXpXpXeXNXpXeXZXiX8 ~ '.mXz.h } v.qXeXpXeXeXeXzXeXzXeXeXeXeXwXeXeXeXeXwXeXeXeXeXeXwXeXeXeXeXeXeXeXeXeXeXeXwXeXeXeXeXeXeXeXeXeXwXeXeXeXwXeXeXeXeXeXeXeXeXeXeXeXeXeXeXeXeXeXeXeXeXeXeXeXeXwXeXeXeXeXzXwXwXNXD : hX4X2Xe y.HXeXeXeXeXpXeXpXeXeXeXeXzXzXeXzXeXeXzXeXzXzXeXzXeXeXeXeXzXeXzXeXzXeXNXNXeXNXeXeXNXeXzXzXeXNXeXzXeXeXNXNXeXzXeXeXzXzXeXeXzXNXeXNXeXeXzXeXzXNXeXzXeXeXNXeXNXzXeXzXeXeXNXpXeXpX9XpXGX7 u mX2X4X4 q.HXwXzXzXzXeXNXeXzXzXeXeXNXeXzXeXNXeXzXzXzXzXeXeXNXeXzXzXeXzXeXeXNXeXNXeXNXNXzXeXzXNXeXNXeXeXzXzXzXzXzXeXNXeXzXeXzXzXzXzXeXNXeXzXNXNXeXzXNXNXeXeXzXzXeXzXeXzXzXzXzXzXzXzXzXcX*XC P kX4X/.(.,.z sXPXCXCXCXGXCXDXCXDX",
"pXNXNXeXNXeXNXZX6 k E.gX6Xy 4.qXeXpXpXeXeXeXeXeXeXeXeXeXeXeXeXeX8XwXeXVXGXHXNXeXzXeXeXeXeXeXeXwXeXeXeXeXeXeXeXeXeXeXeXeXeXeXeXeXeXeXeXeXwXeXeXeXeXeXeXeXeXeXeXeXeXeXeXeXeXeXeXeXeXeXeXeXeXeXpXeXeXeXpXzXeXNXy.e i H.gXgX$.> q.*XVXzXeXzXzXzXeXeXeXeXeXzXeXzXzXeXzXeXNXeXzXeXeXzXeXzXNXeXeXNXzXeXzXeXzXeXNXeXeXNXzXeXeXzXzXeXeXzXzXeXzXeXeXNXeXNXNXeXeXzXzXeXeXzXeXNXNXeXzXzXzXeXeXzXzXeXeXNXNXeXzXNXzXpXNXeXNX@X- ~ M.mXM.e &.v.0XwXeXeXeXeXeXeXeXeXeXeXeXeXeXeXeXeXeXeXeXeXeXeXeXeXeXeXeXeXeXzXeXeXeXeXzXeXeXeXeXeXeXeXeXeXeXeXeXeXeXzXeXeXeXeXeXwXeXeXeXeXeXeXeXeXeXeXeXeXeXeXeXeXzXwXeXeXeXeXwXzXzXNXJ , hX_._.e y.JXpXeXeXpXeXeXeXeXzXeXzXeXeXzXeXzXzXeXzXeXeXzXeXzXeXzXeXzXeXzXeXzXzXeXzXzXeXNXzXzXeXzXeXNXeXzXzXeXzXeXeXzXNXeXNXeXeXNXNXeXzXeXeXzXeXzXzXeXeXzXzXeXzXeXeXzXNXeXeXNXzXeXeXNXeXpXeXCX2 u mX_./.2 q.DXeXeXzXeXNXeXeXNXzXeXNXeXzXzXzXeXzXzXzXzXeXzXzXeXzXeXzXeXeXNXeXNXzXNXeXeXeXzXNXeXeXzXzXzXNXeXzXeXeXzXzXeXeXzXzXeXeXNXeXNXeXzXzXeXeXzXzXeXeXeXNXeXNXeXeXNXNXeXzXeXeXNXeXzXcXqXC u kX5X2XR.,.n bXUXCXCXCXCXGXDXDXDX",
"NXeXpXeXNXpXNXZX5 M E.jXlXt 4.rXpXpXeXpXpXeXeXeXeXeXeXeXeXeXeXzXzXzXzXNXNXzXeXeXeXeXeXeXeXeXeXeXeXeXeXeXeXeXeXeXeXeXeXeXwXeXeXeXeXeXwXeXzXeXeXeXeXeXeXeXeXwXeXeXeXeXeXeXeXeXeXeXeXeXeXpXeXeXeXeXeXpXpXeXNXNXtXn.i '.jX4X=.3 9.0XDXzXzXeXeXeXzXeXeXzXzXeXzXeXeXzXzXNXeXzXzXeXNXeXNXzXeXNXNXeXzXNXeXNXeXNXeXzXzXeXzXNXeXzXzXeXNXeXeXNXeXNXzXeXNXeXeXNXeXzXzXeXNXzXNXeXzXzXeXNXeXNXNXzXeXNXzXzXeXeXpXeXpXpXNXeX-Xe.- Z M.mXz.8 _ e.0X9X9XeXeXeXeXeXeXeXeXeXeXeXeXeXeXeXeXeXeXeXeXwXeXeXeXeXeXeXeXwXeXeXeXeXeXeXeXeXwXeXeXeXeXeXeXeXeXeXeXwXeXeXeXeXeXeXzXwXeXeXeXeXeXeXeXeXwXeXeXeXeXeXeXeXeXeXeXeXtXeXwXzXh = jX2X/.e o.HXeXeXeXeXeXpXeXzXeXzXeXzXeXeXzXeXeXzXeXzXzXeXzXeXzXeXzXeXzXeXzXeXeXNXeXzXzXeXNXeXNXeXzXzXNXzXeXNXzXeXNXeXeXzXeXNXzXzXeXzXzXNXeXzXNXeXzXNXNXzXeXNXzXeXNXzXeXzXzXeXzXpXeXeXeXeXNXDXi s xX2X2X2 q.HXeXzXzXzXeXzXzXeXeXNXeXzXNXeXzXeXNXeXzXzXNXeXeXNXeXNXeXNXzXeXNXeXzXeXzXzXeXzXeXNXeXzXeXNXeXNXeXNXNXzXeXNXNXeXzXNXNXeXzXeXNXeXzXeXNXeXeXNXzXzXeXNXeXzXzXeXeXzXzXzXNXeXzXzXcXBX~ u kXgX2X`.=.z AXPXCXCXCXGXCXCXCXVX",
"pXpXNXeXeXpXNXZX5 k E.gX(.t _ yXpXeXeXeXeXeXeXeXeXeXeXeXeXeXeXzXNXNXNXNXeXeXeXeXeXwXeXeXeXeXeXeXeXeXeXeXeXeXeXeXeXeXeXeXeXeXeXeXeXeXeXeXeXeXeXeXwXeXeXeXeXeXeXeXwXeXeXeXeXeXeXeXeXeXeXeXpXeXpXeXeXeXpXeXzXNXtXm.i I.hXhX8.6 7.n.VXzXzXeXeXeXzXeXzXeXzXeXzXeXzXeXeXNXeXzXzXeXeXNXeXzXeXNXeXNXzXeXNXeXzXeXNXeXzXzXeXNXeXzXzXeXeXNXNXeXzXeXNXeXzXzXzXeXeXzXzXeXNXeXeXzXNXeXzXzXNXeXeXzXzXeXNXeXeXNXNXpXpXzXzXNX.XN % E I.mXv.e | e.qXeXeXwXeXeXeXeXeXeXeXeXeXwXzXeXeXeXeXeXeXeXeXeXeXeXwXeXeXwXeXeXeXeXeXeXeXeXeXzXeXeXeXeXeXeXeXeXeXeXeXeXeXeXeXeXeXeXeXeXeXeXeXeXeXeXeXeXeXeXeXeXeXeXeXeXeXeXeXeXzXeXwXZX8 % hX_./.h o.JXpXeXeXeXeXeXpXeXeXzXeXzXzXeXzXeXeXzXeXeXeXeXzXeXzXeXeXzXeXzXzXeXzXzXzXeXeXNXzXzXeXNXzXeXeXNXzXeXzXNXeXNXzXNXeXNXeXpXpXzXpXzXzXpXzXzXeXeXeXNXzXeXzXNXeXzXNXeXeXzXpXzXeXpXpXeXpXDX7 s xX2X_.2 q.HXeXzXzXzXeXNXeXzXNXeXeXNXeXzXeXNXzXzXzXzXNXeXeXNXNXzXeXNXzXeXNXzXzXeXNXeXNXeXzXeXeXNXeXeXNXeXeXNXeXzXeXNXNXeXNXeXNXeXNXeXeXeXNXeXeXzXzXeXeXNXzXeXzXNXeXNXzXzXzXzXzXzXzXzXzXZX~ u kXgX2XE.-.z iXUXCXCXCXGXGXCXCXVX",
"pXzXeXNXNXpXNXZX0 M E.jXlXy ~ ;XpXpXpXeXeXeXeXeXeXeXeXeXeXeXzXNXCXVXCXpXeXwXwXeXeXeXeXeXeXwXeXeXeXeXeXeXeXeXeXeXeXeXeXeXeXeXeXeXeXeXeXeXeXeXeXeXeXeXeXeXeXeXwXeXeXeXeXeXeXeXwXeXeXeXeXeXeXeXeXeXeXeXeXeXeXBXBXP.i I.kXgX=.q ( ) -XeXeXeXzXzXeXzXeXzXeXzXeXzXeXzXNXeXNXeXeXNXNXeXNXeXzXzXzXeXeXNXzXzXzXeXeXNXeXNXNXeXNXeXeXNXNXeXzXzXzXeXeXNXeXNXeXNXNXeXeXNXeXzXNXeXeXzXNXeXeXzXeXzXeXNXzXzXNXeXeXNXNXpXpXNXb.N % C M.mXk.e } v.qX9XeXeXeXeXeXeXeXwXeXeXeXeXeXeXeXeXwXeXeXeXeXeXeXeXzXeXeXeXeXeXeXeXeXeXeXeXeXwXwXeXeXeXeXeXeXeXeXeXeXeXeXeXeXeXeXeXeXeXeXeXeXwXeXeXeXeXeXeXeXeXeXeXeXeXeXeXeXzXcXeXeXVX8 + hX2X/.8 s.GXeXeXeXNXeXeXeXzXzXeXzXeXeXzXeXzXzXeXzXeXeXzXeXzXeXzXzXeXzXeXeXzXeXzXpXpXNXpXpXpXzXpXpXpXeXpXpXpXNXeXpXNXpXeXNXpXeXNXeXNXeXNXeXNXNXpXNXpXeXpXpXpXNXeXpXNXpXNXNXpXNXpXpXpXpXpXpXGXi B xX/.2X2 q.DXeXzXeXzXzXzXNXeXeXzXzXeXNXeXzXeXzXzXzXzXeXzXzXeXeXzXNXeXeXNXeXzXeXNXeXzXeXNXeXNXzXeXzXzXeXzXzXeXNXeXzXeXeXzXeXzXeXzXeXNXzXzXeXNXNXeXeXNXzXeXzXNXzXeXzXeXeXzXeXzXzXzXzXzXcXZX) u kXgX%X^.,.z sXPXCXDXCXGXCXCXNXNX",
"NXpXpXNXNXpXNXZX5 M (.gX6Xy _ >XpXeXeXeXeXeXeXeXeXeXeXwXeXzXzXzXNXNXVXeXeXeXeXeXeXeXeXeXeXeXeXeXeXeXeXwXeXeXeXeXeXeXwXeXeXeXeXeXwXzXeXeXeXeXeXwXeXeXeXeXeXeXeXeXeXeXeXeXeXeXeXeXeXeXeXeXeXeXeXeXeXeXeXpXeXNXD.M i H.kX4X=.q ( ^ 8XwXzXeXeXzXzXeXNXeXzXeXzXeXeXzXeXNXeXzXzXeXNXzXeXzXzXeXeXzXzXeXeXNXeXNXzXeXzXeXeXNXeXzXzXeXNXzXeXNXeXNXzXeXzXeXzXNXeXzXNXeXNXeXeXeXNXeXeXzXeXzXNXeXzXeXeXNXeXNXzXpXeXNXeXeXLX>X: E M.mXM.e 5.c.pXeXeXwXeXeXwXeXeXeXeXeXeXeXeXeXeXeXeXeXzXwXeXeXeXeXeXeXeXeXeXeXeXeXeXeXeXeXeXeXeXeXeXeXeXeXwXeXeXeXeXeXeXwXeXeXeXeXeXeXeXeXzXwXeXeXwXzXeXeXeXeXeXeXeXeXeXeXeXwXzXwXwXDXN % jX2X2Xr o.GXzXeXeXeXzXeXeXeXeXeXeXzXeXzXzXeXeXzXeXzXzXeXzXeXzXeXeXzXeXzXeXeXzXeXpXNXeXeXNXNXpXeXpXNXNXeXpXNXpXNXeXeXNXNXpXeXNXNXpXpXpXNXpXpXeXeXNXNXNXeXpXNXpXpXzXpXeXeXNXeXeXpXpXeXNXpXNXDXi s xX2X4X2 5.HXeXzXzXzXzXzXzXeXNXeXNXeXzXzXzXeXzXzXNXeXzXeXeXzXeXeXeXeXeXeXeXNXNXeXeXzXeXNXzXzXeXNXzXeXNXeXeXzXeXzXzXeXeXzXeXNXzXzXzXeXeXzXzXeXzXzXzXeXzXeXzXeXNXeXeXNXzXzXzXeXzXeXzXzXcXFX_ u hX4X2XR.*.z sXUXCXDXCXGXGXCXZXzX",
"eXNXeXpXpXNXNXZX0 k E.hX6Xy 4.uXpXeXeXeXeXeXeXeXeXeXeXeXeXeXeXeXNXNXNXNXeXpXeXeXeXeXeXeXeXeXeXeXeXeXeXzXwXeXeXeXeXeXeXeXeXeXeXeXeXeXeXeXeXeXeXeXeXeXeXeXeXeXeXeXeXeXeXeXeXeXeXeXeXeXpXeXeXpXpXeXeXpXeXpXeXBXs.w i '.kX_.=.q ( ^ *XwXNXeXzXeXeXeXeXeXzXzXeXzXeXeXzXeXNXeXNXeXeXzXNXeXeXNXNXeXeXNXNXeXzXeXeXNXNXeXzXeXNXeXNXeXeXzXNXeXzXeXeXNXNXeXzXeXNXeXeXzXeXNXzXzXeXNXNXeXNXeXeXNXeXNXNXeXzXeXpXNXpXeXzXeXHXtX4 ~ D.mXk.e 5.|.NXeXzXzXzXeXeXeXeXzXeXeXeXeXeXeXeXeXeXeXeXeXeXeXeXeXeXeXeXeXeXeXeXzXwXeXeXeXeXeXeXeXeXeXeXeXeXeXeXeXeXeXeXeXzXwXeXeXeXeXeXeXeXeXeXeXeXeXeXeXeXeXeXeXeXeXeXeXeXeXeXzXwXHXF % hX2X/.e s.GXeXeXeXNXzXeXeXzXeXzXzXeXzXeXzXeXeXzXeXeXzXeXeXzXeXzXzXeXzXeXzXeXzXNXNXeXpXNXpXeXzXNXNXeXpXNXNXeXpXzXpXNXpXeXzXNXpXeXeXNXNXeXpXzXNXpXpXeXpXNXNXeXpXzXNXeXNXpXpXNXNXeXpXpXpXeXNXDX3 B mX_.2X2 q.HXeXeXNXeXeXzXpXNXeXzXeXNXeXzXeXNXzXzXzXzXNXNXzXNXNXNXzXNXNXzXzXeXzXzXNXeXzXeXNXeXNXeXzXNXeXzXNXeXNXzXeXNXNXeXzXeXNXeXzXeXNXzXeXNXeXNXeXNXeXNXeXNXeXzXzXeXeXzXzXzXzXzXzXNXcXCX~ u kX4X2X`.*.n iXUXCXCXCXGXCXDXBXwX",
"pXNXpXeXNXNXNXZX9 k E.hX5Xy 8.tXeXpXeXpXeXeXeXeXeXeXeXpXeXpXeXeXpXeXpXeXpXeXeXeXpXeXpXeXpXeXeXpX9XpXpXeXeXeXeXeXpX9XpXeXpXeXeXeXeXpXeXeXpXeXpXeXeXeXpXeXpXeX9XpXeXpXeXeXeXeXpXeXpXeX9XpXeXpXeXeXeXeXpXeXpXeXaXOX3 '.hX2X#.q [ Z 7.*XNXpXpXpXpXpXpXpXzXNXeXpXNXpXpXpXNXpXNXpXpXNXpXNXpXeXpXeXNXeXpXeXpXpXeXpXNXpXpXNXpXeXpXpXNXpXzXpXeXpXNXeXzXpXeXNXpXpXNXeXeXNXeXNXNXpXpXpXNXpXpXpXNXpXNXpXpXNXNXeXpXNXpXeXCX0X4 ~ '.xXz.k r.+XmXeXeXeXzXeXzXzXeXNXeXzXzXzXeXNXeXeXeXeXeXeXeXeXzXeXzXeXzXeXeXzXeXzXeXzXeXzXeXzXeXzXzXeXzXeXzXeXzXeXzXeXzXeXzXeXzXzXeXzXeXzXeXeXzXeXzXeXzXeXzXeXeXzXeXzXeXeXeXeXeXeXtXcX5 = jX2X/.e s.GXpXpXpXpXpXeXzXeXeXeXNXzXeXNXVXNXGXDXeXeXNXeXzXzXzXeXNXeXNXeXzXeXNXpXzXpXzXpXeXNXpXNXpXpXpXpXNXpXpXNXpXpXeXNXNXpXpXpXpXNXNXpXpXpXeXNXNXpXpXNXpXpXpXpXpXNXeXNXNXpXpXpXpXpXeXNXzXDXi s xX2X_.2 9.HXeXpXpXpXpXpXpXpXpXpXeXpXpXzXzXzXzXNXzXNXNXNXNXNXNXNXzXNXzXeXzXzXeXNXeXzXeXNXNXeXNXeXNXeXeXNXeXeXNXeXeXNXeXzXeXzXzXeXzXzXeXzXzXeXzXeXeXeXzXzXzXzXeXNXeXNXeXzXzXzXeXNXeXVXVX XM u 5X4X_.R.#.n bXPXDXDXCXCXDXGXZXzX",
"NXeXNXeXpXeXNXCXf k E.gX6Xy 9.tXpXpXpXeXpXeXeXpXeXpXeXeXeXeXpXeXeXeXeXeXeXeXeXpXeXeXeXeXeXeXeXeXeXeXeXeXeXpXeXpXeXeXeXeXeXeXpXeXeXeXeXpXeXeXeXeXeXpXeXeXeXeXpXeXeXeXeXeXeXeXeXeXeXeXpXeXeXeXeXeXNXeXeXpXpXeXpX|.3 '.jXlX%.6 6.c.0XwXNXNXNXpXNXNXNXpXpXzXpXNXeXpXzXNXeXeXeXeXNXeXpXeXNXNXNXNXpXpXNXNXzXNXNXNXeXeXeXeXNXNXzXNXeXeXNXpXNXNXpXNXpXpXNXpXzXNXpXNXpXpXNXpXeXNXzXNXeXpXzXNXeXeXeXNXeXpXeXNXeXpXpXpXDXqX4 ~ I.xXf.e } .XVXeXeXpXeXNXzXeXNXeXNXeXzXeXNXeXzXeXeXeXeXeXeXeXeXzXeXzXeXzXzXeXzXeXeXeXeXzXzXeXzXeXeXeXeXzXeXzXeXeXeXzXeXzXeXzXeXeXzXeXzXeXeXzXeXzXeXzXeXzXzXeXzXeXzXeXeXzXpXeXzXwXwXFXc * gX2X/.e o.JXpXpXpXpXpXzXeXeXzXNXNXzXzXeX9XrX=XqXNXNXeXzXzXeXeXNXeXeXeXzXzXzXeXeXNXzXpXpXNXpXeXeXNXNXzXNXeXpXpXeXNXNXNXpXeXpXNXNXpXpXeXeXNXNXpXpXpXpXpXeXNXNXNXNXpXpXNXpXeXpXNXNXpXpXpXNXVXDXi B xX_.2X2 q.HX9XeX9XpXpXpXpX9XpXpXpXpXeXzXzXzXzXzXNXzXzXzXzXzXeXzXNXNXNXeXNXeXzXzXNXeXzXeXeXzXeXzXzXzXzXzXzXzXzXzXzXzXeXzXNXeXeXNXNXeXzXzXeXzXzXeXeXzXzXeXNXeXNXeXzXeXeXzXeXNXNXeXzXzXcX-XZ u jX4X2XI.) B sXPXCXCXDXGXCXGXLXcX",
"pXpXNXNXpXpXNXZX9 k `.5X6Xy 9.tXeXpXpXeXpXeXpXeXeXeXeXeXpX9XeXeXpXeXpXeXpXeXpXeXeXpXeXpXpXeXpXeXeXeXeXeXeXeX9XpXeXeXeXpXpXeXpXeXeXpXeXeXeXpXeXpXeXeX9XpXeXeXeXeXeXeXpXeXeXpXeXeXpXeXeXeXeXeXpXeXeXpXeXpXeXeXNX%Xi I.hX4X#.3 v.8XGXNXpXpXpXNXpXpXNXpXpXNXeXzXpXNXpXNXzXNXNXpXNXpXzXpXpXzXeXNXpXNXpXeXpXeXpXpXpXNXNXpXNXpXpXNXpXNXeXpXNXeXeXNXeXNXeXpXNXeXeXNXeXNXpXeXpXeXpXzXpXNXpXzXzXNXpXNXNXpXeXNXNXpXpXpXCXqX4 ~ '.nXk.e  .5.VXwXeXeXeXNXeXNXNXeXeXzXeXNXeXzXzXNXeXNXzXzXzXeXzXeXzXeXeXzXeXzXzXeXzXeXzXeXzXpXeXzXeXzXzXeXzXeXeXzXeXzXzXeXzXeXeXzXeXzXeXzXeXzXzXeXzXeXeXzXeXzXeXzXeXzXzXeXeXeXeXwXwXIXF ; hX/./.e p.GXpXpXpXpXeXeXeXzXNXNXNXzXpX8X+Xc.} v.CXNXNXeXeXzXNXeXeXNXNXeXeXzXpXNXpXpXzXNXNXpXNXpXpXpXNXeXpXNXzXNXpXpXpXpXpXNXeXNXpXpXNXpXpXpXNXeXpXNXzXpXpXpXpXeXpXpXpXeXpXNXeXNXpXNXNXcXVXDX2 s xX2X/.2 q.HX9XpX9XpXpX9XpXpXpXeXpXeXeXeXzXzXNXNXNXzXeXeXzXeXeXzXNXzXNXeXeXNXeXeXNXeXzXeXzXeXeXeXeXNXeXeXNXeXeXNXeXeXNXeXeXzXzXeXeXNXzXzXeXzXeXeXeXzXNXeXeXzXeXzXeXNXNXeXNXeXzXzXzXzXcXeXC u 5X4X_.E.$.u qXJXCXDXCXDXCXGXCXNX",
"eXNXeXpXpXpXNXLX9 M (.hX6Xt 4.0XpXpXpXpXeXpXeXeXeXpXeXpXeXpXeXeXeXeXeXeXeXeXeXeXeXeXeXeXeXeXeXeXpXeXpXeXeXpXeXeXpXeXeXeXeXeXeXeXpX9XeXeXeXeXeXeXeXeXpXeXpXeXpXeXeXpXeXeXeXeXpXeXeXeXpXeXeXpXeXeXpXeXzXeXNXeXpX%Xi C.kX4X$.9 J ^ NX9X9XpXeXpXpXNXeXNXpXpXNXpXNXeXNXeXpXpXNXeXpXeXeXNXpXNXeXpXeXNXpXNXNXeXNXzXpXNXzXpXeXpXNXeXpXNXpXNXpXeXNXpXNXpXpXNXpXeXNXpXpXNXpXNXNXpXeXNXpXNXeXNXpXpXNXeXpXpXNXpXeXNXpXpXCXqX7 Q C.xXh.h ; l ZXzXVXeXNXeXzXeXeXNXeXzXzXzXzXzXeXzXeXzXeXeXeXeXeXzXeXeXzXeXzXeXeXzXeXzXeXzXeXeXzXeXzXeXeXzXeXzXzXeXzXzXeXzXeXzXzXeXzXeXzXeXzXzXeXzXeXzXzXeXzXeXzXeXzXeXeXzXeXeXzXeXrXSXl ; jX6XT.e o.JXpXNXpXpXzXzXzXeXzXVXVXNXeXGXrX, 4 U CXNXNXNXNXNXNXNXNXNXNXNXpXNXNXNXNXpXNXpXpXpXNXNXNXNXNXNXpXNXNXpXNXpXNXNXNXpXNXpXNXNXpXNXNXpXNXNXpXNXNXNXNXpXNXNXpXpXNXNXpXNXNXpXpXNXNXNXVXDX7 n mX2X/.2 q.HXpXpXpXpXpXpXpXpXpXeXNXNXNXGXVXNXNXNXcXNXNXNXNXNXNXNXNXNXNXzXNXNXNXNXNXNXNXNXNXNXNXNXNXNXNXNXNXNXNXNXNXNXNXNXNXNXNXzXNXNXzXNXNXzXCXZXtX^ J CXeXNXzXNXNXNXNXzXNXeXNXzXNXzXzXCX~ i lX_._.R.$.8 tXUXDXGXGXDXGXCXDXDX",
"pXzXeXpXpXpXpX8X6 N (.gX6Xy _ uXeXpXeXeXpXeXpXeXeXeXeXeXeXeXeXeXeXeXeXpXeXeXeXeXeXeXeXpXeXeXpXeXeXpXeXpXeXeXeXeXeXeXpXeXeXpXeXeXpXeXeXpX9XeXpXeXpXeXeXeXeXeXeXeXeXpXeXpXeXeXeXpXpXeXeXeXeXpXeXeXeXpXeXpXpXpXpX|.i C.kX6X$.3 ' 5.pXpX9XpXeXpXpXpXpXpXpXpXNXeXzXzXeXpXzXpXeXNXeXpXpXeXpXzXeXpXzXpXeXNXpXeXNXeXNXpXeXNXpXpXpXeXNXpXeXNXpXpXNXeXpXNXeXNXpXpXzXeXNXpXeXNXpXpXpXpXpXpXpXNXpXeXpXpXpXpXeXpXpXpXpXeXLX-X7 ) '.kXz.t ; c 8XzXNXeXNXeXeXeXeXNXeXzXzXeXeXzXzXeXeXeXeXeXeXeXeXeXzXeXzXeXeXeXeXzXeXpXeXeXeXeXzXeXeXeXeXeXzXeXzXeXeXzXeXzXeXeXeXeXeXzXeXeXeXeXeXeXzXeXeXzXeXeXpXeXeXzXeXeXeXeXeXwXwXwXc - hX4X(.e s.GXpXNXeXNXzXeXzXzXNXNXNXzXeXZX|.- 7 l CXNXeXzXeXzXpXeXeXeXeXzXeXzXeXeXNXpXrXpXNXpXpXpXpXpXpXpXpXpXpXpXNXpXpXpXpXpXpXNXpXpXpXpXpXpXpXpXpXpXpXpXpXpXpXpXpXpXpXpXpXpXpXpXpXpXNXcXNXDX2 B xX_./.2 q.GXwXeXzXzX9XpXcXeXeXeXpXzXzXtXtXeXNXNXNXzXeXeXNXeXzXzXzXzXeXeXzXzXeXzXpXzXeXeXeXNXeXzXeXzXpXeXNXeXeXzXpXeXeXzXzXeXeXNXeXeXzXzXeXeXCXcXx.e 8 NXeXeXeXeXeXeXeXeXeXeXeXeXeXzXzXDX_ u hX4X_.R.=.i tXUXCXDXDXGXDXCXFXDX",
"NXpXNXNXNXVXOXOX< M ^.4X6Xt ) ,XpXNXNXpXNXpXpXpXpXpXNXNXpXNXNXNXNXNXNXNXNXNXNXzXeXpXeXpXpXeX9XpXeXeXeXeXpXeXeXpXpX9XeXeXeXeXeXeXeXeXeX9XpXeXeXeX9XpXpXeXeXpXeXpXeXeXeXeXeXeXeXeXeXeXpXpXpXpXNXpXpXeXpXeXpXNXaX|.i '.kX4X;.6 =XeXCXCXVXpXNXNXNXNXpXpXNXNXNXNXzXzXNXpXzXNXNXNXNXNXNXNXNXNXpXNXNXNXNXNXNXNXNXNXNXNXNXNXNXNXNXNXNXNXNXNXNXNXNXNXNXNXNXNXNXNXNXzXNXNXNXNXNXNXNXVXNXNXNXNXNXNXNXpXVXNXNXNXNXNXNXNXGXqX7 ~ I.kXz.t < v ,XcXFXzXzXzXNXNXzXzXzXpXzXNXzXzXzXeXzXzXeXeXeXeXeXeXNXzXzXzXzXeXzXzXpXpXNXeXeXpXzXeXzXNXzXzXzXzXzXzXzXzXNXNXNXNXNXNXNXzXzXNXNXzXNXNXNXNXNXNXVXNXNXNXNXNXNXNXNXpXzXzXrX%X4 = jX4X/.8 s.HXNXNXNXNXZXVXVXCXDXDXzXNXDX#XG > 7 h DXCXNXVXVXVXVXVXNXCXNXVXNXZXeXzXGX%Xc.GXGXNXCXCXCXZXVXZXZXVXZXZXVXVXVXVXVXNXNXNXNXNXNXVXNXNXNXNXNXVXNXNXNXVXpXCXNXCXNXNXNXVXNXNXNXVXVXVXVXHX3 u xX2X/.2 w.PXmXFXFXVXVXNXVXVXNXZXNXVXcX%.n.NXcXVXVXzXNXNXNXzXBXzXNXBXZXNXNXZXZXNXNXNXVXVXNXNXNXZXZXNXVXNXNXVXZXVXNXCXZXVXNXVXNXVXZXNXNXVXBXVXDX0Xh - : 8XNXZXNXZXNXZXVXVXVXZXVXZXVXDXVXHX_ 0 hX4X/.E.8.2 -XUXJXHXJXHXJXJXJXJX",
"qXAXbX0X*XrX*XiX< t R.4X7Xj G ,X<XuXuXuX<X<X<XqX0X1X1X1X1X0X1X<X<X<X<X<X1X<XuX-XqXqXqXqXqXaXqXaXqXaXaXqXaXaXaXaXaXaXaXaXaXqXqXaXqXaXaXaXqXaXaXqXqXaXaXqXaXqXqXqXqXaXdXaXaXqXdXaXqXqXqX1X0X<XuXuXaXaXaXqXqXuXoX .> Q.jX4X) 1 u.N.OX1XqXqX1XqXqX1XqXqXqX0XqXqXqXqXqXqXqXqX9XqXqXaX9XqXqXqXqXrX0X0XuXuXuXuXuX>XuX<XuXuXuXuXuXuXuXuX>XuXuXuXuX<XuXuX>XuXuXuXuXuXuXuXuXuXuXuXqX1XqXqXqXqXqXaXqXqXqXqXqXqXqXqXqX<XuX;X6 E I.hXx.c = d oX1X<X0XqXqXqXqXqXaXaX9XaXaXaX9XtXtXtXqXtXqX0XrXqXqXqXqX0XqXqXqXqXqXqXqXqXqXqXaXqXqXqXqXqXqXqXqXqXqXqXaXqXqXXX,X>XuXiXqXtXiX0XiXuXuXuX>X1X,XXXoX.X1X1X<XqXqXtXiXiX0X<XrX5 = kX/.T.7 +.yX>XyX<X>X>X<X<XyXoX7.l 7.b.G c 8 x K ;X,X1X1X1X,X#X,X1X1X1XqX1X1X1X1XXXt & 2 J 1X XoX.X,XoX1X1X<X<X>X<X>XuX>X<X<X>XuX<X<X<X<X1X<X<X1X1X<X1X1X1X1X1X1X1X1X1X1X1X1X1X1X1X1X<X*X<XrX4 z kX/./., { U.-XqXqXuXqXqX<XuXuX>X>X>X:Xl 8 x -XaXqXqXqXqX0X-X0X*X0X-X0X0X0X0X0X0X0X0XqX<X0X0X0XqX0XqXqX-X-XqX1X-X1X1X-X<X<X<X<X>X<X<X<X<X>X<XuXfXi.J N M.uX>X<X<XuX<X<X<XqX<XuXuXiXuX<XiXJ i 5X_._.I.) w M ' <XiXsX1XsX<XqXsX",
"x.n.m.4.4.x.x.d.- M Y._./.l N _ _ } $.} } 5.} 5.5.5.5.5.} 4.} } 4._ } } } 4.5.5.5.r.w.w.x.w.w.x.w.r.r.x.r.x.c.c.x.c.r.x.x.c.x.x.x.x.c.r.c.x.x.c.c.x.x.c.c.r.w.r.r.r.r.r.r.r.r.r.r.} 5.5.4.4.4.8.c.m.m.x.9.4.^ N 0 z.kX6X) * W ~ G  .r. .} 5.} 5.} 5.} 9.r.w.x.f.x.x.w.w.9.r.r.w.w.w.w.r.r.9.5.9.4.4.4.4.4.$.4.$.$.4.$.4.$.4.$.$.$.4.$.4.$.4.$.$.4.4.$.4.4.4.$.$.$.4.4.5.5.5.5.r.} r.5.r.r.5.r.9.r.5.5.5.5.4.$.Z : ~ I.jXM.l ; d _ _ _ 4.5.r.c.c.|.c.c.OXc.|.|.OXc.x.x.f.x.f.w.9.r.5.5.5.5.5.w.r.r.w.x.x.x.r.x.r.r.x.w.w.r.9.r.r.r.r.r.w.w.r.~ ~ _ 4.5.9.9.4.4.4.4.4.} _ ^ H H H K H  .} 5.5.x.x.5.5.4.w.8 ; hX/./.t t #.) _ $.$.4.4._ ) C t 4 h Z 8 e h M Z ! _ } _  . ._ ^ ^  . . .}  .5.} Z 7 & % 2 } H ^  .^ ^ ^ ^ _ _ _ $.$.$.4.4.4.4.4.4._ 4._ 4.} _ } } _  . .}  .}  . . . .}  . .}  ._ } } } 4.9.5 z hX/./.4 N )  .5.5.5.5.5.5.5.4.$.4.$._ e 4 - r.OXc.c.w.r.9.9.5.9.9.4.4.5.4.4.4.5.5.9.5.9.r.5.5.5.9.5.r.r.} r.} 5.5.5.} } _ } } 4._ } } _ 4.$.$.$.) ~ C _ $.} 4.} } 5. .5.} 4.5.4.4.$.$.8.t r 4X2X/.I.Q p w i _ 5. .^ 4. .4.4.",
"a ! s ! ! s ! ] W 0.T._./.f.8.` ` W W ` / ` / / ( / / ` ! ! ! ! ! @.! ! ! ! ! @.s @.@.! ! ! ! ! ! @.s @.! ! ! s @.@.s @.! ! ! ] W ! ! ! ! ! ! ! ! ] ! ! ! ! ! ! S ] ] ! ! S ] ! W W ! ! ! ! ` W W ! W / W ! @.! / L.2X_.G.%.%.%.%.%.@.! @.! %.! @.@.! s @.s @.! ! ! ! ! ! ! ! ! @.s @.! ! ! ! ! ! @.@.@.%.%.@.@.@.%.@.@.%.%.%.@.%.@.%.@.%.@.%.@.%.;.@.@.%.@.;.;.;.@.;.@.@.;.@.@.@.;.@.@.;.;.;.%.#.;.;.;.%.;./ ) &.z.Y._./.P.l.z.H.<.@.%.! %.%.` ` ` ` ! W ` W W ` W W ! ` ! ! %.! %.! @.%.@.%.@.! W W W ! W ! W W W W W ! ` W ! ` ` W ` ` @.` %.%.` / / W W W W ! @.! ! ` / / ` ( / ' W W ! ! ! @.s ! S &.g./././.Y.L.=.<.,.g.<.j.,.l.j.h.k.k.H.H.K.F.F.F.j.H.1.,.<.,.j.g.j.d.<.,.,.-.-.,.<.F.F.F.K.K.1.1.2.l.2.1.2.2.2.2.2.2.2.,.2.2.,.2.2.<.2.,.,.<.2.<.1.,.<.=.,.<.*.<.<.;.2.,.<.2.<.<.1.<.,.,.<.<.;.k.R./././.I.k.d.<.<.,.<.<.<.,.<.<.2.1.l.j.l.F.F.;.2.2.2.2.2.2.<.2.2.<.2.2.2.2.2.2.2.2.2.,.<.2.<.<.2.2.<.<.<.;.;.;.-.*.;.-.-.-.,.-.-.-.=.-.;.-.;.-.-.*.;.-.-.;.;.@.;.;.@.@.;.@.%.@.@.%.@.@.@.%.;.2X/.^.^.k.j.j.,.,.-.2.<.;.<.;.;.",
"`.W.W.W.R.W.W.`.'.U.T._./.E.(.W.E.W.W.W.W.W.W.E.Q.E.E.E.E.Q.E.E.E.E.W.W.(.:XW.E.`.W.W.W.`.W.W.W.W.W.W.`.W.W.W.W.W.W.W.W.W.W.W.'.Q.W.W.W.W.W.W.W.'.'.'.'.W.W.W.W.W.W.'.W.W.W.W.W.W.W.W.W.W.W.W.W.W.E.W.W.W.Q.`.R.z.(.2X/./.U.E.E.R.R.R.W.'.R.'.'.'.'.W.~.'.W.~.'.W.I.W.R.'.~.'.'.W.R.~.'.W.~.W.W.W.W.W.R.'.'.W.W.W.R.W.W.R.'.R.W.W.R.W.R.W.R.W.W.R.R.W.W.W.W.R.R.R.R.W.R.W.W.W.`.R.`.W.W.'.~.W.R.R.R.R.E.R.E.Q.E.R.E./.2X2X(.R.(.`.`.W.`.W.W.W.(.W.(.W.W.(.W.(.E.R.E.W.W.W.R.R.W.W.E.W.W.W.R.W.W.E.W.W.W.W.Q.W.W.W.R.W.W.E.W.W.W.W.R.R.W.W.W.E.E.E.U.E.Q.W.W.W.W.W.W.W.W.W.R.R.Q.I.Q.R.W.W.W.W.W.'.'.W.W.R.E././.2X_.(.E.E.E.(.(.(.E.E.E.(.E.E./.T.(.E.E.R.(.R.R.R.R.E.E.E.U.E.E.E.E.R.E.(.(.(.(.`.).`.`.`.`.{.`.`.`.`.}.`.`.`.`.`.`.(.E.(.R.(.(.E.E.(.(.(.(.E.E.E.R.R.E.R.R.R.`.R.E.R.R.R.R.`.(.`.`.`.R.E./.2X/._./.E.R.E.R.E.`.(.R.(.R.(.E.E.^.Y.`.R.`.~.W.'.~.R.`.W.`.`.`.`.(.`.`.`.W.W.`.W.(.(.R.`.`.R.(.`.`.`.R.`.`.E.E.(.E.E.R.R.R.R.`.`.R.R.(.E.E.E.E.(.(.`.R.`.(.`.W.`.`.`.W.W.`.W.W.'.W.W.`.W.R.2X/._./.(.R.R.R.R.R.R.R.`.R.~.W.",
"gXgXjXgXgXgXgXgX/./.T.T./._._.gXgX_.4X_.4XgX4XgX4X4X4X4XhX4XhXwX5X5XhX5XhX5X4X4XgX4X2X4X_._.4X4X4X2X[._.2X_././././.`._.2X/././././.(././.2X/./.2X/.(._./.2X/._._._._._._./._./._.2X_.2X2X2X4X4X4X4X4X4X4X5XgX{.^._.4X/.2X2X2X4X_._.)./.)././././._.[.)./._.2X/._.2X_._._./.[._.2X2X/._.`.(._._./././.2X/././._.2X_.2X_._././././.2X_././././._././.2X/._././._././.2X_./.2X_.4X2X2X2X/._./.)._./._./.2X2X2X2X4X2X2X2X/./._.)._.[.[.).[.{.gXlXgXhXgX4XgXgX4X_.4X4X4X4X4X4X4X4X4X4X4XgX_.4X4X_.4X_._.2X_._._._.2X4X_._.4X4X[.4X_._._._._._.2X4X2X2X_._._._._._._._._._._._.2X[._._._._.[.[._._._.)._.2X_._._././.2X2X_._././././.2X/./././././././././.$X/.T.T./././.Y./.$X2X$X%X%X2X2X2X_.2X_._.gX4X_._._._.`._.2X_._.gX{.[.[._._.2X2X2X2X2X2X2X/.4X2X4X/._.2X_./.2X/./.2X/./././././././.2X/._._.4X_./././././././.2X_._./././././././.2X2X2X/./././././.^.`.)._._._.2X2X2X_./.`._././._._.2X/.2X/./.2X2X_.2X2X2X2X2X_.2X_.2X2X/./._./.^./././._._._._._._._._.4X_.2X4X[._._._._._._.2X/./.(.[.[._._._.T./.^././._._././././._._.2X/.(.",
"4XgX4XgXgXgX4X5XhXhXjXgXgX4XgXgX4XgXgX_.4X_.4X_._.gX_.gX4X4X4XgXgX4X4XgX4XgX4X4X_.4X/.2X6X/.2X2X2X2X2X(._.2X2X2X2X/./._./.2X2X2X2X2X2X2X2X2X4X2X6X2X2X4X2X4X4X2X4X4X_.gX4XgXgX4X4XgXgX4XgXgX4X4X4X4X4X2X4X2X2X2XT._.4X4X4X4X4X4X2X4X2X_.4X4X2X4X_.4X_.gXgX[.[.gX_.[.[.4X_.[.[.[._.[.[._.{.[._.4X_._._._._._._._./././._._._._._._._._._._._._._._._._._._._._.2X_._._.4X4X4X4X2X4X2X4X4X_.4X_.2X4X2X4X_.4X4X4X4X4XgXgXjXgXgXgXgX2X_././.6X_._.[.gX[.[.gX[.[.gXgXgXgXgXgXgXgXgX4X4X4X2X4X2X2X4X2X4X4X4X4X2X4X4X4X/.2X2X/.2X2X2X2X2X2X2X/.2X2X4X5X4X2X2X/._._.4X4X4X2X4X4X4X4X4X4X4X4XgX4XgX4X2X4XgX4X4XhXgXgXgX4XgXgXjX4X4X4X5X4X4X5X4X4X4X4XgX4X4XgXgXgXgXgXgXgXgX5X5XgXgX4XgX4XgX4X4XgX4X4X4X4X_._.gX4X2X[.gX_./._._.2X(.4X2X6X4X2XgX4X4X4XgX4X4XgX4X_.4X2X2X2X2X2X2X4X2X4X2X2X2X2X2X2X4X2X2X2X2X2X4X4X4X4X4X4X4XgX4X2X2X2X2X2X/.2X2X2X2X2X2X2X6X2X_.2X2X6X4X_.2X2X2X2X6X/.2X/././._./././._././.6X/.4X4X2X2X4X4X/.2X_._.gXgX4XhXhXhXgXhX5XhXhX4X5X5X4X5X4X3X5X4X5X4X4X4X6X4X2X4X4X4X4XgXgX4X4X4X2X2X4XgXgXgX4XgX_._.gX4XgXgX2X4X4XgXlX",
"j.f.d.k.f.j.d.d.k.k.j.j.d.d.f.d.d.d.d.d.d.d.d.d.d.d.d.d.d.d.d.d.d.d.d.d.j.d.d.d.d.8.d.8.d.8.8.8.d.8.d.8.8.d.d.8.0.k.E.2X2X_.f.d.k.k.k.k.k.f.k.f.f.k.j.k.f.k.k.k.k.k.k.k.k.k.k.k.k.k.k.k.k.k.k.k.k.k.k.k.k.k.k.f.f.k.k.k.k.k.n.k.k.k.k.k.f.k.k.k.k.k.k.k.k.F.F.F.k.F.F.F.F.k.F.j.F.j.F.F.j.j.k.j.j.k.j.k.z.k.d.L.gX_._.k.k.k.k.z.k.k.k.k.k.k.k.j.k.k.k.j.j.k.k.k.k.k.j.k.k.k.k.k.k.k.n.k.k.k.n.k.k.k.k.k.k.k.k.H.n.G.k.m.G.G.F.G.k.k.f.z.k.k.F.n.F.G.G.k.k.G.L.L.G.G.G.G.n.F.k.k.k.k.k.k.k.f.k.k.n.k.k.n.n.k.n.L.E.2X2XT.L.n.k.n.L.n.I.L.n.L.L.n.m.L.H.G.G.L.n.k.m.n.n.G.L.k.L.k.L.G.G.L.n.G.n.G.n.H.n.G.G.G.k.H.k.G.G.k.n.k.k.n.k.n.G.k.k.k.G.k.k.L.k.G.G.k.k.n.k.n.L.n.k.k.k.k.F.k.k.n.k.k.k.k.F.k.k.k.k.k.f.Y._.4X/.k.k.f.k.k.k.k.k.n.k.k.G.k.k.k.F.k.k.k.k.k.k.k.k.k.k.k.n.k.k.k.n.G.G.n.k.k.n.k.n.k.G.k.k.k.k.G.k.k.k.k.k.f.k.k.k.f.x.k.k.f.k.k.k.k.k.G.G.k.k.k.n.k.k.k.k.k.z.k.k.k.k.k.k.n.k.n.G.k.k.k.k.k.k.T./._.Y.n.M.k.k.k.k.n.k.n.F.k.L.k.G.k.n.k.k.k.n.k.k.k.j.j.k.k.k.k.k.k.k.k.k.k.k.f.k.k.k.k.k.k.k.k.j.k.j.k.k.k.k.k.k.I.",
"2 2 2 2 2 : 2 3 2 3 2 2 2 2 2 2 4 4 4 6 6 4 4 6 4 4 0 3 2 2 2 2 6 3 4 i 3 7 3 i i i i 7 i 3 4 3 3 3 i 3 i 3 3 3 3 C I.2X4XgXy < N k k M M M p y y y y t y t t e t h e z h e r d 8 h r e t t k t M p p a a M t p M k M M z M k z k k z h e e e e e e e t t t t t p t t y y a y t a y y a t y t y e e e t t y 8 H mX{.[.M t N N Z M N M M M B M M p M p M M M p k M t k M p t p M t M p k k k k z M t p k t t t k p k k k k k k k k M p M M M k k z k k M k k k k k t t k a p a t p t t y t t p z M M M M M N p #.f.gXgX0.~ l M M k k t t p t t k t t k t t k t p t a k p t p p t p p k k p t p k p t M t z t k t k z t k p k k p k k k z z k z z k h h h t z h t t y y t e t w t e e y y y w w w e 7 7 e e e 2 ) /.gXI.k k M N M M M M M M M M M M M M M M M C M C C C C C C C C C C C C C M C C C M M M M M M M M C C C C M M M M M M M M M M M M M C M C a C M M l M M M M N M M C M M M M M C M M M M M M M M C L.(.[.) e < w w w w w w w w w w y w t y y y y y w w w w w w w w w w 7 w e w e y e e t e y w 7 7 e w 7 7 7 7 i 7 7 w r ",
"Z.v.b.M.M.M.M.v.h.M.M.v.b.v.Z.b.b.v.Z.b.M.Z.Z.M.M.D.M.N.M.h.Z.Z.v.z.v.v.M.v.v.v.h.v.b.M.M.v.M.b.N.M.I.v.v.v.v.M.U.8.' gX2XY.) >.P.m.P.N.m.m.m.m.n.n.M.M.M.x.M.M.x.v.M.x.v.v.f.v.v.v.v.x.v.f.z.v.w.e.w.v.v.M.c.v.q.f.q.h.f.q.q.q.e.q.e.w.v.c.w.c.e.9.q.f.f.h.z.x.v.h.x.f.f.x.f.k.f.f.z.f.k.x.f.v.c.x.f.k.f.k.^ 4.jX2X/.Z 4.U.v.c.M.M.m.M.m.U.U.L.L.U.P.L.U.L.L.m.m.M.m.M.m.m.m.m.m.m.N.m.n.N.m.c.c.c.m.v.c.c.c.c.m.b.c.c.m.n.m.m.n.m.n.x.c.c.c.c.c.c.c.c.c.c.c.c.c.c.c.c.c.c.c.c.m.N.n.m.m.m.m.m.n.c.n.m.m.n.D _ f._.4X$.9.m.m.m.m.n.m.n.n.m.n.n.m.m.n.n.m.m.m.m.m.m.m.n.m.m.N.c.c.c.c.c.m.|.c.|.m.m.m.@Xm.+Xm.m.P.m.m.+X.Xm.M.P.m.I.M.m.m.U.P.m.U.m.N.P.m..X.Xm.m.m.m.M.m.m.m.m.m.m.n.n.n.x.x.n.x.x.f.f.x.c.N ) H.gXY.N ^ _ _ _ $._ _ _ _ _ ) ' ^ ' _ _ ) _ _ _ _ _ $.) _ _ ) _ _ _ _ $.) _ $._ ) _ _ ^ _ ^ _ _ _ _ $._ _ _ _ _ ) ) ' _ ^ ) _ ^ _ _ _ _ _ _ $.) _ _ _ _ _ _ _ _ _ _ $._ _ $._ $.$.$._ _ $._ _ _ $.k.(.jX&.M E E ~ ~ ~ ~ ) ~ A J W A ~ A R / E W W E E / ~ ( ) ' ~ ` ! ) Q W W ! W W E ` ) / ) / / W ~ ) ' _ ~ / W / A ' ",
"8.f.m.P.n.f.x.x.n.x.9.x.n.x.f.f.f.9.f.x.n.x.n.n.k.n.x.f.f.f.f.f.f.f.f.f.x.f.f.9.w.x.x.x.x.x.x.x.n.k.L.n.n.x.n.n.+X4.` 4X4XY.~ ' m.n.m.m.M.x.M.n.n.n.n.f.n.n.x.f.n.k.n.x.f.x.w.x.9.x.f.x.k.x.x.f.w.w.w.w.x.x.x.f.f.9.9.9.8.9.9.9.5.5.5.9.x.x.c.c.x.x.x.f.x.f.f.f.f.x.x.c.x.c.n.n.f.x.n.x.f.x.x.x.x.v.f.n.n.U.6.$.4X2X2XG q.T.x.w.x.x.k.n.m.n.n.n.m.L.m.m.L.m.L.n.n.m.m.m.n.n.n.M.n.n.c.c.m.c.c.n.c.c.x.x.x.x.c.c.x.x.c.c.c.c.c.M.n.x.x.c.c.c.c.c.c.c.c.c.|.c.c.n.m.m.|.c.m.|.m.|.m.m.|.+XP.m.m.m.m.m.c.|.m.n.l ~ 9.4X4X) 9.m.L.P.|.m.+XP.m.P.+XP.m.|.m.+Xm.P.P.m.m.P.P.|.m.m.|.|.|.|.|.|.|.|.|.|.|.|.+X|.|.+X=X|.+X=X+X+XP.P.|.P.m.P.P.P.m.P.m.P.m.m.P.P.P.P.P.m.m.m.m.P.P.m.U.m.m.P.m.+Xm.m.P.m.m.m.m.n.P.M.N Q H.gXE.l ^ _ _ ' _ ~ ) ~ ~ ^ ) ~ ) ) ~ ~ ) ) ) ) ) _ _ ) ) _ ) ) ) ) ) ) _ ) ) ) ) ) ~ ) ~ ) ) ) ) ) ) ) ) ) ~ ) ^ ^ ) ~ ) ~ ^ ~ ^ ) ) ~ ^ ) ) ) ) ^ _ ^ _ _ _ _ ) _ _ _ _ _ ) _ _ _ _ ) _ _ _ ) _ f./.gX` M #.) _ ~ ~ ~ R ~ ~ ~ Z Z Z Z E E Q Q ~ E Q ~ G G ) ~ ~ ) @.) @.R R Q Q R Q E E Q E G Q ~ ~ ) ~ _ ~ ) ) ~ _ _ ",
"u.t.^ 0 * @ 9 F c.^ q e..X.Xr.} z T K  X=X X|.@X=Xr.D l ..b.e.a.b.b.e.b.b.OXb.b.r.r. . .H v h b K 7. X9XeXwXqXx.z >.d.4X4X/.7 > V j 7 4 4 2 ( | j 7 [ B p.8X5.7.@X#X#X.X X X.X.X.X X X.X.X X.X.X=X#X=X=X7.8 2 u 2X+XU.U.U.U.N.N.b.N.N.N.| & N a.@X.X=X@X+XP.N.b.v.w.r.r.r..X| H & v  .l l v v F F D N H D A ' $.T./.4XN J D H ^ ( V k w w y y w w y y y w y w w y w y w y y y y a t t t t w w w w w w w r e w i w r w w w y t t B B S F ( ( ( ^ J J A A W Z B W R W A W W A Z C A A N N A A D N D F Z c z j 7 U 4.4X_.A _ 5.~ G A W C W C A A E A W C A Z A A W A A A A A Z B N N B V N V N e k ~ A Z A Z A A Z Z A Z Z A A G F W G G J G G G F G N D V N N 4 8 d h B F N A F N A N N A N A A N N N A A N N 2 C I.[.R.k 4.4.M M z M z c N x V v V N V F N A N F G ~ A A ~ J ~ J G J ~ A W G A J F A D G F Z G A G W ~ A A A A G F D F G Z D F G A F D F A F F F F K h l K H S M N / ~ A C A l x x c N N B M B e w b.6XjXJ D =XwXzXtXU.$.` i.9X*X=X9XqX0XqX8XqX8XrX9X-X8Xy.s..XD X.wX9XqXeX*Xh.*X0X-X*X#X*XN.{ #X-XaX.X^ & s _ *XcXcXcXNX",
"iXiX+Xx.v.q.@XuXtX7XfXtXBXbXBXqX@XuXuXtXtXcXtXaXtXtX&X&XiXiXsXsXiXtXtXqXqX0XtXqXqXtXqXqX0X*X@X;XqXsXpX8X=X%X,X} F t.g.lX/.Y.e g >XD.l 8 8 4 b.iX4.f.uXyXuXNX0XrXBXcXtXtXtXtXqXqXqXtXqXtXcXtXtXcXeXtXaXaXqX Xb.:XBXbXiXcXrXrXiXrXrXiXrXqX*X4.9.;XBXtXrXtX0XqXrXrXrXrX8X8X8X8X-X|.w.@X-X&X&X&X*X-X*X*X*X-Xc.^ ' $.2X_.4XN D N 0.Z.h.q.6.' | } &.' $.$.$.&.=.&.&.=.$.4.&.$.4.$.4.$.4.$.4.&.' _ ' ' _ '  .^ _ ' ' | _ ^ ' ' ' 4.6.q.i.Z.Z.v.v.D.A.Z.v.v.v.v.v.v.v.v.v.v.h.f.v.V.v.h.e.v.h.h.e.h.v.q.v.h.v.e.e.q.B ' h.4X4XZ _ 5.v.b.v.b.b.b.M.b.b.b.b.M.b.b.b.b.b.M.b.m.M.b.b.M.N.b.M.b.M.N.( k Z 6.b.v.M.b.b.m.b.v.c.b.b.b.M.b.c.b.b.v.c.b.b.v.b.v.b.v.b.v.e.7._ ^ ' v.v.b.b.M.v.b.M.b.M.b.b.v.b.b.M.b.b.M.h.| 4 C H.4XR.h f.M.h.h.h.v.v.b.r.b.v.b.b.b.v.v.b.b.M.M.M.M.M.N.M.M.M.M.M.M.M.M.M.b.m.M.M.b.M.b.M.v.b.b.b.M.b.M.m.b.b.v.b.v.b.b.b.b.M.b.b.v.v.b.e.b.b.w.v.9.~ A N.N.f.9.v.M.M.M.v.v.b.v.M.v.v.v.b.b.b.y.N k./.jX` k l &XbX>XtXKXiXsXBXBXBXBXaXBXaXBXBXBXBXBXBXaXiXiXaX) ].KXBXBXBXBXiXBXZXZXBXZXBXBXuXAXBXBXaX%Xf.&XrXcXZXNXBXSX",
"VXVXVXDXDXDXDXFXVXDXDXVXVXmXNXVXVXcXVXzXzXcXcXzXzXVXVXVXVXNXNXNXZXNXVXNXVXzXcXVXmXVXDXDXFXFXFXFXCXCXCXqX&X=XX.8 J 6.d././.P.e h CX.XG d x b 3XDXcXcXFXVXVXzXVXcXcXzXVXzXNXzXzXNXpXNXzXNXcXzXNXNXNXNXNXzXNXCXVXVXzXcXzXcXzXcXzXwXeXeXeXwXNXGXiX8XNXNXzXeXeXeXeXeXeXNXNXNXNXNXNXVXCXNXNXNXVXVXCXDXFXDXDXDXrX5.6.$.4XgXgXN Z J k.m.n.n.n.c.x.x.c.x.m.m.m.m.n.n.n.n.x.n.c.n.M.n.m.n.n.n.x.x.x.f.x.x.w.x.w.c.c.w.x.x.w.x.x.x.x.x.n.n..Xm.m.m.n.m.m.n.n.n.n.m.m.m.|.|.n.m.x.n.n.n.n.n.n.n.n.L.m.n.n.L.n.L.m.P.P.Y./ $.f.gXlXW _ 5.m.P.+X+X+X+X+X+X+X+X+X+X$X+X+X+X+X+X+X+X+X+X+X$X+X$X$X$X$X3X' 7 4.b.=X+X+X=X+X=X+X+X+X=X=X+X+X+X=X+X+X+X+X+XP.+X+X+X+X|.|.+Xn.c.+XM.f.2XT.T.$X$X$X$XT.$X$X$X$X$XT.$X%XT.T.P.n.4.- Z I.4XE.h f.$XL.P.T.%X%X2X%X%X%X%X=X$X$X$X$X$X%X2X/.$X$X%X2X%X$XT.%X2X2X%X2X%X$X%X%XT.$X+X$X$X$X$X2XT.2X$X2X$X$X$X$X$XT.$XT.$X$XT.+XP.+X+X|.+X+X+X=XP.d.>.$X$XP.$X+X+X+X+X$X$X%X2X$X2X$X$X$X$X%Xe.G k.(.nX/ 7 @ 5.3X_ zXUXGXCXVXCXCXNXNXNXNXVXVXVXVXVXCXNXCXCXDX} D.GXNXNXVXCXCXDXVXVXVXFXVXVXFXVXNXVXVXDXHXDXVXVXzXzXzXVX",
"eXeXeX9XeXeX9XeXeXeX9XeXeXpXeXeXzXeXeXzXzXzXzXeXzXeXeXeXeXzXeXeXeXeXeXeXeXeXzXeXeXzXzXeXzXwXeXwXeXeXeXeXeXNX=X^ J >.-././.E.2 > r.-XVXNXZXZXNXNXNXeXzXeXeXzXeXeXzXeXzXzXeXeXeXeXeXzXeXeXNXeXzXeXeXeXeXeXeXeXeXeXzXeXzXeXzXwXeXeXeXeXeXeXeXeXeXeXeXeXeXeXeXeXeXwXeXeXeXeXeXeXeXwXeXeXeXeXeXeXwXeXeXcXeXVX-X} ' _ 4X_.gXN G ( 0 : r 5.m.x.x.x.x.x.x.x.f.x.x.x.x.x.x.x.x.f.x.x.x.x.x.f.x.x.x.x.f.f.c.x.x.x.x.x.x.x.x.x.f.9.x.x.x.x.n.x.x.x.x.f.x.n.x.x.x.x.x.x.x.x.x.x.x.x.x.f.x.f.f.x.x.x.x.f.f.x.x.x.x.f.m.m.~ ~ 0.gX4X~ N z P.P.|.m.m.n.n.m.c.n.m.m.m.n.m.c.|.m.m.m.m.m.m.n.m.m.m.n.n.m.m.n.c.m.m.m.m.m.m.m.m.m.m.m.c.m.n.m.m.m.n.m.n.m.m.m.m.m.m.m.m.m.n.m.n.m.c.m.n.m.m.m.n.m.m.m.m.n.m.n.m.n.m.m.c.c.M.4.; R R.gXL.h f.m.m.n.m.m.m.n.n.m.m.m.m.m.n.n.n.n.c.n.n.m.m.m.n.m.m.m.n.n.n.n.n.n.n.n.n.m.n.m.c.n.L.m.m.m.m.m.m.n.n.m.n.n.m.n.n.m.m.n.m.m.m.m.m.m.n.n.n.n.n.n.m.m.m.m.m.m.m.m.m.m.m.m.m.n.n.n.x.x.n. .D F.T.5XJ M  XA w | 0XCXNXCXNXCXNXCXVXNXVXVXCXFXVXNXNXCXNXVXVXNXNXNXVXNXVXCXVXCXCXVXVXCXVXVXNXVXVXNXVXNXzXVXVXVXVXVXcXCX",
"eXeX9XeXeXeX9X9XeXeXeXeXeXpXeXeXzXzXeXzXeXeXzXeXzXeXeXzXzXeXzXeXeXeXtXzXeXeXeXeXeXzXzXzXwXzXeXzXeXwXzXzXeXBXiX9.J t.d./.(.L.7 > c.9XCXNXNXNXpXeXeXpXeXzXeXzXeXzXzXzXeXzXeXzXzXeXeXzXeXzXzXeXzXeXzXeXzXeXeXzXeXeXeXzXeXzXeXeXeXeXeXeXeXeXeXeXeXeXeXeXeXeXeXeXeXeXeXeXeXeXeXeXeXeXeXeXzXwXzXzXzXzXzXwXzXVX=X_ | _ 2X4X4XN J D 8 4 2 4.n.x.x.x.x.9.x.x.f.x.x.x.x.x.f.x.x.x.x.x.x.x.x.x.x.x.f.x.x.x.x.x.x.f.x.x.x.w.x.x.x.x.x.f.x.x.f.x.x.x.x.x.x.x.x.x.x.w.x.f.x.x.x.x.x.x.x.x.x.x.x.x.x.x.x.x.x.x.x.x.x.f.n.m.~ Z &.gX4X~ Z N P.P.n.m.m.m.m.m.m.c.m.m.m.|.m.m.m.m.m.m.m.m.|.c.m.|.m.m.m.m.m.|.m.m.|.m.m.m.m.m.m.m.m.m.m.|.m.m.m.m.m.m.m.m.m.m.m.m.m.m.m.m.m.m.m.m.m.m.m.m.m.m.m.m.m.|.m.m.m.m.m.m.m.m.m.|.f.~ - E ^.4XU.t 9.m.m.L.m.m.m.m.m.m.n.m.m.m.m.c.m.n.n.n.n.m.n.m.c.m.m.m.n.n.n.m.m.c.c.m.m.m.m.c.m.n.m.m.m.m.m.m.m.m.m.m.n.m.m.m.L.m.m.m.n.m.m.m.m.m.m.m.n.m.n.m.n.m.m.m.m.P.+Xm.m.+XP.m.P.m.m.m.c.c.x.| N F.T.2XA N 7XD.4.@XtXCXNXCXVXNXCXVXNXCXVXzXNXZXVXVXNXVXCXVXCXCXCXCXCXNXVXVXVXVXCXNXCXVXVXVXNXVXVXVXVXVXNXVXNXVXVXVXVXVX",
"eXeXeXeXeX9XpXpXeXeXpXeXeXeXeXeXeXzXzXeXeXzXeXzXeXzXeXeXeXzXeXzXzXeXzXeXeXeXeXeXzXeXeXeXeXzXeXeXeXzXzXeX9Xm.#X5.J 6.0././.I.7 : VXBXeX9XeXeXeXeXeXeXzXeXzXeXzXeXeXzXzXeXeXeXeXzXeXeXzXeXeXzXeXzXeXzXeXzXzXeXzXeXzXeXzXeXzXwXeXeXeXeXeXeXeXeXeXeXeXeXeXeXeXeXeXeXeXeXeXeXeXeXeXeXwXeXzXzXzXwXzXwXeXcXzXFX3X_  ._ _._._.N J D ' G n q.n.x.x.x.x.x.x.x.x.x.x.x.x.f.x.x.x.x.9.x.x.x.x.x.x.x.x.x.x.x.x.x.x.x.x.x.x.x.f.x.x.x.x.x.x.x.x.x.x.x.x.f.x.x.f.x.x.x.x.x.x.x.x.x.x.x.x.f.x.x.x.x.x.x.x.x.w.x.x.f.x.x.n.n.~ M S 4XgXW ~ $.7Xn.v..Xm.|.m.|.m.|.m.m.m.c.m.m.c.m.m.m.m.m.m.m.m.m.m.|.m.m.m.|.m.m.m.m.m.|.m.|.m.m.|.m.m.m.m.|.m.|.m.|.m.m.m.m.m.|.m.|.|.m.m.c.|.m.m.m.m.|.m.|.|.m.m.m.m.m.m.m.|.m.m.|.m.|.| Z - Z `.4XL.e 9.P.n.m.m.L.m.m.m.m.m.m.m.m.m.m.n.m.m.n.m.n.m.n.m.m.m.c.n.m.n.c.c.m.c.m.m.n.m.m.m.m.m.m.L.m.m.L.m.m.m.m.m.m.m.P.m.m.m.m.L.m.m.m.m.n.m.m.n.m.L.n.m.n.P.P.m.m.m.P.m.m.|.m.m.m.m.m.m.c.x.| D j.L.T.V N 7XGXUXHXDXCXCXVXVXCXVXVXVXVXBXwX3XeXVXDXCXCXVXVXNXCXNXpXCXCXVXVXNXCXVXVXVXVXVXVXVXVXNXVXVXNXVXVXVXVXVXcXVXVX",
"eX9XeX9XeXeXeXeXeXpXeXeXeXpXeXeXeXzXeXzXzXeXzXeXzXeXeXzXeXzXzXeXeXeXeXeXeXwXeX9XeXeXeXeXeXwXzXcXzXzXeXeX9X%X#X4.J t.-././.n.w - c.qXNXpXeXeXeXeXeXeXeXzXzXeXzXeXzXzXeXzXzXeXzXeXzXeXeXzXeXeXzXeXzXeXeXzXeXzXeXzXeXzXeXzXeXeXeXeXeXeXeXeXeXeXeXeXeXeXeXeXeXeXeXwXeXeXeXeXwXeXeXeXzXeXeXeXzXzXzXzXcXzXzX#Xw.v.| ~ _.2X2Xk F K v.f.4.v.n.x.x.x.x.x.x.x.x.x.x.x.x.x.x.x.f.x.x.x.x.f.x.x.f.x.x.x.9.x.x.f.x.x.x.f.x.x.x.x.x.f.x.x.x.w.x.x.f.x.x.x.x.x.x.x.x.f.x.x.w.x.x.x.x.f.x.x.x.x.x.x.f.x.f.x.x.x.x.f.x.f.x.n.^ M ] gXgXZ ) h.T e z c.+Xm.m.|.m.m.|.m.m.|.m.m.m.|.|.m.|.m.m.m.m.m.|.m.|.m.m.m.|.m.m.m.m.m.|.m.|.m.m.m.m.m.m.m.m.c.m.|.|.m.m.m.m.m.m.m.m.m.m.|.m.m.m.|.m.m.m.m.|.m.m.m.m.|.m.|.m.m.m.m.n.+X~ k : Q ^.4XI.k 9.P.m.L.L.m.m.m.m.m.m.m.m.m.m.m.n.m.n.m.n.m.m.m.c.m.m.m.m.n.m.m.m.m.c.m.m.m.m.c.n.m.m.L.m.m.m.m.m.m.m.m.m.m.m.m.m.m.m.L.m.m.m.m.m.m.P.m.m.n.n.m.n.m.m.m.P.P.m.m.P.P.m.P.|.m.m.m.m.m.+Xe.G k.(.hXP k N.cXCXCXCXCXVXCXVXCXNXCXCXNXzXzXVXeX8XVXCXVXCXVXVXNXCXNXCXpXVXCXCXVXCXVXVXVXVXVXNXVXVXcXVXVXVXVXcXVXVXVXVXCX",
"eXeXeXeXeXeX9XpX9X9XpXeXeXeXeXeXzXeXzXeXeXzXeXzXeXzXzXeXzXeXzXeXpXeXeXeXeXpXeXeXzXeXwXzXeXzXzXeXzXwXzXeXeXNX*X} / &.&.2X/.G.w : .XqXNXeXeXpXeXpXeXeXzXeXeXzXeXzXeXeXzXeXeXzXeXzXeXzXzXeXzXzXeXzXeXeXzXeXzXeXzXeXzXeXzXeXeXeXeXeXeXeXeXwXeXwXeXeXeXeXeXeXeXeXeXeXeXeXeXeXeXeXeXeXeXzXeXcXeXzXwXeXzXzXzXr.) b.O.) /._.4Xz J D d.m.x.m.x.f.x.x.x.x.x.f.x.x.f.x.x.x.x.x.x.x.x.x.x.x.x.x.x.x.x.x.x.x.x.x.x.x.x.x.x.x.x.x.x.x.x.x.x.x.x.x.x.x.x.x.x.f.x.x.x.x.x.x.x.x.x.x.x.x.x.x.x.f.x.x.x.x.x.x.x.x.x.x.x.9.x.n.( t ] 6XgXA $.9.8 4 u c.+Xc.m.c.m.m.m.m.m.m.|.m.m.m.m.m.m.m.m.|.m.m.m.m.m.m.m.m.m.m.m.m.m.m.m.m.m.m.c.|.m.m.m.|.m.m.m.m.m.m.m.|.m.m.m.c.|.m.m.m.|.m.m.m.m.m.m.m.c.m.|.m.m.m.m.m.m.m.m.m.m.m.6.A : Q `._.U.k 9.m.n.m.m.m.L.n.m.m.m.m.m.m.m.c.m.n.m.n.n.c.m.c.m.m.m.m.m.n.m.c.c.n.m.c.c.c.m.m.n.m.m.m.m.m.L.m.m.n.m.m.m.m.m.m.L.m.m.m.m.m.m.m.m.m.n.m.n.n.m.n.n.m.m.m.m.m.+Xm.m.|.P.m.m.m.m.m.m.n.*Xa.Z z./.hXV k ;XzXCXVXCXVXCXCXVXNXCXVXVXCXzXVXHXtX%XzXNXVXNXCXVXCXNXCXCXNXVXNXCXVXVXVXVXFXVXVXVXVXVXVXVXVXNXVXVXVXVXVXcXCX",
"eX9XeXeX9XeXeX9XeXeXeXeXeXeXeXeXeXzXeXzXzXeXzXzXzXeXzXzXeXzXzXeXeXzXeXeXzXeXeXeXeXeXeXeXeXeXwXzXwXzXeXeXwXcX*X} J ' ' /./.I.7 : CXpX8XeXeXeXpXeXeXeXzXzXzXeXzXeXzXzXeXzXeXzXzXzXzXeXeXzXeXzXzXeXzXeXzXeXzXzXzXzXzXzXeXzXzXwXeXeXeXeXeXeXeXeXeXeXeXeXeXwXeXeXeXeXeXeXeXeXeXeXeXeXeXeXeXzXwXzXwXzXzXzXcXF e J | } _.2X/.e G } 9.f.w.m.x.x.w.x.x.x.x.x.x.x.x.f.x.x.x.9.x.x.x.x.x.x.x.f.x.x.x.f.x.x.x.w.x.x.x.x.x.9.x.x.x.x.x.x.f.x.x.f.x.x.x.x.x.w.x.x.x.f.x.x.f.x.w.x.f.x.x.x.x.x.x.x.x.w.x.x.f.x.x.x.x.9.x.n.H k S _.lXC ~ ~ e.k 6 v.+Xn.n.m.m.m.c.|.m.m.m.m.|.m.m.m.m.m.|.m.m.m.m.m.m.m.|.m.m.m.|.m.m.|.m.|.m.m.m.|.m.m.m.m.|.m.m.m.|.m.m.m.|.m.m.m.|.m.|.m.m.m.c.|.m.m.m.|.m.m.m.m.m.m.|.m.m.|.m.m.m.m.$X2X: ~ `.4XU.k 9.m.n.L.P.m.n.m.m.m.m.m.m.m.c.m.n.n.c.n.n.m.n.m.m.m.m.m.m.n.n.m.c.c.m.n.m.m.m.c.m.m.m.m.m.m.L.m.m.m.m.m.m.n.m.L.m.m.L.m.m.m.m.m.m.m.L.n.m.n.m.n.n.m.m.L.m.+Xm.P.m.+Xm.|.m.m.m.m.|.x. .f 4 j.E.5XB k *XBXVXCXCXCXCXVXVXCXVXCXVXVXNXVXCXNXeX%XpXCXVXVXCXCXCXNXCXNXCXCXNXCXVXVXCXVXCXNXVXVXVXNXVXVXNXVXVXVXNXVXVXCX",
"eXeXeXeXeXeXeXeXeXeXeXeXeXeXeXeXeXeXeXeXeXeXeXeXeXeXeXeXeXeXeXeXeXeXeXeXeXeXeXeXeXeXeXeXeXeXzXeXeXzXzXeXeXzXuX} ( >.%.6X/.j.M M VXNXeXpXpXeXeXeXeXeXeXeXeXeXeXzXeXeXeXeXeXeXeXeXeXeXzXeXeXeXeXeXeXzXeXeXeXeXeXeXeXeXeXeXeXeXeXeXeXeXeXeXeXeXeXeXeXeXeXeXeXeXeXeXwXeXeXeXeXeXeXeXwXeXzXeXzXzXzXzXzXzXcX5.) 0.| ) ^./._.c D 6.M.f.x.n.x.f.x.x.w.x.x.x.x.w.x.x.x.x.x.x.x.x.f.x.x.x.x.x.x.x.x.x.x.x.x.x.x.x.x.x.x.x.x.x.f.x.x.x.x.x.x.x.x.x.x.f.x.x.x.x.x.x.x.x.x.x.x.x.x.x.x.x.x.f.f.x.x.x.x.x.x.x.x.x.x.x.x.n.J t L [.4XG Z Z v.5.| m.m.m.m.m.c.m.m.m.m.m.m.m.m.m.m.m.m.m.m.m.m.m.m.m.m.m.m.m.m.m.m.c.m.m.m.m.m.m.m.m.m.m.m.m.m.m.m.m.m.c.m.m.m.m.m.m.m.m.m.m.m.m.m.m.m.m.m.m.m.m.m.m.m.m.c.m.m.m.m.m.m.n.+Xm.0 Q `.4XL.h 9.m.m.m.m.m.m.m.m.m.m.m.m.m.m.m.m.m.m.m.n.m.m.m.c.m.m.m.m.m.m.n.m.m.m.m.m.m.m.c.m.m.m.m.m.m.m.m.m.m.m.m.m.m.m.m.m.m.n.m.m.m.m.m.m.m.m.m.n.m.m.m.m.m.m.m.m.m.m.m.m.m.m.m.m.m.m.c.9._ N h e j.E.5XB k 7XBXVXVXVXVXVXVXVXVXVXVXVXVXCXNXCXNXVXeXNXCXVXCXNXNXCXCXNXCXNXCXVXVXVXVXNXCXVXVXNXVXVXCXVXVXCXVXNXVXVXNXNXCX",
"eXeXeXeXeXeXeXeXeXeXeXeXeXeXeXeXeXeXeXeXeXeXwXzXeXeXeXeXeXeXeXeXeXeXzXwXeXeXeXeXeXeXeXeXeXeXeXeXeXwXeXeXeXVXuX} ( ` ` 4X2Xg.~ 5.NXzXzXpXeXNXpXeXeXeXeXeXeXeXeXeXwXeXeXeXeXeXeXeXeXeXeXeXeXeXeXeXeXeXeXeXeXeXeXeXeXeXeXeXeXeXeXeXeXeXeXwXzXwXeXeXeXeXeXeXeXeXeXeXeXeXeXeXeXeXeXeXeXeXeXeXeXzXzXzXzXeXzX@Xc.U.} ~ R./._.j J } v.x.w.x.x.x.x.x.x.x.x.x.x.x.x.x.x.x.x.x.x.x.x.x.x.f.x.x.x.x.x.x.x.x.x.x.x.x.x.f.x.x.x.x.x.x.x.x.x.x.x.x.x.x.x.x.x.x.x.f.x.x.x.x.x.x.x.x.x.x.9.x.x.x.x.x.x.f.x.x.x.x.f.x.x.w.x.m.J t L [.6XZ N M m.+X+Xm.m.m.m.m.m.m.m.n.m.m.m.m.n.m.m.m.m.m.m.m.m.m.m.n.m.m.m.m.m.m.m.m.n.m.m.m.n.m.m.m.m.m.m.m.m.m.m.m.m.m.m.m.m.m.m.n.m.m.m.n.m.m.m.m.m.m.m.m.m.m.m.m.m.m.m.m.m.m.m.m.P.n.+X X5 ) ).4XI.k f.m.m.m.L.n.m.m.n.m.m.m.m.m.m.m.m.m.m.m.m.m.m.m.m.m.m.m.m.m.m.m.m.m.m.m.m.m.m.m.m.m.m.m.m.m.m.m.m.m.m.m.m.m.m.m.m.m.n.m.m.m.m.m.m.m.m.m.m.m.m.m.m.m.m.m.m.m.m.m.m.m.m.m.m.m.m.n.6.^ J ..N j.E.4XV k 7XcXVXVXVXVXVXVXVXVXVXVXVXVXVXNXCXVXZXVXCXNXCXNXVXVXNXCXVXCXCXNXNXCXNXCXCXNXVXVXNXVXNXCXCXVXVXNXVXNXVXVXNXCX",
"eXeXeXeXeXeXeXeXeXeXeXeXeXeXeXeXzXwXeXeXeXeXeXeXeXeXeXeXeXeXeXeXeXeXeXeXeXeXwXzXeXeXeXwXeXeXeXeXeXeXeXeXeXZXqX5.( ` ` 4X2Xg.) D.NXNXNXeXpXzXeXzXeXeXeXeXeXeXwXeXeXeXeXeXeXeXeXeXeXeXeXeXeXeXeXeXeXeXeXeXeXwXeXeXwXeXeXeXeXeXeXeXeXeXeXeXeXeXeXeXeXeXeXeXeXeXeXeXeXeXeXeXzXwXeXeXeXeXeXeXzXzXzXwXzXzXzXDX-X .( ~ _._._.j G | x.x.x.x.x.x.x.x.x.x.x.f.x.x.x.f.x.x.x.x.f.x.x.x.x.x.w.x.f.x.x.x.f.x.x.x.x.f.x.x.x.x.f.x.x.x.x.f.x.x.x.x.f.x.x.x.x.f.x.x.x.x.x.f.x.x.x.f.x.x.x.x.x.x.x.x.x.x.x.f.x.x.x.x.x.x.n.U.D e L _.lXA N M c.m.n.m.m.m.m.m.m.m.m.m.m.m.m.m.m.m.m.m.m.m.m.m.m.m.m.m.m.m.m.m.m.m.m.m.m.m.m.m.m.m.m.m.m.m.m.m.m.m.m.m.m.m.m.m.m.m.m.m.m.m.m.m.m.m.m.m.m.m.m.m.m.m.m.m.m.m.m.m.|.m.m.m.m.m.+X=X< ~ ).4XL.k 9.m.n.L.m.m.m.m.m.m.m.m.m.m.m.m.m.m.m.m.m.m.m.m.m.m.m.m.m.m.m.m.m.m.m.m.m.m.m.m.m.n.m.m.m.m.m.m.m.m.m.m.m.m.m.m.m.m.m.m.m.m.m.m.m.m.m.m.m.m.m.m.m.m.m.m.m.m.m.m.m.m.n.m.m.m.m.m.+X=X$Xq.N d.T.5Xz k uXBXVXVXVXVXVXVXVXVXVXVXVXCXVXVXVXVXVXVXVXCXNXCXCXNXCXNXVXNXNXVXCXNXCXVXVXCXCXNXtXNXCXCXeXeXNXNXNXVXNXNXVXVX",
"eXeXeXeXeXeXeXeXwXeXeXeXeXeXeXeXeXeXeXeXeXeXeXeXeXeXeXzXeXwXeXeXeXeXeXeXeXeXeXeXeXeXeXeXwXzXeXeXeXeXeXwXwXmX XH ( ` %.4X2Xd./ oXNXzXzXNXNXzXzXeXwXeXeXeXeXeXeXeXeXeXeXeXeXeXeXwXeXeXeXeXeXwXzXeXeXeXeXwXeXeXeXeXeXeXeXeXeXeXeXeXeXeXeXeXeXeXeXeXeXeXeXeXeXeXeXeXeXeXeXeXeXeXwXeXeXeXeXeXeXzXcXeXzXzXwXDX+XM O.~ 4X_._.h J _ x.x.x.x.x.x.x.x.x.x.x.f.x.x.x.x.f.x.x.f.x.x.x.x.f.x.x.x.x.x.9.x.x.x.x.x.x.x.x.w.x.f.x.x.x.f.x.x.x.x.x.x.x.x.x.w.x.x.x.x.x.x.x.x.x.x.x.x.f.x.x.x.x.x.x.x.x.x.x.x.x.x.x.x.x.w.n.L.F t ] _.6XG M C n.m.m.m.m.m.m.m.m.m.m.m.m.m.m.c.m.m.m.m.m.m.m.m.m.m.m.m.m.m.m.m.m.m.m.m.m.m.m.m.m.m.m.m.m.m.m.m.m.m.m.m.m.m.m.m.m.m.m.m.m.m.m.m.m.m.m.m.m.m.m.m.m.m.m.m.m.m.m.m.m.m.m.m.m.m.+XP., ~ /._.I.k 9.P.m.m.m.m.m.n.m.m.m.m.m.m.m.m.m.m.m.m.m.m.m.m.m.m.n.m.m.m.m.m.m.m.m.m.m.m.m.m.m.m.m.m.m.m.m.m.m.m.m.m.m.m.m.m.m.m.m.m.m.m.m.m.m.m.m.n.m.n.m.m.m.m.m.m.m.m.m.m.m.m.m.m.n.m.m.m.m.m.P.7.N j.E.4XV k 7XBXVXVXVXVXVXVXVXVXVXVXVXNXCXVXNXCXVXVXCXNXCXNXCXCXCXNXNXVXCXCXNXVXVXCXVXCXVXzX=XeXBXCXVXNXNXVXNXVXNXVXNXZX",
"eXeXeXeXeXeXeXeXeXeXeXeXeXeXeXeXeXeXeXeXeXeXeXeXeXeXeXwXeXeXeXeXeXeXeXeXeXeXeXzXwXeXeXeXeXeXeXeXeXeXeXcXcXVXb.l ' ' ` 5X2Xf.~ D.NXNXNXNXzXeXzXeXeXeXeXeXeXeXeXeXeXeXeXeXeXeXeXeXeXeXeXeXeXeXeXeXeXeXeXeXeXeXeXeXeXeXeXeXeXeXwXzXwXeXeXeXeXeXeXeXeXeXeXwXeXeXeXeXeXeXeXeXeXeXeXeXeXeXeXeXeXzXeXzXeXzXzXDXm.9 X._ _.).(.h K ^ c.c.x.x.w.x.w.x.x.x.x.x.x.x.x.x.x.x.x.x.x.x.x.x.x.x.x.x.x.f.x.x.x.x.x.f.x.x.x.x.x.x.x.x.x.x.x.x.x.f.f.x.x.x.x.x.x.x.x.x.9.x.x.x.x.f.x.x.x.x.x.x.x.f.x.f.x.x.x.f.x.x.x.x.x.r.n.U.v e [ (.4XH N M m.m.m.m.m.m.m.m.m.n.m.m.m.m.m.m.m.m.m.m.m.n.m.m.m.m.m.m.m.m.m.m.m.m.m.m.n.m.m.m.m.m.m.m.m.m.m.m.m.n.m.m.m.m.m.m.m.m.m.m.m.m.n.m.m.m.m.m.n.m.m.m.m.n.m.n.m.m.m.|.m.m.m.m.m.m.+X.X, ) (.gXP.k 9.m.m.n.P.m.m.m.m.m.m.m.m.m.m.m.m.m.m.m.m.m.n.m.m.m.m.m.m.m.m.m.m.m.m.m.m.m.m.m.m.m.m.m.m.n.m.m.m.m.m.m.m.m.m.m.m.m.m.m.m.m.m.m.m.m.m.m.m.m.m.m.m.m.m.n.m.m.m.m.m.m.m.m.m.m.m.m.m.n.m.7.G d.E.5Xx k 7XcXFXVXVXVXVXVXVXFXCXVXVXCXNXVXCXVXVXVXVXCXVXVXVXVXVXCXVXCXVXNXVXVXNXCXVXNXCXeXb.9XpXGXGXCXCXNXVXNXVXNXVXFX",
"wXeXeXeXeXeXeXeXeXeXeXeXeXwXeXeXeXeXeXeXeXeXeXwXeXeXeXeXeXeXeXeXeXeXeXeXeXeXeXwXeXeXeXeXeXeXeXeXeXeXeXwXcXcXAX|.( &.` 4X6Xh.M o.VXzXzXzXNXeXzXeXeXeXeXeXeXwXeXeXeXeXeXeXeXeXzXwXeXeXeXeXeXeXeXeXeXeXeXeXeXwXeXeXeXeXeXeXeXeXeXeXeXeXeXeXeXeXeXeXeXeXeXeXwXeXeXeXeXeXeXeXeXeXeXeXeXeXeXeXzXzXzXzXzXzXeXFX0X0.T G jX).[.h J ) c.c.x.x.c.x.x.x.x.f.x.x.x.x.x.x.x.x.x.x.x.x.x.w.x.x.f.x.x.x.x.x.f.x.x.x.x.x.x.f.x.x.x.f.x.x.x.x.x.x.x.x.x.f.x.x.f.x.x.x.x.x.f.x.x.x.x.x.x.x.f.x.x.x.x.x.x.x.x.x.x.x.x.x.x.r.n.P.x t ] _.4XG N M |.m.n.m.m.m.m.m.m.m.m.m.m.m.m.m.m.m.m.m.m.m.m.m.m.m.m.m.m.m.m.m.m.m.m.m.m.m.m.m.m.m.m.m.m.m.m.m.m.m.m.m.m.m.m.m.m.n.m.m.m.m.m.m.m.m.m.m.m.m.m.m.m.m.m.m.m.m.m.|.|.c.m.m.m.m.+X.X5 ~ _.4XI.k 9.m.m.m.n.m.m.m.m.m.m.m.m.m.m.m.m.m.m.m.m.m.m.m.m.m.m.m.m.m.m.m.m.m.n.m.m.m.n.m.m.m.m.m.m.m.m.m.m.m.m.m.m.m.m.m.m.m.m.m.n.m.m.m.m.m.m.m.m.m.m.m.m.m.m.m.m.m.m.m.m.m.m.m.m.m.m.m.|.m.P.7.N d.R.5XP k *XBXVXVXVXVXVXVXVXVXVXVXVXVXCXNXCXVXCXNXVXCXNXCXVXVXVXVXCXNXNXCXVXNXVXVXCXVXCXVXpXBXNXCXNXNXNXCXNXVXNXNXVXVX",
"eXeXeXeXeXeXwXeXeXeXeXeXeXzXeXeXeXeXwXeXeXeXeXeXeXeXeXeXeXeXeXeXeXeXeXwXeXeXeXeXeXeXeXeXeXeXeXeXeXeXeXwXcXzXBX%X( &.` 4X6Xf.k ..VXzXzXzXNXNXeXeXeXeXeXeXeXzXeXeXeXeXwXeXeXeXeXeXeXeXeXwXeXeXeXeXeXeXeXeXeXeXzXwXeXeXeXeXeXeXeXeXeXeXeXeXeXeXeXwXeXeXeXeXeXeXeXeXeXwXeXeXeXeXeXzXwXeXeXeXwXzXzXwXeXzXeXVXtXn.F Z hX`._.d K ) w.c.x.x.c.x.x.x.x.x.x.x.f.x.x.x.x.w.x.x.f.x.x.x.x.x.x.x.x.x.x.x.x.x.x.x.x.f.x.x.x.x.x.x.x.x.w.x.x.x.x.x.x.x.x.x.x.x.f.x.x.x.x.x.x.x.x.9.x.x.x.x.x.x.x.x.x.f.x.x.x.f.x.x.x.9.n.T.v e [ /.4XG N M m.m.m.m.m.m.m.m.m.m.m.m.m.m.m.m.m.m.m.m.m.m.m.m.m.m.m.m.m.n.m.m.m.m.m.m.m.m.m.m.m.m.n.m.m.m.m.m.m.m.n.m.m.m.m.m.m.m.m.m.m.m.m.m.m.m.m.m.m.m.m.m.m.m.m.m.m.m.m.m.m.m.m.m.m.m.+XP.6 ) _.4XI.h 9.L.n.m.L.m.m.m.n.m.m.m.m.m.n.m.m.m.m.m.m.m.m.m.m.m.m.m.m.m.m.c.m.m.m.m.m.m.m.m.m.m.m.m.m.m.m.m.m.m.n.m.m.m.m.m.m.m.m.m.m.m.m.m.m.m.m.m.m.m.m.m.m.m.m.m.m.m.m.m.m.m.m.m.m.m.m.n.m.n.m.7.Z d.E.4XV k 7XBXVXVXVXVXVXVXVXVXVXVXVXVXVXCXNXCXVXVXCXNXCXNXCXCXNXCXNXVXCXNXVXCXNXCXNXVXVXCXCXCXCXVXZXVXVXNXCXNXVXVXcXZX",
"eXeXeXeXeXeXeXeXeXeXeXeXwXeXeXeXeXeXeXeXeXeXeXwXeXeXeXeXeXeXeXeXeXeXeXeXeXeXeXeXeXeXeXeXeXeXwXeXeXeXeXwXzXxXaX=X( &.%.4X7Xd.~ D.VXeXeXzXzXzXeXeXeXeXeXeXeXeXeXeXeXeXeXeXeXeXeXeXeXeXwXeXeXeXeXeXeXeXwXeXeXeXeXeXeXeXeXeXeXeXeXeXwXeXeXeXeXeXeXeXeXeXeXeXeXwXeXeXeXeXwXzXeXeXeXeXeXeXeXeXeXeXeXeXcXeXeXeXtX%XK Z 4X_._.j U ) x.M.x.x.n.x.n.x.x.f.x.x.x.x.x.x.x.x.x.x.f.x.x.x.x.x.f.x.x.x.x.x.x.x.x.f.x.x.x.x.x.x.x.x.x.f.x.x.x.x.x.x.x.x.x.x.x.x.f.x.x.x.f.x.x.x.x.x.x.x.x.x.x.f.x.x.w.x.x.x.x.x.x.f.x.5.n.P.N e ` (.6X^ M t m.m.m.m.m.m.m.m.m.n.m.m.m.m.m.m.m.m.m.m.m.m.m.m.m.m.m.m.m.m.m.m.m.m.m.m.m.m.m.m.m.m.m.m.m.m.m.m.m.m.m.m.m.m.m.m.m.m.m.m.m.m.m.m.m.m.m.m.m.m.m.m.m.m.m.m.m.m.m.m.m.m.|.m.m.m.m.m.; ~ _.4XR.h 9.m.n.L.m.m.m.m.m.m.n.m.m.m.m.m.m.m.m.m.m.m.m.m.m.m.m.m.m.m.n.m.m.m.m.m.m.m.m.m.m.m.m.m.m.m.m.m.m.m.m.m.m.m.m.n.m.m.m.m.m.m.m.m.m.m.m.m.m.m.m.m.m.m.m.m.m.m.n.m.m.m.m.m.m.m.m.c.m.m.m.y.D d.E.4XP k 7XBXVXVXVXVXVXVXVXVXVXVXVXVXVXCXVXVXCXNXCXCXNXCXVXVXNXNXCXNXNXCXNXCXVXVXCXNXVXVXNXCXNXVXCXNXCXCXNXVXNXVXVXCX",
"eXeXeXeXeXeXeXwXeXeXeXeXzXeXeXeXeXeXeXeXzXwXeXeXeXeXeXeXeXeXwXzXeXeXeXeXeXeXeXeXeXeXeXeXeXeXeXeXeXzXwXzXzXcXNX%X' &.>.5X4X8.G D.VXzXeXzXzXzXeXwX9XwXeXeXeXeXeXeXeXeXeXeXwXeXeXeXeXeXeXeXeXeXeXeXeXeXeXeXeXeXeXeXeXeXeXeXeXeXeXeXeXeXeXeXeXeXeXeXeXeXeXeXeXeXeXeXeXeXeXeXeXeXeXeXeXeXeXeXeXeXeXeXeXeXeXeXeX=XK G 2X_._.8 J E x.c.n.x.x.x.n.x.x.x.x.x.f.x.x.x.x.f.x.x.x.x.x.x.x.f.x.x.x.x.x.f.x.x.x.x.x.x.x.x.x.f.x.x.x.x.x.f.x.x.x.x.x.f.x.x.x.f.x.x.x.x.x.x.x.x.x.x.f.x.x.x.x.x.x.x.x.x.f.x.x.x.x.x.x.r.n.U.x e [ _./.^ M k m.|.n.m.m.m.m.m.m.m.m.m.m.m.m.m.m.m.n.m.m.m.m.m.m.m.m.m.m.m.m.m.m.m.m.m.n.m.m.m.m.m.m.m.m.n.m.m.m.m.n.m.m.m.m.m.m.n.m.m.n.m.m.m.m.m.m.m.n.m.m.m.m.m.m.m.m.m.m.m.m.m.c.m.m.n.+XP.q ) _.4XP.h 9.P.n.m.P.m.L.m.m.L.m.m.m.m.m.m.m.m.m.m.m.n.m.m.m.m.m.m.m.m.m.m.m.m.m.m.m.m.m.m.m.m.m.m.m.m.m.n.m.m.m.m.m.m.m.m.m.m.m.m.m.m.m.n.m.m.m.m.m.m.m.m.m.m.m.m.m.m.m.m.m.m.m.m.m.m.m.m.m.m.m.i.G d.E.5XV k *XBXVXVXVXVXVXVXVXVXVXVXVXVXVXVXVXVXVXVXVXVXCXNXCXNXCXCXVXCXVXCXCXNXNXVXVXVXVXCXCXVXNXCXNXVXVXVXNXVXVXVXNXVX",
"wXeXeXeXeXeXzXwXeXeXeXeXeXwXeXeXeXeXeXeXeXeXeXeXeXeXeXeXeXeXeXeXeXeXeXeXwXeXeXeXeXwXzXeXeXeXeXeXeXwXzXwXzXcXNX%X( | %.4X2X8.A D.VXzXwXzXzXeX9XwXeX9XeXeX9XeXeXeXeXeXeXeXeXeXeXeXeXeXeXeXeXeXeXeXeXeXeXeXeXwXeXeXeXeXwXeXeXeXeXeXeXeXeXeXeXeXeXwXeXwXeXeXeXeXeXeXeXeXeXeXeXeXeXeXeXeXeXeXeXzXzXcXeXzXeXeXaX%XJ G 2X_.).d ] E x.x.n.x.n.x.x.x.x.x.x.x.x.x.f.x.x.x.x.x.x.x.9.x.x.x.x.x.f.x.x.x.x.x.x.x.w.x.f.x.x.x.x.f.x.x.x.x.x.x.9.x.x.x.f.x.x.x.x.x.f.x.x.x.f.x.x.x.x.x.x.f.x.x.f.x.x.x.x.x.x.f.x.x.x.w.n.L.v e ` _._.^ M k m.|.m.m.m.m.m.m.m.m.m.m.m.m.m.m.m.m.m.m.m.m.m.m.m.n.m.m.n.m.m.m.m.m.m.m.m.m.m.m.m.m.m.m.m.m.m.m.m.m.m.m.m.m.m.m.m.m.m.m.m.m.m.m.m.m.m.m.m.m.m.m.m.m.n.m.m.m.|.m.m.m.m.m.m.n.|.@Xr #.).4XI.k 9.m.n.L.L.m.m.m.m.L.n.m.m.m.m.m.m.m.m.m.m.m.m.m.m.m.m.n.m.m.m.m.m.m.m.m.m.m.m.n.m.m.m.m.m.m.m.m.m.m.m.m.m.m.m.m.m.m.m.m.m.m.m.m.m.m.m.m.m.m.m.m.m.n.m.m.m.m.m.m.m.m.m.m.m.m.m.m.m.c.|.7.D d.Y.hXB M *XBXVXVXVXVXVXVXVXVXVXVXVXVXCXCXCXNXNXCXVXVXVXNXCXCXVXVXVXCXVXNXCXVXCXNXNXCXVXNXNXVXCXVXCXVXVXCXCXNXNXVXcXCX",
"eXeXeXeXeXeXeXeXeXeXeXeXeXeXeXeXeXeXeXwXeXeXeXeXeXeXeXeXeXeXeXeXeXeXeXwXeXeXeXeXeXeXeXeXeXeXeXeXeXeXeXeXzXcXtX+X( >.&.4X6X0.C ].DXzXeXzXeXeXeXeXeXeXeX9XeXeXeXeXeXeXeXeXeXeXeXeXeXeXeXeXeXeXeXeXeXeXeXeXeXeXeXeXeXeXeXeXeXeXeXwXeXeXeXeXeXeXeXeXeXeXeXeXeXeXeXeXeXeXeXeXeXzXwXeXwXeXeXeXeXwXzXeXeXzXeXpXtX%XK N 4X_._.8 U E x.n.x.x.x.x.x.n.x.x.f.x.x.x.x.x.x.x.x.f.x.x.x.x.x.x.x.x.x.x.x.x.x.f.x.x.x.x.x.x.x.x.x.x.x.x.w.x.x.f.x.x.x.x.x.x.x.x.x.x.x.x.x.x.x.x.f.x.x.x.x.x.x.x.x.x.x.x.x.x.x.x.x.x.c.w.n.P.F y [ (.(.^ M M |.m.m.m.m.m.m.m.m.m.m.m.m.m.m.m.m.m.m.m.m.m.m.m.m.m.m.m.m.m.m.m.n.m.m.m.m.m.m.m.n.m.m.m.m.m.m.m.m.m.m.m.m.m.m.m.m.m.m.m.m.m.m.m.m.m.m.m.m.m.m.m.m.m.m.m.m.m.m.m.m.|.m.|.m.m.P.U.6 ) (.gXR.h f.m.m.m.P.m.m.L.m.m.m.m.m.m.m.m.m.m.m.m.m.m.m.m.m.m.m.m.m.m.m.m.m.m.m.m.m.m.m.m.m.m.m.m.m.m.m.m.m.m.m.m.m.m.m.m.m.m.m.m.m.m.m.m.m.n.m.m.m.m.n.m.m.m.m.m.m.m.m.m.m.m.m.m.m.n.m.m.m.m.|.e.Z d.R.hXB k *XBXVXVXFXVXVXVXVXVXVXVXVXFXNXNXVXCXCXNXCXCXVXCXVXVXCXVXCXNXVXCXNXVXVXCXNXVXCXNXCXVXNXCXNXCXNXNXVXCXVXVXVXCX",
"eXeXeXeXeXeXeXeXwXeXeXeXeXeXeXeXeXeXeXeXeXeXeXeXeXwXeXeXeXeXeXeXeXeXeXwXeXeXeXeXeXeXeXeXeXeXeXeXeXeXeXeXeXNXqX|.( &.>.5X6Xd.t { FXzXzXeXeXwXeXeXeXeXeXeXeXeXeXeXeXeXwXeXeXeXeXeXeXeXeXeXeXeXeXeXeXeXeXeXeXeXeXeXeXeXeXeXeXeXeXeXeXeXeXeXeXeXeXeXeXeXeXeX9XeXeXeXeXeXeXeXeXeXeXeXeXeXeXeXwXzXwXzXzXwXeXeXtX=X( G 2X_./.h U E v.n.n.x.x.n.n.x.x.x.x.x.f.x.x.x.f.x.x.x.x.x.x.x.x.f.f.x.x.x.x.x.x.x.x.x.x.x.x.x.f.x.x.x.x.f.x.x.x.x.x.x.f.x.x.x.x.x.w.x.x.x.f.x.x.x.f.x.x.x.x.x.w.x.x.x.x.x.x.x.f.x.x.x.x.w.x.U.F e [ _./.^ N k m.m.n.m.m.m.m.m.m.m.m.m.m.m.m.m.m.m.m.m.m.m.m.m.m.m.m.m.m.m.m.m.m.m.m.m.m.m.m.m.m.m.m.m.m.m.m.m.m.m.m.m.m.m.m.m.m.m.m.m.m.m.m.m.m.m.n.m.m.m.m.m.n.m.m.m.m.m.m.m.m.m.m.|.m.m.|.m., ~ _._.U.k 9.m.n.L.m.m.m.m.m.m.m.m.m.m.m.m.m.m.m.m.m.m.m.m.m.m.m.m.m.m.m.m.m.m.m.m.m.m.m.m.m.m.m.m.m.m.m.m.m.m.m.m.m.m.m.m.m.m.m.m.m.m.m.m.m.m.m.m.m.m.m.m.m.m.m.m.m.m.m.m.m.m.m.m.m.m.m.n.m.m.|.7.G 8.E.gXV M *XNXVXVXVXVXVXVXCXVXVXVXVXVXCXVXCXNXCXVXVXNXVXCXVXCXNXCXCXVXVXNXVXVXNXCXVXVXVXNXVXVXVXVXVXVXCXCXNXCXVXcXVXCX",
"eXeXeXeXeXeXeXeXzXeXeXeXeXzXeXeXeXzXeXeXeXeXeXeXeXzXeXeXeXeXeXeXzXeXeXeXzXeXeXeXeXeXeXeXeXeXzXeXeXeXeXwXzXNXqXx.( &.` 4X/.H.w z DXzXeXzXeXzX9XwX9XeXpXeXeXeXeXeXeXeX9XeX9XeXeX9XeXeXeX9X9XeXeX9X9XeX9XeX9XeX9XeXeX9XeXeXeXeXeXeX9XeXeXeX9XeXeX9XeXeXeXeXeXeXeXeXeXeX9XeXeXeX9XeXeXeX9XeXeXzXzXeXzXzXeXeXeX3XK Z 4X/./.8 ] E f.n.x.x.n.f.x.n.f.x.x.x.x.x.x.x.x.x.x.f.x.x.x.x.x.x.x.x.x.x.x.x.x.x.f.x.x.x.x.x.x.x.x.x.x.x.x.f.x.x.x.x.x.x.x.x.x.w.x.x.f.x.x.x.x.x.x.x.x.x.x.x.x.x.x.x.x.f.x.x.x.x.x.x.x.c.x.L.F e [ /.6X^ M M m.m.m.m.m.m.m.m.m.m.m.m.m.m.m.m.m.n.m.m.m.m.m.m.m.m.m.m.m.m.n.m.m.m.m.m.m.m.m.m.m.m.m.m.m.m.m.m.n.m.m.m.m.m.m.m.m.m.m.m.m.m.m.m.m.m.m.m.m.m.m.m.m.m.m.m.m.m.m.|.m.m.m.m.m.m.m.v.2 ) _.4XL.h 9.m.m.m.P.m.P.m.P.m.m.m.n.m.m.m.n.m.m.n.m.m.m.n.m.m.m.m.m.m.m.m.m.m.m.m.m.m.m.n.m.m.m.m.m.m.m.m.n.m.m.m.n.m.m.m.m.m.m.m.m.m.m.m.n.m.m.m.m.m.m.m.m.m.m.n.m.m.m.m.m.n.m.m.m.m.m.m.m.m.m.a.G 0.E.jXA M ,XtXVXVXCXNXCXNXVXNXNXCXNXNXVXVXVXCXVXNXVXCXVXVXVXVXVXVXVXVXCXCXCXVXCXNXVXVXNXCXVXVXNXCXVXCXVXNXVXNXVXVXVXVX",
"eXeXzXeXeXzXeXeXzXeXeXeXeXzXeXeXeXeXeXeXeXzXeXeXzXeXeXeXzXzXeXeXeXeXeXzXeXeXeXzXeXzXzXeXeXeXeXeXeXeXeXeXeXzXtX+X' ' &._./.k.M F ZXzXzXeXzXeXzXeXeXeXNXNXzXzXeXeXeXeX9XeXeXeXeXeXeX9XeXeXeX9XeXeXeXeX9XeXeXeX9XeXeX9X9XeXeX9X9XeX9XeXeXeXeXeXeXeX9XeXeXeXeXeXeXeX9XeX9XeXeX9XeXeX9XeXeXeXeXeXeXeXeXeXwXDX-XJ ( ~ 4X_.(.8 L M x.n.n.x.x.n.x.x.x.x.x.x.x.x.x.x.x.x.x.x.x.x.x.x.x.x.x.n.x.x.x.x.x.x.x.x.x.f.x.x.x.x.x.9.x.x.x.x.x.x.x.x.x.x.x.f.x.x.x.x.x.x.x.x.f.x.x.x.f.x.x.x.x.x.f.x.x.x.x.x.x.x.x.w.x.x.n.U.N t [ (./.^ M k m.m.m.m.m.m.m.m.m.m.m.m.m.m.m.m.m.m.m.m.m.m.m.m.m.m.m.m.m.m.m.m.m.m.n.m.m.m.m.m.m.m.m.m.m.m.m.m.m.m.m.m.m.m.m.m.m.m.m.n.m.m.m.m.m.m.m.m.m.m.m.m.m.m.m.m.m.n.m.m.|.m.m.|.m.m.m.m.: ) _._.R.k 9.m.L.m.L.m.P.m.m.m.m.m.m.m.+XP.|.m.P.m.m.m.m.+Xm.P.m.m.P.m.m.m.m.P.m.m.m.m.m.+Xm.m.m.|.m.P.m.m.P.m.m.m.+Xm.m.m.m.P.m.m.m.|.P.m.|.m.P.m.m.|.P.m.m.m.+X+Xm.+Xm.m.m.m.m.|.m.P.m.n.m.m.m.e.G -.E.gXW M >XNXCXNXCXCXVXCXNXVXCXVXVXCXVXVXVXVXCXCXVXVXVXVXVXVXCXVXVXVXVXVXCXVXVXCXVXVXCXVXVXVXCXVXVXVXVXVXVXVXVXVXNXCX",
"eXeXeXeXeXeXeXeXeXeXeXeXeXeXeXeXeXeXeXeXeXeXeXeXeXeXeXeXeXwXeXeXeXeXeXeXeXeXeXeXeXeXeXeXeXeXzXwXeXeXeXeXeXeXBX3X' &.' 4X_.h.M p.CXzXzXzXzXzXzXzXzXzXzXeXzXzXeXzXeXeXeXeXeX9XeXeXeXwXeXeXeXeXeXeXeXeXeXeXeXeXeXeXeXeXeXeXeXeXeXeXeXeXeX9XeXeXeXeXeXeXeX9X9XeXeX9XeXeXeXeXeXeXeXeXeXeXeXeXeXeXeXeXeXeXeXCX,Xt O._ _././.h V M b.m.f.x.x.x.x.x.x.x.x.x.x.x.x.x.x.x.x.x.x.x.x.x.x.x.x.x.x.x.x.x.x.x.x.x.x.x.x.f.x.x.x.x.x.x.x.x.x.f.x.f.x.x.x.x.x.x.f.x.x.x.x.x.x.x.x.x.x.x.x.x.x.f.x.x.x.x.x.f.x.x.x.x.x.x.n.L.F e [ _.6X^ N M m.+Xm.m.m.m.m.m.m.m.m.n.m.m.m.m.m.m.m.m.m.n.m.m.m.m.m.m.m.m.m.m.m.m.m.m.m.m.m.m.m.m.m.m.m.n.m.m.m.m.m.m.m.m.m.m.m.m.m.m.m.m.m.m.m.m.m.m.m.m.m.m.m.m.m.m.m.m.m.|.m.m.m.m.m.m.m.b., ) _._.R.k 9.m.P.m.P.m.m.m.m.P.+Xm.+Xm.m.m.m.P.m.+Xm.+Xm.m.+Xm.m.+Xm.m.+Xm.+Xm.+Xm.|.P.P.m.m.+XP.m.P.|.m.+Xm.m.P.P.m.m.+Xm.+Xm.P.m.P.m.m.P.P.m.m.+XP.m.m.P.P.m.m.m.m.m.P.m.+XP.m.P.m.P.m.m.m.m.m.e.G 8.E.gXW M #XBXVXCXCXNXNXCXCXVXNXCXVXVXVXVXVXVXNXCXCXVXVXCXVXVXVXVXCXVXVXVXVXVXVXVXVXVXVXVXCXVXVXVXVXCXVXVXVXVXVXVXCXCX",
"eXeXeXeXeXeXeXeXeXeXeXeXeXeXeXeXeXeXeXeXeXeXeXeXeXeXeXeXeXeXeXeXeXeXeXeXeXeXeXeXeXeXeXeXeXeXeXeXeXeXeXzXeXwXBXwX' &.0.4X/.0.~ fXVXzXeXzXzXpXzXNXzXNXzXzXzXzXzXNXNXeXzXeXzXzXzXzXeXzXzXzXzXzXpXpXeXzXzXzXeXzXzXzXeXeXeXzXzXeXeXzXzXzXeXeXzXzXzXzXzXzXzXeXeXzXzXeXeXzXeXzXzXzXeXeXzXzXzXeXeXzXeXzXeXzXeXS.4.J 7.} 4X_./.8 F M m.+Xx.x.x.x.x.x.x.x.x.x.x.x.x.n.x.x.x.x.x.n.n.x.x.x.x.n.x.x.x.x.x.x.x.x.x.x.x.x.x.x.x.x.x.x.x.x.x.x.x.x.f.x.x.x.x.x.x.x.x.x.f.x.x.x.x.x.x.x.f.x.x.x.x.x.x.x.x.x.x.x.x.x.x.x.n.L.D t >.`.4X( M V m.m.m.m.m.m.m.m.m.m.m.m.m.m.m.m.m.m.m.m.m.m.m.m.m.m.m.m.m.m.m.m.m.m.m.m.m.m.m.m.m.m.m.m.m.m.m.m.m.m.m.m.m.m.m.m.m.m.m.m.m.m.m.m.m.m.m.m.m.m.m.m.m.m.m.m.m.m.m.m.|.m.m.m.m.m.m.N.6 _ _._.L.N 9.m.m.P.m.m.P.P.m.m.m.P.+Xm.m.+XP.|.m.P.m.m.P.m.m.|.P.m.P.P.m.P.m.m.+XP.+Xm.m.m.m.P.+Xm.m.P.m.m.P.m.m.+XP.m.+XP.m.+Xm.+Xm.m.m.+Xm.P.|.m.|.m.m.+Xm.+Xm.P.P.m.P.m.P.m.m.+XP.m.m.n.m.m.m.e.G -.E.gXW M ,XNXCXCXCXNXVXCXCXNXNXCXVXVXVXVXVXCXVXVXVXVXCXNXVXCXVXCXVXVXVXCXVXZXVXVXVXCXVXVXVXCXCXVXVXVXVXVXVXVXVXVXVXFX",
"eXeXeXeXeXeXeXeXeXeXeXeXeXeXeXeXeXeXeXeXeXeXeXeXeXeXeXeXeXeXeXeXeXeXeXeXeXeXeXeXeXwXeXeXeXeXeXeXeXeXeXeXpXNXNX=X' 6.6._.4Xd.~ oXNXzXeXzXeXNXzXNXNXeXzXzXzXeXeXeXeXeXeXNXNXeXeXeXzXNXwXeXeXeXzXpXzXeXzXzXzXzXeXeXeXzXzXeXeXNXeXzXeXeXzXzXNXeXzXzXeXeXzXzXzXzXeXeXeXeXeXzXeXzXzXzXzXeXzXzXzXzXzXzXzXzXeX+XG U y.$._./.T.d P M M.m.f.x.k.x.x.x.x.x.x.x.x.x.x.x.x.x.x.x.x.x.x.x.x.x.x.x.x.x.x.x.n.x.x.x.x.x.x.f.x.x.x.x.x.f.x.x.x.x.x.x.x.x.x.x.x.f.x.x.x.x.x.x.x.x.x.9.x.x.x.x.x.x.x.f.x.x.x.x.x.f.x.x.x.n.n.U.A t ` _./.' M M m.m.m.m.m.m.m.m.m.m.m.m.m.m.m.m.m.m.m.m.m.n.m.m.m.m.m.m.m.m.m.m.m.m.m.m.m.m.m.m.m.m.m.m.m.m.m.m.m.m.m.n.m.m.m.m.m.m.m.m.m.m.m.m.m.m.m.m.m.m.m.m.m.m.m.m.m.m.m.m.m.m.m.m.m.m.m.N.5 _ 4X_.R.N 9.c.m.m.P.m.m.m.m.P.m.+Xm.P.m.m.m.m.P.m.+Xm.m.+Xm.+Xm.P.m.|.P.m.P.m.m.m.m.m.+XP.|.m.m.P.P.m.+Xm.m.+Xm.m.m.m.m.m.m.m.m.+XP.+Xm.m.+Xm.P.P.P.P.m.m.m.m.P.m.m.+Xm.|.m.+Xm.m.m.m.m.P.P.P.+Xr.^ 8.R.4X( N #XiXpXNXpXCXNXNXVXCXCXCXNXNXVXVXCXNXVXCXCXCXCXCXNXNXVXcXVXBXVXNXVXVXVXVXVXVXVXZXVXNXVXVXVXBXVXVXNXVXVXVXVXNX",
"eXwXeXwXwXeXeXeXwXeXwXeXwXeXwXeXeXwXeXeXeXeXwXeXeXwXeXwXeXwXeX9XeXwXeXwXeXwXeXwXeXwXeXeX9XeXwXwXeXwX9XeXeXCXtXm./ 6.6.2X(.j.~ D.NXeXeXeXeXeXpXeXeXeXeXeXeXeXeXwXeXwX9XeXeXeXwXeXeXeXeXeXeXeXpX9XeXeXeXeXeXeXeXeXeXeXeXeXeXeXeXeXeXeXeXeXeXeXeXeXeXeXeXeXeXeXeXeXeXeXeXeXzXeXeXzXeXeXwXeXzXzXeXzXeXzXzX*Xq.Y O.$.gX_.Y.r V l c.m.x.x.f.x.f.x.x.x.x.x.x.x.x.x.x.x.x.x.x.x.x.x.x.x.x.x.x.x.x.x.x.x.x.x.x.x.x.x.x.f.f.x.x.x.x.f.x.x.f.x.x.x.x.x.x.x.x.f.x.c.x.x.f.x.x.x.x.f.x.x.x.x.x.x.x.x.x.x.x.x.x.x.x.x.n.L.F t { `._.$.M k m.m.m.m.m.m.m.m.m.m.m.m.m.m.m.n.m.m.m.m.m.m.m.m.m.n.m.m.m.n.m.m.m.m.m.m.m.m.m.m.m.m.m.m.m.m.n.m.m.m.m.m.m.m.m.m.m.m.m.m.m.m.n.m.m.m.n.m.m.m.m.m.m.n.m.m.m.m.m.m.m.m.m.m.m.m.|.N.5 _ 2X_.R.Z 9.w.n.m.m.P.m.P.m.m.m.m.m.m.m.P.m.P.m.P.P.m.m.m.P.m.m.P.+Xm.m.|.|.P.m.m.m.P.P.m.P.m.m.m.m.m.P.m.|.m.m.+Xm.+Xm.P.m.m.m.m.m.+Xm.m.m.m.m.m.m.m.m.P.P.m.m.|.m.m.m.m.m.m.m.+Xm.P.P.P.+X+X+Xb.~ 4.R.gX' G ,XqX%XpXNXCXpXNXZXCXCXGXZXeXpXCXNXCXVXVXCXCXVXVXzXeXzXzXeXeXzXzXNXNXBXzXzXcXzXNXpXNXzXzXzXzXzXzXzXzXzXzXNXNX",
"eXeXeXeXeXeXzXzXzXzXeXeXeXeXzXeXzXeXeXNXeXeXeXeXeXeXzXzXzXeXpXpXpXeXzXzXpXeXzXpXzXzXeXzXzXzXzXzXzXzXzXNXNXwXZXwX' q.h._./.0.) oXVXNXzXNXNXNXNXNXNXNXNXNXNXNXVXVXVXCXVXVXCXDXCXDXCXVXDXVXCXVXCXCXVXDXDXVXCXVXVXVXVXVXVXFXVXVXCXVXVXDXCXCXVXVXCXVXCXVXDXVXVXZXCXVXVXVXVXVXVXVXVXVXVXVXVXCXVXVXVXCXVXZXVXDXNX&X8 V 4X/.T.e P M cXmX9.n.n.x.M.x.x.n.n.n.n.x.n.x.x.x.n.x.x.n.x.x.n.x.x.n.x.n.x.n.x.x.x.x.x.x.x.x.x.x.x.x.x.x.x.x.x.x.x.x.x.x.x.x.x.x.x.x.x.x.x.x.x.x.x.x.x.x.x.x.x.x.x.x.x.f.x.x.x.x.x.x.n.n.n.R.D t >.`._.$.C M m.|.m.m.m.m.m.m.m.m.m.m.m.m.m.m.m.n.m.m.m.P.m.m.m.c.m.m.m.m.m.m.m.m.m.m.m.m.m.m.m.m.m.m.m.c.m.m.m.m.m.m.m.m.m.m.m.m.m.m.m.m.m.m.m.m.m.m.m.m.m.m.m.m.m.m.m.m.m.|.m.m.m.|.m.m.|.|.6 _ _._.L.G 5._ G v.+Xm.P.m.P.P.P.P.P.+Xm.+Xm.+XP.P.+Xm.+X+Xm.|.m.m.m.P.m.P.m.P.P.m.P.m.m.m.P.P.+Xm.+Xm.+Xm.P.P.P.m.m.P.P.P.+XP.+Xm.P.m.+Xm.P.P.|.m.P.+Xm.+Xm.+XP.P.+Xc.|.m.m.+XP.m.m.P.n.f.t N m.e.^ =.R.gXW M -XXX4./ qXUXGX9XC M N U.LXUXCXCXCXCXCXGX-XXXGXHXPXPXHXHXHXHXDXDXCXDXDXDXVXDXCXDXGXGXDXDXFXDXDXFXDXDXCXDXDXDX",
"qXqXtXqXqXqXqXqXqXqX0XiXqXqXqX0XqXqXiXqXqXqX0XqXqXqXqX0XqXqXqX-XqX-XqX-X0X0X0X-X0X-X0X0X0X-X0X0X0X0XuXiX|.7.uXP.J u.k./.E.d.M ].AXaXqXqXqXqXqXqXqXqXqXqX0XqXqXiXtXiXiXiX|.a.@X#XuX<X0X0XqXqXqXqX<Xx.r.-X0XqXtXiXuXqXqX0XtXiXqX0XuX=X XiXiXtX*X*X0XuX X0XiXtXqXrXtXtXtXtXtXtXqXtXiXtXtXiXaXcXtXiXtXtXtXbXuXv.: V 4X/.Y.j I c yX2Xq.e.v.v.e.e.e.e.e.e.v.e.e.e.v.e.f.e.v.e.e.e.e.e.v.e.v.e.e.v.e.e.e.e.e.v.v.v.f.e.v.h.v.v.v.e.h.v.e.e.v.h.q.q.e.v.v.f.e.e.e.e.v.f.q.v.h.v.e.v.v.v.e.w.e.v.w.e.v.e.v.v.v.x.x.M.V e >.(./._ N Z b.x.v.c.b.b.x.M.c.M.M.M.x.c.v.c.b.c.M.M.b.5.9.m.b.m.c.b.v.c.v.m.c.b.b.m.b.b.m.v.c.b.c.c.v.x.r.x.c.v.c.x.c.b.M.m.c.b.m.b.c.b.c.b.m.b.c.b.b.c.b.c.c.v.c.v.c.v.c.c.c.b.c.c.c.b.m.v.f _ /./.I.G } ^ G a.N.N.m.c.b.m.m.N.N.m.N.N.N.N.m.b.c.v.9.M.m.c.N.m.m.b.m.M.m.N.c.N.m..X.Xn.c..Xc.c.c.c.m.N.m.m.b.b.b.m.b.b.m.b.b.m.m.b.m.b.N.c.|.|.c.c.b.m.N.m.b.m.b.m.b.m.m.b.m.b.b.M.M.v.k ( U.s.D 8.R.gX` Z oXA.G A ,XLXAXiXi.C k } uXKXAXAXAXsXiXZXN.l w.iXSXZXSXSXSXSXAXAXBXBXcXsXBXAXAXBXsXBXBXZXsXBXaXBXsXBXaXaXBXaX",
"5.5.5.5.5.5.5.5.5.5.5.5.5.5.} 5.5.5.} } 5.} 5.4.5.}  .} }  . . . . . . . . . . . . . . . . . .^ ^ ^ ^ ^ e > P M , E I./.E.k., 1 5.}  . .H  .H H H O.H H H H H H H ^ H V ; X ; 4 z l l v v K K v d +   c G ^ K K v D D K K  . .H K 5 ; H J H d f l f ; H ^ ^ ^  ._ } } } 5.5.5.5.5.5.5.5.5.5.5.5.5.5.5._ G h : P 2X_.^.5 5 < C Z G D D D G G D G G D G D G D D G G D D G D G G D G D D G D D G D G D G G G G ~ G ~ ~ ~ G G G G G G G G G G G G G G E G G G G G G G G G G G G G ~ H H ^ ^ H H H ^ H H H H H ~ f 8 { _.4X) N D ) ~ _ ' _ _ } ' } ' } 4.4.4.4.4.$.4.4._ ) d G 4.8.8.8.4.4.4.}  .} 4.} } } } } }  . . . . . . . . . . . . . .} } 5.4.4.4.4.} } } }  .} } } } } }  .}  . .H  . . .} } 4.} }  .4._ d $./.^.U.G D l l ^ } } }  .}  .} } }  .} } } } ^ } } ) N ~ ) _ d.4._ _ } } 5.5.5.5.5.} r.} } } }  .}  . .}  .^ } ^ _ ) _ ^ ^ ^ _ _ ^  . . .} }  . .}  . . .^ _ _ _ $.8.=.-.4.4.$.4.4.4.4.} D ^ n.F 5 0.^.[.=.N K v d , N ' 4.8.q.D c 8 D 4.r.r.r.r.5.5.c = # 9 4._ 0.5.4.9.5.5.5.5.r.5.} 5.5.5.5. . . . . .5. . .OXr.r.r.OX",
"E Q ~ ~ ~ Q ~ ~ ~ ~ ) ) ) ) ) ~ ~ ~ ~ $._ $.$.$.$._ } $.$._ _ _ } _ } $.$.4.4.$.4.$.$.4.4.=.$.#.@.) ~ Q Q R Q #.) k./.Y.Y.^.8.E N Z Z G ~ ~ ) ~ ^ ^ ) ) ) ) _ ~ ) ) ~ ) _ ~ ~ ) ) ) _ _ ) ) #.) #.#.Q ) ) @.) ) ~ ) ~ ) ) ) ~ ~ E E R Q ~ ) ~ ~ ~ ~ ^ ~ ~ ~ _ ~ G G Z ~ Z G E E ~ G G ~ G ~ G A ~ G G E C Z ~ 0./.T.Y.) ~ Z E ~ Z Z Z Z Z E Z Z Z Z C E Z Z E R C E Z Z E Z Z Z C E Z E E Z Z Z Z Z C Z Z C R R R R R R R R R R R R R ! R R R R ! R R R R R R R R R R R C R R R R R R R R R R R R R R C C R C R g.^.(.f.R M M M M M M M M M B M M M M p M p M M M M p t p M M a M M p M M a C a M M a C p M M M B a p M M M M a k p M p M M M p B k k M k k k p l k k p l k M p k k p M k M k M p M t p k h h 8.^.Y.Y.f.~ E E E R Z Z Z Z Z G Z Z E Z E Z Z Z R C R E E C E E R E ~ Z R Z Z Z Z Z E G G Z E E E R R R R R R R R a @.R R R R ! R R R R R ! R R R R R R R R R R R R R R C C C C M S M M M M M p t C T.E./.d.$.N C C Z E ~ E Q ~ R R R E Q E R E Q R Q ~ ~ ~ G E G Z E ~ E ~ Q Q Q Q ~ ) ~ ~ Q Q Q } ~ Q Q Q ~ ) ~ @.Q ~ ) ",
"C.V.C.V.V.C.C.C.C.C.C.C.C.C.z.C.C.C.C.C.M.z.C.D.M.z.M.M.z.M.M.M.M.I.M.M.M.'.I.I.I.I.I.I.I.C.I.H.'.H.C.C.C.z.I.C.H.R._.^.^./.L.z.t.u.u.0.V.V.V.M.V.z.C.M.C.C.C.M.C.C.z.M.Q.I.'.I.'.M.'.H.C.'.H.'.'.R.R.C.C.'.z.M.z.C.z.C.C.M.C.z.'.C.H.C.C.z.z.M.z.C.z.h.z.V.z.z.V.B.V.u.i.B.V.i.V.V.V.V.V.V.V.D.V.V.V.C.V.V.M.I./.Y.Y.H.z.z.V.V.V.V.C.C.V.C.C.C.V.V.C.C.V.C.C.B.V.C.V.C.C.V.C.C.V.C.V.V.C.C.C.B.V.C.V.B.C.B.C.B.B.l.C.B.B.B.B.l.C.B.B.l.C.C.B.B.C.B.3.B.B.3.3.B.B.3.3.B.3.B.3.B.3.B.3.3.B.B.3.3.3.B.3.B.B.B.B.g.'.Y.T.L.g.:.t.t.:.t.>.:.t.>.:.t.>.t.>.>.u.>.>.>.>.>.t.:.>.:.:.>.:.>.:.:.>.:.>.:.:.>.>.>.:.:.:.>.:.:.:.>.:.u.:.>.:.:.:.:.>.t.>.>.>.>.>.>.u.t.t.:.t.u.>.p.t.u.>.p.>.:.>.:.>.>.>.>.>.>.>.:.{ t.t.z.^.^.Y.Y.g.B.g.V.i.V.V.V.V.V.V.V.V.i.V.V.B.V.V.B.V.V.V.B.C.B.B.C.B.C.V.u.u.u.u.u.u.u.u.u.B.B.B.B.B.B.B.B.B.B.B.B.C.B.3.B.3.B.3.B.3.B.3.3.3.3.3.B.3.3.3.3.3.3.B.B.B.B.B.u.3.B.:.:.u.:.:.:.u.t.>.t.B.T.T.T.L.z.B.C.C.C.V.C.B.V.C.C.h.h.C.h.B.B.g.B.B.B.h.z.M.z.V.V.i.i.B.V.V.V.B.C.B.C.C.C.B.C.V.V.C.C.C.C.B.B.C.C.C.C.B.B.",
"[._.[.gX[.4X_.gX_.2X4X4XgXgXgXjXgX[.gXgX[.[.gXgX[.gXgXgXjX{.{.jX[.[.[._.[._.[._.[._._._.[._.4X4X[.gXgXgXgX[.jX{.[.[.[.[.[.[._.[.[.[._.[.[._.{.[.[.[.{.{.[.gX[.[.gX[._.[.[.4X_.gX_.[.gX[._.gX_.[.[.4X4XgXgXgX_.4X_.2X_._.4XgX4X4X[.[.4X_.gX_.[.[.4XgX[.gXjX{.gX{.gX[.[.[.[.gXgX[.[.[.[.[.[._.gX[.gXgX_._._.2X_./._././.[.{.jX_./.[._.[.[.[.[.[._.{.[._.[.[.[.[.[.[.[.[.[.[.[.[.[.[.[.[.[.[.[.[.[._.[.[.[.[.[._._._._.2X_././.4XgX4X4X4X4X4X4X4X4X4X4X4XgX4X4X4XgX4XgX4X2X4X4X4X_.[._.[._._.[._._._.[._.4X2X_.gX_.gX_._.gX_.gX[.gXgX[.gXgXgX{.gXgX_.2X_._._._._.2X4X_.4XgXgXgXgXgXgXjX[.gXgXgX_.4X[._.[._._.4X4X_.2X_._.4X4X4X4X_._.4XgX4XgX[.gXgX[.jX{.jXjXjXjXjX{.jXjXjXjXjXjX[.gX4XgX_.[.gXgX[.gXgX[.jXnX{.nX{./././.Y././.^._._././._.^._./._./._./.)._._.)._._.[.[._._.gX[.gXgX_.[.[.[._._._._.[.{.[.[._._././.2X2X2X/./.2X/././.2X/./././././._.2X2X/.2X2X2X2X_.2X/./._./._._.2XgX4XgXgXgXgXjXgXjXhXhXhXjXjXgXT./.T./._.{.[._._._.4XgX4X4X5X5X4XhXgX4XgX4XgXgXjXgXgXjXjXjXjXjXjXjXjXjX{.{.jXgX{.{._.).)._.2X4X4X4X4X2XgX_.[.gX[.[.gX",
"'.R.H.R.I.I.I.m.m.E././.T.I.M.v.M.z.z.v.z.v.z.z.x.z.z.z.z.M.M.H.I.I.I.M.M.z.M.H.M.M.H.M.C.l.z.l.z.l.l.l.l.z.z.z.z.z.z.z.l.z.z.z.z.h.h.h.h.h.z.z.z.z.H.H.H.H.M.z.h.M.v.M.z.z.z.z.z.h.z.h.z.C.z.z.C.z.C.z.M.z.z.z.L.Y./.^.L.f.v.f.z.z.z.h.z.v.z.M.z.z.z.z.z.z.z.z.H.H.I.H.I.H.H.H.I.I.H.H.I.I.H.H.z.z.I.z.M.z.z.M.z.M.M.z.I.M.z.M.I.I.H.I.I.I.R.I.I.I.I.H.I.I.I.I.I.I.H.I.I.I.H.R.I.I.I.I.H.I.I.I.I.I.I.I.I.I.I.I.M.E././.Y.m.M.M.M.M.M.I.I.M.I.M.M.M.M.M.M.M.M.M.M.M.z.M.M.M.M.M.M.M.M.b.M.M.M.M.M.z.M.I.H.I.I.M.M.I.I.M.I.M.H.M.M.M.I.M.M.I.I.M.I.I.I.I.U.I.I.I.I.I.I.I.R.I.R.R.I.I.I.I.I.I.I.I.I.I.I.I.L.I.H.Y./.^.Y.H.H.H.I.H.H.H.H.z.I.z.z.M.z.M.M.H.H.H.H.I.R.I.H.I.H.H.R.H.H.H.I.I.I.I.H.I.M.'.I.I.I.I.R.R.I.I.R.I.I.I.I.I.I.I.I.R.R.I.E.I.I.R.I.I.I.I.I.I.I.I.I.I.I.M.I.I.I.I.I.H.I.I.H.H.I.H.H.H.I.I././.(.P.E.E.R.P.R.R.L.R.L.R.R.R.P.R.I.R.R.I.K.R.K.R.R.R.R.I.R.P.R.I.I.I.I.I.I.I.I.I.I.I.I.I.I.I.I.I.I.I.I.I.R.H.I.H.H.I.H.M.M.H.M.H.z.M.M.n.I.z.M.L.n.M.M.k.M.k.M.h.h.h.g.h.g.h.0.B.g.g.z.I.(./.Y.R.L.I.I.M.z.z.z.z.z.z.h.z.",
") ) ) Q ) ~ _ } } 9.T.Y.L._ Z Z G G G D G D G G G G ~ ~ ~ ~ ~ ~ ~ ~ ~ ~ ~ ~ ~ ~ ~ ~ ~ G ~ C C C a C a C C M M M M C C C Z Z Z M M N N N N M N C Z ~ Q R E ~ G G G D G N N Z Z M Z Z C C M M M M M M M Z E E G Z $.H.^.^.d.l D Z Z Z ~ Z Z G G G G G ~ Z ~ ~ G ~ ~ ~ ~ ) ) ) ) ) ) ) ) ) ) ) ) ) ) ~ ~ Q Q E E Z G Z ~ ~ G ~ ~ ~ ) ) ) _ ) ) #.) ) ) #.) ) ) ) ) ) ) ) ) ) ) ~ ) ) ) ) ) ) ) ) ) ) ) ) ~ ) ~ ~ ~ C k.T.T.k.$.G Z G ~ ~ ~ ~ ~ G E ~ G E G G Z ~ G E ~ Z G E E G ~ ~ ~ G ~ ~ ~ ^ ~ ~ ~ ~ ~ Q E ~ ~ ~ ~ ~ ~ ~ ~ ~ ~ ) ^ ~ ~ ~ ~ ^ ~ _ ~ _ $._ $._ $.$.$.$.#.#.) #.$.#._ _ $._ ) _ $.$._ $._ $._ Q k._.^.F.~ #.) ) @.) Q ~ Q Q Z Z Z Z Z E ~ ~ ~ ) ~ ~ ) ! ~ Q ~ ) ) ) #.) #.~ ) ~ ~ ~ ~ ~ ~ ~ ) ) $.#.$.*.$.$.$.=.$.$.$.$.$.$.$.$._ $.$.$.$.$.$.&.) #.) _ ) ) ~ ) ~ ~ _ ) ) #.#.#.#.#.Q Q Q ~ 8./.T.F.$.8.d.8.d.=.=.8.=.=.=.=.=.=.=.=.$.=.*.*.*.@.#.*.*.=.=.=.8.$.$.$._ _ _ ~ ) ~ ~ ~ E ~ ) ~ ~ ) ~ ) ~ ) ) #.#.) ) ~ ~ ) ) Q Q Q E Q Q ~ ~ ~ ) _ ~ ~ ~ ~ Q ~ Z Z N N k k k e e e t e y C ~ (.Y.P.d.#.#.) ) E C C C M M M { ",
"4.4.8.9.x.b.8XNX5 C ~.^.R.8 N 6.f.x.c.m.m.c.c.w.w.w.r.r.r.5.5.5.5.4.5.4.5.6.4.4.6.4.5.5.9.9.x.x.x.x.x.8._ E W C p Z _ / ' ' 4.4.5.) N _ _ _ _ _ ) ) ) ) ) ~ ~ G G G G G G ^ 4.9.w.w.w.w.f.x.x.9.) G G N l k k h t z.^.^.$.9 D N _ ^ Z Z Z N Z Z Z N Z Z Z Z Z Z Z E / ~ ~ ) ^ ^ ' ) ^ ' ) ' ' _ ' ' ^ ' ( ' _ ' ' ' ^ ( ^ ( ( ^ ( ^ ( ^ ( ^ ( ( ' ^ ' ' ' _ ' } &.6.6.6.6.$.6.} _ $.' $.' $.} ' $.' 4.$.} _  .D < $.L.[.g.t 7 J 5.} ^ }  . .} r.c.w.x.9. . .5.5.}  . . .^ H ~ G y k N 4.r.x.r.w.r.w.w.m.c ; ^ } 9.4.4.} } 5.} } } }  .} } 5.} } } } } } _ ^ } ^ ^ G N N G G c N N G G N } } _ ^ D ^ H D H } * ' _./.f.4 4 : N J h w B  .^  .^  . .5.4.( 7.4.> 8 J 4.} 5.G k c I h - , 7 ~ M.8Xc.5.B 7.=XN.v.5.4.$.: 7 } 4.7.5.5.5.5.5.} H N l l V K H D ~ } x.m.|.$.5.v.m.P..Xw.} t 3 i w 7 i 7 3 3 3 w : z gXY.d.= , t G fXwX9.6.9.5.4.4.9.4.9.9.} 4.^ G  .8.4.4.5.5.}  .} x.^ ^ 9.r.5.P.%XzXeX%X~ f.8XZ ~ 9.P.5X=X|.c.r.w.r.x.x.P.7X5XN l B 3XzXzX3Xc.7 2 e i w w t t e y 7 _ v.M.m.P.wXwXwXwXm.t.o.8 Y./.[.) k f.x.c.f.n.n.f.n.$XwXNX",
"v.v.v.b.S.S.rXLXq N ).).R.7 ~ b.+X%X8X8X8X%X%X=X=X=X+X+X|.+X+X+X+X+X|.+X+X|.+X=X=X X+X=X X=X=X%X%X*X%X*X+XU.;X:Xb.m.m.x.9.9.+X7Xq.G ( @X=X@XT.@XP.@XU.@X@XU.@XU.@X X@X Xc..X*X%X=X%X%X*X-X0X0X0X@X+X>X} 5. XN.r.i z._./.$.0 N G 5.q.5.4.4.4.4.4.4.4.$.4.$.4.4.4.4.4.4.8.4.8.5.8.4.8.5.4.9.4.8.4.4.8.5.8.5.4.4.9.5.4.4.5.5.5.4.5.} 4.5.4.5.4.4.4.4.8.4.8.5.5.q.f.v.M.A.M.N.A.M.M.D.M.D.M.N.M.Z.M.b.D.M.b.b.b.( l < $.Y._.l.t y l l ^ c.*X#X|.|.#XtX0XtX#Xc.c.0X*X=X=X@X X X X@X;Xw.w.v.=XuXqXiXuXqXiXuXsXF = x.>X-X#X*X#X-X#X#X*X*X*X#X*X#X*X*X#X#X1X*X;X#X;X#X@XN.c.w.9.N t _ G k N ^ ^ N  .qX.Xr.-X Xr.m.#X; ^ [./.f., 4 b ].s.| X.y.a.D.D.oXD.D.<X>XD.oXS.I K u.D.oXoXD.o.J p.| e X.a. XiXBXiXiXD.oX#XoX,XQ.D.D.U J oXD.S.oXoXoXoXD.oXD.D.].s.s.D.D.s.D.a.a.Z.i.#XuXuXiXuXuX>X,X/ t w [ J Z [ N &.D.b.: z jXR.d.4 ].N.8 U LXiX0Xb.w.v.c.b.b.m.b.M.b.w.5.b.M.c.m.N.b.c.w.c. Xr.e..XN.N.=X+X8XqX+Xq.U.=XZ.e.M.m.+X+X|.|.c..X.Xm. X$X%X$Xa.e.D.uXzXcX-Xc.G G | ~ Z k k k k N ' 5.x.f.x.m.%X3X7X2X7XyXO.< T.Y.[.) k q.N.|.&X*XrX7XrXrXcXVX",
"N.N.N.N.N.M.8XFXf Z `.).R.7 4.sXCXCXDXDXCXVXCXCXVXVXCXCXCXFXDXDXDXDXCXDXCXCXCXCXCXCXCXCXCXVXVXNXNXNXVXVXVXCXCXGXHXDXDXFXzX0XHXPXO.G D.DXDXFXVXFXFXFXDXFXFXDXDXDXDXDXDXDXDXCXCXCXCXVXCXCXVXVXNXVXCXZXJX*XcXPXJX9Xr z._.(.) 0 F ' m.+X$X$X+X$X+XP.+XP.+X+X+X+XP.P.+X+X+X+X+XP.+XP.P.+XP.+XP.P.+XP.P.+XP.+XP.+XP.+XP.P.+Xm.|.m.|.N.|.m.N.|.m.|.|.P.P.+X+XP.P.P.P.P.P.m.P.m.P.m.P.m.P.m.m.m.P.m.m.P.P.m.P.m.P.P.F 8 8 $.R._.g.t e 7 ; N.sXPXCXNXNXNXCXVXVXeXzXpXVXCXDXVXCXDXDXZXCXCXCXGXCXCXNXNXNXNXNXNXNXHXN = tXVXCXCXNXVXVXVXNXCXVXVXCXVXVXVXVXVXNXNXNXNXNXVXNXNXVXCXVXGXX.n LX@XJ X.s.=Xx Y UXUXNXGXGXpXJXJX; _ 4X/.k., 8 O.yX=X.X:X@X@X;XU.:X@X&XcXcX7X@XS.Q.XX@X X X X XXXV.U.7XM.yXIXcXzXcXNXBX@X@X X.Xb.S.A.S.U.;XN.N.N.A.A.N.N.XXN.XX@X@X@X;XXX;X X1X XA r & DXKXwX=X$X%X*X>Xt.' [ q.A.S.;X XLXUXPX2 r kXY.j.V fXIX% > FXPXPXm.m.m.n.m.n.m.P.P.P.m.n.m.+X+X+X|.|.|.|.+X|.m.|.|.m.+Xm.c.v.n.n.n.n.x.P.+Xm.n.x.c.c.n.c.m.n.+XP.m.c.c.+X=X$Xm.|.%X+Xm.+X+X+X|.c.| ~ [ | 4.m.m.+X&X+XP.m.n.n.n.T.FX~ = L./.).' t 4.n.|.%XeXNXVXVXVXVXVX",
"Q.S.S.Q.S.N.&X7X< k `._.^.t G oXBXpXeXzXzXzXzXzXNXzXzXNXNXpXpXpXeXpXzXwXzXtXeXwXzXcXeXcXzXeXeXtXpX9X9XwXeXwXeXeXwXzXzXzXcXzXzXNX8X%XqXeXeXcXzXzXwXzXcXcXzXcXcXzXeXzXzXeXeXzXzXzXzXzXNXzXzXNXzXeXzXeXeXwXeXpXpX=Xy z._.E.) q F 7.n.x.f.f.x.x.x.n.n.n.n.x.n.n.x.n.n.f.x.x.x.f.x.x.x.x.n.x.x.x.n.x.x.n.x.x.n.x.x.n.n.x.x.x.x.x.x.x.x.x.x.w.x.x.x.x.x.x.x.x.n.x.n.x.n.x.x.x.x.n.M.n.m.m.m.m.M.n.m.m.n.n.n.x.x.n.J h 8 =.R._.g.p e e 5 5.iXCXVXNXeXeXeXeXeXwXwX9XwXeXeXzXzXzXNXeXNXeXeXeXeXeXeXeXeXeXeXeXeXNXx.y.BXzXzXzXNXeXeXNXpXzXeXeXeXeXeXeXeXwXeXeXeXeXeXeXwXeXeXwXwX9XAXcXNXwX9XtXcXBX9X8XNXeXeXeXeX9XpXeX5 ' [./.k., 5 x b.N.OXD.A..XXXN.A. Xb.VXFXVXVXcXS.b.b.b.A.N.N.A.A.A.A.A.N.N.D.Z.a.S. XS.N.U.N.N.M.M.M.D.A.v.v.b.M.b.b.N.N.A.A.A.S.A.S.N.A.N.Z.$.7 k J q.@X8X*X=Xm.N. XA.A.D.S.oXS.S. X%XbXCX: 9 hXY.j.d Q.FX5Xx.- q.P.n.N.m.c.m.m.m.m.m.m.m.n.n.P.m.n.c.c.m.m.m.n.m.m.c.c.c.m.m.m.m.m.m.n.m.n.m.m.m.n.n.m.m.m.m.m.n.n.m.m.m.n.c.n.c.c.|.m.m.m.m.m.m.n.n.n.c.c.n.m.N.m.m.m.P.m.P.P.m.x.+Xl = T./._.` y c N.wXwXzXcXzXzXzXzXcX",
"U.S.;XU.;XS.E.&X; k ^.^.(.z N ^ NXpXwXzXzXzXzXzXzXNXzXpXNXeXpXeXeXeXeXzXwXzXcXzXwXcXeXeXcXeXeXeXpXeXeXtXeXpXwXeXwXzXzXzXcXzXzXzXNXNXeXzXzXzXcXcXzXcXzXzXzXzXcXzXcXzXcXzXzXzXzXzXzXzXNXNXzXNXeXNXNXeXeXpXpXpXpX=Xr z._.Y.) 9 D X.m.x.x.f.x.x.x.n.x.n.x.n.x.x.n.x.x.x.x.x.x.f.x.x.x.M.n.n.n.M.n.n.n.n.M.n.n.M.n.n.n.M.m.x.x.c.v.x.c.c.c.c.v.c.c.n.n.n.n.m.m.M.M.n.n.x.x.x.n.x.x.M.c.n.x.M.x.M.c.n.n.M.n.m.M.n.&.M 8 =.R._.j.M 8 e j c.tXVXNXNXeXeXeXwXeXeXeXeXpXeXeXzXzXNXeXeXeXeXeXeXeXeXeXeXeXeXeXeXeXeX-X>XzXzXzXeXzXeXzXeXzXeXeXeXeXeXeXeXeXeXeXzXeXeXeXeXeXeXeXeX9XwXNXVXeXNXNXNXNXNXNXpXeXeXeX9X9X9XpXaX8 $.[./.f., 8 I *X@XS.Z.s.A.A.XXXXb.A.zXVXFXFXcXoXD.S.S.S.S.S.XXA.A.A. Xb.N.Z.a.a.D.A.S.S.S.N.N.N.S.S.S.S.A.A.A.S.A.A.A.N.N.S.S.N.N.N.N.N.N.x.~ 2 A i.V.N.0X0X0X@X X XS.N.N.S.S.S. X@X@X:X$X: j jXR.d.0 S.IXFX%X% H m.m.m.m.m.m.m.m.m.m.m.m.m.m.P.m.n.n.m.c.m.m.m.m.m.m.n.m.m.m.m.m.m.m.m.n.m.m..Xm.n.n.U.P.P.m.L.m.m.m.m.m.m.m.m.m.m.m.m.m.|.m.|.m.m.|.|.m.n.m.m.m.m.m.m.m.m.m.P.m.m.n.h * T.^._.) k h n.CXzXcXVXcXNXcXVXcX",
"S.S.;XS.U.D.E.(.< k /./.E.z G q.pXwXpXpXpXeXpXpXeXeXpXeXeXzXzXzXpXpXNXNXNXNXpXNXpXNXNXpXNXeXeXeXeXzXpXBXNXNXNXBXNXzXzXeXeXzXeXeXeXeXpXeXzXzXzXzXcXzXzXzXzXzXzXzXzXzXzXzXzXzXNXNXNXNXNXNXNXNXeXpXNXNXpXpXpXpXaXc.r './.E.) 6 z ( n.x.x.x.n.c.n.n.n.x.n.x.x.n.x.n.n.x.x.x.n.f.n.x.x.x.x.x.x.n.n.x.x.x.x.x.x.n.x.x.x.x.x.x.x.x.x.x.x.x.x.w.x.x.x.x.n.x.n.x.x.M.m.n.n.M.n.n.x.n.x.n.n.x.n.n.n.x.x.n.n.x.x.n.n.x.z.Q 2 =.^._.z.Z e 8 < qXCXzXeX9XwXwXwX9X9XeXwXeXeXeXeXeX9XwX9XwX9X9X9XwXeXwXeXeXeXeXeXeXeXwXeXzXzXzXeXeXeXwXeXeXeXeXeXeXeXeXeXeXeXeXeXeXeXeXwXeXeXzXeXeXzXeXwXeXeXzXeXeXeXeXeXpXeXpXeX9XeX9XNXBXh =.4X/.f., 7 { UXrXC.S.A.A.A.A.XXA.A.=X%X-X&X@XS.A.S.S.N.A.N.N.S.S.S.D.S.D.A.S.XXS.XXD.S.S.S.N.S.S.S.U.Q.A.A.A.N.A.N.N.N.S.S.S.S.S.A.A.A.b.HXmX3 ` &.m.:XA.8X9X7XA.a.XXA.A.XXN.A.@X#Xp.A 3 4 N gXR.,.: t.wX3X7Xw.x.x.m.m.n.n.m.n.m.n.P.P.|.m.P.m.m.m.m.m.m.m.m.m.m..Xm.m.m.m.m.m.P.|.m.m.m.m.m.+XP.m.m.m.m.m.m.m.m.m.m.m.m.m.m.|.m.m.m.m.|.m.m.m.m.m.|.m.m.m.m.m.m.m.m.m.m.m.m.m.L.M.n.k * T./._.` t I.tXVXzXcXVXzXVXzXcXVX",
"S.Q.S.U.S.A.U.yX< N /._.^.e Z Z.NXeXpXpXpXpXpXpXeXeXeXpXNXeXzXzXpXpXNXpXpXNXpXNXpXpXpXpXeXeXeXNXpXeXzXeXzXpXeXeXeXzXeXzXeXzXeXeXeXeXNXpXzXNXzXzXzXzXzXzXzXzXzXzXzXzXzXzXzXNXzXzXzXzXzXzXNXpXNXeXpXpXpXpXpXpXpXm.r M./.L._ j D t.+Xn.n.n.c.n.c.x.x.n.x.n.n.c.n.x.n.n.x.n.n.x.n.n.n.c.n.n.n.x.x.x.n.n.n.x.n.x.n.c.x.n.x.x.x.x.x.x.x.x.x.x.w.x.x.x.x.x.n.x.x.c.m.c.x.x.n.x.n.x.x.n.n.c.n.x.n.n.n.c.n.n.n.n.n.x.I.$.4 =.R._.k.Z 7 N 4.8XNXeXeXwX9X9X9XwXeXwXeX9XwX9X9XwXwXeXeXwX9XwXwX9X9X9XeXwXeX9XeXeXeXeXeXwXzXwXeXeXeXeXeXeXeXeXeXwXeXeXeXeXeXeXwXeXeXeXeXeXeXeXeXeXeXeXeXzXzXeXeXeXeXeXeXeXpXeX9XeXeX9XNXeXj 4._._.d., 7 h *XU.A.A.S.S. XXX XN.A.N.N. X XN.A.N.A.S.S.N.S.S.S.Q.Q.S.S.Q.S.S.D.S.S.S.S.Q.U.S.S.S.S.S.S.S.S.N.A.N.S.N.A.N.S.S.S.N. XcX8X#XuX9.i C $.U. XN. X|. XS.A.N.XXXXXXXXS.@X@Xv.i.( 2 z gXR.j.: ' 2XP.P.x.x.n.m.m.m.m.m.n.n.n.m.m.m.m.L.m.m.m.n.n.m.m.n.m.n.m.m.n.m.n.m.m.m.n.m.m.|.m.L.m.m.P.m.m.P.m.m.m.m.m.m.m.m.m.m.m.P.m.m.m.m.m.m.m.P.m.m.m.m.m.m.m.m.m.n.m.m.L.m.m.m.n.LX( * T./._.) M U.bXzXzXVXzXVXzXVXcXVX",
"Q.XXQ.XXS.U.Q.yX< N _._.^.r ~ ;XNXeXeXNXNXpXpXpXeXpXNXpXpXpXpXeXzXNXeXNXNXpXzXzXzXeXpXeXeXNXeXeXzXeXzXeXeXNXeXNXzXzXzXzXzXeXeXeXeXNXeXpXNXeXeXzXzXzXzXzXNXeXNXeXzXzXzXzXNXeXzXeXNXeXeXzXeXNXNXpXeXNXNXpXNXNXBX+Xy z.2XL._ x ~ 7.P.m.n.n.n.n.n.n.n.n.n.n.c.n.n.n.n.n.n.n.n.n.n.n.n.n.n.n.n.n.n.n.n.n.n.n.n.n.n.n.n.n.c.n.x.x.x.x.x.x.c.x.c.x.x.n.x.n.n.n.n.n.n.n.n.n.n.n.n.n.n.n.n.n.n.n.n.n.n.n.n.n.n.n.n.n.P.4.4 =.R.2Xk.Z 7 ^ LXcXeXeXeXwXeXwXeXeX9XeX9XeXeXeXeX9XeX9XwXwXeXwX9XwXeX8XeXeXeXeXeXeXeXeXeXeXeXeXeXeXeXeXeXeXeXeXeXeXeXeXeXeXeXzXeXeXeXeXeXeXeXeXzXzXeXzXzXwXwXzXzXeXeXeXeXzXeXeXeXeXeX9XNXNXh $._./.j., 8 4 } XX X XA.OXA.XX XXXA.A.A.A.A.N.A. XN.S.S.S.S.S.S.U.S.S.S.S.U.S.S.S.XXS.S.S.S.S.Q.XXS.S.S.S.N.XXN.S.S.S.S.S.S.A.N. X XHXZX|.~ t B ' Z.;XQ.XXA.A.XXA.N.A.S.S.N.S.S.N.N.N.S.v.4 B gXR.1.: ' 2Xm.m.m.n.n.n.m.m.m.m.m.n.m.m.P.m.m.m.m.P.m.m.m.m.m.m.m.m.m.m.m.m.m.m.m.P.P.m.P.m.m.m.m.P.m.m.P.m.m.m.m.m.m.m.P.m.m.m.m.P.m.m.m.m.m.P.m.P.m.m.m.m.m.m.m.m.m.m.m.m.P.m.m.n.L.IX| * Y.T._./ k @XcXzXzXcXNXVXcXzXVXVX",
"oXXXQ.S.Q.N.D.:X< M /./.R.r Z D.eXeXeXpXpXzXpXeXpXeXwX+X=X8XtXeXpXpXpXpXpXeXNXeXeXNXeXNXzXeXNXNXzXzXzXzXzXzXpXeXzXeXzXzXzXeXNXzXzXeXzXzXzXeXNXeXzXzXzXzXeXzXeXNXzXzXzXzXeXeXNXNXeXzXeXNXzXzXeXzXeXzXzXeXeXpXcX$Xu I./.U._ I ( N H e.n.x.c.m.n.n.n.n.n.n.n.n.n.n.n.n.n.n.n.n.n.n.n.n.n.n.n.n.n.n.n.n.n.n.n.n.n.n.n.n.x.n.c.c.x.x.c.n.x.c.c.c.n.c.n.n.n.n.n.n.n.n.n.n.n.n.n.n.n.n.n.n.n.n.n.n.n.n.n.n.n.n.n.x.P.4.2 =.Y.2XM.Z & N KXwX9XeX9XeX9XwXwXeXeXwXeXeXwXeXeXwXeXwXeX9XeXeXeXwXeXeXeXeXeXeXeXeXeXeXeXeXeXeXeXeXeXeXeXeXeXeXeXeXeXeXeXeXeXwXeXeXeXeXeXeXeXeXeXeXzXeXeXzXeXzXeXzXeXzXpXeXeXeXeXeXeXeXpXaXr $._._.j., 0 4 F s.oXA.A.A..XA..X XA. X XA. XA.A.A.S.S.S.S.S.S.S.S.U.S.S.S.S.S.XXS.XXXXS.U.S.S.S.S.S.S.S.S.A.S.N.S.S.S.S.N.S.S.S.N.N.FXcXx.v.' ` S.U.U.XXS. X XA. XXXS.S. XN. X XS. XN.oXN.: y hXR.j.> ( =Xn.L.m.m.m.n.m.m.m.m.m.m.m.m.P.m.P.m.m.m.m.m.m.m.m.m.m.m.m.m.m.m.m.m.m.m.m.m.P.m.m.P.m.m.P.P.m.m.m.m.P.m.L.P.m.m.L.m.m.m.m.m.m.m.P.m.m.m.m.m.m.m.m.m.m.m.m.m.P.m.m.m.m.L.$XIX4.* Y./._./ k =XbXFXzXVXzXcXVXVXVXcX",
".X|.N.S.M.;XM.M.< N /.).`.7 ~ @XzXeXzXzXzXeXzXNXpXeX9X8X%X9X9XeXeXNXzXNXeXpXzXzXNXeXzXeXNXeXzXeXzXeXeXzXzXeXeXNXeXzXNXeXzXzXNXeXzXzXNXeXNXeXeXNXzXzXzXeXNXeXzXeXeXzXzXeXNXeXzXeXzXeXeXzXzXeXeXzXNXeXzXeXNXeXaX%Xa './.U._ [ J D } Z N x.n.n.c.n.n.n.n.n.n.n.n.n.n.c.n.n.n.n.n.n.c.n.n.n.n.n.n.c.n.n.n.n.n.n.n.n.n.n.n.c.n.n.x.n.c.c.n.n.x.n.c.n.x.n.n.n.c.n.n.n.n.n.n.n.n.n.n.n.n.n.n.n.n.n.n.n.n.n.n.n.n.n.m.4.4 $.R.2Xh.M e s.VXeXeXeXeXeXeXeXeXwXeX9XwXeXeXwXeXwXeXwXeXeXwXeXwXeX9XwXeXeXeXeXeXeXeXeXeXeXeXeXeXeXeXeXwXeXeXeXeXwXzXeXwXeXeXeXeXeXeXeXeXwXeXeXzXeXzXzXzXzXeXzXeXzXeXeXeXzXpXeXeXeXpX9XpXtXe =._./.z.: h J XXoXXXA.oXXXXX X=X XA.A.A.A.A.A.A.N.S.S.S.S.S.S.S.S.U.S.S.Q.S.S.S.XXS.S.S.S.S.S.S.S.S.S.A.N.N.S.S.S.S.S.S.S.XXQ.U.N.N.wXyX_ 4.s.Z.D.N.XXXXA.XXA.XXA.A.N.A.A.A. XA. XN.N.S.A.2 z hXY.1.> o.8Xn.m.m.m.m.m.m.m.m.m.m.m.m.m.m.m.L.m.m.m.m.m.m.m.m.P.m.m.m.m.m.m.m.m.m.m.m.m.m.L.m.m.m.m.m.m.m.m.L.m.m.m.m.m.m.m.m.P.P.m.P.m.m.P.m.m.m.P.m.m.m.m.m.L.n.m.m.P.m.m.m.P.m.n.m.bX( * Y.T._.' k G @XbXeXeXVXzXNXVXNXVX",
"-X.XU.S.S.@Xv._ ; N /.).`.9 9.bXzXzXzXzXzXzXNXNXNXNXCXCXCXpXNXeXNXpXpXpXeXNXpXzXzXzXzXeXeXNXzXeXeXNXNXeXeXNXNXeXeXzXeXzXNXeXeXzXNXeXeXzXeXzXzXeXeXzXzXzXzXzXzXeXzXzXzXeXzXzXzXeXeXNXNXeXeXNXNXeXzXzXzXeXeXzXpX+Xy M._.P.$.A 7.D.0Xj % x.m.n.n.m.n.n.c.n.n.n.n.n.n.n.n.n.n.n.n.n.n.n.n.n.n.n.n.n.n.n.n.n.n.n.n.n.n.n.n.n.n.n.n.n.n.n.n.n.n.n.n.n.n.n.n.n.n.n.n.n.n.n.n.c.n.n.n.n.n.n.c.n.n.n.n.c.n.n.x.n.n.x.P.4.2 =.Y.2Xz.M 5.iXFXNXeXeXeXeXwXeXeXeXeXeXeX9XeX9XeXeXeX9X9XeX9XeXeXeXeXeXeXeXeXwXeXeXeXeXeXeXeXeXeXeXeXeXeXeXeXeXeXeXeXeXeXeXeXeXeXeXeXeXeXeXeXzXeXzXeXwXwXzXzXwXzXeXzXeXzXeXeXeXeXeXpXeXNXzX7 $._.^.j.; G ;XLX8XoXA.A.A.b.XX%X#XA.A.A. X XA. XA.N.S.S.S.S.S.A.Q.S.S.S.S.S.S.S.S.XXXXXXS.U.S.S.U.S.S. XS.S.S.N.S.S.S.S.S.S.S.U.N.N. XC.a M  .XXXXA.XXXX.XA..XA..X XA. XA. XN. XN.N. XA. .4 B gXR.j.0 o.8Xn.m.m.L.L.m.m.m.m.m.m.m.n.L.m.P.m.m.m.L.m.P.m.m.m.m.P.m.P.m.m.m.m.P.m.m.m.L.m.m.m.m.m.L.L.m.m.P.m.m.m.L.m.m.m.L.m.m.m.m.m.m.m.m.m.P.m.P.P.m.m.m.m.m.L.m.m.m.m.L.m.m.P.f.4.G 8 ; L./._.) e 6 N e.f.%XVXVXVXcXmXVX",
"dXOX XS.M. XA.Z.< N /.).~.9 _ ;XzXzXzXzXpXpXzXpXNX9X=X+X=XpXpXNXeXeXpXNXNXzXeXzXeXNXeXNXzXeXzXNXNXeXNXzXNXeXNXzXzXeXNXeXeXzXeXzXeXzXeXzXNXzXeXNXzXeXzXeXeXNXeXNXeXNXeXNXeXNXeXNXzXNXeXzXzXNXeXzXeXNXeXNXNXzXaXc.u '.2XE.$.]  .s.O.} $.x.n.c.n.n.m.n.n.n.n.n.n.n.n.n.n.n.n.n.n.n.n.n.n.n.n.n.n.n.n.n.n.n.n.n.n.n.n.n.n.n.n.n.n.n.n.n.n.n.n.n.n.n.n.n.n.n.n.n.n.n.n.n.n.n.n.n.n.n.n.n.n.n.n.m.n.n.n.n.n.n.n.n.m.4.4 $.R./.M.M l r.VXwXeXeXwXeXeXwXwXeXwXeXeXeXqXeX9XeXeXeX9XeXeXwX9XeXeXeXeXeXeXeXeXeXeXeXeXeXeXeXeXeXeXeXeXeXeXeXeXeXeXeXeXeXeXeXzXwXeXeXeXeXeXeXzXeXzXzXzXeXzXzXeXzXzXeXeXzXpXeXeXpXeXeXNXtX7 =._.).j.: 8 U  Xb.b. XXXXXXX.X=X.Xa.XXXXb.XXN.N.A.S.S.S.N.S.S.S.S.U.S.N.S.S.S.S.N.S.S.N.N.S.S.N.S.S.S.S.S.S.S.A. XS.S.S.S.S.S.N.S.A.XXD.M.7.} r.A.N.XXXXA.A..XA..XXXN.S.S.S.S.N.XXXXN.S.v.: e gX^.j.& ` +Xn.m.P.m.m.m.m.m.m.m.m.m.m.m.P.m.m.m.P.m.m.m.m.m.P.m.L.m.m.P.m.L.m.m.m.m.m.P.m.P.P.m.P.m.m.m.P.m.m.m.P.m.P.m.P.m.P.m.L.m.P.m.L.m.m.L.m.m.m.P.m.P.m.m.m.m.P.m.P.m.m.m.m.n.n.$XN - Y.^.2X' M iX&X8.%XwXVXzXNXVXVXVX",
"dXOX XN.S.XXD.D.0 Z _._.^.7 Z c.zXzXeXzXeXeXeXNXpXeX%X+X0XNXpXeXpXNXNXeXpXpXNXeXNXeXzXeXeXNXzXeXeXzXeXzXeXzXeXzXzXzXeXNXNXeXNXeXNXeXNXeXeXzXNXeXzXzXzXzXNXeXzXeXNXeXzXeXNXeXzXeXzXeXNXeXzXeXNXeXNXeXzXeXeXzXqX|.y C._.Y.#.L K c l q.L.c.n.m.n.c.c.n.n.n.n.n.c.n.n.n.n.n.n.n.x.n.n.n.n.n.c.n.n.n.n.n.n.x.c.n.n.n.n.c.n.n.c.n.n.n.n.n.n.n.n.n.n.c.n.n.n.n.n.n.n.n.c.n.n.n.n.n.n.x.n.n.n.c.n.c.n.n.n.n.n.n.x.x.T.4.: $.L._.z.k e i.DXeXwXwXeXeXeXeXeXeX9XeXeXeXeXeXwXeXeXeXwXeXeXeXeXwXeXwXeXeXeXeXeXeXeXeXeXeXwXeXeXeXwXeXeXeXeXeXeXeXeXeXeXeXeXeXeXeXeXeXeXeXeXeXzXeXeXzXwXzXzXwXzXeXeXzXeXeXeXeXeXeXeXeXzXeX7 $._.`.d.: 8 T oXN.XXXX.X XXXA.#XXX.Xb.XXA.A.N.A.S.S.S.S.S.S.N.Q.S.S.S.S.S.N.S.S.N.XX XS.S.S.U.S.S.N.S.S.S.S.S.S.S.S.S.S.S.S.S.@XS.XXA.S.Q.A.a.A.XXA.XX XXXA.A.XXA.N.S.S.S.S. X XA.N.N.S.Q.: r 4XR.F.& N P.m.m.m.m.m.m.m.m.m.m.m.m.m.m.m.m.P.m.m.m.m.P.L.m.m.m.m.m.m.m.m.m.m.P.m.L.m.m.m.m.m.m.m.m.m.m.m.m.P.m.m.m.m.m.m.m.m.m.m.m.m.m.m.m.m.m.m.m.m.m.m.m.m.P.m.P.m.m.m.m.P.m.n.L.m.2XG - Y.T._.) M %XiXiXZXZXcXVXcXVXzXcX",
"M.A.N.M.S.N.D.D.5 Z /.).Y.r A ,XNXzXeXzXeX8XeXeXeXNXNXNXNXNXNXeXpXeXNXpXpXpXNXeXzXeXNXeXeXzXNXeXzXeXzXeXzXeXzXeXzXzXeXzXzXzXeXzXNXeXNXeXeXNXzXeXeXNXeXNXNXeXzXzXzXeXNXeXzXeXNXeXeXzXeXNXeXzXeXNXzXzXeXzXeXpX9X|.9 '.4XY.#.U n : 4 ' L.x.n.x.x.n.n.x.c.n.x.n.x.c.c.c.x.n.c.n.x.n.n.x.n.x.n.c.c.n.x.n.x.n.x.n.c.c.n.x.n.x.n.n.x.n.n.c.n.c.n.x.x.n.x.n.x.n.x.n.c.n.c.x.n.x.n.x.n.c.x.n.c.x.n.c.x.n.c.c.n.|..Xx.hXM.* #.R._.z.k w s.DXzXwXwXeXeXwXeXeXeXeXeXeXeXeXwXzXeXeXeXeXeXeXeXeXeXeXeXeXeXwXeXeXeXeXeXeXeXeXeXeXeXeXeXeXeXeXeXwXeXeXeXeXeXeXeXeXeXeXeXeXeXeXeXeXwXeXeXeXwXeXeXeXeXeXeXeXeXeXeXeXeXeXwXNXeX7 $./.`.d.; e ..S.S.XX XXX.XA.XXS.A.A.S.S.S. XS.S.S.S.S.S.S.S.N.XXA.S.S.S.S.S.S.N.N.S.S.S.S.A.N.S.S.S.S.S.N.S.N.A.N.N.S.S.S.XXN.S. XS.A.S.S.A.XXA.A. XA.A. XA. XXXN.S. XA. XA. XA. XS.U.D.&.; j 5XY.j.; ( 3Xn.m.m.m.m.m.m.m.m.m.m.m.m.m.m.m.m.m.m.m.m.m.m.m.m.m.m.m.m.m.m.n.m.m.m.n.m.m.m.m.m.m.m.m.m.m.m.m.m.m.m.m.m.m.m.m.m.m.m.m.m.m.m.m.m.m.m.m.m.m.m.m.m.m.m.m.m.m.m.m.m.m.n.m.L.%XG ; Y./._._ k X.iXDXzXVXcXVXVXcXVXcX",
"S.N.S.A.S.N.S.S.5 Z ).).`.8 ~ >XBXzXeXpXeX8XeXNXzXzXeXeXeXpXeXNXpXNXeXzXzXNXeXzXeXNXeXzXNXzXeXzXzXNXeXNXzXNXeXNXeXeXNXeXeXeXNXzXeXzXeXNXNXeXzXNXzXeXzXeXeXNXeXeXeXNXeXzXeXNXeXzXNXeXNXeXNXeXNXeXeXeXNXzXNXpX-X} r I._.Y.#.U P 7 e 4.m.n.n.c.n.x.n.n.x.x.n.c.n.n.n.x.n.c.n.x.x.c.x.n.c.n.x.n.n.x.n.c.x.c.n.c.x.n.x.n.c.n.c.x.n.c.x.c.x.n.x.n.c.n.n.c.n.c.n.x.n.x.n.n.c.n.c.n.n.x.n.c.x.n.x.n.c.n.n.n.x.} ( D FXbX> #.K._.v.N 2 ' DXeXzXwXeXeXeXeXeXeXeXeXeXeXeXeXeXeXwXeXeXeXeXeXeXeXwXeXeXeXeXeXeXeXeXeXeXeXeXeXeXeXeXeXeXeXzXwXeXeXeXeXeXeXeXeXeXeXeXeXeXeXeXeXeXeXeXeXeXeXeXeXeXeXeXeXwXeXeXeXeXeXeXeXNXaX7 $._.^.d.: h o.XXXX XXXXXA.A.N.N.S.A. XS.S.A.S.S.S.S.N.S.N.S.S.N.N.S. XS.S.A.N.A.XXS.S.S.S.N.S.S.S.N.S.S.S.S.XXS.S.S.S.S.S.N.A.N.S.S.S.S.S.S.S.N.A.N.S. XA. XA.XXN. XA. XA.N.XX XA.S.U.Q.h., j 5XR.j.: ].cXm.m.m.m.m.m.m.m.m.m.m.m.m.m.m.m.m.m.m.m.m.m.m.n.m.m.m.m.m.m.m.m.m.m.m.m.m.m.m.m.m.m.m.m.m.m.m.m.n.m.m.m.n.m.m.m.m.m.m.n.m.m.m.m.m.m.m.m.m.m.m.m.m.n.m.m.n.m.m.m.m.m.n.m.n.3XG - Y.^./.' k A.SXVXcXcXVXcXcXVXcXVX",
"A.S.A.N.S.D.N.;X0 G _.).Y.9 ~ <XNXzXeXeXeX8XeXzXzXeXNXeXeXzXNXeXpXNXpXpXNXeXNXeXNXeXeXzXeXNXeXzXeXNXNXeXeXNXNXeXNXeXeXNXNXeXNXeXzXzXzXeXeXzXzXeXzXeXeXNXzXeXeXNXNXeXeXzXNXeXeXzXeXzXzXzXeXzXzXzXNXeXNXeXeXNX1X} r C._.R.#.I V 7 F f.m.x.c.x.c.n.c.x.c.n.x.n.n.x.n.n.c.n.n.c.n.c.n.c.n.x.n.n.x.c.n.x.n.x.x.n.c.n.n.x.n.x.c.n.x.n.x.n.c.n.n.x.n.n.c.n.x.n.c.n.c.n.c.x.n.x.c.n.x.n.x.n.x.n.n.x.n.c.c.n.x.K d 4 FX3X* $.Y./.h.N 2 G DXeXeXwXcXeXeXwXwXeXeXwXeXeXzXwXeXeXeXeXeXeXeXeXeXeXeXeXeXeXeXeXeXeXeXeXeXeXeXeXeXeXeXeXeXeXeXeXeXeXeXeXeXeXeXwXeXwXeXeXeXeXeXeXeXeXeXeXeXeXeXeXeXeXwXeXeXeXeXeXeXeXeXeXzXcX4 $./.^.d.; e o.;X XXXA.XXXXN.A.A.A.A.S.S.S.S.S.S.S.S.S.S.A.S.S.S.S.S.A.S.S.N.S.S.N.S.S.N.S.S.S.S.S.XXN.S.S.S.S.S.S.S.S.N.N.S.S.S.S.S.N.S.S.N.S.S.S.XXS.N. XA. XN. XA. X XA.N.A. X XA.U.Q.Q., f 5XT.k., Z.xXm.m.m.m.m.m.m.n.m.m.m.m.m.m.m.m.m.m.m.m.m.m.m.m.m.m.m.m.m.m.m.m.m.m.m.m.m.m.m.m.m.m.m.m.m.m.m.m.m.m.m.m.m.m.m.m.m.m.m.m.m.m.m.m.m.m.m.m.m.m.m.m.m.m.m.m.m.m.m.m.m.m.m.m.m.8XG : Y././.' M v.BXCXcXVXcXVXVXcXcXVX",
"N.A.N.M.N.N.@X;X5 Z ^._.R.h N s.NXeXeXNXeXwXeXNXeXNXeXNXeXzXeXzXNXeXNXeXNXpXeXNXzXzXNXeXzXeXNXeXNXeXeXzXzXeXeXzXeXNXNXeXzXzXeXzXNXeXzXeXNXeXzXeXeXNXzXzXeXNXzXzXzXzXNXeXzXzXNXeXeXzXeXNXeXzXzXeXzXzXeXzXzXeXCX%Xi '.4XR.) U x k c.M.m.n.c.n.n.x.c.n.n.x.n.c.c.n.c.x.n.x.x.n.x.n.x.c.n.c.c.x.n.n.c.c.n.n.n.x.n.x.c.n.c.n.n.x.n.c.n.n.x.x.c.n.c.x.x.n.x.c.n.x.n.x.x.n.c.n.n.x.n.c.n.c.n.c.c.n.x.n.n.x.c.5.4.4.4.D * $.R.).h.M : N cXwXeXcXeXwXzXcXzXeXeXzXeXeXeXeXeXeXeXeXwXeXeXeXeXeXeXeXeXeXeXeXeXeXeXeXeXeXwXeXwXeXeXeXeXeXeXeXeXeXeXeXeXeXeXeXeXeXeXeXeXeXeXwXeXeXeXeXeXeXeXeXeXeXeXeXeXeXeXeXeXeXeXeXNXzX4 #.`.^.8.; h o.;X X.XXXA.b.A. X XS.N.S.S.S.S.N.S.S.S.S.S.N.N.S.S.S.S.N.S.S.S.S.S.S.S.S.S.S.S.S.S.S.A.N.S.S.S.S.N.S.S.S.S.A.N.S.S.S.S.S.S.S.S.S.S.S.A.N.XXN. XA. XA. XA. X XXX X XA.S.A.| U : j 4XE.j.: O.=Xn.m.m.m.m.m.m.m.m.m.m.m.m.m.m.m.n.m.m.m.m.m.m.m.m.m.n.m.m.m.m.m.m.m.m.m.m.m.m.m.n.m.m.m.m.m.m.m.m.m.m.m.m.m.m.m.m.m.m.m.m.m.m.n.m.m.m.m.n.m.m.m.m.m.m.m.m.m.m.m.m.m.n.m.m.3XH ; ^.^._.' h 9 <XDXNXcXzXVXcXVXVXVX",
"N.M.N.N.N.M.N.;X5 E /.).Y.d M s.NXzXeXzXeXeXzXeXzXeXeXeXpXeXeXzXeXpXNXeXNXeXpXeXeXNXeXzXzXzXeXzXeXNXeXzXeXzXeXzXzXeXzXzXzXzXzXzXeXeXNXeXeXNXeXNXzXNXeXNXeXzXzXzXeXNXeXzXeXNXeXzXNXeXzXeXzXzXeXzXeXNXeXzXNXeXVX%X0 '.2XY.#.I V F c.c.n.n.c.n.x.n.n.c.n.x.n.c.n.x.x.n.x.c.n.c.n.x.c.n.x.n.x.n.x.c.n.x.n.x.n.c.c.n.n.c.n.c.x.n.c.n.c.n.x.n.x.c.n.n.n.x.n.x.n.c.n.c.n.c.c.n.x.n.x.n.c.n.x.n.n.c.n.c.c.n.n.x.w.v.m.) % #.Y./.z.N : N cXzXeXeXeXeXeXeXeXeXeXeXwXeXeXeXeXeXeXeXzXeXeXeXwXeXeXeXeXeXeXeXwXeXeXeXeXwXeXeXeXeXzXwXeXwXeXeXeXeXeXeXeXeXeXeXeXeXwXeXeXeXeXeXeXeXwXeXeXeXwXeXeXeXeXeXeXeXeXeXeXwXeXeXzXzX4 _ /.(.8.; h o.;XS.XXA.XXA.N.S.S.S.S.S.S.S.S.S.S.S.S.S.N.XXS.N.A.N.S.S.S.S.S.N.S.S.N.XXA. XS.S.S.S.S.S.N.S.S.N.XXA.S.S.S.XXS.S.S.S.S.S.S.S.S.S.N.S.XXA.N.N.XX.XA.A.S.N.S.N.A. XN. X XS.) 8 ; z 4XY.F.; ( $Xn.m.m.m.m.m.m.m.m.m.m.m.m.m.m.m.m.m.m.m.m.m.m.m.m.m.m.m.m.m.m.m.m.m.m.m.m.m.m.m.m.m.m.m.m.m.m.m.m.m.m.m.m.m.m.m.m.m.m.m.m.m.m.m.n.m.m.m.m.m.m.m.m.m.m.m.m.m.m.m.m.m.m.|.m.8XG : ^.^._.&.k F 0XDXNXVXcXcXVXVXcXVX",
"D.N.N.A.N.D.N.;X0 Z ^./.R.8 N D.BXzXzXzXzXeXzXzXNXeXeXeXwXeXeXpXpXeXeXNXpXNXzXzXNXeXNXeXzXeXzXzXzXeXeXzXNXeXNXeXeXNXNXeXeXzXeXzXzXzXeXNXNXeXzXeXzXeXzXeXzXzXzXeXNXeXNXeXzXzXNXeXeXNXeXNXzXeXzXzXNXeXNXeXeXNXBX%Xi M.4XR.#.I A G |.n.m.c.n.x.n.c.x.n.x.n.x.n.x.n.n.c.n.n.x.n.c.n.n.x.n.x.n.c.n.n.c.n.c.n.n.x.n.x.x.n.x.n.n.x.n.x.n.x.n.c.n.n.x.x.n.n.x.n.x.n.x.n.x.n.x.n.n.c.n.x.n.x.n.x.x.n.x.n.n.c.c.x.c.w.$X5.% $.R.).M.N : ' DXzXwXzXwXeXwXeXwXeXeXeXeXeXeXeXeXeXeXeXeXeXeXeXeXeXeXeXeXeXeXeXeXeXeXeXeXeXeXeXeXeXeXeXeXeXeXeXeXwXeXeXeXeXeXeXeXeXeXeXeXeXeXeXeXeXzXeXeXeXeXeXeXeXeXeXeXeXeXeXeXeXeXwXNXcX7 ) ^.^.8.; h o.;XS. XXXA.XXA.S.S.S.S.S.N.S.S.S.S. XA.N.A.N.S.XXS.S.S.S.S.S.S.S.S.S.N.A.N.S.S.S. XA.S. XA.S.S.S.N.N.S.S.S.N.S.S.S.S.S.S.N.S.S.S.S.S.N.b.XXXXb.XXA. X XN.XXA.S.A. X XA. X7.V - z 4XT.G.: ' %Xn.m.m.m.m.m.m.m.m.m.n.m.m.m.m.n.n.m.m.m.m.m.n.m.m.m.m.m.m.m.m.m.m.m.m.m.m.m.m.n.n.m.m.m.m.n.m.m.m.m.m.m.m.m.m.m.m.m.m.m.m.m.c.m.m.m.m.m.m.m.m.m.m.m.m.m.m.m.m.m.m.m.n.m.|.8XH : ^././.' M N.bXVXcXVXcXVXcXVXcXVX",
"N.N.A.N.A.N.U.U.8 C /.).Y.0 l D.CX8Xw.eXzXeXeX9X8XeXwXpXeXeXwXeXeXeXeXNXzXeXNXeXeXNXeXzXzXzXzXzXNXeXNXeXeXNXNXeXNXeXeXzXzXzXzXzXeXzXzXeXzXzXzXeXNXeXeXNXzXzXzXzXeXNXeXzXNXeXNXeXzXzXzXzXzXzXzXzXNXeXeXzXeXeXZX%X3 M._.R.#.I z k m.n.n.x.x.n.x.c.n.c.n.c.n.c.n.x.c.n.x.n.n.n.n.x.c.n.c.n.c.n.n.x.n.x.n.x.n.n.x.c.n.c.c.x.n.x.c.x.c.n.x.n.n.c.n.c.c.c.n.c.n.x.n.n.n.c.n.x.n.x.c.n.n.c.n.x.n.c.c.x.c.x.n.c.c.x.P.4.% $.E._.h.N 2 7.UXzXwXeXeXeXeXeXzXeXeXeXeXeXeXeXeXeXeXeXeXwXeXeXeXeXeXeXeXeXeXeXeXeXeXeXeXeXeXeXeXeXeXeXeXeXeXeXeXeXeXeXeXeXeXeXeXeXeXeXeXeXeXeXeXeXeXeXeXeXeXeXeXeXeXeXeXeXeXeXeXeXeXeXpXNX4 _ _.^.8.; h { XXS.N.A.A. XXXN.N.S.S.S.S.S.S.S.S.A. XS.S.S.S.S.S.S.A. XXXN.S.S.S.S.N.S.S.S.S.S.S.N.S.S.S.S.S.S.A. XN.S.S.S.N.A.S.S.S.S.S.S.S.S.S.S.A.N.A. X XA. XA.N.A.N.A.N.S.S.N. X@XJ q 4 z /.Y.k.: X.%Xm.m.m.m.m.m.m.m.m.m.m.m.m.m.m.m.m.m.m.m.m.m.m.m.m.m.m.m.m.m.m.m.m.m.m.m.m.m.m.m.m.m.m.m.m.m.m.m.m.m.m.m.m.m.m.m.m.m.m.m.n.m.m.m.m.m.m.m.m.m.m.m.m.m.n.m.m.m.m.m.m.m.n.m.n.8XG : Y.^./.' k V -XCXzXcXVXcXcXzXwXrX",
"A.A.A.M.N.A.N.M.: E /.^.R.9 l D.CXeXw.eXBXeXeXeXwX9XeXwXeXwXeXeXeXeXpXeXeXNXeXzXzXeXzXzXzXzXzXzXeXzXzXzXzXzXeXzXeXNXeXzXzXzXzXzXNXzXeXNXeXNXeXNXeXzXzXeXzXzXzXzXzXeXzXzXeXzXeXNXeXeXNXeXzXzXzXzXeXNXeXzXpXpXNX-X3 z._.Y.#.I j k +Xx.n.n.c.n.n.n.x.n.x.n.x.n.c.n.n.x.n.x.c.x.c.n.n.x.n.x.n.x.n.x.x.n.c.n.c.x.n.n.x.n.n.n.x.c.n.n.n.x.n.c.n.x.x.n.x.n.x.n.c.n.c.x.x.n.x.c.n.c.n.x.x.n.c.n.x.n.n.n.c.n.c.n.x.x.P.4.% $.Y._.h.l 2 G NXeXwXeXeXeXeXeXeXeXeXeXeXeXeXeXzXwXeXeXeXeXeXeXeXeXeXeXeXeXeXeXeXeXeXeXeXeXeXeXeXeXeXeXeXeXeXeXeXeXeXeXeXeXeXeXeXeXeXeXeXeXeXeXeXeXeXeXeXeXeXeXeXeXeXeXeXeXeXeXeXeXeXeXNXtX, ) _.^.8.; 8 l v.A.XXA.A.A.N.A.S.S.N.S.S.S.N.S.S.S.S.S.S.S.S.S.N.S.N.N.A.S.S.S.N.N.S.S.S.S.S.S.S.S.S.S.S.S.S.S.S.S.S.S.S.S.S.N.S.S.N.S.S.S.S.N.S.S.N.XXN.N.XX XA. XA.N.A.S.S.XXXXXXXX*XH : 0 M _.H.j.> ' 2Xn.m.m.m.m.m.n.m.m.m.m.m.m.m.m.m.m.m.m.m.m.m.m.m.m.m.m.m.m.m.m.n.m.m.m.m.m.m.m.m.m.m.m.m.m.m.m.m.n.m.m.m.m.m.m.m.m.m.m.m.m.m.m.m.m.m.m.m.m.m.m.m.m.m.m.m.m.m.m.m.m.m.m.m.m.5XG ; /.^.^.&.k N *XCXNXcXzXzXNXVX8X%X",
"N.D.N.A.N.M.@X&X2 Z /.^.^.l ~ ;XJXDXNX%X+XeXeXeXzXNXNXNXNXNXNXNXNXzXzXzXzXzXzXzXzXzXzXzXzXzXzXzXNXeXzXzXzXzXzXzXzXzXzXzXzXzXzXzXeXNXzXzXzXzXzXzXzXzXzXzXzXzXzXzXeXNXzXzXzXzXzXzXzXzXzXzXzXzXzXzXzXeXzXzXzXzXVX%Xi h.2XR.#.I z N |.x.n.x.n.x.n.x.x.n.c.n.x.n.n.c.x.n.x.n.n.x.n.x.n.c.n.x.n.c.n.c.x.n.n.x.n.x.n.x.n.x.c.x.n.x.n.x.n.c.x.n.n.c.n.c.x.n.x.c.n.x.x.n.n.x.n.x.n.x.n.n.n.n.x.n.n.n.x.x.n.c.n.c.n.x.U.} O $.Y._.q.8 7 4 r ZXPXeXeXeXeXeXeXeXeXeXeXeXeXeXeXeXeXeXeXeXeXeXeXeXeXeXeXeXeXeXeXeXeXeXeXeXeXeXeXeXeXeXeXeXeXeXeXeXeXeXeXeXeXeXeXeXeXeXeXeXeXeXeXeXeXeXeXeXeXeXeXeXeXeXeXeXeXeXeXeXeX9XNXtX, ) [.^.8.; 8 V XXoXA.A. XS.S.S.S.S.S.S.S.S.S.S.S.S.S.S.S.S.N.S.S.S.S.N.S.S.A. XA.A.N.S. XA.S.S.S.S.S.S.S.N.S.S.S.S.A.S.S.S.S.S.S. XA.N.A.N.A. XA.N.A. XA. XXXN. XA.A.A.S.S.;X;X;XXXb.-Xv.h 4 B ^.J.j.2 X.$Xn.m.m.n.m.m.n.m.m.m.m.m.m.m.m.m.m.m.m.m.m.m.m.m.m.n.m.m.m.m.m.m.m.m.m.m.m.m.m.m.m.m.m.m.m.m.m.m.m.m.m.m.m.n.m.m.m.m.m.m.m.m.m.m.m.m.m.m.m.m.m.m.m.m.n.m.m.m.m.m.m.m.n.m.n.3XG ; Y.^./.&.M 6.uXVXcXcXcXVXVXzXNXzX",
"N.b.N.A.A.N.D.].4 M E.^.R.h e l |.tXCXwXwXpXNXeXzXzXzXNXNXzXzXzXzXzXzXzXzXzXzXzXzXzXzXzXzXzXzXzXzXzXzXzXzXzXzXzXzXzXzXzXzXzXzXzXzXeXzXzXzXzXzXzXzXzXzXzXzXzXzXzXzXzXzXzXzXzXzXzXzXzXzXzXzXzXzXzXzXNXzXzXzXzXZX%X6 C._.Y.#.I V N |.x.n.n.x.n.x.n.n.c.n.x.x.c.x.n.n.c.n.c.c.n.c.n.x.n.c.n.x.n.x.n.n.x.c.n.c.n.c.n.c.n.n.n.c.n.c.n.n.x.n.x.n.x.x.n.n.c.n.n.n.c.n.c.c.n.c.n.n.x.c.x.c.x.c.n.x.c.n.c.x.n.x.n.n.x.m.} + $.(._.h.k 7 7 9 | v.eXeX9X9XeXeXeXeXeXeXeXeXeXeXeXeXeXeXeXeXeXeXeXeXeXeXeXeXeXeXeXeXeXeXeXeXeXeXeXeXeXeXeXeXeXeXeXeXeXeXeXeXeXeXeXeXeXeXeXeXeXeXeXeXeXeXeXeXeXeXeXeXeXeX9XeXeXeXeXeXeXNXcX, ) [.(.8.; 8 V o.e.XXA.A.N.A.S.S.S.S.S.S.S.S.S.S.N.S.S.S.N.A. XS.S.S.S.S.S.N.A.N.XXXXS.A.N.S.S.N.A.S.S.S.S.S.S.S.S. XA.S.N.S.S.S.S. XA. XA.N.A.N.XXN.A.N.XX XA.A. X XA.D.S.S.Z.Z.b.b.8XN.{ 7 B _.G.j., ' 2Xm.m.m.m.m.m.m.m.m.m.m.m.m.m.n.m.m.m.m.m.m.m.m.m.m.m.m.m.m.m.m.m.m.m.n.m.m.m.m.m.m.m.m.m.m.m.m.m.m.m.m.m.m.m.m.m.n.m.m.m.m.m.m.m.m.m.m.m.m.m.m.m.m.m.m.m.m.m.m.m.m.c.c.n.n.3XG - T.Y.).' M q.tXNXzXVXzXzXcXzXBXmX",
"N.N.b.S.N.XX~ k : Z /.).R.e 4 j 5.=XGXzXzXzXeXpXeXzXzXzXzXeXzXeXzXzXzXzXzXzXzXzXzXzXzXzXzXzXzXzXzXzXzXzXzXzXzXzXzXzXzXzXzXzXzXzXzXzXzXzXzXzXzXzXzXzXzXzXzXzXzXzXzXzXzXzXzXzXzXzXzXzXzXzXzXzXzXzXzXzXzXzXNXpXNX%X3 V._.Y.#.I V J |.x.n.x.n.c.n.x.x.n.x.n.n.x.n.x.c.n.x.n.n.x.n.n.x.n.x.n.n.c.n.x.n.c.n.c.n.x.c.x.n.n.x.x.c.n.n.x.x.n.c.n.c.n.x.c.c.n.x.n.x.n.x.n.c.n.n.x.n.c.c.n.n.c.x.n.c.n.n.c.n.c.c.x.x.x.m.| + $.E._.h.k e 7 : 2 h NXeX9XeXeX9XeXeXeXeXeXeXeXeXeXeXeXpXeXeXpXeXpXeXeXeXeXeXpXeXeXeXpXeXeXpXeXeXeXeXeXeXpXeXeXeXeXeXpXeXeXeXeXeXeXeXeXeXpXeXeXeXeXeXeXeXpXpXeX9XeXeXeXeXpXeXeXeXeXpXeXNXeX; $.{.E.8.; 8 8 h 7.XXS.S.N.N.N.N.N.S.S.S.S.N.S.S.S.S.S.A. XA.A.N.A.S.S.S.S.A. XA.A.N.A.N.A.A. XA. XN.A.S.S. XA.N.XXA.N.XXA.S. XA.A.A.N.b.XXXXN.b.A. XA.A. XA. XA. XN.A.S.A.A.v.a.N.#XAXx.~ 7 M ^.Y.j.: { 2Xn.m.m.m.m.m.m.m.m.m.m.m.m.m.m.m.m.m.m.m.m.m.m.m.m.m.m.m.m.m.m.m.m.m.m.m.m.m.m.m.m.m.m.m.m.m.m.m.m.m.m.m.m.m.m.m.m.m.m.m.m.m.m.m.m.m.m.m.m.m.m.m.m.m.m.m.m.m.m.m.m.m.m.m.m.3XD ; Y.^._.' k q.tXNXzXzXcXVXVXzXVXVX",
"N.N.N.b.N.N.U.&X4 Z E.^.R.8 G ;XVXeXeXeXeXzXzXeXzXzXzXzXzXzXzXzXzXzXzXzXzXzXzXzXzXzXzXzXzXzXzXzXzXzXzXzXzXzXzXzXzXzXzXzXzXzXzXzXzXzXzXzXzXzXzXzXzXzXzXzXzXzXzXzXzXzXzXzXzXzXzXzXzXzXzXzXzXzXzXzXzXzXzXzXeXpXCX=X2 C._.Y.#.U A ( +Xx.n.n.c.n.c.n.n.c.n.x.n.c.n.c.x.x.n.c.x.n.x.x.n.x.n.c.x.n.c.c.n.n.n.c.c.n.c.c.c.c.n.c.n.c.c.n.c.n.c.c.n.c.n.c.x.c.c.n.c.c.c.c.c.c.c.n.c.c.n.c.c.c.n.c.n.c.c.c.c.n.n.x.c.x.m.} + $.Y.2XM.l 2 J tXwXwXwXeXeXeXeXeXeXeXeXeXeXeXeXeXeXeXeXeXeXeXeXeX9XpXeXpXeXeX9XeXeXeXeXpXeXeXeXeXeXeXeXeXeXeXeXpXeXeXeXeXpXeXpXeXpXpXeXeXeXpXeXeXeXeXeXeXeXeXeXpXpXeXeXeXeXpXeXeXpXpXeXNXcX, _ {.^.=.; e x  .5. XA.A.A.XXA.XXS.N.S.S.S.A.S.S.S.S.S.S.S. XN.XXN.XX XA. XN.XX X XA. XXXN.N.XXN.XXS. X XA.A.N.XXN. XA. Xb. XA. XS. XXXXXN.N.XXXX XA.N.XXN. XA. XN.N.N.N.N.=X7XFXcX-XPXrXV 7 B /.J.F.: | $Xm.m.m.m.m.m.m.m.m.m.m.m.m.c.m.m.m.m.c.m.n.n.m.m.m.m.m.m.m.m.m.m.m.m.m.m.m.n.m.m.m.m.m.n.m.m.n.m.n.m.m.m.m.m.m.m.n.m.m.m.m.m.m.m.m.n.m.m.n.m.m.m.m.m.m.m.m.m.m.m.m.n.m.n.n.3XN ; T.Y.).' t [ iXCXcXVXVXcXcXVXcXzX",
"N.N.S.b.b.N.N.;X, N E.).R.0 N Z.NXpXeXpXzXzXzXzXzXzXcXzXcXzXzXzXzXzXNXeXzXzXzXzXNXzXNXeXzXzXzXNXNXeXzXNXzXzXzXzXzXNXzXzXNXzXzXzXNXzXzXzXzXzXzXzXzXzXzXzXzXzXzXNXNXzXzXzXzXzXzXzXzXNXzXzXzXzXzXNXzXzXzXzXNXzXVX=X3 C.2XI.) L V G +Xc.n.n.n.c.n.c.c.x.c.n.c.n.x.x.n.x.x.c.x.x.x.x.x.n.x.n.x.n.c.n.n.n.c.m.n.c.n.m.c.c.c.n.n.c.c.n.n.c.m.c.c.c.n.n.n.c.n.m.c.c.n.c.n.n.c.c.n.n.n.c.n.n.m.c.c.n.c.n.c.c.x.c.c.x.m.' + $.Y._.h.k | fXLXZXzXeXzXeXeXeXeXeXeXeXeXeXeXeXeXeXeXeXeXeXeXeXeXpXeXeXeXeXeXpXpXeXeXpXeXeXeXpXeX9XeXeXeXeXeXpXeXeXeX9XpX9XeXeXeXpXeXeXeXeXpX9XeXeXeX9XpXeXeXeXeXeXeXpXeXeXeXpXeXeXpX9XpXpX< ) {.Y.8.; 8 J XXXXS.N.b.S.;XS.XXS.S.S.S.S.S.S.Q.S.XXS.XXXX XA.A.XXXXN.A.XXXXXXXXA.XXXXXX X XXXXX XXXXXA.XX XXXXX XXXXXXXXX.XXXXXXXXXXXA. XXXXXA.A.XX X XXXXX XXXXX XN.N.N.3XwXFX7X8.=X,Xl 2 M /.Y.k.: X.2Xm.m.m.m.|.m.m.m.m.m.m.m.m.m.m.c.m.m.m.m.m.N.m.m.m.m.m.m.m.m.m.m.m.|.m.n.c.m.c.c.m.c.c.m.c.m.c.c.c.c.m.m.m.c.m.m.m.c.m.m.c.m.c.m.m.m.m.c.c.c.m.m.m.m.c.m.c.m.c.m.m.m.m.m.m.%XG : Y.Y._.&.k M +XCXcXzXcXzXVXcXzXVX",
"N.A.N.N.N.A.A.oX; N T.^.R.9 k s.NXNXzXNXzXcXzXzXzXzXzXzXzXzXzXzXNXNXNXNXVXzXNXNXNXNXNXNXNXNXNXNXNXNXNXNXVXzXNXNXpXNXNXNXNXNXNXNXNXNXNXNXVXzXzXVXNXNXNXNXNXNXNXNXNXNXNXNXNXNXzXVXNXpXNXNXNXNXNXNXNXNXNXNXNXNXVX=X2 C._.Y.#.L z l P.m.m.n.m.c.m.n.x.c.x.c.x.x.c.c.x.c.x.c.x.n.x.x.x.x.x.x.n.x.n.x.m.n.n.c.m.n.m.c.n.m.m.n.n.m.c.m.m.n.c.m.m.m.m.n.m.n.m.c.m.n.m.m.m.n.m.n.c.m.c.m.n.n.n.n.n.n.n.n.n.c.x.c.c.c.P.} # _ R._.h.h 2XLXPXJXDXVXNXzXzXeXeXeXeXeXeXeXeXeXeXeXpXeXeXpXpXeXpXeXpX9X9XpXeXpX9XpXpXeXpX9XpX9XpXpXpX9XpXeXpXeXpX9XpXpXeXpXeXpXpX9X9XpXeXeXeXpXpXeXeXeXpXpXpX9XeXpXpX9X9XpXeXpXpXeXpXeXpXpX; ) [.Y.4.; r [ -X|.b.N.N.S.S.S.S.S.S.S.S.S.S.S.S.oXN.XXA. XXX XA.OXN.XX.XXX XA.A..X XS. XA.A. XN.A. XA. X XXXN. XA.A.A.N. XA.XXb.XXA. XN.XXA..X XXX XA.A. X.XXX XA.N.S. XM.8XZXJXn.~ 8 r k : z /.Y.G.> ' 2Xm.m.|.m.m.m.P.m.m.|.+Xm.m.m.m.|.m.|.m.m.m.m.m.m.m.m.m.m.m.P.m.m.m.c.c.|.|.c.m.|.c.|.|.c.c.|.m.|.|.c.|.c.c.c.|.c.c.|.|.c.|.c.m.c.|.c.c.|.c.|.c.c.c.m.c.|.|.c.m.c.|.c.n.m.m.$X| 7 Y.Y._.' k L <XCXVXVXVXVXcXVXcXVX",
"A.N.b.S.A.S. XU.: N T.).^.7 ~ <XpXpXpXNXVXcXcXNXVXNXzXVXNXNXVXNXNXNXNXNXNXNXNXNXNXNXNXNXNXNXNXNXNXNXNXNXNXNXNXNXNXNXNXNXNXNXNXNXNXNXNXNXNXNXNXNXNXNXNXNXNXNXNXNXNXNXNXNXNXNXNXNXNXNXNXNXNXNXNXNXNXNXNXNXNXNXBX=X2 B.4XJ.Q P j k m.n.c.c.c.x.c.c.x.x.x.x.x.x.c.x.x.x.x.x.x.x.x.x.x.x.f.x.f.x.x.x.x.x.c.c.x.c.x.c.c.c.n.c.n.c.c.c.n.c.n.x.c.c.c.c.c.n.c.c.c.n.c.x.c.c.x.n.n.n.n.n.n.n.m.n.n.m.c.n.x.c.c.c.c.w.L.4.# ~ R._.h.k L.cXPXuXc.%X8XwXwX9XeXwXwXeX9XeX9X9XeX9XeX9X9X9X9X9X9X9X9X9X9X9X9X9X9X9X9X9X9X9X9X9X9X9X9X9X9X9X9X9X9X9X9X9X9X9X9X9X9X9X9X9X9X9X9X9X9X9X9X9X9X9X9X9X9X9X9X9X9X9X9X9X9X9X9X9XaX9X; ) [.Y.8.: 0 b CX*Xv.XXN.S.U.S.S.Q.S.S.S.Q.S.S.A.A.A.S.S.XXA.A.XXXXXXA.XXXXXX.XA.XXXXXXA.XXA.A.XXXXA.XXA.A.XXXXA.XXXX.XA.A.XXA..XA.XXA.XXXXXXXX.XXXXXXXA.A.A.XXXXA.A.N.N.&XV.b.LXyXh.7 t C 7 M /.Y.F.; X.4Xm.|.|.m.m.|.m.+XP.P.m.P.m.P.m.m.m.m.m.m.m.m.m.m.m.m.m.+XP.m.m.n.c.m.n.c.c.c.c.m.n.c.c.c.m.c.c.n.c.c.c.m.c.c.m.c.c.c.c.c.c.m.c.c.c.c.c.c.c.m.c.m.c.c.c.c.c.m.c.c.c.c.c.n.m.%X| 4 Y.^.).' k M.tXVXcXzXcXVXVXcXzXcX",
"b.N.N.N.N.A.;XU.2 Z (.).R.6  .uXNXpXwX3XtXVXNXNXcXzXzXzXzXNXzXNXpXNXNXzXNXNXzXNXeXNXpXNXpXNXpXNXeXNXNXeXNXNXNXNXNXpXNXNXeXNXzXzXNXpXpXNXNXzXNXNXpXNXpXNXpXNXpXNXeXNXpXNXNXzXNXNXNXNXpXzXNXNXzXNXeXNXzXNXpXpXNX=X> h.[.H.Q n r N P.x.x.c.x.x.x.x.x.w.x.x.x.x.w.x.x.x.x.x.x.x.x.x.x.x.x.x.x.x.x.f.n.x.x.c.n.c.x.n.x.c.c.x.c.n.c.c.x.c.c.c.x.c.n.x.c.x.c.c.c.n.x.c.c.c.n.n.c.n.c.n.c.n.c.c.c.n.n.c.c.c.x.x.c.w.P.} # _ R._.g.8 7XSXHX%Xr. .+XeX8X9XwXeXwXwXeX9XeXeX9X9X9X9X9X9X9X9X9X9X9X9X9X9X9X9X9X9X9X9X9X9X9X9X9X9X9X9X9X9X9X9X9X9X9X9X9X9X9X9X9X9X9X9X9X9X9X9X9X9X9X9X9X9X9X9X9X9X9X9X9X9X9X9X9X9X9X9XpX9X; ) [.Y.=.: 4 x BX+XA.:XN.U.S.S.S.S.S.A.S.@XU.U.A.A.A.A.N.N..XA.b.XXb..XA.b.A.A.b.XXA.A..Xb.OXA.A.A..Xb.OXA.A.A..Xb.A. XA.OXXXb.A.XXb..Xb.A.b.A.A. Xb.XXOXA.A.b.A.OXN.N.N.b.G Z n.8.Q w y p 7 M /.L.k.; ( P.n.n.c.n.m.m.m.m.m.m.m.P.P.m.m.m.m.m.m.n.m.m.m.m.m.m.n.m.c.c.m.m.m.c.c.c.c.c.c.n.c.c.c.c.c.n.c.c.c.c.c.n.c.c.c.c.n.c.c.c.c.n.c.c.c.c.m.c.c.c.c.c.m.c.c.c.c.n.c.c.c.c.n.m.n.$X^ 8 L.Y.).' N &XwXNXcXcXcXcXzXcXcXVX",
" XXXXX X XXX@XyX9 C ^./.R.7 _ iXGX9Xr.e  .HXVXZXVXVXNXVXNXNXVXNXNXzXVXcXVXNXVXzXcXVXNXNXNXVXzXVXNXVXzXVXVXzXNXNXVXNXVXzXBXcXVXVXNXNXNXcXNXNXVXVXzXVXNXNXNXNXVXzXVXzXVXVXzXVXNXNXzXVXzXVXNXNXVXNXNXVXzXVXVXzXDX8X> h.[.L.~ n B X.wX+X+X$X+X+X|.|.m.m.m.m.c.m.m.N.m.c.m.m.P.m.P.P.P.+X+X$X$X%X%X$XT.+X+X+X+X+X+X+Xm.+XP.+X+X+X+X+X+X+X+X+X+X+X+X+X+X+X+X+X+X|.+X+X+X+X+X+X+X$X+X+X+X+X$X+X+X+X+X+X+X|.+X|.|.|.5X9.# _ L.[.0.: FXUXUXUXVX1 m.PXZXDXHXGXDXGXDXDXGXDXDXDXDXGXDXDXDXDXGXDXDXDXDXDXDXDXCXDXGXDXDXDXHXDXDXDXDXDXDXGXDXDXDXDXDXGXDXDXGXDXDXDXDXDXDXDXDXGXDXDXDXGXDXGXDXDXDXGXDXDXDXDXDXGXDXDXGXDXHXCX; ' ).Y.=.4 7 4 4.S. X#X>X*X;X:X>X&X>XS.@XrXrX*XXXXX#XoXXX#XoX#X#XoXoX#X#XoXoX,X X#X X1X X,XoX#X XXXoX#X#XXX#XoX#X@X,X X#X,X XoXoX#X X,X X,X,X X#X,X X,X#XXX#XoXXXXX X7X XZ k y 2 w t p M M 7 C /.Y.k., P 4.9.5.} m.%X$X$X+X$X=X%X$X2X2X$X2X2X%X2X2X2X%X2X$X2X$X$X4.^ ^ c.5X$X+X=X$X+X+X+X+X=X$X+X+X+X+X=X$X+X+X+X+X=X+X+X$X+X+X=X+X$X+X+X$X+X=X+X+X+X+X$X=X$X$X=X+X$X+X+X=X=X$X+X+X+X8X5.e L.^._./ N wXKXPXDXDXFXFXVXFXFXKX",
"A.D.oXoXA.y.A.oX, N (._.Y.7 G fXiX>Xv.H  .iX1X<X<X#X-X*X>X-X*X-X-XuX<X0X<XuX0X<X0X0XqXqXqX0X0X0XqX0X0X0X0X0X0XqX0XqX0X0XqXqX0XqX0XqXqXqXqX0X0X0X0X0XiXqX0XqX0X0XqX0X0X0X0X0XiXqX0XqX0X0XqX0X0X0XqXqXiXtXqXqXiXA.> g.gXI.Q i r V 0.| O.0.q.7.i.q.q.e.q.e.e.e.e.q.e.e.e.e.e.q.e.7.| J v c h N ( | | | | | | | | 7.| 7.7.7.| 7.7.| 7.| | 7.7.| | 7.7.| | 7.7.7.7.7.7.7.7.7.7.7.7.7.7.7.7.7.7.7.7.7.7.7.| 7.7.| i.J # ) R._.0.4 q.oXD.Q.s.m o.A.a.a.a.e.a.e.a.a.a.e.a.a.a.e.a.a.a.e.a.a.a.e.a.a.a.e.a.a.a.a.a.e.a.a.a.a.a.e.a.a.a.a.a.e.a.a.a.a.a.e.a.a.a.a.a.e.a.a.a.a.a.e.a.a.a.e.a.a.a.e.a.a.a.a.a.a.a.a.e.7.; ~ _.L.=.: 4 0 oXfXk k J o.X.o.o.o.o.X.s.;X;XS.p.t.o.p.y.o.y.y.o.y.y.o.y.y.s.o.y.o.o.o.y.o.y.y.y.s.y.o.o.y.o.y.y.o.o.y.o.y.y.y.y.y.y.o.s.o.o.y.o.y.y.y.o.y.y.y.y.y.y.s.o.V e r r 8 8 8 7 e 4 B /.L.k.; 5 h h 8 x O.O.| ( | ' | | | | | | | 7.| | | | 7.| 6.| | J h 4 8 l ( | 7.| 7.7.7.7.7.| 7.7.7.7.7.| 7.7.7.7.7.7.7. .7.7.| 7.7.7.7.| 7.7.7.7.7.7.7.7. . .7.| 7.7.7.7.7.7. .7. .| a.v 4 Y.^.{.' h i.,XoX7.| 7.a.oXA.v.oX",
"H ) H H N h H } ; N Y.^.~.e e G 4.} } G H } ^ ^  .^ } } } 5.} 4.5.4.5.} } } 5.5.5.5.5.5.9.9.9.5.9.5.9.9.9.9.5.9.9.5.9.9.5.5.9.5.5.5.9.5.9.5.9.5.9.9.5.5.5.9.9.9.5.5.5.5.9.5.9.5.5.5.9.5.9.5.9.5.5.9.5.5.9.9.} G 3 h.[.H.Q 3 0 2 a e 8 t k N N Z Z G G Z G Z Z Z N G Z Z G Z G N 8 ; ; = ; - 4 8 d d h h h h h k k k z k h k l k k k k k l k k k h k l k k k k k N N M N M k k k k M k k M k z k k k h l h h h d # ) Y._.g.e k e , d d 8 8 8 c c h d h h h h h h c 8 e 8 h 8 e d 8 h 8 h d h 8 h d e 8 h h 8 d e h 8 h h d e h 8 e d e 8 h e d e h 8 h d d e d e h 8 h 8 d e h 8 d e d e h 8 h 8 d 8 h e h e , _ _.L.=.7 7 2 4.N , 4 7 e e h e h e t N 4.4._ k k k k k k l k k k l k k k l k k k l k l l k k k k l k k l k k l l k k l k l k l k l k l k k k l k l k k l l k k k k k t y 7 7 7 7 7 7 8 7 7 F T.Y.F., < 4 4 4 7 8 8 8 8 e y e e e h h k h k h k h k h k h k e 4 , 2 : : 2 k l l l l k k k l k l k l k l l k l l k l k l l k l l k l k k l l k l k l k k k l k N k k l k l k k l h h l 4 2 Y.Y.).' k e l D 4 4 4 h k l k J ",
"_ ' _ _ ' ' $.$.d.k.L.Y.R.G.d.=.#.%.#.) ) ` ) ) ~ ' ) ~ / ) ) ) Q W ) E Q R W E W R W R R W R E R W R R W C W C A R Z R R R R W ! Q R R R W R ! R S Z R C C W C W C W R C W C R R W C W C W Z Z Z A B N V N N W -.z.H.J.l.E ) ~ ~ ! ) R C S C C C B M B M M z k z M z a M B M B C A C W ~ A A B C A N N Z A Z W E ) @.) #.#.%.) %.Q #.%.) %.) @.#.%.#.) #.%.#.%.%.) ) #.%.) #.%.%.) %.Q ) ) @.) ~ W E A A A ~ #.d.j.J.^.Y.G.G.G.k.k.k.k.k.k.k.f.k.n.k.k.n.G.k.k.L.G.L.G.J.L.G.J.G.G.J.G.L.G.Y.G.J.L.G.G.G.G.G.G.G.G.G.G.G.J.G.L.G.J.L.J.J.G.J.G.G.J.G.J.J.G.J.L.J.L.G.J.J.G.J.G.G.J.J.J.J.G.F.k.k.G.G.L.L.L.L.L.L.L.G.L.L.Y.Y.Y.Y.^.Y.Y.Y.^.Y.^.^.Y.^.Y.Y.Y.J.Y.Y.Y.Y.J.Y.Y.Y.J.Y.Y.G.Y.Y.Y.Y.J.J.J.Y.Y.Y.Y.^.Y.Y.Y.Y.Y.L.Y.Y.L.Y.L.G.G.L.L.Y.G.G.J.J.L.Y.J.G.J.J.L.G.J.J.J.J.J.J.J.J.G.J.J.J.G.L.G.L.G.L.L.Y.L.L.Y.Y.L.L.L.G.G.G.G.G.G.G.G.G.G.G.G.F.G.k.G.k.F.G.G.F.G.G.G.G.F.G.L.L.L.k.k.k.k.k.k.k.k.k.k.F.k.k.G.k.G.G.k.k.k.k.d.k.k.j.k.j.j.j.j.j.j.j.j.j.j.j.j.j.j.j.j.j.j.d.d.d.d.d.d.d.j.d.d.d.j.Y.Y.k.k.j.d.,.,.d.,.d.=.d.=.,.l.",
"M.z.M.I.z.n.n.H.L.L.L.Y.L.G.H.H.H.l.z.z.z.z.H.z.z.z.z.z.z.z.z.z.z.z.l.H.l.z.z.z.z.z.h.z.h.z.l.H.H.l.l.C.z.z.C.z.z.l.z.z.l.z.z.l.l.z.z.H.C.H.z.l.l.z.l.z.z.B.z.l.l.C.l.z.l.z.l.z.z.l.l.z.B.z.h.C.C.C.C.C.z.C.z.l.H.J.J.J.F.l.z.H.z.H.l.l.l.z.g.C.C.h.l.C.C.h.C.C.B.B.C.h.B.h.B.g.g.z.h.B.h.z.h.z.v.z.z.h.z.h.z.h.l.z.l.H.l.z.H.l.z.H.H.z.H.z.H.z.z.H.z.H.l.H.H.l.l.l.H.l.z.l.H.l.l.z.l.H.l.H.C.l.z.z.z.z.M.z.z.H.H.Y.J.!.Y.J.Y.Y.H.Y.J.L.L.H.L.G.L.Y.L.Y.L.L.Y.J.Y.Y.J.Y.Y.J.Y.Y.Y.Y.Y.J.Y.Y.Y.J.Y.Y.Y.Y.J.Y.J.J.J.Y.Y.J.Y.Y.H.Y.Y.Y.Y.Y.Y.Y.Y.Y.Y.Y.Y.Y.Y.R.Y.Y.Y.Y.Y.Y.Y.Y.Y.Y.Y.Y.Y.Y.J.Y.Y.Y.Y.Y.J.R.J.Y.L.Y.J.Y.Y.Y.J.Y.J.Y.Y.Y.Y.Y.Y.Y.J.Y.Y.Y.Y.J.J.Y.J.Y.Y.J.Y.G.G.Y.J.L.J.L.J.Y.G.Y.J.Y.Y.J.J.Y.Y.Y.J.Y.J.Y.Y.L.Y.L.L.J.L.L.Y.L.G.L.J.L.L.Y.J.L.J.L.L.J.L.J.J.Y.J.Y.J.Y.J.J.H.Y.Y.L.L.Y.L.L.Y.L.L.Y.L.Y.Y.L.Y.Y.Y.L.Y.L.L.J.L.L.L.G.Y.L.Y.Y.L.Y.L.Y.L.L.L.R.R.Y.L.Y.Y.Y.J.Y.Y.Y.Y.L.L.I.L.L.I.L.G.I.Y.I.L.L.L.L.R.L.Y.L.Y.L.L.L.R.L.L.H.J.H.J.H.J.J.H.J.H.J.J.H.H.J.G.H.H.Y.L.H.L.I.H.G.H.H.L.H.^.Y.Y.Y.Y.L.I.J.H.H.H.L.H.H.G.W.",
"^./.Y././.^./.Y.Y.Y.Y.Y.Y.Y.Y.Y.Y.J.J.!.!.!.!.!.!.!.!.!.!.!.!.J.^.J.^.^.^.^.^.^.Y.^.Y.T.Y.Y.^.!.^.^.^.^.^./.^./.^.Y.Y.^.^.^.^.^.^.^.^.^.^.!.^.^.^.^.Y.^.^.^.Y.^.Y.^.^.Y.Y.^.Y.^.^.Y.Y.Y.Y.Y.J.Y.J.Y.Y.^.!.Y.!.!.J.J.J.!.Y.^.^.!.^.^.^.^.^.^.Y.^.Y.Y.^.^.^.^.^.).).^.^.^.^.^.^.^.^.Y.^.^.^.^.^././././.).).^.^.Y.Y.Y.^.Y.^.!.!.^.!.Y.J.!.!.!.Y.^.Y.^.^.^.!.J.J.!.J.!.J.!.!.J.J.!.!.!.!.!.^.!.!.^.^.Y././././.^.^.^.Y.^.R.^.~.^.^.^.~.^.^.Y.^.Y.^.R.^.!.R.^.!.R.Y.Y.J.^.Y.~.^.R.J.Y.^.^.R.^.Y.R.^.Y.^.Y.J.J.J.J.J.J.G.G.G.G.G.G.G.G.Y.Y.L.L.Y.Y.Y.Y.Y.Y.Y.Y.Y.Y.Y.Y.Y.L.Y.Y.Y.Y.L.Y.L.L.L.G.G.J.Y.Y.Y.J.J.J.J.J.J.Y.J.J.Y.Y.!.Y.!.J.!.J.J.J.Y.Y.J.G.J.J.Y.^.J.Y.J.J.Y.J.Y.J.Y.Y.J.Y.J.Y.G.J.Y.Y.J.J.Y.J.Y.Y.J.^.Y.L.Y.J.L.L.J.Y.L.Y.L.L.J.Y.Y.L.Y.G.L.L.Y.G.L.Y.L.L.L.L.G.G.H.F.G.F.L.G.G.G.L.G.L.Y.G.L.L.L.L.Y.Y.Y.Y.Y.Y.Y.G.Y.G.L.Y.Y.G.Y.Y.L.Y.J.L.Y.Y.Y.L.Y.Y.L.L.L.L.L.L.Y.J.G.J.G.J.J.G.J.G.G.G.J.L.L.Y.L.L.Y.Y.Y.Y.Y.Y.Y.^.Y.Y.^.^.^.^.^.^.^.^.^.^.^.Y.^.^.^.^.^.^.^.^.^./.^.^.^.^.^.^./.^.^.^.^.^./._./.^./.^././././.^././././.6X",
"k.H.k.z.z.F.I.H.Y.R.R.Y.R.J.Y.H.I.H.H.I.H.K.K.R.`.R.~.R.^.`.~.Y.R.^.J.R.R.Y.Y.T.Y.L.L.R.Y.L.L.R.Y.R.Y.Y.R.Y.Y.^.Y.Y.T.Y.R.L.L.L.L.H.Y.G.J.J.Y.H.L.I.Y.H.L.H.L.I.Y.L.H.L.L.I.L.H.I.L.L.L.Y.L.Y.L.Y.Y.Y.Y.^.^.Y.Y.Y.Y.Y.Y.R.Y.R.Y.Y.R.Y.R.R.L.R.L.Y.Y.R.R.R.^.R.^.^.R.R.R.Y.I.L.Y.I.L.L.L.Y.L.Y.L.Y.Y.Y.Y.J.H.Y.R.G.L.Y.Y.I.J.Y.R.R.Y.Y.Y.Y.I.Y.H.H.H.H.H.H.H.R.I.J.R.K.R.R.K.R.K.R.J.H.R.J.I.H.J.K.H.K.R.J.H.H.H.H.F.H.z.H.H.H.K.J.H.K.H.H.H.H.H.H.K.R.K.R.K.'.~.W.~.~.~.~.W.~.~.~.~.`.~.R.^.`.R.(.R.L.Y.J.R.J.R.H.^.^.I.H.z.H.H.H.H.H.H.H.K.H.H.H.H.K.H.K.H.F.H.K.H.H.K.H.K.H.H.H.H.H.H.H.H.H.z.z.J.R.^.I.H.H.I.R.Y.R.R.Y.I.I.I.Y.I.I.L.R.Y.R.J.Y.R.Y.R.L.H.L.I.R.L.L.I.I.Y.L.I.I.L.L.R.L.R.I.R.Y.R.L.R.L.Y.I.J.^.G.G.L.Y.Y.Y.Y.Y.Y.Y.Y.Y.Y.R.Y.R.E.L.P.R.P.R.L.E.L.L.I.I.L.I.R.I.L.L.I.L.R.U.L.L.Y.E.Y.Y.Y.L.Y.L.R.L.I.L.R.L.L.L.I.L.L.L.L.L.I.L.L.L.R.L.H.L.H.L.I.k.k.M.I.Y.Y.R.^.^.R.J.Y.J.L.J.H.L.H.H.H.H.j.j.L.T.Y.k.h.{ 6.h.0.0.0.h.h.0.g.0.0.0.g.g.0.0.g.g.0.0.g.g.0.0.g.g.g.g.1.<.-.;.-.g.k.d.&.=.-.0.0.-.0.0.-.-.0.0.-.0.-.-.V.",
"8.d.=.d.,.8.8.d.d.,.d.d.d.d.d.d.,.8.=.d.d.d.d.d.,.,.,.d.,.,.,.d.,.d.d.d.d.d.d.d.d.d.d.8.8.d.8.=.=.8.=.d.,.,.,.d.d.d.d.Y.L.Y.8.#.$.8.8.d.d.8.8.d.8.8.8.8.8.8.8.8.8.8.8.8.8.8.8.8.8.8.8.d.8.d.d.d.d.d.d.d.d.d.d.d.d.d.d.d.d.d.d.,.,.d.d.d.=.8.=.8.=.8.8.8.,.8.d.=.8.8.d.=.8.=.8.8.=.8.8.=.8.8.8.d.d.d.d.=.0.=.) $.I.Y.J.=.) ~ ) ~ ) #.) #.) ~ ~ $.$.$.$.$.$.#.#.#.#.#.#.#.#.*.$.#.#.$.*.$.#.=.=.&.#.=.$.*.#.#.*.=.$.#.$.) #.#.#.$.*.*.=.*.=.*.#.#.$.#.#.#.#.%.#.#.@.Q @.) Q @.Q @.Q Q #.Q @.#.) #.#.,.j.d.$.#.#.#.j.^._.=.#.$.#.$.#.$.=.=.=.=.=.8.=.=.=.=.=.=.=.=.=.=.=.=.=.=.*.=.*.*.*.@.#.#.~ ) Q #.) Q #.#.Q ) Q ~ #.) #.#.#.$.#.#.#.#.#.$.#.#.#.#.#.#.$.#.$.#.#._ #.$._ #.$.#.$.#.$.) ) $.#.) $.) #.$.#.$.) d.J.L.L.d.8.$.=.=.=.$.8.=.=.$.$.$.$._ _ _ _ _ _ _ _ _ _ _ #.) ) ) ) $._ _ _ $.$.=.8.$.=.=.=.=.$.$.$.$.#.=.$.#.$.$.$.=.=.=.$.=.$.=.=.$.$.$.#.$.$.$.$.) _ $.) #.#.#.#.#.#.$.#.#.#.) ) ~ Q Q R Q Q =.=.d.R./.$.E E ) ) ~ _ $.C ~ $.$.$.$.$.) _ $.) _ _ ) $.$._ 4.$.#.~ #.=.d.8.=.#.~ ~ $.8.8.=.$.$.$.$.~ ) $.$.$.$.$.$.$.$.8.",
"N.N.N.N.N.N.N.N.v.v.b.a.r.b.b.b.v.b.v.v.v.v.v.r.7.| 6.| | | | | | ' ( ' ( ' ( ( ( K ( J ( J ( J J F l k t z h h r h e n.L./.M q T J z N V V V V B l x x x V x x l x V x V l V x x V x N V N F Z N N F N V N F l N V N D A A N F N A l V l x l c l l c j c f c c c c c c l l l c v l v F F x x z z j j c k l ; < J.G.R.j ; = = = = O # # # O 1 9 A N V W x 8 r 9 r j j h r j j j j h j h z h h h e e 8 8 8 d B M z k k z M z M M M k B z k k k k h h r d 8 5 5 < = = = = = = = = = = = = = = = = # C $.' , # # ; ` R.(.k M Z C B A ^  . .r.r.r.r.r.r.r.r.r.r.r.r.r.r. . .OXO.O. . .q.u.B.X.O.v m u 1 # o L g.{ z < q = # n W A B A B P V x b f g c g b x V B A P j 0 5 j g f g j j j g j j g j j f u j r u j < N z.Y.z.D h g r r r 9 u q j q q g f q < 0 < g < 0 g g g g q q < < < q < < g < < P C > 3 7 6 2 2 2 2 3 w s 0 q 9 j x V V S k t M B A B u r i 2 4 2 i r y B ] w ; ; - ; - > = * = * ; ; = = ; = % G 8.A z._.x M nX7Xm.0.U.7X[ q.eX%X8XeX3X@X$X&XU.7X$XN.7X%X&X$X2XU.n.q.+XwX3X8XeXa.l l m.VXzXeX%X8XrXv.|.8X-X8X%X-X3X%X8X0X",
"N.m.N.m.N.m.N.m.N. Xm.N. X XN.b.@XM.M.m.b.m.b.m.v.m.v.b.v.m.M.b.M.v.c.v.v.z.v.v.v.b.v.h.v.v.v.b.v.w.q.4.8.q.0.5.N._ k L.Y.Y.~ { Z 5.=XN.n.n.n.m.m.c.f.8.9.4.5.4.0.4.5.4.5.4.4.4.4.5.5.0.5.5.8.8.5.9.5.0.5.5.5.0.5.9.0.5.5.5.4.5.5.4.5.5.5.5.} 5.4.5.5.5.5.5.5.5.5.4.5.4.4.5.5.4.4.} 4.4.4.4.4.} } } $.~ i.*Xf 8 L.Y.E.k d h , j s. X;Xv.e.q.q.v.M.v.v.N.b.v.v.v.v.v.e.w.v.w.f.f.w.w.v.9.9.q.x.9.e.q.} G G | v.x.x.v.v.x.q.x.w.f.w.v.9.x.v.w.e.v.e.f.v.q.q.r.7.9.7.q.7.5.7.7.7.| X.X.O.J | a.7.q.u.x.M.f.q.r.j t -.Y.E.Z Z 7.v.c.v.c.v.m.N..Xm.N..X|.|.N.|..Xb.m.c..Xm.N.c..XN..Xb.U.@X:X*X,X&XU.M.c.c.:XZ.( r e o.Z.H z t.q.h.v.b.M.M.b.M.b.b.b..Xb.b.b.M.b.N.M.N.e.v.b.N.b.b.b.v.b.b.v.N.b.b.b.b.b.N.b.N.;XK E z.Y.Y._ 6.t.q.Z.M.N.b.b.N.N.b.N.N.A.A.b.Z.oXA.s.A.oXD.A.A.a.A.D.Z.A.Z.A.A.A.v.b.m.v.Z.5.^ ~ A ~ _ 0.e.v.e.e.v.b.b.N.N.b.v.M.M.b.M.b.c.c.v.v.f.w.v.N.h.5./ h 5 0 6 8 h l G K l e 5 8 8 j 7.7.} N Z ~ z.4XA Z vX7X7X*X$X3X&X*X8X8X3X3X3X*X7X8XwX7X7X2X7X%X%X2X%X%X7X&X%X%X3X3X3X%Xm.n.$X3X5X8X8X3X%X%X8X%X%X3X3X3X%X%X%X%X",
"x.n.x.n.x.n.x.x.x.x.n.x.x.x.x.x.x.x.x.x.x.x.n.x.n.n.n.x.n.n.n.x.x.n.n.n.n.n.n.n.n.n.n.n.n.n.x.n.n.c.x.f.x.n.x.M.wX4.e L.Y.Y.~ p.M N.CXeXeXwXwXwXrX5XP.m.n.n.n.n.x.x.n.n.M.x.x.x.n.x.x.f.c.x.n.x.M.x.x.x.x.c.x.n.x.x.x.x.f.x.c.x.f.x.x.x.x.x.x.x.v.c.x.x.x.x.x.x.x.x.x.x.x.x.b.M.x.f.v.x.v.x.v.f.x.v.x.^ b.cXb 8 Y.Y.Y.r e l 4 k 9.5XVX8X%XP.+X+X+X+X+XP.P.+X+X+Xm.+XP.+X+XP.m.m.P.m.m.+XP.P.m.m.U.P.x.q.9.q.+X+X+X+X+XP.+X+Xm.+X+XP.P.P.+XP.m.+Xm.+XP.m.+XP.P.+XP.P.P.+X+X+X+Xx.} $._ 4.m.$X=X@X=X+XP.n.+X5XV a -.!.Y.A Z q.+Xm.|.P.P.m.m.m.m.m.c.m.m.m.c.n.m.m.n.m.m.m.m.m.m.m.m.m.m.P.T.%X2X3X5X5X5XFXc.c 0 N q.N.b.t.v.c.m.P.P.+X+X+X+XP.+X+XP.+X+X+X+X+XP.+X+X+X+X+X+X+XP.P.+X+X+X+XP.+X$X+XP.+X+XT.%X&XJ Q l.^.J.#.} ) k.P.P.P.P.P.P.P.P.T.T.T.T.P.+XP.+X=X X|.@X+XU.+X@X+X+X+X+X+Xm.P.P.P.+X%X+XP.9.0.i.f.v.x.m.|.|.|.+X|.+X+X+X+X+X+X+X+XP.+X+X+X+X+X+X$X$X3X+Xc.H l 8 4 4 k ( | 4.9. .J I v l J m.+X$X| h N z.4XJ Z T.%X3X3X3X3X5X8X3X3X3X3X3X3X3X5X5X5X3X%X%X2X7X2X%X3X3X5X3X5X3X3X3X8XwXwX8X3X3X3X3X3X5X8X3X3X%X5X3X2X$X3X3X%X",
"n.x.n.x.n.c.x.n.c.x.n.x.n.n.x.n.c.n.n.c.x.n.x.n.n.x.x.c.n.x.c.n.n.x.x.x.n.x.x.x.n.x.x.n.x.c.n.x.n.x.x.x.x.M.x.c.%X} e T.Y.Y./ t.G =XJXpXpXNXzXzXwXP.n.x.x.f.x.x.x.f.x.f.x.x.x.x.x.x.x.x.x.x.x.f.x.x.f.x.x.x.x.x.x.x.x.f.x.x.x.x.x.x.x.x.x.P.@Xn.x.x.x.f.x.x.w.x.x.f.x.w.9.x.w.f.x.x.f.x.x.v.x.x.x.x.v.f.x.P.F h L.T._.k 8 8 > : t ' x.9.x.x.x.n.n.n.m.n.m.n.n.m.n.m.n.m.n.m.m.m.m.m.n.n.n.m.m.m.n.n.m.P.+Xm.P.+X+XP.P.m.m.+Xm.m.n.m.m.m.m.m.m.m.m.m.m.m.m.m.n.n.m.m.m.n.n.n.m.M.5.4 8 $Xm.m.m.m.m.m.m.x.m.=XB t -.Y.R.A Z 7.|.m.m.m.m.m.m.m.m.m.m.m.m.m.m.m.m.m.m.m.m.m.m.m.m.m.m.m.n.m.c.x.x.x.c.c.x.$Xe.) x.m.P.m.P.P.m.+XP.+X+Xm.P.P.P.P.P.P.P.P.m.m.m.P.m.|.m.m.m.m.m.P.m.P.m.P.m.m.m.m.m.m.P.m.P.P.P.U.G E l.Y.H.#.^ ) L.m.m.n.m.n.m.m.m.L.m.m.L.m.m.n.m.m.b. XN.n.m.n.M.m.m.m.n.n.m.M.n.n.x.M.x.n.n.M.Q.N.v.x.x.c.|.c.c.m.m.n.c.c.n.m.n.n.n.x.n.n.x.x.x.c.x.x.c.n.+X+Xx.N B %X+Xc.P.+X$X=X+X$Xm.m.m.m.+XN.4.r g.[.J e 6 n.8X3X3X3X3X3X3X3X3X3X3X3X3X3X$X+XL.m.P.%X3X3X3X3X3X3X3X3X5X8X5X3X8X5X5X3X8X3X8X3X3X%X3X3X5X2X=XU.U.2X7X7X",
"c.n.c.x.n.c.n.c.c.n.c.n.n.n.c.n.x.n.c.n.n.x.x.c.c.c.n.x.n.n.c.x.x.n.x.n.c.n.x.n.x.c.n.n.n.x.n.x.n.x.x.x.x.x.x.x.+X} e L.Y.Y.) o.Z @XGX9XeXwXeXwXzXwX7XU.x.x.x.x.x.x.x.x.x.n.x.x.x.x.x.x.x.x.x.x.x.x.x.x.x.x.x.x.x.x.x.x.x.n.x.x.x.x.x.x.n.@X*Xn.x.x.w.x.x.x.9.f.x.x.x.f.x.x.v.f.w.x.w.9.f.9.x.9.f.f.f.f.f.P.c t Y.T.(.k 8 8 N G 7.v.n.c.c.N.m.m.m.m.m.m.m.m.m.m.m.m.m.m.n.m.m.m.m.m.m.m.m.m.m.m.m.m.m.m.m.P.+Xm.P.P.P.m.m.+Xm.m.m.m.m.m.m.m.m.m.m.m.m.m.m.n.m.m.m.m.m.m.m.m.m.n.c.6.^ P.m.n.n.m.m.n.m.n.P.%XV t -.Y.E.Z G 7.|.m.m.m.m.m.m.m.m.m.m.m.m.m.m.m.m.m.m.m.m.m.m.m.m.m.m.m.m.m.m.m.m.m.m.n.n.+Xc.9.c.N.m.n.n.n.m.m.m.|.P.m.P.P.m.+XP.m.P.m.m.P.m.|.P.m.m.P.m.P.P.m.P.m.m.m.|.P.m.P.m.P.m.m.P.P.+X@XG E l.Y.Y.#.6.^ q.m.P.m.m.P.m.m.m.m.P.L.m.m.m.m.m..XP..Xm.n.m.m.n.m.m.m.m.L.P.m.m.m.m.n.x.n.m.m.M.I.N.|.c.c.c.c.c.c.m.m.m.m.m.m.m.m.m.m.m.m.m.m.m.n.c.m.|.P.+X+Xn.9.7.+Xn.c.m.m.|.m.m.m.m.m.m.m.P.m.4.r g._.F M t.&X5X3X3X3X3X3X3X3X3X3X3X3X3X5X3X%X%X$X2X3X%X2X3X%X3X3X3X3X5X3X8X8X3X3X3X8X5X3X8X3X8X3X3X%X%X%X+Xm.m.2X%X3X",
"n.x.n.n.x.n.x.n.x.n.x.x.c.x.n.x.n.c.n.x.c.n.n.n.x.n.x.n.x.c.x.n.n.x.n.c.n.x.n.c.n.n.x.x.x.n.c.n.c.n.n.x.x.n.n.c.=X_ h Y.Y.Y.~ t.Z #XCXeXeXeXwXeXVXNXVX$Xn.x.x.x.x.x.x.x.x.x.x.x.x.x.x.x.x.x.x.x.x.x.x.x.x.x.x.x.x.x.x.x.x.x.x.x.x.x.w.x.x.P..Xx.9.x.9.x.9.x.x.x.9.x.w.x.x.x.x.x.x.f.x.x.x.x.x.v.x.v.x.f.M.P.j e /.^.T.r e V E.T.m.n.n.m.n.m.m.m.m.m.m.m.m.m.m.m.m.m.m.m.m.m.m.m.m.m.m.m.m.m.m.m.m.m.m.n.m.m.m.P.m.P.+Xm.m.m.m.m.m.m.m.m.m.m.m.m.m.m.m.m.m.m.m.m.m.m.m.m.m.m.n.m.m.P.P.m.m.m.m.m.m.M.n.m.P.%XV t -.Y.R.A Z 7.+X|.m.P.m.P.m.m.m.m.m.m.m.m.m.m.m.m.m.m.m.m.m.m.m.m.m.m.L.m.P.P.P.P.|.m.m.n.n.m.m.n.m.n.n.c.m.n.m.m.m.P.m.m.m.m.P.m.m.P.m.+Xm.P.m.P.|.m.P.|.m.P.m.P.+Xm.P.m.+Xm.P.|.P.m.P.m.m.+XG Q h.^.H.#.} ~ ~ v.m.m.m.m.P.m.P.m.n.m.m.m.m.n.m.n.m.n.M.m.m.m.m.m.m.P.L.m.m.m.+XP.P.f.f.f.n.m.n.n.m.c.c.|.c.c.c.c.n.n.c.c.n.m.m.m.m.m.m.P.m.P.L.m.m.|.P.+X|.|.m.+XP.c.n.n.n.m.n.n.c.m.m.m.m.m.m.b._ e C.[.D Z 2X%X3X3X3X3X3X3X3X3X3X3X3X3X5X8X5XwXwX5X5X3X3X3X3X2X%X3X3X5X8X3X3X3X5X8X3X3X8X3X%X8X3X3X3X3X%X#X X X X=X8X8X",
"n.c.c.x.n.c.n.x.n.c.x.n.x.n.c.n.x.n.c.n.x.n.n.x.n.c.n.c.x.n.x.n.x.n.x.n.c.n.x.n.n.c.n.c.n.x.n.x.n.x.c.n.n.n.n.n.m._ e Y.(.J.) o.Z @XCXeXeXeXzXzXcXcX$Xn.f.x.x.x.x.x.x.x.x.x.x.x.x.x.x.x.x.x.x.x.x.x.x.x.x.x.n.x.x.x.x.x.x.x.x.x.x.x.x.x.x.x.x.x.x.x.x.x.f.x.x.x.x.f.9.x.w.x.w.x.9.x.w.x.x.x.x.x.x.x.f.f.n.P.l e Y.Y./.8 4 u &XT.c.n.c.m.m.m.m.m.m.m.m.m.m.m.m.m.m.m.m.m.m.m.m.m.m.m.m.m.m.m.m.m.m.n.m.m.m.m.m.m.m.m.m.m.P.+Xn.m.m.m.m.m.m.m.m.m.m.m.m.m.m.m.m.m.m.n.m.m.m.m.m.m.m.m.m.m.m.m.m.m.m.m.m.n.P.$XV p <.Y.E.Z G 7.m.m.m.m.m.m.m.|.m.m.m.m.m.m.m.m.m.m.m.m.m.P.m.m.m.m.m.P.P.m.P.m.m.P.m.+Xm.n.m.n.n.m.m.c.n.n.c.m.m.m.P.+Xm.+X+XP.m.|.P.m.m.m.m.m.m.m.m.m.m.m.m.m.m.m.m.m.m.m.n.m.m.m.m.n.m.m.+X@XG Q l.Y.H.#.~ G z.P.P.P.P.P.P.P.+Xm.|.m.n.n.m.n.n.m.m.m.m.n.m.n.n.L.L.m.m.m.m.L.m.L.m.n.n.n.n.m.P.m.m.n.c.c.|.c.|.c.m.m.m.m.P.m.m.P.P.m.P.P.P.m.m.m.m.m.m.m.m.m.m.m.n.n.m.c.c.m.m.c.m.m.m.m.m.m.m..X9.r g.4XN N R.%X3X3X3X3X3X3X3X3X3X3X3X3X3X%X3X2X3X%X3X2X2X3X3X3X3X3X3X5X3X3X8X3X5X3X5X8X3X3X3X8X3X3X8X8XwXcXzX5X5XwX8X8X",
"x.n.x.n.x.n.c.n.x.n.n.c.n.c.n.x.n.x.n.x.c.n.c.n.x.n.x.n.n.c.n.c.n.x.n.c.n.x.n.c.n.x.x.n.c.n.c.n.c.n.c.n.n.c.n.c.n._ h T.Y.J.~ t.N .XCXeXeXeXwXwXzXwXP.x.f.x.f.x.x.x.x.x.f.x.x.x.f.x.x.x.x.x.x.x.f.x.x.x.f.x.x.x.f.x.x.x.x.f.x.x.x.x.x.x.x.x.f.x.x.9.x.x.x.x.9.9.x.x.x.x.x.f.x.x.x.x.x.x.f.x.9.x.x.f.x.f.f.T.x e J.^.(.8 2 j $X$Xc.n.n.m.c.m.m.m.m.m.m.m.m.m.m.m.m.m.n.m.m.m.m.m.m.m.n.m.m.m.m.m.m.m.m.m.m.m.m.m.m.m.m.m.m.m.m.m.m.m.m.n.m.m.m.m.m.m.m.m.m.m.m.m.m.m.m.m.m.m.m.m.m.m.m.m.m.m.|.m.m.m.m.n.m.$Xx p <.Y.Y.C G q.|.m.m.m.m.m.m.m.m.m.m.m.m.m.m.m.m.m.m.m.m.m.m.m.m.m.m.m.m.m.P.m.m.P.P.m.m.n.m.m.m.m.m.M.n.c.n.m.m.m.m.m.m.m.m.m.m.P.m.m.m.m.m.m.m.m.m.m.m.m.m.m.m.m.m.m.m.m.m.m.m.m.m.m.m.L.P.@XG E l.Y.I.) ^ G g.m.P.P.m.P.P.m.m.m.m.c.m.n.n.n.n.m.n.m.L.n.n.m.n.n.n.n.m.m.m.m.m.L.m.m.n.n.n.m.P.m.m.m.|.c.c.c.|.m.m.m.m.P.m.P.m.L.m.m.L.m.m.P.m.n.m.m.P.|.m.m.c.m.m.n.n.n.m.c.m.m.n.n.m.m.m.m.n.m.f.r g._.A Z T.%X3X3X8X%X3X%X3X3X3X3X3X3X3X2X%X%X2X3X3X3X%X3X%X3X3X3X3X5X8X5X3X3X8X8X3X3X8X3X3X3X3X8X5X8XwXwXwX5X5X8X8X8X",
"n.c.n.c.x.c.x.n.n.x.n.x.n.c.n.c.x.n.x.n.x.n.c.n.c.n.c.x.n.x.n.x.n.c.x.n.x.n.x.n.c.n.c.x.c.x.n.x.n.x.n.n.c.x.n.x.n.4.z Y.Y.J.! p.Z m.DXeXeXcXeXwXzXrX=Xx.f.x.x.x.x.x.x.f.x.x.x.x.x.f.x.x.x.x.x.f.x.x.x.x.f.x.x.x.x.x.x.f.x.x.x.x.f.x.x.x.f.x.x.x.x.x.x.x.x.f.x.x.x.x.x.f.x.x.x.x.f.x.x.x.f.x.x.x.x.x.f.x.f.P.v e J.Y./.8 4 j P.$Xc.m.c.m.m.m.m.n.m.n.n.m.n.m.m.m.n.m.m.m.m.m.m.m.m.m.m.m.n.m.m.m.m.m.m.m.n.m.m.m.m.m.P.m.m.m.m.m.m.m.m.m.m.m.m.m.m.m.m.m.m.m.m.m.m.m.m.m.m.m.n.m.m.m.m.m.m.m.m.m.m.n.n.m.P.$XV t <.Y.R.Z G q.N.m.m.m.m.m.m.m.m.m.m.m.m.m.m.m.m.m.m.m.m.m.m.m.m.m.m.m.m.m.m.m.m.m.m.m.m.m.m.m.n.m.c.m.m.n.m.m.m.m.m.m.m.n.m.m.m.m.m.m.m.m.m.m.m.m.m.m.m.m.m.m.m.m.m.m.m.m.n.m.m.m.m.m.m.m.P.@XG Q h.Y.H.) ) Z ~ v.+XP.P.m.P.P.m.m.|.c.c.c.c.c.m.m.m.m.m.L.n.m.n.m.n.m.m.L.m.m.m.n.m.m.m.m.m.m.P.m.m.m.m.m.m.m.m.m.L.m.m.P.P.m.P.P.m.m.P.m.m.m.m.m.m.m.m.m.m.m.c.m.m.m.m.m.m.m.m.m.m.n.m.m.m.n.m.=Xf.9 g.[.V Z xXbX8X3X3X3X%X%X3X3X3X3X3X8X3X%X%X3X%X3X3X3X3X3X3X3X3X3X3X5X8X3X8X5X3X3X8X8X3X3X%X8X3X8X3X8X3X3X%X7X3X3X3X5X",
"x.n.x.n.n.n.n.x.c.n.c.n.x.n.n.x.n.c.n.x.c.n.n.x.n.x.n.x.n.c.n.n.n.x.n.c.n.c.n.c.x.n.x.n.n.x.n.c.n.n.x.n.x.n.x.x.n.q.N Y.Y.J.) p.H +XDXzXwX3X$X=X+Xm.x.f.w.x.x.x.x.x.x.x.x.x.x.x.x.x.n.x.x.x.x.x.x.x.x.x.x.x.x.n.x.x.x.x.x.x.x.x.x.x.x.x.x.x.x.x.f.x.x.x.x.x.x.x.x.x.x.x.x.x.x.x.x.x.x.x.x.x.x.x.x.f.x.k.f.E.F h J.Y.^.9 4 8 n.+Xn.n.m.m.m.c.m.m.m.m.m.m.m.m.m.m.m.m.m.m.m.m.m.m.m.m.m.m.m.m.m.m.m.m.m.m.m.m.m.n.m.m.m.m.m.m.m.m.m.m.m.m.m.m.m.m.m.m.m.m.m.m.m.m.m.m.m.m.m.m.m.m.m.m.m.m.m.m.m.m.m.m.m.m.m.&Xx p <.Y.L.Z G q.m.m.m.m.m.m.m.m.m.m.m.m.m.m.m.m.m.m.m.m.m.n.m.m.m.m.m.m.m.m.m.+Xm.m.m.m.m.n.m.m.m.c.m.n.m.c.m.m.m.n.m.m.m.m.m.m.m.m.m.m.n.m.m.m.m.m.m.m.m.m.m.n.m.m.m.m.m.m.m.m.m.m.m.m.m.L.P.+XG E g.Y.I.) 9._ V q.P.P.P.P.m.+XP.m.m.m.c.|.|.m.|.m.L.m.m.m.m.m.m.n.L.m.m.m.L.m.m.m.m.m.m.m.n.m.m.m.m.m.m.m.m.m.m.m.m.m.m.m.m.m.m.m.m.P.m.m.m.P.P.m.m.m.m.m.m.m.m.m.m.n.m.m.m.m.m.m.m.L.m.m.n.m.P.m.8.r g.[.J M | P.3X%X3X%X8X3X3X3X3X3X3X3X3X3X3X3X3X3X3X3X3X3X3X3X3X3X3X3X3X3X8X3X8X3X5X3X8X3X8X3X3X3X%X3X3X3X3X2X3X2X3X3X",
"n.x.n.c.x.n.n.c.n.x.n.x.n.x.n.c.x.n.c.n.n.x.n.x.x.n.x.n.n.x.c.x.x.n.x.c.x.n.c.n.n.c.n.c.c.n.c.n.c.c.n.c.n.x.x.x.m.q.N Y.^.J.~ p.( =XDXwX8Xm.m.c.x.x.9.w.x.x.x.x.x.x.x.x.x.x.x.x.x.x.x.x.n.x.x.x.x.x.x.x.x.x.x.x.x.n.x.x.x.x.x.x.x.x.x.x.x.x.x.f.x.x.w.x.x.x.x.x.x.x.x.x.x.f.x.x.x.x.9.x.x.x.f.x.x.x.x.x.n.P.F h J.Y.T.e 4 r n.+Xc.c.c.m.m.m.m.m.m.m.m.m.n.m.m.m.m.n.m.m.m.m.m.m.m.n.m.m.m.m.m.m.m.m.m.m.m.m.m.m.m.m.n.m.m.m.m.m.m.m.m.n.m.m.m.m.m.m.m.m.m.m.m.m.m.m.m.m.m.m.m.m.m.m.n.m.m.n.m.m.m.m.m.n.m.+XV p <.Y.Y.A G e.|.c.m.m.m.m.m.m.m.m.m.m.P.m.m.m.m.m.m.m.m.m.m.m.m.m.m.m.m.m.m.m.m.m.m.m.m.m.m.m.n.m.n.m.n.m.m.m.m.m.m.m.m.m.m.m.m.n.m.m.m.m.m.m.m.m.m.m.m.m.m.m.m.m.m.m.m.m.m.m.m.m.m.m.m.P.P.+XG E g.Y.H.~ d.8.z q.+Xm.P.m.P.m.+Xm.c.m.c.c.m.c.m.n.L.m.m.m.m.m.m.m.m.m.m.m.m.m.m.P.n.n.m.L.m.m.m.m.m.m.m.m.m.m.m.m.m.m.m.m.m.m.m.m.m.m.L.m.m.m.m.m.m.m.m.m.m.m.m.m.n.m.m.m.m.m.m.m.m.m.P.+Xm.m.+XM.4.i g.[.~ k 5 5.$X3X3X3X%X3X3X8X3X%X3X8X3X3X3X3X3X3X3X2X3X3X3X3X3X3X5X3X3X8X3X3X8X5X8X3X5X3X3X3X8X3X8X3X3X3X3X3X3X3X3X3X",
"c.n.x.n.n.c.n.x.x.c.n.c.c.n.x.n.n.c.n.x.n.x.c.n.n.c.n.c.c.n.c.n.c.n.n.n.n.x.n.x.x.n.x.n.n.x.n.x.x.n.x.n.x.n.x.x.m.q.Z Y.^.J.) p.M v.NX@Xv.5.f.x.n.n.n.x.x.x.x.x.x.x.x.x.x.x.x.x.x.x.x.x.x.x.x.x.x.x.x.x.x.x.x.x.x.x.x.x.x.x.x.x.x.x.x.x.x.x.x.x.x.x.x.x.x.x.f.x.x.x.w.x.x.x.x.x.x.x.x.x.x.x.x.x.f.x.x.f.f.T.v l K.Y.R.9 7 5 c.|.m.m.m.m.m.m.m.m.m.m.m.m.m.m.m.m.m.m.m.m.m.n.m.m.m.m.m.m.m.m.m.m.m.m.m.m.m.m.m.m.m.m.m.m.m.m.m.m.m.m.m.m.m.m.m.m.m.m.m.m.n.m.m.m.m.m.m.m.m.m.m.m.m.m.m.m.m.m.m.m.m.m.m.m.P.+Xx p <.Y.I.C G e.m.m.n.m.n.m.m.m.m.m.m.m.m.m.m.m.n.m.m.m.m.m.m.m.m.m.m.m.m.m.m.m.m.m.m.m.m.m.m.m.m.n.m.n.m.n.m.m.m.m.m.m.m.m.m.m.m.m.m.m.m.m.m.m.m.n.m.m.m.m.m.m.m.m.m.m.m.m.m.m.m.m.m.m.m.m.+X@XJ Q h.G.I.) 8.4.~ f.P.P.P.P.P.P.m.m.m.c.m.m.m.m.m.m.n.m.n.m.m.m.n.m.m.m.m.L.m.L.m.m.m.m.m.n.n.m.m.m.m.m.m.m.m.m.m.m.m.m.m.m.m.m.m.m.m.m.n.m.m.m.L.m.n.m.m.m.m.m.m.m.m.m.m.m.m.m.m.m.m.m.n.m.n.n.n.+Xf.9 C._./ h = 9.AX%X%X3X3X3X3X3X3X3X3X3X3X3X3X3X3X3X3X3X3X3X3X3X3X3X3X5X3X5X3X8X3X3X3X5X3X8X8X3X3X3X8X3X3X3X3X3X3X%X3X7X",
"n.x.n.x.c.n.c.n.x.n.c.n.x.n.x.c.c.n.c.x.n.c.n.c.c.n.n.n.n.x.n.c.n.x.n.x.n.x.c.n.n.c.n.c.x.n.x.n.c.n.n.n.n.x.x.x.m.v.G ^.~.K.) p.k 5.%Xc.x.9.x.x.x.x.x.x.x.x.x.x.x.x.x.f.x.x.x.x.f.x.x.x.x.x.x.f.x.x.x.x.x.x.x.f.x.x.x.x.x.x.x.x.x.x.f.x.w.x.x.x.x.x.f.x.x.x.x.x.x.x.x.x.x.x.x.f.x.x.x.f.f.x.x.x.x.x.x.k.x.+Xv c J.Y.Y.7 7 8 c.+Xn.m.m.m.m.|.m.m.m.m.m.n.m.m.m.m.m.m.m.m.m.m.m.m.m.m.m.m.m.m.m.m.m.m.m.m.m.m.m.m.m.m.m.m.m.m.m.n.m.m.m.m.m.m.n.m.m.m.m.n.m.m.m.m.m.m.m.m.m.m.m.m.m.m.m.m.m.m.m.m.m.m.m.m.P.U.V t <.Y.R.A G q.m.m.m.n.m.m.m.m.m.m.m.m.m.m.m.m.m.m.m.n.m.m.m.m.m.m.m.m.m.m.m.m.m.m.m.m.m.m.m.m.n.m.c.m.m.c.m.m.m.m.m.m.m.m.m.m.m.m.m.m.m.m.m.m.m.m.m.m.m.m.m.m.m.m.m.m.m.m.m.m.m.m.m.m.m.L.P.@XG ~ l.Y.I.~ _ $.$.v.P.m.m.m.P.m.m.m.m.m.n.m.m.m.m.m.m.m.m.m.m.m.m.m.m.m.L.m.m.m.m.m.n.m.m.m.m.L.m.n.m.m.m.m.m.m.m.m.m.m.m.m.m.m.m.m.m.m.m.m.m.m.P.m.m.m.m.m.m.m.m.m.m.m.n.m.m.m.m.n.m.m.m.m.n.c.n.+Xf.i B.[.J e 4 l 7.8X%X3X3X3X3X3X3X3X3X3X3X3X3X3X3X3X3X3X3X3X3X%X3X8X3X5X3X3X8X3X5X3X8X8X8X3X8X3X3X3X8X3X3X3X3X3X7X3X3X3X",
"c.c.n.n.n.x.n.x.n.x.n.x.n.c.n.n.n.x.n.n.x.n.x.n.n.x.c.x.x.n.x.n.c.n.c.n.n.n.x.x.x.n.n.x.n.x.n.c.n.x.c.x.c.n.x.x.m.Z.G J.!.K.) p.z  .n.w.x.x.x.x.x.x.9.f.9.9.x.x.x.x.x.x.x.x.f.x.x.x.x.x.x.x.x.x.x.x.f.x.x.x.x.x.x.x.f.x.x.x.f.x.x.x.x.x.x.x.x.f.x.x.x.x.x.x.x.w.x.f.x.x.x.f.x.x.x.x.x.x.x.x.x.x.f.x.x.f.f.+Xv v J.J.R.7 4 r c.|.c.m.c.m.m.m.m.m.m.m.m.m.m.m.m.m.m.m.m.m.m.m.m.m.m.m.m.m.n.m.m.m.m.n.m.m.m.m.m.m.m.m.m.m.m.m.m.m.m.m.m.m.m.m.m.m.m.m.m.m.m.n.m.m.m.m.m.m.m.m.m.m.m.m.m.m.n.m.m.m.m.m.m.m.P.$XV p <.Y.L.C E e.m.m.m.m.m.m.m.m.m.m.m.m.m.n.m.m.m.m.m.m.m.m.m.n.m.m.m.m.m.m.m.m.m.m.m.m.m.m.m.m.m.c.m.n.m.n.m.m.m.m.m.m.m.m.m.m.m.m.m.m.m.m.m.m.m.m.m.m.m.m.m.n.m.m.m.m.m.m.m.m.n.m.m.m.P.m.P.@XG E l.L.H.) ~ _ 8.m.P.m.m.m.m.m.P.m.m.n.m.m.|.c.m.m.n.n.n.m.m.m.m.m.n.L.m.m.L.m.m.m.m.m.m.m.m.n.m.m.m.m.m.m.m.m.m.m.m.m.m.m.m.m.m.n.m.m.m.m.P.m.m.m.m.m.m.m.m.m.m.m.m.m.m.n.m.m.m.m.m.m.m.m.m.m.m.N.8.r h.[.A e l 6 9 8X3X3X%X8X3X3X3X3X3X3X8X3X3X3X3X3X3X3X3X3X3X3X3X3X3X3X8X5X8X3X8X3X3X3X5X3X3X3X%X8X3X3X3X3X3X3X3X3X3X3X",
"n.x.c.x.c.n.x.n.c.n.c.n.x.n.x.n.c.n.x.x.n.c.n.c.x.n.n.c.x.c.n.c.n.x.n.x.c.x.c.n.n.c.n.c.n.n.c.n.x.n.x.n.x.n.x.f.m.v.~ J.R.F.) ].z ~ m.w.w.x.x.x.x.x.9.x.x.x.x.f.f.x.x.x.x.x.w.x.x.x.x.f.x.x.x.x.w.x.x.x.f.x.x.x.x.x.x.x.x.x.x.x.x.w.x.x.f.x.x.x.x.x.x.x.f.x.x.x.x.x.x.x.x.x.x.x.x.f.x.x.x.x.f.x.x.x.x.M.k.P.K v J.Y.Y.7 7 j T.$Xc.m.c.|.m.|.m.m.m.m.m.m.m.m.m.m.m.m.m.m.m.m.m.m.m.m.m.m.m.m.m.m.m.m.m.m.m.m.m.m.m.n.m.m.m.m.m.m.m.m.m.m.m.m.m.m.m.m.m.m.m.m.m.m.m.m.m.m.m.m.m.m.m.m.m.m.m.m.m.m.m.m.m.m.P.&Xl t g.Y.L.C ~ q.m.P.m.P.m.P.m.P.m.|.m.P.m.+Xm.m.m.m.m.m.m.m.m.m.m.m.n.m.m.m.m.m.m.m.m.m.m.n.m.m.m.n.m.m.m.m.m.m.m.n.m.m.m.n.m.m.m.m.m.m.m.m.m.m.m.m.m.m.m.m.m.m.m.m.m.m.m.m.m.m.m.m.m.m.m.m.P.@XG Q h.J.H.) ~ ) 4.M.m.n.c.x.n.m.m.m.n.n.m.m.|.m.m.m.m.m.m.m.m.m.m.n.m.m.m.m.m.n.m.m.m.m.m.m.m.m.m.m.m.m.m.m.m.m.m.m.m.m.m.m.m.m.m.m.m.m.m.m.m.m.m.m.m.m.m.m.m.m.m.m.m.m.m.m.m.m.m.m.m.m.m.|.n..X3Xr.D 7 g.[.V M 3X{ L wX3X%X%X8X%X3X3X3X3X3X3X3X3X3X3X3X%X3X3X3X3X3X3X3X3X3X3X3X3X3X3X3X3X3X%X3X3X8X3X3X3X3X3X%X3X3X3X3X3X3X",
"c.n.n.n.x.x.n.c.n.x.n.x.n.c.c.n.x.n.n.c.x.n.x.n.n.x.x.n.n.n.x.n.x.n.c.n.c.n.n.x.x.n.x.n.c.x.n.x.n.c.n.x.n.n.x.x.m.v.G J.Y.G.#.p.h ~ n.x.w.x.w.x.x.x.x.x.9.x.x.f.x.x.f.x.f.x.x.x.x.w.x.x.9.x.x.f.x.x.f.x.w.x.x.x.f.x.x.x.f.x.x.x.x.x.x.x.x.x.x.x.x.f.x.x.x.x.x.x.x.x.x.f.x.x.w.x.x.x.x.x.w.x.x.x.x.x.x.f.f.T.v v J.J.G.7 7 z U.$Xm.m.m.m.m.m.m.m.m.m.m.m.m.m.m.m.m.m.m.n.m.m.m.m.m.m.m.m.m.m.m.m.m.m.m.m.m.m.m.m.m.m.m.m.m.m.m.m.m.m.m.n.m.m.m.m.m.m.m.m.m.m.m.m.m.m.m.m.m.m.n.m.m.m.m.m.m.m.m.m.m.m.m.L.P.P.z t <.L.R.Z ~ v.L.P.m.P.|.m.P.m.P.m.P.m.P.m.m.m.m.m.m.m.m.m.m.m.m.m.m.m.m.m.m.m.m.n.m.m.m.m.m.m.m.m.m.m.m.m.m.m.m.m.m.m.m.m.m.m.m.m.m.n.m.m.m.m.m.m.m.m.m.m.m.m.m.m.m.n.m.m.m.m.m.m.m.m.m.P.P.+XF Q l.Y.H.~ ~ ~ _ b.+Xn.c.x.n.m.m.m.m.m.m.m.n.m.m.m.m.m.m.m.m.m.m.m.m.n.m.m.m.m.m.m.m.m.m.m.m.m.m.m.m.n.m.m.m.m.m.m.m.m.m.m.m.m.m.m.m.m.m.m.m.m.m.m.m.m.m.n.m.m.m.m.m.m.m.m.m.m.m.m.m.m.m.m.m.m.m. .l 0 B.gXV Z lX$._ wX%X3X3X3X%X3X%X8X%X%X3X3X3X3X3X3X3X8X3X3X3X3X3X3X3X3X3X3X3X3X3X3X3X8X3X3X3X3X3X3X3X8X3X3X3X3X%X3X3X3X",
"n.c.n.x.n.x.n.x.n.c.n.x.n.c.x.x.n.n.x.c.n.x.n.x.c.n.n.x.n.x.n.c.n.x.n.n.c.n.c.n.n.c.n.c.n.x.n.x.x.n.x.n.n.n.x.f.m.v.G L.Y.G.#.p.h  .m.v.x.x.w.w.c.x.x.w.w.x.x.x.x.x.f.x.x.x.x.x.x.x.x.x.x.x.f.x.x.x.x.x.x.f.f.x.x.x.x.x.x.x.x.x.x.f.x.x.f.x.x.x.x.x.x.x.x.x.x.f.x.x.x.x.x.x.x.x.x.x.x.x.x.x.f.x.f.x.x.k.f.P.K v Y.G.F.7 8 j T.%Xc.m.m.m.|.m.m.m.m.m.m.m.m.m.m.m.m.m.m.m.m.m.m.m.m.m.m.m.m.m.m.m.m.m.m.m.m.m.m.m.m.m.m.m.m.m.m.m.m.m.m.m.m.m.m.m.m.m.m.m.m.n.m.m.m.m.m.m.m.m.m.m.m.m.m.m.m.m.m.m.m.m.L.n.m.$X5 y <.R.L.C ) v.T.P.m.m.+XP.m.+X+Xm.P.m.m.m.m.m.m.n.m.m.m.m.m.m.n.m.m.m.m.m.m.m.m.m.m.m.m.m.n.m.m.m.m.n.m.m.m.m.m.m.m.m.m.n.m.m.m.m.m.m.m.m.m.m.m.m.m.m.m.m.m.m.m.m.m.m.m.m.m.m.m.n.m.m.m.m.P.@XG ~ g.~.K.) Q E $.U.8Xm.c.x.c.c.m.m.m.m.m.m.m.n.m.m.m.m.m.m.m.m.m.m.n.m.m.m.m.m.m.m.m.m.m.m.n.m.m.m.m.m.m.m.m.m.m.m.m.m.m.m.m.m.m.m.m.m.m.m.m.m.m.m.m.m.m.m.m.m.m.m.m.m.m.m.m.m.m.m.m.m.m.m.m.w.K l v 9 B.gXS Z 2XwXwX3X3X=X$X%X%X%X%X8X%X3X3X3X3X3X3X3X3X8X3X3X8X3X3X3X%X3X3X3X3X3X8X%X3X3X3X3X3X%X8X%X3X3X3X8X3X3X3X3X3X3X",
"x.n.x.n.c.n.c.n.x.n.c.n.x.n.n.n.c.x.n.n.x.n.c.n.n.x.x.c.n.c.x.n.n.x.c.x.n.x.n.x.x.n.x.n.c.c.n.c.n.c.n.x.x.n.x.x.m.v.G L.Y.G.$.D.k _ m.x.w.w.x.x.x.w.x.c.x.x.x.x.f.x.x.x.9.x.x.f.f.x.f.x.x.x.w.x.f.x.x.x.w.x.x.x.x.x.w.x.x.f.x.x.x.x.x.x.x.x.x.x.w.x.f.x.x.x.x.x.x.x.f.x.x.x.f.x.x.x.9.x.x.x.x.x.x.x.x.f.f.T.K l !.L.G.4 4 6 m.+Xm.c.m.m.c.m.m.|.m.m.m.m.m.m.m.m.m.m.m.m.m.m.m.m.m.m.m.m.m.m.m.m.m.m.m.m.m.m.m.m.m.m.m.m.m.m.m.m.m.m.m.m.n.m.m.m.m.m.m.m.m.m.m.m.m.n.m.m.m.m.m.m.m.m.m.n.m.m.m.m.m.m.m.L.P.$Xh t -.Y.R.C G  .d.n.P.m.m.m.m.m.m.P.m.m.+X+Xm.m.m.m.m.m.m.m.m.m.m.m.m.m.m.m.m.m.m.m.m.m.m.m.m.m.m.m.m.m.m.m.m.m.m.m.m.m.m.m.m.m.m.m.m.m.m.m.m.m.m.m.m.m.m.m.m.m.m.m.m.m.m.m.m.m.m.m.m.m.m.L.+X+XG E z.J.H.Q E E $.q.r.x.c.m.n.c.m.m.m.m.m.m.m.m.m.m.m.m.m.n.m.m.m.m.m.m.m.m.m.m.m.n.m.m.m.m.m.m.m.m.m.m.m.m.m.m.n.m.m.m.m.m.m.m.m.m.m.n.m.m.m.m.m.m.m.m.m.m.m.m.m.m.m.m.m.m.m.m.m.m.m.m.m.m.|.c.c. .D 7 g.gXV Z 7X7X3X8X3X%X%X3X3X3X3X3X3X%X3X3X8X%X3X3X3X%X3X3X3X3X3X3X8X3X3X3X3X3X3X3X3X3X3X3X3X3X3X3X3X3X3X3X3X3X3X3X3X3X",
"x.c.n.c.n.x.c.n.x.n.x.n.n.c.n.x.x.n.n.x.n.c.n.c.c.n.c.n.n.x.n.c.n.c.n.x.c.n.x.n.n.c.n.x.n.x.x.n.n.x.c.n.n.x.x.x.m.v.H L.Y.G.#.].h ^ N.x.x.x.w.c.w.x.w.x.x.x.x.x.x.x.x.x.x.x.x.x.x.x.x.x.x.x.x.x.x.x.x.x.x.x.x.x.x.f.x.x.x.x.x.x.x.x.x.x.x.x.f.x.x.x.x.x.x.f.x.x.x.x.x.x.x.x.x.x.x.x.x.x.x.x.x.x.x.x.x.f.n.P.K l J.J.H.4 4 0 m.+Xc.m.m.m.m.m.m.m.m.m.m.m.m.n.m.m.m.m.m.m.m.m.m.m.m.m.m.m.m.m.m.m.m.m.m.m.m.m.m.m.m.m.m.n.m.m.n.m.m.m.m.m.m.m.m.m.m.m.m.m.m.m.m.m.m.m.m.m.m.m.m.m.m.m.m.m.m.m.m.m.m.n.m.n.P.=Xx k g.Y.L.C G G ~ 9.+Xm.P.m.+XP.m.m.+Xm.P.m.m.m.m.m.m.m.m.m.m.m.m.m.m.m.m.m.m.m.m.m.m.m.m.m.m.m.m.m.m.m.m.m.m.m.m.m.m.m.m.m.m.m.m.m.m.m.m.m.m.m.m.m.m.m.m.m.n.m.m.m.m.m.m.m.m.m.m.m.m.m.m.P.P.+XG E g.Y.H.Q W ~ ~ _ 4.x.m.+Xm.m.m.m.m.m.m.m.m.m.m.m.m.m.m.m.m.m.m.m.m.m.m.m.m.m.m.m.m.n.m.m.m.m.m.m.m.m.m.m.m.m.m.m.m.m.m.m.n.m.m.m.m.m.m.m.m.m.n.m.m.m.n.m.m.m.m.m.m.m.m.m.m.m.m.m.m.m.c.m.m.|.%XN.^ 0 B.4XB Z 7X3X3X8X3X3X8X%X%X3X3X%X3X3X3X3X3X3X3X3X3X3X3X3X3X3X3X3X3X3X3X3X3X3X3X3X3X3X3X8X3X3X3X3X3X3X3X3X3X3X3X3X3X3X",
"n.n.x.n.c.n.x.n.n.x.c.n.x.n.c.n.n.c.c.n.x.n.x.n.n.x.n.x.c.n.x.n.x.n.c.n.n.x.n.c.n.x.c.n.x.n.n.n.n.c.n.x.x.n.x.f.m.v.G L.Y.G.#.p.h Z x.x.w.x.x.w.x.c.w.x.w.x.x.x.x.x.x.x.x.x.x.x.x.x.x.x.x.x.x.x.x.x.x.x.x.x.x.x.x.x.x.f.x.x.x.f.x.x.f.x.x.x.x.x.f.x.x.x.x.x.x.x.9.x.x.x.f.x.w.x.f.x.x.x.x.f.x.x.x.x.x.f.f.T.K c Y.G.k.* 8 7. XP.c.m.c.m.|.m.m.m.m.m.m.m.m.m.m.m.m.m.n.m.m.m.n.m.m.m.m.m.n.m.m.m.m.m.n.m.m.m.m.m.m.m.m.m.m.m.m.m.m.m.m.m.m.m.m.m.m.m.m.m.m.m.m.m.m.m.m.m.m.m.m.m.m.m.m.m.m.n.m.m.m.m.m.m.L.&X| E ;.R.R.C ~ G > J $Xm.m.P.m.m.|.P.+Xm.m.P.m.m.m.m.n.m.m.m.m.m.m.m.m.m.m.m.m.m.m.m.m.m.m.m.m.m.m.m.m.m.m.m.m.m.m.m.m.m.m.m.m.m.m.m.m.m.n.m.m.m.n.m.m.m.m.m.m.m.m.m.m.m.m.m.m.m.m.m.m.m.m.m.P.@XJ Q l.J.H.) E Z Z 4.m.c.m.m.c.c.c.m.m.m.m.m.m.m.m.m.m.m.m.m.m.m.m.m.m.m.m.m.m.m.m.m.m.m.m.m.m.m.m.m.m.m.m.m.m.m.m.m.m.m.m.m.m.m.m.m.m.m.m.m.m.m.m.m.m.m.m.m.m.m.n.m.m.m.m.m.m.n.m.m.m.m.c.m.m.m.m.+Xx.i g.gXV Z 5X5X8X8X3X3X3X3X3X3X3X3X8X%X3X3X3X3X3X3X3X3X3X3X3X3X3X3X3X3X3X3X3X8X3X3X3X3X3X3X3X3X3X3X3X3X3X3X%X3X3X3X3X7X",
"c.n.c.n.x.n.n.x.c.n.x.n.x.n.n.c.x.n.x.n.c.x.n.c.x.n.x.n.n.c.n.x.n.c.n.c.n.x.x.n.x.c.x.n.c.n.x.x.c.x.n.x.n.c.n.x.m.b.G Y.Y.G.#.D.r } m.x.x.x.x.x.x.x.x.w.x.x.x.x.x.x.f.x.x.x.f.x.x.x.f.x.x.f.x.x.f.x.x.f.x.f.x.w.x.x.x.f.x.x.x.x.x.x.x.x.x.x.x.x.x.x.x.9.x.x.x.f.x.x.x.x.f.x.x.x.x.f.x.x.x.x.f.x.x.f.x.x.x.U.K l J.G.H.; e h.+Xm.m.m.c.|.m.m.m.m.m.m.m.m.m.m.m.m.m.m.m.m.m.m.m.m.m.m.m.n.m.m.m.m.m.m.m.m.n.m.m.m.m.m.m.m.m.m.m.m.m.m.m.m.m.m.m.m.n.m.m.m.m.m.m.m.m.m.m.m.m.m.m.n.m.m.m.m.m.m.m.m.m.m.m.L.P.+XF M <.Y.L.W G ^ : ~ %Xn.n.m.m.m.P.m.m.m.P.m.P.m.m.m.m.m.m.m.m.m.m.m.m.m.m.m.m.m.m.m.m.m.m.m.m.m.m.m.m.m.m.m.m.m.m.m.m.m.m.m.m.m.m.m.m.m.m.m.m.m.m.m.m.n.m.m.m.m.m.m.m.m.m.m.m.m.m.m.m.m.m.L.P.+XG E z.Y.H.Q ~ G C 4.n.m.m.|.m.m.m.m.m.m.m.m.m.m.m.m.m.m.m.m.m.m.m.m.m.m.m.m.m.m.m.m.m.m.m.m.m.m.m.m.n.m.m.m.m.m.m.m.m.m.m.m.m.m.m.m.m.m.m.m.m.m.m.m.m.m.m.m.m.m.m.m.m.m.n.m.m.m.m.m.m.c.m.m.m.|.n.|.x.i g.4XA Z 7X8X3X3X3X%X8X%X8X%X%X8X8X3X3X3X3X3X3X3X3X3X3X3X3X3X8X%X3X3X3X3X3X3X3X3X3X3X3X3X3X3X3X3X3X3X3X3X3X3X3X%X3X7X",
"n.x.n.x.n.x.x.c.n.x.n.c.n.c.x.n.n.c.n.x.n.n.x.n.n.c.n.c.x.n.c.n.x.n.x.n.n.c.n.c.n.n.n.c.n.x.n.c.x.n.c.n.x.n.x.f.N.v.G Y.Y.F.*.].8 4.+Xx.w.x.x.x.c.x.x.c.x.x.x.x.x.x.x.x.x.x.x.x.x.x.x.x.x.x.x.x.x.x.x.x.x.x.x.x.x.x.x.x.w.x.x.x.f.x.x.x.x.f.x.x.x.x.x.x.x.x.x.x.x.x.x.f.x.x.x.x.x.x.x.x.x.x.x.x.x.x.x.f.f.+XK l K.J.J.> M d.m.+Xc.m.m.m.m.|.m.|.|.m.m.m.m.m.m.m.m.m.m.m.m.m.m.m.m.m.m.m.m.n.m.m.m.m.n.m.m.m.m.m.m.m.m.m.m.m.m.m.m.m.m.m.m.m.m.m.m.m.m.m.m.m.m.m.m.m.m.m.m.m.m.m.m.m.n.m.m.m.m.m.m.m.m.m.L.+Xh t g.Y.Y.E ~ ^ r X.%Xx.n.P.P.P.m.m.m.m.P.m.m.m.m.m.m.m.m.m.m.m.m.m.n.m.m.m.m.m.m.m.m.m.m.m.m.m.m.n.m.m.m.m.m.m.m.m.m.m.m.m.m.m.m.n.m.m.m.m.n.m.m.m.m.m.m.m.m.m.m.m.m.m.m.m.m.m.m.m.m.m.P.m.P.@XJ Q g.L.H.) ~ G M 4.n.|.m.n.m.m.m.m.m.m.m.m.m.m.m.m.m.m.m.m.m.m.m.m.m.m.m.m.m.m.m.m.m.m.m.m.n.m.m.m.m.m.m.m.m.m.m.m.m.n.m.m.m.m.m.m.m.m.m.m.m.m.m.m.m.m.m.m.n.m.m.m.m.m.m.m.m.m.m.m.m.m.m.m.m.m.n.+Xf.6 B.[.B N 7X7X3X8X3X3X3X3X3X%X%X3X%X3X3X3X3X3X3X3X8X3X8X3X%X3X3X3X3X3X%X3X3X3X3X3X3X3X3X8X3X3X3X3X3X3X3X8X3X3X3X3X=X3X",
"x.n.x.n.c.n.c.n.c.n.c.n.x.x.n.x.x.n.c.n.c.x.c.n.x.n.x.n.x.n.x.n.n.x.c.n.x.n.x.n.x.n.x.n.c.n.c.n.n.x.n.x.n.c.x.x.m.v.G J.^.G.#.s.k q.+Xx.x.x.x.x.x.w.c.x.x.x.x.x.x.x.x.x.x.x.x.x.x.x.x.x.x.x.x.x.x.x.x.x.x.x.x.x.x.f.x.x.x.x.x.x.x.x.x.9.x.x.x.x.x.f.x.x.x.f.x.x.x.x.x.x.x.x.f.x.x.x.x.w.x.x.x.x.x.x.x.x.x.P.K D K.G.G.6 8 / m.+Xc.m.m.m.m.m.m.m.m.m.n.m.m.m.m.m.m.m.m.m.n.m.m.m.m.m.m.m.m.m.m.m.m.m.m.m.m.m.m.m.m.m.m.m.m.m.m.m.m.m.m.m.m.m.n.m.m.m.m.m.m.m.m.m.m.m.m.m.m.m.m.m.m.m.m.m.m.m.m.m.m.n.m.L.m.$Xh t l.Y.L.E G ^ L.&X+Xn.m.n.m.m.m.P.L.m.m.m.m.m.m.m.m.m.m.m.m.m.m.m.m.m.m.m.m.m.m.m.m.n.m.m.m.m.m.m.m.m.m.m.m.m.m.m.m.m.m.m.m.m.m.m.m.m.m.m.m.m.m.m.m.m.m.m.m.m.m.m.m.m.m.m.m.m.m.n.m.m.m.m.+X@XG Q z.L.H.~ ~ ~ Z 4.m.m.|.m.|.m.m.m.m.m.m.m.m.m.m.n.m.n.m.m.m.m.m.m.m.m.m.m.m.m.m.m.m.m.m.m.m.m.m.m.m.m.m.m.m.n.m.m.m.m.m.m.m.m.m.m.m.m.m.m.m.m.m.m.m.m.m.m.m.m.m.m.m.m.m.m.n.m.m.m.m.m.m.m.m.|.m.P.x.6 B.gXA Z $X3X8X3X3X3X3X8X%X3X3X%X8X3X3X3X3X3X3X3X%X3X3X3X3X3X3X3X3X3X3X3X8X3X8X3X3X3X3X3X3X3X3X%X3X3X3X3X3X3X3X3X%X%X",
"n.c.n.c.n.x.x.n.n.x.n.x.n.c.c.n.n.c.n.x.n.x.n.x.n.c.c.n.n.x.c.n.c.n.x.n.x.c.n.c.n.x.n.c.n.x.n.x.n.c.c.n.x.n.x.x.m.v.G Y.Y.F.) p.k  .m.x.w.x.x.x.x.x.x.x.x.x.x.x.x.x.x.x.x.x.f.x.x.x.x.x.x.f.x.x.x.x.x.x.x.x.x.x.x.x.x.x.x.x.x.x.x.x.x.x.x.x.x.f.x.x.x.x.x.x.x.x.x.x.x.x.x.x.x.x.x.x.x.x.x.f.x.x.f.x.x.x.n.P.K N K.J.G., 7 M m.+Xm.m.c.m.m.m.|.m.m.m.m.m.m.m.m.m.m.m.m.m.m.m.m.m.m.m.m.m.m.m.m.m.m.m.m.m.m.m.m.m.m.m.m.m.m.m.m.m.m.n.m.m.m.m.m.m.m.m.m.m.m.m.m.m.m.m.n.m.m.m.m.m.m.m.m.m.m.m.m.m.m.m.m.m.P.&Xj t g.Y.R.Z ~ ) 8.x.L.m.m.n.n.m.m.m.m.m.m.P.m.m.m.m.m.m.m.m.m.n.m.m.m.m.m.m.m.m.n.m.m.m.m.m.m.m.m.m.m.n.m.m.m.m.m.m.m.n.m.m.m.m.m.m.m.m.m.m.m.m.m.m.m.m.m.m.m.m.m.m.m.m.m.m.m.m.m.m.m.m.m.P.m.+XG ~ g.L.k.Q Z G Q 9.|.m.m.m.m.m.m.n.m.m.m.m.m.m.m.m.m.m.m.m.m.m.n.m.m.m.m.m.m.m.m.m.m.m.m.m.m.m.m.m.m.m.m.m.m.m.m.m.m.m.m.m.n.m.m.m.m.m.m.m.n.m.m.m.m.m.m.m.m.m.m.m.m.m.m.m.m.m.m.m.m.m.m.m.m.m.m.+X9.4 0.gXA N &X3X3X8X8X%X3X%X3X3X3X3X3X%X3X3X%X8X3X3X3X3X3X3X3X3X3X3X3X3X3X3X3X3X3X3X%X3X3X3X3X3X3X3X3X8X3X3X3X3X3X3X%X5X",
"n.c.n.c.n.n.x.n.x.n.c.n.x.n.n.x.c.n.c.x.x.n.x.n.x.n.n.c.x.n.c.n.n.x.n.x.n.x.x.n.c.n.c.x.x.n.x.n.x.n.x.n.n.x.x.x.m.v.G J.~.F.) p.5 N 4.w.x.c.x.x.x.c.x.c.x.x.x.x.f.x.w.x.x.x.x.x.x.x.x.x.w.x.x.x.x.x.x.x.x.w.x.x.x.x.x.x.w.c.x.x.x.x.x.f.x.x.f.x.x.x.f.x.x.x.x.x.x.x.x.x.x.x.x.x.x.x.x.x.x.f.x.x.x.w.x.x.x.P.K G K.J.G.5 , 9 |.+Xc.m.m.m.|.P.m.m.|.n.m.m.m.m.m.m.m.P.m.m.P.P.m.m.m.m.m.m.m.m.m.m.m.m.m.m.m.m.m.m.m.m.m.P.m.m.m.m.m.m.m.m.m.m.m.m.m.m.m.m.m.m.m.m.m.m.m.m.m.m.m.m.m.m.m.m.m.m.m.m.m.m.m.L.m.$Xh t g.Y.L.E ~ ^ < N m.m.m.m.m.m.P.m.m.m.m.m.m.m.m.m.m.m.m.m.m.m.m.m.m.m.m.m.m.m.m.m.m.m.m.m.m.m.m.m.m.m.m.m.m.m.m.m.m.m.m.m.m.m.n.m.m.m.m.m.m.m.m.m.m.m.m.m.m.m.m.m.m.m.m.m.P.m.P.m.+Xm.m.P.P.+XG Q g.Y.z.Z N Z g.I.m.m.m.m.m.m.m.m.m.m.m.m.m.m.m.m.m.m.m.m.m.m.m.m.m.m.m.m.m.m.m.m.m.m.m.m.m.m.m.m.m.m.m.m.m.m.m.m.m.m.m.m.m.m.m.n.m.m.m.m.m.m.m.m.m.m.m.m.m.m.m.m.m.m.m.m.m.m.m.m.m.m.m.m.m.m.n.+Xf.6 0.[.A k N.*X8X3X8X3X3X3X%X3X3X3X3X%X3X3X3X3X3X3X8X3X3X3X3X3X8X3X3X3X3X3X3X3X3X3X3X3X3X3X5X3X3X8X3X3X3X3X3X3X5X8X3XrX",
"x.n.x.n.x.x.n.x.n.x.n.x.n.n.x.n.x.n.x.n.n.x.n.c.n.x.n.x.n.x.n.x.x.n.x.n.c.n.n.x.n.x.x.n.n.x.n.x.n.c.n.x.x.n.x.x.m.v.~ J.^.G.) ].k ^ m.x.w.c.w.x.x.x.x.w.x.x.w.x.x.x.x.x.x.r.w.x.x.w.x.w.x.x.x.x.x.x.x.f.x.x.x.x.w.x.x.w.x.x.w.c.x.x.x.x.x.x.x.x.x.x.x.x.x.x.f.x.x.x.x.x.x.x.x.w.f.x.x.x.x.x.x.x.x.x.x.x.w.m.H Z H.J.L.4 4 j |.+Xc.m.n.+Xm.P.|.m.m.m.m.m.m.m.n.m.m.m.P.m.m.m.L.m.P.m.m.m.m.m.m.m.m.m.m.m.m.m.m.m.m.m.m.P.m.m.m.m.m.m.m.m.m.m.m.m.m.m.m.m.m.m.m.m.m.m.m.m.m.m.n.m.m.m.m.m.m.m.m.m.m.m.m.m.P.&Xj t g.Y.R.R ~ ^ E Z C n.U.P.m.P.m.m.L.m.m.P.m.m.m.m.m.m.m.m.m.m.m.m.m.m.m.m.m.m.m.m.m.m.m.m.m.m.n.m.m.m.m.m.m.m.m.m.m.m.m.P.m.m.+Xm.m.m.m.|.m.m.m.P.m.m.P.m.m.m.+Xm.m.m.m.m.m.+Xm.P.+Xm.P.m.P.@XF E z.Y.n.Z M k G b.+Xc.m.m.m.m.m.m.m.m.m.m.n.m.m.m.m.m.m.m.m.m.m.m.m.m.m.m.m.m.m.m.m.m.m.m.m.m.m.m.m.m.m.m.n.m.m.m.m.m.n.m.m.m.m.m.m.m.m.m.m.m.m.m.m.m.n.m.m.m.m.m.m.m.m.m.m.m.m.m.m.m.m.m.m.m.m.P.9.< V.gXA Z $X%X3X8X3X3X3X3X3X3X3X%X3X3X3X%X3X3X3X3X3X3X3X3X3X3X3X3X3X3X3X3X3X%X3X3X3X%X3X3X%X3X%X3X3X%X3X%X3X3X3X%X5XrX",
"n.x.n.x.n.x.x.n.c.n.x.n.x.n.n.x.c.n.n.n.x.n.n.n.c.n.x.n.x.n.c.n.n.x.x.n.n.x.n.n.c.n.n.n.n.n.n.x.c.n.x.n.n.n.c.x.m.v.G Y.J.G.) p.z } P.x.x.x.x.c.x.x.c.x.x.w.w.c.x.c.w.x.x.x.x.x.x.x.x.c.x.x.x.x.x.x.x.x.x.x.x.x.c.w.x.w.w.x.x.w.x.f.x.x.x.x.x.x.x.x.x.x.x.x.x.x.x.x.x.x.x.x.x.x.x.x.x.x.x.x.x.x.x.x.x.x.n.P.J N F.G.L.6 8 z .X+Xm.m.m.m.m.P.m.m.m.m.m.m.m.n.m.m.m.m.m.m.m.P.m.m.m.m.m.m.m.m.m.m.m.m.m.m.n.m.m.m.m.n.m.m.n.x.n.m.m.m.m.m.m.m.m.m.m.m.m.m.m.m.m.m.m.m.m.m.m.m.m.m.m.m.n.m.m.m.m.m.m.n.m.n.P.$Xh t <.Y.Y.C ~ ^ h.u.N n.+Xm.P.m.m.m.m.m.m.P.m.m.m.n.m.m.m.m.m.m.m.m.m.m.m.m.m.m.m.m.m.m.m.m.m.m.m.m.m.m.m.m.m.m.m.m.m.m.m.P.+XP.m.m.m.+XP.P.+Xm.+Xm.P.m.P.m.m.m.m.m.m.+XP.m.m.|.m.m.m.m.m.P.P.+XG E l.Y.k.N k h k q.+Xc.m.|.m.m.m.m.m.m.m.m.m.m.m.m.m.m.m.n.m.m.m.m.m.m.m.m.m.m.m.m.m.m.m.m.m.m.m.m.m.m.n.m.m.m.m.m.m.m.m.m.m.m.m.n.m.m.m.m.m.m.m.m.m.m.m.m.m.m.m.m.m.m.m.m.m.m.m.n.m.m.m.m.m.|.m.|.9.6 0.gXA C *X3X3X8X3X%X3X3X3X3X5X%X3X%X3X%X3X3X3X3X3X%X3X3X%X3X%X3X3X%X3X5X3X3X3X%X%X3X3X3X3X3X3X3X3X3X3X3X3X3X3X8XwXcX",
"x.n.x.n.x.n.n.x.n.x.n.x.n.x.x.n.x.x.n.x.n.x.n.f.n.x.n.x.n.x.n.x.n.x.n.x.x.n.x.n.n.x.n.x.x.n.x.n.n.x.n.x.n.n.n.M.I.7.D G.Y.G.) ].k _ n.w.w.x.x.x.c.w.x.x.x.x.x.x.x.w.x.w.x.x.r.x.w.x.w.c.x.x.w.x.x.x.x.x.x.x.x.w.x.c.w.x.x.x.x.x.x.x.x.x.x.x.x.x.x.w.x.x.x.x.x.x.x.x.x.x.x.x.x.x.x.x.f.x.x.f.x.f.f.x.x.x.x..XK N J.Y.G.e 7 B +X$Xn.m.m.m.m.m.m.m.m.m.m.m.m.|.m.+XP.P.P.m.m.m.P.m.m.P.|.m.m.m.m.m.m.n.n.n.|.m.m.m.m.+Xm.+Xq.C $.9.m.m.|.|.+Xm.|.+X+Xm.|.m.m.P.m.L.m.P.m.P.m.P.P.m.P.m.m.L.P.m.m.P.P.L.P.n.P.$Xj k l.Y.Y.W G ^ m.m.P.P.P.P.m.P.P.P.P.P.P.m.m.P.|.+Xm.+Xm.P.m.+Xm.|.m.+XP.m.m.+XP.|.+XP.m.|.+Xm.P.|.+Xm.P.m.|.P.m.+Xm.+Xm.|.m.m.+Xm.m.m.P.m.m.P.m.P.m.P.m.P.+XP.m.+Xm.+Xm.P.P.m.m.m.m.m.m.m.m.@XF E g.^.k.N k 8 , } +Xm.m.m.|.m.m.|.m.+Xm.m.P.m.+Xm.m.P.m.+Xm.P.|.m.m.P.m.P.P.m.P.m.P.m.P.m.m.+Xm.m.+Xm.+Xm.m.+Xm.+Xm.P.m.P.m.+Xm.+X|.P.m.m.m.m.P.m.m.L.m.m.m.m.P.m.m.P.m.m.P.m.m.m.m.m.m.m.m.m.n.|.x.6 u.4XA C T.7X8X3X8X3X3X8X3X8X7X%X3X7X2X3X%X3X3X%X3X3X%X5X8X5X3X3X8XeX%X%X%X%X3X%X3X%X%X%X%X3X%X3X%X%X3X%X%X%X%X3X8XrX",
"n.n.n.x.x.n.n.n.x.n.x.n.n.n.x.n.n.n.x.n.n.x.x.n.k.n.x.n.x.n.x.n.n.x.n.n.n.n.n.x.x.n.x.n.x.n.M.x.x.x.n.n.M.m.m.P.N.v.G F.J.n.) p.M _ M.w.x.x.x.x.x.x.x.c.x.x.x.x.x.r.c.x.w.c.w.c.x.x.x.x.x.x.x.x.x.n.x.x.x.n.x.x.x.x.c.x.w.c.x.x.x.x.x.x.x.x.n.x.x.n.x.x.x.n.x.x.x.x.x.x.x.x.x.f.x.x.f.x.x.x.x.x.x.x.x.x.c.|.D N J.G.G.e w z =X+Xm.P.L.m.m.P.m.m.m.m.m.m.m.P.m.P.m.P.m.P.+XP.m.P.m.+Xm.m.|.m.m.m.m.|.m.c.m.|.|.m.P.P.m.P.$.y f.f.m.m.m.m.m.|.m.m.m.m.m.m.m.m.m.m.m.m.n.L.m.m.L.m.m.m.m.m.L.m.m.m.m.m.L.n.P.$Xj t <.Y.R.E G ^ n.m.m.m.m.m.m.m.m.m.m.m.m.m.m.m.m.m.m.m.m.m.m.m.m.m.m.m.m.m.m.m.m.m.n.m.m.m.m.m.m.m.m.m.m.m.m.m.m.m.m.m.m.m.m.m.m.m.m.m.m.m.m.P.m.m.m.P.m.m.m.m.m.m.m.m.m.m.m.m.m.m.m.m.m.m.P.U.D E g.^.k.N N h j 7.+Xm.P.|.m.m.+Xm.P.m.P.+Xm.+Xm.P.m.P.m.+XP.m.+Xm.P.m.P.|.m.P.|.m.m.P.m.P.+Xm.m.+Xm.m.+Xm.+Xm.m.m.P.m.P.P.m.|.P.m.m.P.m.m.P.m.L.m.m.m.m.m.m.L.m.m.m.m.m.n.L.m.m.L.P.m.m.m.n.n.n.m.f.6 g._.A p $.$X8X8X3X8X3X8X5X5X5Xc.^ H 7X8X3X3X%X8X8X8X5X8XwX8X5XzX*X9._ m.wX3X3X8X3X5X8X5X3X3X5X8X3X5X3X8X5X3X3X3X%X3X",
"x.x.x.x.n.x.x.x.x.n.x.x.x.x.x.x.x.x.n.x.x.x.n.x.x.x.x.n.n.x.x.x.x.n.x.x.x.x.x.n.x.x.n.x.x.x.x.c.x.n.x.x.b.m.M.N.+Xv.) F.G.L.~ t.z _ n.9.9.x.w.x.x.x.x.x.x.x.x.x.w.x.w.x.c.w.x.x.w.w.x.x.x.x.x.n.n.n.k.x.x.x.x.x.c.w.w.x.w.x.x.x.x.x.n.x.n.x.x.n.x.x.x.n.x.n.n.x.x.x.x.x.x.x.x.x.f.x.x.f.f.f.x.x.f.f.x.x.x.|.D N Y.G.G.k 7 u m.+Xm.m.m.m.m.m.m.m.m.n.n.m.m.m.P.m.m.m.P.m.m.m.m.m.m.m.m.m.c.m.c.c.m.c.m.c.c.c.m.m.m.m.m.$XG - P.P.c.c.c.m.c.n.n.c.m.n.n.n.n.n.n.m.n.n.n.n.n.m.n.n.n.n.n.n.n.m.n.n.n.n.n.n.m.$Xj k <.Y.Y.) Z ^ M.m.n.m.m.n.c.m.n.c.m.n.m.n.c.m.c.n.m.m.m.c.m.n.c.m.m.c.c.m.m.n.m.c.c.m.m.n.m.c.n.c.c.m.m.n.n.m.c.m.n.n.m.m.m.m.m.n.m.m.m.m.m.n.n.m.m.m.m.m.m.m.m.m.m.m.m.m.m.m.n.m.m.m.m.n.m.@XF C g.^.l.M Z l 8 4.+Xm.m.m.m.P.m.m.m.|.m.m.m.m.m.|.m.m.m.m.m.m.m.m.|.m.m.m.m.m.m.m.m.|.m.m.m.m.m.m.m.m.m.m.m.m.m.P.m.m.m.m.P.m.m.|.m.m.m.n.m.n.n.n.m.n.n.L.n.n.n.m.m.L.m.m.n.m.n.n.m.n.k.n.n.n.c.n.9.i u./.W t [ :X5X%X3X%X%X3X5X3X=X Xv = $XrXwX%X%X8X5X8XwXwXwXwXwXVXv.y B D.BX8XwX8X8XwX8X8XwXwX8X8XwX8X8X8X8XwX8X8X%X*X",
"m.m.P.m.n.m.P.m.m.m.m.L.m.m.m.m.m.m.L.m.P.m.m.m.m.m.m.m.m.m.m.L.m.m.m.m.m.L.m.m.m.m.L.m.P.m.m.m.P.m.P.m.P.+XU.+X&XM._ G.K.G.) p.~ n.3Xm.m.m.m.m.P.m.P.P.m.P.+Xm.|.|.m.|.m.|.|.m.|.m.P.P.P.P.P.P.P.P.T.P.P.P.P.P.|.P.|.m.|.+XP.P.P.P.P.T.P.P.+XP.L.P.T.+XT.+X+XP.P.P.m.$X%X5XP.P.P.P.m.n.n.n.m.n.n.n.n.n.&XZXA._ F.L.J.9 7 y %X5XL.P.P.P.P.P.P.P.m.+XP.m.P.P.P.P.P.P.P.P.P.P.+XP.P.P.+Xm.|.m.m.|.|.+Xm.|.|.m.|.m.P.P.P.P.f.4.$X$Xm.|.|.|.+X+X+X+X+X+X+X+XP.+XP.+XP.+XP.P.+XP.T.P.+X+XP.P.+XP.P.P.P.P.T.P.T.2Xc t 3.^.L.! ) q.P.P.P.m.P.m.m.+Xm.+Xm.m.P.m.m.m.P.P.P.m.m.P.m.P.P.P.P.m.P.m.P.m.P.+X+X+XP.P.+X+XP.P.+X+X+X+XP.+X+X+XP.+X+X$X+X+X+X$X+X+X+X+X+X$X+X$X+X+X+X+XT.+X+X+X$X+X+XT.+XP.P.P.P.P.P.m.+X@XG ~ g.^.z.Z ) $.Z 9.$X+X+X$X+X+X+X$X$X+X=X+X+X+X$X+X+X=X$X+X+X$X+X$X$X+X+X$X$X+X+X+X+X+X+X$X+X+X+X+X+X$X+X$X=X+X+X$X$X+X+X+X+X+X=X+X+X$X+XT.P.+XT.P.P.T.T.+XT.P.+X$XP.$XT.+XT.$XT.$XT.+X$X+XP.+X+X+Xn.3 0._./ R 6XcXzXVXeX5XwXwXeXwXwXFX>XD 4 ( cXrXcXwXcXeXO.(  .( 7.NX*X4.k D.NXrXwXcXcXwXwXzXcXtXwXwXzXcXwXwXzXcXwXzX*X;X",
"v.v.v.f.v.f.v.v.v.w.v.v.f.v.v.v.v.v.v.w.f.v.v.v.v.v.v.v.v.w.v.v.f.v.v.v.w.v.e.v.v.v.v.w.f.v.v.f.f.v.f.v.v.M.N.N.N.h.) F.K.J.W o.W V.:Xv.v.r.e.v.q.v.v.v.v.v.v.v.e.v.v.e.e.e.v.e.e.v.v.v.v.x.M.v.v.v.v.v.x.b.v.v.e.e.e.v.v.e.v.v.v.v.v.v.q.A.Q.x.q.v.v.x.v.x.v.v.v.e.e.e.Q.:XN.v.v.e.e.9.7.9.7.9.7.9.9.q.N.AXA.G F.J.G.8 7 u b.m.c.v.c.M.v.M.v.v.v.v.v.v.v.v.v.c.v.c.b.v.c.v.v.c.v.c.v.v.v.c.v.v.v.r.v.c.c.v.v.v.v.c.x.b.v.Z.U.m.v.c.c.N.c.b.N.b.b.b.b.N.M.M.M.b.M.M.b.M.M.b.b.M.b.M.M.M.b.M.M.b.b.M.b.b.b.N.j t <.Y.L.Q Z ' b.v.v.v.b.v.v.b.b.v.b.b.v.b.b.b.b.v.b.b.v.b.v.b.v.v.v.c.b.b.v.v.b.b.b.b.N.m.b.N.N.m.b.b.M.N.b.m.b.b.b.m.N.N.N.m.N.m.+XN.m.U.m. Xm.N.U.m.m. Xm.N.@Xm.m.N.P..XN.m.M.m. Xm.N.n.N.XXJ C l.^.I.E ~ t./ 5.v.w.r.v.w.v.c.r.r.w.v.w.v.c.r.w.v.v.r.e.c.r.e.c.r.e.c.r.e.c.c.c.c.v.c.r.v.c.r.e.c.r.e.c.w.e.c.r.w.v.r.c.v.w.v.w.w.w.w.v.v.w.f.v.v.e.w.w.f.v.f.9.q.f.9.9.9.9.9.9.9.9.f.9.5.9.5.b.} r 0./.E C 0.9.n.P.9.5.x.v.m.m.n.P.5.N 4 h 9.9.8.5.9.9.7 7 h e k x.9.~ w N f.9.9.5.8.9.4.9.4.8.9.8.5.9.9.8.5.9.9.9._ G ",
"e 8 h h 8 e d e 8 h d d h 8 8 h h d 8 h h e d h 8 e h 8 h d e d h 8 h e h d e h d 8 h e d 8 h e 8 h 8 h c c k l M l v F.K.J.k n 2 7 k d 8 , 5 0 5 8 9 8 8 0 0 4 5 4 5 5 5 5 6 5 5 5 4 5 7 5 8 4 8 0 5 8 5 8 5 4 5 4 5 4 4 5 4 4 8 7 8 7 4 8 9 5 7 8 4 8 4 8 8 8 d 5 < ; 5 5 < < < < < 5 , < < , < 5 < 5 c D < e G.G.J.7 2 : < 4 z e k h e z h h h h c h h k l l N N k N M N l N N l l k l l l l l l l k l k l N l N l l l l D K H H v l D l l D l D l l l N N l N l l N l N l l N l N N N k l N N l k l l v ; y j.Y.Y.) 4 ; l l l l l l l v l l v l l l l l l l l l l v l l l l l l l l l v l l l D l l l l l l l l l l l l l v l D v D K K H H H H H H G H H K H H K K H H K H K H H H  . . .} }  . .H H H c Z d.Y.H.~ 8 5 < < < 5 5 < 5 5 < < d < 5 5 5 < 5 5 < 5 5 < 5 5 < 5 < 5 < d 5 5 < < < d 5 < d < 5 < < 5 < 5 5 5 5 5 d < d < 5 5 < 5 d < , , < , 4 , , , , 4 , , , , 4 , , 4 , 4 , 4 4 < 4 , < ; ; < ; A h.Y.$.t & > > w 2 > 2 2 6 4 4 > 6 6 9 6 < > > > = > > < 0 0 9 2 2 > 3 6 > > > > > > > > > > & > > > > & > > > > > q ",
"f.d.d.d.f.d.d.f.f.d.d.,.d.d.j.k.j.j.d.d.d.d.d.d.d.d.d.d.d.d.d.d.d.d.8.8.d.=.8.,.d.d.,.d.,.d.d.d.d.d.d.d.,.,.d.d.d.1.d.K.K.K.1.d.,.,.2.,.=.,.=.$.=.=.*.=.=.*.,.*.=.;.=.=.=.=.=.=.=.=.=.=.,.,.,.,.,.=.*.2.,.*.,.,.=.=.=.,.=.=.=.=.=.=.=.=.=.=.=.=.=.=.=.*.*.$.*.=.*.=.,.=.*.=.=.$.=.=.=.$.=.=.=.=.=.*.*.#.#.=.$.8.z.k.F.$.#.~ ~ ) ~ ) ) ~ ) ~ ) Q ) @.Q Q #.~ ) Q ) ) ) ~ ) Q ) Q Q Q Q Q Q Q Q Q Q Q Q @.Q Q Q Q Q Q Q R R R Q R R Q ~ Q Q Q Q R Q R R R R C R R E R R R R C C R C R C C R C R C C C C C Z C M C =.g.g.$.C p C C C C C C C Z C C C C Z C Z C C C C Z C C ~ Z E G R E ~ ~ ~ ~ Q Q ~ ~ ) ~ ~ ) ) ) ) _ ) ) _ #.$.$.$.*.$.=.#.#.$.=.#.$.#.=.$.$.$.=.$.*.#.=.$.;.#.*.#.$.#.$.#.#.) ) _ #.#.) Q %.#.,.d.F.H.,.,.=.=.=.8.8.8.d.=.8.d.d.8.d.d.d.d.,.d.d.d.d.d.d.,.d.d.d.j.d.d.8.,.d.d.d.=.8.,.8.8.8.8.8.8.d.j.d.d.f.d.j.d.j.d.j.j.j.F.j.j.k.j.j.j.d.d.d.d.d.f.d.d.f.f.j.d.f.d.f.f.d.j.1.d.d.d.d.d.d.8.8.d.j.F.Y.H.j.g.j.g.z.h.j.z.k.k.H.n.k.k.j.j.k.F.j.l.j.l.z.z.g.f.j.j.z.l.d.l.j.l.l.l.j.l.H.H.C.H.H.H.H.H.H.H.H.H.H.'.l.I.:X",
"Y.Y.T.Y.T.Y.Y.T.R.Y.^.Y.J.J.^.)./.^.R.^.Y.E.Y.R.T.Y.E.E.Y.E.^.E.Y.Y.Y.Y.Y.Y.R.R.J.R.R.J.Y.R.R.Y.R.Y.Y.Y.Y.Y.J.R.R.J.K.J.K.K.~.J.J.J.~.J.J.J.J.~.J.~.~.K.J.K.J.J.J.K.J.K.J.K.R.J.Y.J.Y.Y.R.~.J.J.K.K.K.~.J.K.R.J.J.`.^.R.Y.R.L.R.Y.Y.I.H.H.Y.Y.R.J.H.R.K.K.H.J.R.K.K.J.R.R.H.K.L.R.L.L.R.R.H.R.J.K.~.~.K.K.H.I.H.z.k.z.I.H.I.z.z.z.z.z.l.z.z.z.z.H.z.l.l.l.l.z.l.h.l.l.l.l.l.B.l.l.B.l.l.B.l.l.l.<.H.l.B.l.l.l.l.g.g.B.g.g.<.g.<.3.g.3.<.<.g.3.3.g.<.<.B.g.0.g.:.0.g.-.u.u.-.-.B.:.:.:.-.0.:.:.:.:.3.:.0.0.:.:.-.:.0.g.g.<.:.0.:.:.;.:.:.-.:.:.:.-.:.:.:.:.-.:.:.:.-.u.-.B.-.0.B.u.B.g.g.g.l.l.l.l.l.l.l.l.l.l.l.j.l.z.j.j.l.j.k.j.z.l.j.F.F.l.j.j.l.j.l.j.H.l.j.l.j.F.l.F.1.l.l.l.j.j.l.l.l.d.g.g.<.<.<.l.1.j.j.j.F.F.F.F.K.K.K.G.J.J.J.J.J.J.J.!.J.J.^.!.!.!.J.J.!.^.!.J.!.!.!.!.!.!.J.!.J.J.J.Y.G.J.J.G.G.L.L.Y.J.Y.~.^.J.!.!.J.!.~.!.^.!.^.).!.!.!.J.~.J.J.J.Y.Y.Y.T.^.Y.T.Y.Y.Y.Y.Y.Y.J.J.K.J.G.F.G.G.F.J.G.G.F.F.F.F.F.G.K.G.G.Y.Y.L.Y.Y.Y.Y.Y.Y.^.^.J.!.!.J.J.J.Y.J.J.Y.G.G.J.G.J.G.J.J.J.J.J.J.~.~.^.^.^.~.`.!.^.~.~.!.!.~.!.^.5X",
"k.k.k.k.k.j.f.f.k.k.G.F.K.G.j.-.=.<.<.d.d.d.d.g.j.d.d.d.j.d.d.d.h.d.d.z.k.d.j.j.j.j.l.j.j.j.l.k.z.k.z.k.l.j.j.j.l.j.l.d.j.j.<.d.<.0.0.0.0.0.g.0.0.g.0.d.g.g.g.g.j.g.d.h.j.h.j.z.j.z.j.h.d.f.d.h.f.h.f.f.f.d.0.g.G.G.R.=.-.k.z.l.j.h.j.h.f.h.d.h.h.k.z.k.k.I.k.k.v.f.f.z.k.k.I.G.G.H.k.G.F.k.k.z.z.j.g.z.l.k.G.k.n.G.H.k.k.H.G.L.F.J.R.^.^.^.J.J.F.F.H.Y.J.L.H.L.Y.Y.L.Y.L.Y.Y.G.J.Y.J.J.J.J.~.Y.J.K.J.^.J.J.Y.Y.^.Y.J.Y.Y.^.R.^.^.Y.^.!.Y.Y.^.^.^.R.R.Y.Y.Y.Y.Y.R.Y.Y.Y.Y.Y.Y.Y.Y.Y.Y.Y.Y.Y.Y.Y.Y.Y.Y.Y.Y.Y.Y.Y.Y.Y.Y.Y.Y.Y.Y.Y.L.Y.Y.Y.Y.L.Y.Y.Y.L.Y.Y.Y.L.Y.L.L.Y.Y.Y.Y.Y.L.Y.Y.J.J.J.J.K.K.K.K.K.K.!.J.!.^.R.J.Y.^._.^./.^.^.^.T.^./.^.^.^.^.^.^.^.^.^.^.^./.^.^.Y.Y.Y.Y.^.^.!.Y.J.^.J.!.Y.^.^.^.Y.^.Y.!.^.^.!.!.Y.J.Y.Y.G.L.J.J.J.G.J.G.J.G.L.G.L.L.L.L.L.L.L.L.L.L.L.L.L.L.L.L.L.L.L.L.Y.L.G.L.L.L.L.L.G.F.G.G.F.F.k.j.f.h.f.9.f.f.0.j.g.d.d.l.j.l.l.j.F.k.F.G.F.H.G.G.G.G.G.G.F.G.F.k.f.k.F.L.Y.J.J.J.J.K.K.J.J.F.K.K.F.F.K.F.F.j.j.l.j.j.g.j.j.d.F.H.G.L.G.L.G.G.F.k.j.k.z.k.F.G.G.G.F.k.k.f.L.L.K.K.F.L.J.j.k.f.z.l.z.l.1.g.k.:X",
"k k k t k h M M 2 A /.J.j.i t t p t p p t k p k M k M M M M z M M M M M M M a a y y y y y y a t t t k t t t t t z t t t t t t k t t t h t t t t y a p y p t p t k a k p k t M k k k k k k h z k k M M M M W 7 k J.J.^.7 8 N M M M M k M M k k t k k M t k M M M M k z k k M t h 8 e z M M M M M M M M M Z Z N Z C C Z Z Z Z Z Z ~ Z N k k t C ~ ~ #.4.$.$.$._ $.) ) ) ) ) #._ ) ) ~ E E E E E E E ~ E ~ G G E M 5 ) k.Y.-.M $.$.~ ) ) ) ) ) #.~ ) ) Q ~ ~ ~ ~ ) ~ ~ ~ ~ ~ ~ ~ ~ ~ ~ ~ ~ Q ~ ~ ~ ~ ~ ~ Q Q ~ E ~ E E ~ Q ~ E ~ Q ~ Q E ~ ~ E Q ~ ~ ~ E ~ E ~ ~ Q ~ E ~ E E E ~ Q ~ E ~ ~ G ~ ~ G Q G ~ ~ ^ ) Z g.Y.k.=.Z E Z Z G Z Z Z Z Z M N N C Z N Z Z Z N E Q Z E Z Z C A C C R C C C C C C C E Z E E Q Q R R E Z Z Z Z N Z C C C C C R C Z C Z Z Z N Z Z Z Z Z Z Z Z N Z N Z N N Z N Z N Z R C M t M C G.F.j.8 k C C C N C N N N Z N Z Z G Z G Z C C Z Z Z Z Z C C C C C C Z C C C Z G Z E R R Z E R R R C C Z E Z Z G Z Z E R Z C C C Z Z Z N N N k l k z N k N M N N C M C p p t k s M C C M z h d.j.J.0.~ k k k k M t u k y M U ",
"g g g g g g n P + 7 _.J.=.o q b Y Y Y I Y Y Y Y Y Y T Y T I Y T I Y T +.Y Y P n q q 6 0 q n g q q 6 6 q g g g g g g g n n n n n n n n g n g n u q j P Y m P Y I P m m n n n n n n n n n n n n n b P I n I o.< - J.J.^.= < I m m m b m n n n n g 9 n n g q q n n n n n g n b g 1 # 1 < g n n n n b m b m b b b b I I m m P m m m ..m < = 1 1 j L [ O.| | | | ' | ' { ( ( ( [ ( ( [ U I P I b b b b m m b m m P g   t 0.^.) ; | { L I U [ [ U U U U U U U U I U I U I U U I I U U I I U U I I U U I I I I I I I I I I I I I I I I I I I I I I I I I I I I I U I I I I I Y I I I I I I I m I I m I m I I m T c , ' ^.0.N * ; , , ; ; ; ; ; = ; ; ; ; ; ; = : 0 > q P n n g j g q u < 6 g 0 0 g g n n j j n n n n n n n n g g g 5 q 0 < q q u P u n n g g g g g g g g g g 0 q f g j g n g n g g g Y Y q q > % 2 J.G.j.X 1 Y m P m b b b m m m m m m m m I I I I m m m n n n n n n n n g n n b b I b b n n n n n n n n b b m m m b b b m b P P m b b b b b b < 1 1 g g q g g n n b b n q < 1 < q u n n m g # #.k./.( 8 q n n n n n n n n n Y ",
"N.U.U.U.P.M.2X6X5 M Y.J.,.o $.lX:X$X(.7X2X7X7X7X7X7X7X7X6X0X7X7X7X6X7X&X>X:XU.n.z.f.g.0.0.Z.Z.f.e.9.9.v.v.c.v.v.c.c.v.c.m.b.m.c.c.v.c.c.c.c.N.+X+X.Xb.c.N.N..Xc.m.N.S.I.L.U.7. .b f c l V A J J  .q.c.w.@XIXt.t G.G.J.7 [ M.x.M.v.v.x.h.v.5.} _ D c 9 8 k W h.M.M.v.h.v.v.M.X.c = | @Xv.e.x.v.x.M.x.c.c.c.c.r.OXr.r.c.c.r.c.r.x./.i.N 4 X.I.w.w.w.r.r.r.r.w.w.w.q.9.r.q.e.w.w.w.r.x.v.x.h.z.M.k.M.M.M.n.n.m.E.q.= G z._.' % m.&XT.$XT.$XT.$XT.$X$XT.T.+X+X+XP.+X+X+X+XU.+X+XP.+X+X+X+X+X+XU.+X+X+X+XP.+X+X+XU.+X+X+X+X@X+X+XP.+X+XU.+X+XU.+X+X+XP.+XU.+X+XU.+X+XU.+X+X+X+X+X+XP.+XU.P.|.|.|.m.N..Xm.|..X&Xx.6 &.^.0.Z r G N , 4 j q.~ < l G h.~ d 8 8 4 Z -.,.n.&X.XP.m.r.5.6.F 5 k u.Y.k.k.U.U.N.N.n.m.m.m.U.L.m.U.m.m.c.c.N._ c 4.M.U.v.I.M.m.M.L.m.U.L.U.m.L.U.L.m.m.m.m.L.M.m.I.m.I.U.L.m.7XqX8XBXPXF 8 J.F.j.0 V.gXE.T.+X+X=X+X.X+X+X+X+X+X+X+X+X.X+Xm..XP.P.+XP.+X@XT.$X$X&X$XU.T.U.U.m.@X+X=X=X=X=X=X=X=X=X@X=X+X.XP.+X@X=XU.P.U.U.U.+X@XU.$X+X$X*X+X+X$X$X%X%X$X$X$X$X$X&X$X2X%X%X2X7XE.@X>Xs.f C <.^.F 8 U.,X:X:X:X:X&X:X:X:XQ.",
"m.m.m.m.m.n.$X4X6 M ^.J.,.+ h.cXL.L.L.n.L.m.m.P.m.m.P.P.m.m.P.m.m.m.n.n.n.n.x.9.f.f.9.9.f.9.9.9.f.9.9.w.w.w.w.w.w.w.w.x.w.x.w.c.w.w.r.x.w.w.x.N.|.c.w.w.x.x.x.w.c.x.x.M.x.f.4.~ h l N Z Z E G ~ } 9.x.9.c.lXO.t J.H.Y.3 J n.f.f.x.f.v.f.x.q.7.e. .Z N J ' 6.f.f.f.f.f.f.f.f.6.D f 5.m.f.w.r.w.x.x.x.x.w.w.c.c.x.x.w.x.r.c.w.c.x.P.0.N 7 | P.r.r.w.x.w.c.w.w.r.w.w.9.q.9.9.r.r.w.x.w.w.x.f.f.f.f.f.f.x.x.x.w.L.5.= Z l.).~ & m.P.P.P.$XP.P.P.$XP.P.$XP.P.P.P.P.P.P.P.P.P.P.P.P.P.P.P.P.P.P.P.P.P.P.P.P.P.P.P.P.P.P.P.P.P.P.m.P.P.P.P.P.P.P.P.P.P.P.P.P.P.P.P.P.P.P.P.P.m.P.P.P.P.P.m.P.|.m.n.m.m.m.m.m.m.N.4., &.^.0.Z z t.4.F l N b._ 5 G 7.&XA.l l D l _ Z.k.n.|.c.n.m.w.5.N e 5 M 6.L.n.n.n.n.n.n.n.n.n.n.n.n.n.n.n.x.c.c.n.r.t.q.x.n.f.x.f.x.x.n.M.n.n.n.n.n.n.n.M.n.m.M.n.n.m.n.n.n.m.n.M.m.+X+X8XGXF 8 J.H.1.6 p.2XY.P.P.P.m.m.|.P.m.+Xm.|.+Xm.m.m.m.m.m.m.P.P.P.+XP.P.P.P.P.P.P.P.P.m.m.m.m.+X|.+X|.|.+X+X+Xm.m.P.m.P.P.m.m.m.m.P.m.m.P.m.P.P.U.T.P.+X+X+X+X+X+X+X$XP.+XP.P.$XP.$XT.$XP.P.+X%Xy.d R <.Y.A 8 v.U.U.m.U.m.U.M.U.U.U.",
"n.n.n.n.n.x.P.$X< k J.J.1.% w.wX5.9.w.r.9.9.9.9.5.r.9.5.9.5.r.9.5.9.9.9.5.9.5.r.w.w.r.9.x.q.9.x.q.x.f.f.q.f.w.f.w.w.9.9.q.w.r.9.q.w.9.9.q.w.9.9.5.9.w.r.9.9.9.9.9.9.9.9.5.5.9.5.9.w.x.x.x.v.c.w.x.w.w.x.9.v.J k L.G.Y.2 U P.9.w.x.v.x.w.x.w.x.w.x.x.c.x.x.w.w.r.w.w.w.w.w.w.w.v.x.w.9.w.9.w.q.w.w.9.w.q.q.w.9.9.9.w.9.9.q.w.9.w.n.| N z | x.9.9.9.9.9.f.f.9.9.x.w.w.w.f.f.9.w.f.w.9.9.9.r.9.9.w.9.w.w.w.w.9.x.6.= N j.).' , v.x.q.c.c.n.m.m.c.m.n.m.m.m.m.n.m.m.m.m.m.m.c.m.m.m.m.m.m.m.n.m.m.c.m.n.m.m.m.m.n.m.m.m.n.m.m.m.c.m.m.n.m.m.n.m.n.m.m.n.m.m.m.n.m.m.m.m.m.m.m.m.n.m.m.n.m.m.m.m.m.m.m.m.m.L.a.M 4 >.^.d.Z h 7.m.m.m.m.n.9.P v.c.+X*Xn.m.N.m.n.c.c.c.c.c.x.x.m.N.9 4 , D 7.|.x.v.w.c.x.x.v.x.x.c.x.c.x.x.x.x.c.x.x.x.c.c.c.w.x.c.c.w.x.c.c.w.x.v.w.c.c.c.x.x.w.c.x.c.c.x.x.v.r.x.c.x.v.c.x.m.c y J.F.d.% U $Xc.n.m.m.m.m.n.m.m.n.m.n.m.m.m.m.n.m.m.m.m.n.m.n.m.n.m.m.m.n.m.m.m.m.m.m.n.m.n.m.m.n.m.m.n.m.m.m.m.n.m.m.m.m.m.m.m.m.m.m.m.m.m.n.m.m.c.m.n.m.n.m.m.m.n.m.n.m.n.n.m.n.m.m.m.=Xy.h C g.).W 7 X.A.e.b.b.b.N.b.b.N.N.",
"n.n.n.n.n.n.m.&X< k ^.!.j.O ^ n.9.w.x.9.r.9.9.q.e.w.w.w.w.9.q.w.q.r.r.w.q.w.w.q.w.f.9.f.x.9.9.x.f.w.w.w.x.w.w.w.w.w.9.r.w.w.9.9.9.9.r.9.r.w.r.w.q.w.9.q.9.9.r.q.9.r.r.w.w.w.e.w.9.r.w.r.9.r.w.w.w.w.x.w.9.N.J h G.L.Y., ( 3Xx.9.5.w.9.9.w.w.w.w.w.9.w.w.9.x.w.x.w.w.9.w.w.w.w.9.9.w.w.w.w.9.x.w.w.w.w.w.x.w.w.w.w.w.w.w.w.w.w.w.v.q.5.5.w.x.9.9.w.9.w.w.w.9.9.w.9.w.9.w.w.w.9.9.9.9.w.w.9.w.9.w.w.w.x.w.w.w.n.7.= Z h.).$., m.m.v.c.|.n.m.m.m.m.m.m.m.m.m.m.m.m.m.m.m.m.m.m.m.m.m.m.m.m.m.m.m.m.m.m.m.m.m.m.m.m.m.m.m.m.m.m.m.m.m.m.m.m.m.m.m.m.m.m.m.m.m.m.m.m.m.m.m.m.m.m.m.m.m.m.m.m.m.m.m.m.P.m.m.3XJ > 4 >.^.h.~ j e.n.c.c.x.c.m.b.N.m.m..Xm.c.x.x.x.M.x.c.c.c.x.x.N.S.9 7 V 5.x.c.c.c.c.x.x.x.c.c.x.x.v.c.c.v.c.x.v.c.x.v.x.v.c.c.x.v.c.c.x.v.c.x.c.c.c.x.v.w.c.x.c.v.x.x.v.x.x.x.c.x.x.v.c.n.m.$Xx e K.F.d.o x 3Xn.m.m.m.m.m.m.m.m.m.m.m.m.m.m.m.m.m.m.m.m.m.m.m.m.m.m.m.m.m.m.m.m.m.m.m.m.m.m.m.m.m.m.m.m.m.m.m.m.m.m.m.m.m.m.m.m.m.m.m.m.m.m.m.m.m.m.m.m.m.m.m.m.m.m.m.m.m.m.m.m.m.m.m.m.m.s.l Z <.).L 4 | XXb.N.N.b.v.N.m.b.N.",
"n.n.n.n.n.n.m.+X< k ^.!.1.+ D w.5.w.x.w.9.9.9.r.w.9.e.9.9.9.9.q.w.9.9.w.w.9.w.w.9.9.w.9.9.9.v.w.9.9.w.x.9.9.w.w.w.9.r.w.r.9.w.w.w.r.9.w.9.w.w.w.r.w.w.w.w.r.w.9.q.w.w.9.9.w.r.9.w.w.w.w.w.w.w.w.x.w.w.w.9.b.J e L.G.Y.: J %Xx.w.5.w.9.w.w.w.w.w.w.w.w.w.w.w.w.w.w.w.w.w.w.w.w.w.w.w.w.w.w.w.w.w.w.w.w.w.9.9.w.w.w.w.w.w.w.w.w.9.9.w.c.c.x.9.9.9.9.w.9.9.9.r.w.9.w.9.9.9.r.9.9.w.w.9.w.9.9.9.9.w.x.w.9.9.9.9.x.7.$ G j.^.&.5 @Xm.} c.|.m.m.m.m.m.m.m.m.m.m.m.m.m.m.m.m.m.m.m.m.m.n.m.m.m.m.m.m.m.m.m.m.m.m.m.m.m.m.m.m.m.m.n.m.m.m.m.n.m.m.m.m.m.m.m.m.m.m.m.m.m.m.m.m.m.m.m.m.m.m.m.n.m.m.m.n.n.m.m.m.%Xl - 7 >.).h.Z x h.n.x.c.c.M.n.m.c.m.m.c.c.m.c.x.x.c.c.x.c.v.c.b.@XS.8 l X.v.c.c.c.w.x.x.c.w.x.x.x.c.c.w.x.x.x.c.x.x.x.c.x.x.x.x.x.c.x.x.c.x.c.x.x.x.x.x.x.c.x.c.c.x.v.x.x.c.v.x.x.c.w.c.c.n.N.+Xx e J.F.,.@ F %Xc.m.m.m.m.m.m.m.m.m.m.m.m.n.m.m.m.m.m.m.m.m.m.m.m.m.m.m.m.m.m.m.m.m.m.m.m.m.m.m.m.m.m.m.m.m.m.m.m.m.m.m.m.m.m.m.m.n.m.m.m.m.m.m.m.m.m.m.m.m.m.m.m.m.m.m.m.m.m.m.m.m.m.P.m.m.Z.l C 3.).] 4 J D.N.b.b.b.N.N.b.b.N.",
"n.n.n.n.n.n.m.+X< k ~.J.d.o ^ m.9.w.w.w.x.9.w.9.w.q.9.r.r.w.w.9.w.r.9.w.r.9.9.r.r.w.w.w.9.w.9.9.9.x.9.q.9.x.w.w.w.w.q.f.q.w.w.w.w.w.w.w.9.9.w.w.9.w.w.9.w.w.w.w.w.w.w.w.w.9.9.9.w.r.w.w.w.w.w.w.w.w.w.v.9.m.I 8 Y.G.Y.* f H  .e.x.x.x.w.x.w.x.w.x.w.w.x.w.w.x.w.q.w.w.w.w.9.9.9.w.w.w.w.q.w.w.9.9.w.w.w.w.w.w.w.w.w.w.w.w.w.9.9.9.w.w.x.q.5.9.9.r.9.9.9.9.9.9.9.9.w.9.9.9.9.9.9.9.r.9.9.9.9.9.w.9.w.w.w.x.w.x.7.= G h.^._ 4 m.9.V c.|.m.m.m.m.m.m.m.m.m.m.m.m.m.m.m.m.n.m.m.n.m.m.m.m.m.m.m.m.m.m.m.m.m.m.m.m.m.m.m.m.m.m.m.m.m.m.m.m.m.m.m.m.m.m.m.m.m.m.m.m.m.m.m.m.n.m.m.m.m.m.m.m.m.m.n.m.L.L.P.m.$Xv.) 6 -.!.j.E m e.n.v.x.x.x.x.w.x.c.c.c.c.x.n.x.n.x.x.x.c.c.c.c.@X;X^ ^  .x.c.c.c.c.c.x.c.c.v.c.c.w.x.x.w.c.v.x.c.x.c.c.c.x.x.c.v.x.x.c.v.x.x.v.c.x.c.v.x.x.v.x.c.x.c.c.x.x.x.c.x.c.c.x.c.n.m.+XN y K.l.j.O F %Xn.m.m.m.m.m.m.m.m.m.m.m.m.m.m.m.m.m.m.m.m.m.m.m.m.m.m.m.m.m.m.m.m.m.m.m.m.m.m.m.m.m.m.n.m.m.m.m.m.m.m.m.m.m.n.m.m.m.m.m.m.m.m.m.n.m.m.m.m.m.m.m.m.m.m.m.n.m.m.m.m.m.m.m.c.m.a.N C <.).[ 2 4 F | b.N.N.b.N.M.b.N.",
"n.x.n.n.n.c.L.&X< k J.J.,.o ) m.5.w.x.w.w.9.9.w.w.w.r.9.9.9.w.r.9.9.9.9.9.w.r.9.9.q.9.w.9.q.w.w.w.w.w.9.w.x.w.w.w.w.w.w.f.w.w.w.w.9.w.w.w.w.w.9.9.f.w.w.w.w.w.w.w.w.9.x.w.w.w.w.w.w.w.w.w.w.w.w.w.w.w.v.r.m.x 8 Y.G.Y.> j } } w.x.f.9.w.9.x.w.w.w.w.w.w.w.x.x.w.w.w.w.w.w.w.w.x.w.w.w.q.w.w.w.w.w.w.w.w.w.w.w.w.w.q.x.9.w.w.q.9.r.w.9.9.w.9.9.9.9.9.9.9.r.9.9.9.9.w.9.w.9.r.9.9.9.9.9.9.w.9.9.w.9.w.w.w.w.9.x. .= Z l.^.' : | 6.G w.|.m.m.n.m.m.n.m.m.m.m.m.m.m.m.m.m.m.m.m.m.m.m.m.m.m.m.m.m.m.m.m.m.m.m.m.m.m.m.m.m.m.m.m.m.m.m.m.m.m.m.m.m.m.m.m.m.m.m.m.m.m.m.m.m.m.m.m.m.m.m.m.m.m.m.m.n.n.x.c.f.x.X.k 0 :.).h.Z v e.x.c.x.x.c.x.x.c.v.c.c.v.x.x.x.x.n.v.M.c.x.x.c.N.@XA.9.r.x.c.c.c.w.c.v.v.x.x.x.x.c.x.c.c.x.x.c.x.x.x.r.v.c.x.x.v.x.x.v.c.x.c.w.c.w.c.x.v.x.c.w.c.x.x.w.x.x.x.c.x.x.c.x.c.M.n.+XV e K.F.d.O V %Xn.m.m.m.m.m.m.m.m.m.m.m.m.m.m.m.m.m.m.m.m.m.m.m.m.m.m.m.n.m.m.m.m.m.m.m.m.m.m.m.m.m.m.m.m.m.m.m.m.m.m.m.m.m.m.m.m.m.m.m.m.m.n.m.m.m.m.m.m.m.m.m.m.m.m.m.m.m.m.m.m.m.m.m.m.|.a.l C g.).L 4 e G _ c.b.b.b.b.M.N.N.",
"n.n.n.n.n.x.P.$X< k Y.J.d.O ^ n.9.w.w.w.x.q.x.w.9.w.9.w.w.w.w.9.r.9.r.9.9.9.9.q.r.9.w.w.9.r.w.w.q.w.w.w.9.9.w.q.w.9.w.w.w.w.w.9.w.9.w.w.w.w.w.w.w.w.w.9.q.w.w.w.9.w.9.q.w.9.w.w.w.w.w.w.w.w.w.w.w.x.w.x.9.N.x 8 L.G.Y.: I n.9.v.x.9.9.9.w.w.w.x.x.w.w.x.w.w.w.w.w.w.w.w.w.w.w.q.w.w.w.w.9.w.w.w.w.w.w.9.w.w.w.9.w.w.w.9.w.w.w.w.9.f.w.w.9.w.9.r.9.9.w.9.9.w.9.9.w.9.9.9.w.9.9.9.9.9.9.w.9.9.w.9.r.w.w.w.9.r.x.| = C l.^.' * e k ( c.|.n.m.m.m.m.m.m.m.m.m.m.m.m.m.m.m.m.m.m.m.m.m.m.m.m.m.m.m.m.m.m.m.m.m.m.n.m.m.m.m.m.m.m.m.m.m.m.m.m.n.m.m.m.n.m.m.m.m.m.m.m.m.m.m.m.m.m.m.m.m.m.m.m.m.m.n.x.5._ 7.} k 2 7 -.!.g.G b e.n.x.M.x.x.x.v.x.c.c.x.x.x.x.x.c.c.x.c.v.c.x.w.m.@X#XN.b.n.c.c.c.c.x.c.x.c.v.c.x.v.x.v.v.c.v.x.c.v.x.x.x.x.c.v.c.c.c.x.x.x.c.c.x.x.c.x.c.x.x.c.v.x.x.c.c.v.x.x.v.c.x.x.x.c.c.+XF t K.F.d.% U 3Xn.m.m.m.m.m.m.n.m.m.n.m.m.m.m.m.n.m.m.m.m.m.m.m.m.m.m.n.m.m.m.m.m.m.m.n.m.m.m.m.m.m.m.m.m.m.m.m.m.m.m.n.m.m.m.m.m.m.m.m.m.m.m.m.m.m.m.m.m.m.m.m.m.m.m.m.m.m.m.m.m.m.m.m.n.+Xe.M C 3.)./ 4 J s.b.N.b.N.M.b.b.b.N.",
"n.n.n.n.n.n.P.$X< z Y.J.,.#  .n.9.9.x.x.9.w.w.w.w.w.w.9.w.q.9.9.f.q.9.x.f.9.x.9.x.9.w.w.x.9.9.f.x.x.9.w.w.w.w.w.w.w.9.9.w.w.w.w.x.q.w.w.f.w.9.9.w.9.x.w.x.w.w.q.x.q.9.9.x.w.9.x.9.f.w.9.w.w.f.w.w.x.w.w.9.N.x 8 L.G.Y.* x x.9.x.x.r.9.w.w.w.w.w.w.w.x.w.w.w.w.w.w.w.9.w.w.9.w.w.w.w.w.w.w.w.w.w.w.q.w.w.w.w.w.w.w.9.w.w.w.w.q.w.w.w.w.w.w.w.w.9.w.9.9.w.w.9.9.w.9.9.w.9.9.w.w.9.9.w.9.w.9.9.9.9.9.w.w.9.9.9.P.7.= Z l.{.) ; ~ ^ J c.|.m.m.m.|.m.m.m.m.m.m.m.m.m.m.m.m.m.m.m.m.m.m.m.m.m.m.m.m.m.m.m.m.m.m.m.m.m.m.m.m.n.m.m.m.m.m.m.m.m.m.m.m.m.m.m.m.m.m.m.m.m.m.m.m.m.m.m.m.n.m.m.m.m.5.G d F G - I eXK 4 0 t.).g.~ v e.n.x.x.M.x.x.x.x.x.c.x.x.c.c.M.x.x.x.c.c.x.c.x.m.M.U.N.m.b.M.c.x.x.x.x.c.v.x.x.x.c.w.x.v.c.x.c.x.x.v.c.c.v.x.x.c.w.c.x.x.x.v.x.c.v.c.x.x.x.c.x.x.c.v.x.x.x.c.w.w.c.c.x.x.c.M.+XJ h K.H.d.* K 3Xn.m.m.m.m.m.m.m.m.m.m.m.m.m.m.m.m.m.m.m.n.m.m.m.m.m.m.m.m.m.m.m.m.m.m.m.m.m.m.m.m.m.m.m.n.m.m.m.m.m.m.m.m.m.m.m.n.m.m.m.m.m.m.m.m.m.m.m.m.m.m.m.m.m.m.m.m.m.m.m.m.m.c.m.n.P.7.k W g.).L 7 X.s.A.b.N.N.b.v.N.b.N.",
"n.n.n.n.n.n.P.$X< k Y.J.d.O ( x.9.f.9.w.w.9.w.w.w.w.x.q.w.x.x.9.9.x.9.v.w.9.x.9.9.9.v.f.w.9.9.x.9.9.q.w.9.w.w.w.q.w.x.w.q.f.9.x.9.9.x.f.q.x.v.w.x.q.9.f.9.f.x.9.x.9.x.9.9.w.f.q.q.x.w.x.w.x.9.9.w.w.w.x.9.m.x 8 G.J.Y.= j n.9.w.w.9.9.9.9.x.w.x.w.w.w.w.x.w.x.w.9.w.w.w.w.w.w.w.9.w.w.w.w.w.w.w.w.w.w.w.w.q.w.w.w.w.w.w.9.9.x.w.w.w.w.w.w.w.9.w.9.w.9.9.9.9.w.9.9.9.9.r.9.w.9.w.9.9.w.9.9.9.r.w.9.w.r.9.w.9.v.' = N g.).' , v.v.q.c.|.m.m.|.m.m.|.n.m.m.m.m.m.n.m.m.n.m.m.m.m.m.m.m.m.m.n.m.m.m.m.n.m.m.m.m.m.m.m.m.m.m.m.m.m.m.m.m.m.m.m.m.m.m.m.m.m.m.m.m.m.n.m.m.m.m.m.m.m.m.m.m.m.m.c.5.| s.e.5 8 c.o.4 4 -.^.j.~ b e.n.x.x.x.c.x.c.c.x.n.x.c.x.c.x.M.x.n.m.M.M.c.c.b.m.N.m.b.c.c.n.c.v.c.x.x.x.x.c.x.c.c.c.x.x.x.x.c.x.x.x.x.x.x.c.x.x.x.v.c.x.c.x.x.x.x.v.c.x.c.v.x.x.c.x.c.c.v.c.c.x.x.x.x.c.x.P.J k F.k.d.% U 3Xm.m.m.m.m.m.m.m.m.m.m.m.m.m.m.m.m.m.m.m.m.m.m.m.m.m.m.m.m.m.m.m.m.m.m.m.m.m.m.n.m.m.m.m.m.m.m.m.m.m.m.m.m.m.m.m.m.m.m.m.m.m.m.m.m.m.m.m.m.m.m.m.m.m.n.m.m.m.m.m.m.n.m.m.x.P.Z.l R <.!./ 8 X.D.N.b.m.N.b.N.N.b.N.",
"n.n.n.n.n.n.P.T.< l Y.J.,.+ G M.x.x.v.x.q.9.w.9.9.9.9.9.9.v.9.9.9.f.w.w.x.q.f.x.9.w.w.w.9.w.w.w.9.9.w.w.w.w.9.x.x.9.9.x.q.w.x.f.f.x.9.f.q.x.9.f.9.x.9.x.f.9.f.x.f.x.f.q.f.f.w.f.9.f.x.q.f.9.f.x.w.w.w.w.w.N.x 8 L.G.!.* j m.9.w.w.w.9.9.9.x.w.w.w.w.w.w.x.w.x.w.w.w.w.w.w.w.w.w.9.w.w.w.w.9.w.q.w.w.w.9.w.w.w.w.w.w.w.w.w.w.w.w.9.w.w.w.w.w.9.w.9.w.9.r.9.9.9.w.9.9.w.9.w.w.9.r.w.9.w.9.9.r.9.w.r.w.9.9.9.r.G h O N g.^.$.5 +X$X+X|.m.m.|.m.m.m.m.m.m.m.m.m.m.m.m.m.m.m.m.m.m.m.m.m.m.m.m.m.m.m.m.m.m.m.m.m.m.m.m.m.m.m.m.m.m.m.m.m.m.m.m.m.m.m.m.m.m.m.m.n.m.m.n.m.m.m.m.m.m.m.m.m.m.m.+X%X%X%X%XG 8 9 j 8 7 -.).g.E b r.n.c.c.c.c.c.x.x.x.c.x.c.c.x.x.x.x.c.c.x.x.x.n.x.M.n.m.m.c.v.M.c.x.x.c.x.c.x.c.x.x.r.c.v.c.x.c.x.v.x.x.x.x.x.v.x.x.x.c.v.x.x.x.v.c.x.c.x.v.x.x.x.x.x.c.x.w.c.c.x.x.v.x.c.c.x.P.J k F.z.=.= { 3Xn.m.m.m.m.m.m.m.m.n.m.m.m.m.m.m.m.m.m.n.m.m.m.m.m.m.m.m.n.m.m.m.m.m.m.m.m.m.m.m.m.m.n.m.m.m.m.m.m.n.m.m.m.m.m.m.m.m.m.m.m.m.m.m.m.m.m.m.m.m.m.m.m.m.m.m.m.m.m.n.m.n.n.c.8.m.Z.D Z <.).A 8 X.D.N.b.N.b.b.M.N.N.N.",
"n.n.n.n.n.n.P.$X< k Y.J.d.= 4 h ^ 7.w.9.9.x.9.9.v.9.x.v.9.w.f.x.v.9.w.f.9.9.w.w.9.9.q.w.w.w.w.w.w.9.r.w.w.w.9.w.w.9.9.x.f.w.w.9.q.x.9.x.f.9.x.f.f.f.9.f.w.x.q.w.9.w.9.x.9.x.w.v.x.9.x.9.x.9.x.q.w.w.x.v.w.N.x 8 G.J.J.* d m.9.w.w.9.w.x.w.9.w.w.w.x.w.w.w.w.w.w.w.w.w.q.w.w.w.9.q.x.w.w.w.w.w.w.w.w.w.w.w.w.x.q.w.w.9.w.w.w.w.w.w.w.w.w.w.9.w.9.9.w.w.9.9.9.9.w.9.w.9.w.9.9.9.9.9.9.9.w.9.9.9.w.9.r.5.9.9.w.8 5 = M g.^.&.5 m.+Xm.|.m.m.m.m.m.|.m.m.m.m.m.m.m.m.m.m.m.m.m.m.m.m.m.m.m.m.n.m.m.m.m.m.m.n.m.m.m.m.m.m.m.m.m.m.m.m.m.m.m.m.m.m.m.m.m.m.m.m.m.m.m.m.m.m.m.m.m.m.m.m.m.m.m.m.m.m.m.m.m.x.q.n.8 & 0 t.^.j.G m e.n.x.x.n.x.x.M.x.n.M.x.M.x.n.x.x.M.c.x.x.x.x.x.M.x.c.c.n.c.x.x.x.x.v.x.c.w.v.c.x.x.c.x.x.c.x.x.c.x.c.x.x.x.x.x.c.x.x.v.c.c.c.x.x.x.x.c.x.c.c.x.c.v.x.x.c.x.c.v.c.x.c.c.x.m.c.N.( M F.j.8.# K 4Xn.m.m.m.m.m.m.m.m.m.m.m.m.m.m.m.m.m.m.m.m.m.m.m.m.m.m.m.m.m.m.m.m.m.m.m.m.m.m.m.m.m.m.m.m.m.m.m.m.m.m.m.m.m.m.m.m.m.m.m.m.m.m.m.m.m.m.m.n.m.m.m.m.m.m.m.m.m.m.m.m.m.m.m.9.t F h C <.).[ 8 X.D.U.b.N.b.b.b.N.m.N.",
"n.n.n.n.n.x.P.$X< k Y.J.,.= j V ^ 4.9.9.9.9.f.v.9.f.f.w.x.9.q.9.9.q.w.x.9.x.w.f.w.w.x.9.w.w.w.w.w.w.w.9.9.w.9.f.w.w.x.9.9.x.9.x.f.w.9.q.w.q.9.9.w.w.x.q.x.q.f.w.9.x.9.x.w.w.9.q.w.w.9.9.v.9.9.9.x.w.x.w.w.c.F 8 L.G.^.= r P.5.r.w.x.x.q.x.w.x.x.x.w.w.x.w.w.w.w.w.w.w.w.w.9.w.w.w.9.w.w.w.w.9.w.w.9.w.w.w.w.9.9.w.w.q.w.9.w.w.9.w.q.w.w.w.w.9.w.w.9.9.w.9.9.w.9.w.w.9.9.9.w.9.9.9.w.w.9.9.9.9.w.9.r.9.r.r.9.k n O M j.^.$.5 |.+X|.m.|.m.m.m.m.m.|.n.m.m.m.m.m.m.m.m.n.m.m.m.m.m.m.m.m.m.m.m.m.m.m.m.m.m.m.m.m.m.m.m.m.m.m.m.m.m.m.m.m.m.n.m.m.m.m.m.m.m.m.m.m.m.m.m.m.m.m.m.m.m.m.m.m.m.m.m.P.m.m.P.P.$X7 % 7 :.).g.~ v e.n.M.x.x.n.c.M.c.x.x.c.x.x.x.M.x.n.x.x.M.n.x.M.x.n.c.b.x.x.x.x.c.c.x.c.c.x.c.x.x.x.c.c.c.x.v.c.x.c.w.v.r.c.c.x.v.c.x.c.c.w.c.x.c.v.c.c.x.w.c.v.x.x.v.c.x.x.x.c.v.c.x.w.v.c.c.m.J k F.l.=.# K 3Xn.m.m.m.m.m.m.m.m.m.m.m.n.m.m.m.m.m.m.m.m.m.m.m.m.m.m.m.m.m.m.m.m.m.m.m.m.n.m.m.m.m.m.m.m.m.m.m.m.m.m.m.m.m.m.m.m.m.m.m.m.m.m.m.n.m.m.m.m.m.m.m.m.m.m.m.m.m.m.m.m.m.n.+Xm.] { k C B.).J 8 | S.N.N.m.b.M.b.b.M.N.",
"n.c.n.n.n.n.U.T.q k Y.J.d.+ v.FX$XP.f.9.x.9.w.w.w.w.9.9.x.9.x.w.x.x.9.9.q.x.w.w.w.w.w.9.w.w.w.q.r.9.9.q.r.w.q.r.w.w.9.q.9.w.f.q.9.9.x.x.w.x.x.9.9.v.9.9.x.9.9.x.9.q.f.9.f.9.x.x.f.f.q.x.w.w.f.x.w.w.w.f.r.m.I 8 G.F.!.= d P.9.r.r.w.f.9.9.w.9.w.w.w.w.w.x.w.x.w.9.w.w.w.w.w.w.w.w.w.w.9.w.w.w.w.w.w.w.w.9.w.w.w.w.w.w.w.w.w.w.w.w.w.w.w.w.w.9.9.9.w.9.9.9.9.9.w.9.9.w.9.9.9.9.9.w.9.9.w.9.9.w.9.9.9.9.r.9.9.n.6.= Z g.).&.5 m.+Xm.m.m.m.m.|.m.m.m.m.m.m.m.n.m.m.m.m.m.m.n.m.m.m.m.m.n.m.m.m.m.m.m.m.m.m.m.m.m.m.m.m.m.n.m.m.m.m.m.m.m.m.m.m.m.m.m.m.m.m.m.m.m.m.m.m.m.m.m.m.m.m.m.m.|.m.m.P.m.P.P.P.L.%XN & 0 ;.^.g.~ x e.n.x.x.c.x.x.x.M.x.n.x.n.x.c.c.n.x.x.x.x.x.c.x.M.x.x.M.M.c.n.x.x.v.x.x.x.v.x.x.c.x.x.v.w.c.x.x.x.x.c.c.c.c.v.x.x.x.x.x.x.x.x.v.x.x.x.w.x.c.x.c.r.x.x.x.c.v.x.x.x.x.x.x.x.M.m.m.( M H.l.=.# ..4Xn.m.m.m.m.m.m.m.m.m.m.m.m.m.m.m.m.m.m.m.m.m.m.m.m.m.m.m.m.m.m.m.m.m.m.m.m.m.m.m.m.m.m.m.m.m.m.m.m.m.m.m.m.m.m.m.m.n.m.m.m.m.m.m.m.m.m.m.m.m.m.m.m.m.m.m.m.m.m.m.n.m.m.m.m.cXA.l Z <.^.J 8 t.D.U.b.b.N.N.b.b.b.N.",
"n.n.n.n.n.n.n.=X1 e Y.!.j.o Z &Xx.9.f.v.9.q.9.x.x.9.x.q.w.f.w.w.9.9.w.w.w.9.w.w.w.9.w.w.w.w.w.w.q.w.r.9.w.w.9.w.w.w.w.w.w.9.w.w.f.w.w.9.9.x.f.q.9.9.f.w.w.w.w.q.w.w.9.9.w.w.9.9.w.w.w.w.9.v.w.w.w.w.w.w.w.n.F h G.J.!.* j U.9.r.r.x.9.x.w.w.9.x.w.w.w.w.w.w.x.w.w.w.w.q.w.w.q.x.w.w.w.w.w.9.q.w.w.w.w.w.w.w.w.w.w.9.w.w.w.w.w.w.w.w.w.w.w.w.9.w.w.w.w.9.w.9.w.9.w.9.q.9.w.w.w.9.w.9.w.9.w.9.w.w.r.9.r.9.w.w.x.| = C g.).$.5 P.+X|.m.|.m.m.m.m.|.|.m.m.m.m.m.m.m.m.m.n.m.m.m.m.m.m.m.m.m.m.m.m.m.m.m.m.m.m.m.m.m.m.m.m.m.m.m.m.m.m.m.m.m.m.m.n.m.n.m.m.m.m.m.m.m.m.m.m.m.m.m.m.m.m.m.|.m.m.m.+Xm.P.P.P.2Xo.- 7 :.^.j.~ m e.n.x.x.x.M.x.x.x.x.x.x.x.c.c.x.x.c.x.c.v.x.x.x.x.x.x.x.x.x.c.x.v.x.x.x.w.c.x.c.v.x.x.v.v.x.x.x.v.x.x.v.c.x.c.x.c.x.c.v.x.c.x.c.x.c.x.c.c.x.x.x.c.c.v.x.w.c.c.x.c.c.x.x.x.c.c.|.F e F.l.=.# T 5Xm.m.m.m.n.m.m.m.m.m.m.m.m.m.m.m.m.m.m.m.m.m.m.m.m.m.m.m.m.m.m.m.m.m.m.m.m.m.m.m.m.m.m.m.m.m.m.m.m.m.m.m.m.m.m.n.m.n.m.m.m.m.m.m.m.m.m.m.m.m.m.m.m.m.n.m.m.m.m.m.m.m.n.m.m.+Xv.G C 0.^./ 8 y.S.U.b.N.b.N.N.N.b.A.",
"n.n.n.n.n.n.m.c.# e J.).F.o N v.9.w.w.w.x.x.9.w.9.9.w.9.w.w.w.w.w.9.w.w.w.w.w.w.w.w.w.w.w.9.w.w.9.w.9.9.w.w.w.w.w.w.w.w.w.w.w.w.w.q.x.9.9.w.w.x.x.9.9.v.w.w.w.w.w.w.x.q.w.w.x.q.w.w.w.w.9.9.w.w.w.x.w.w.q.c.x 8 G.F.!.% j U.9.9.w.9.f.9.x.w.q.w.w.w.w.w.w.w.9.q.w.w.w.w.w.w.9.9.9.w.w.w.w.9.x.w.w.w.9.w.w.w.w.q.w.w.w.w.9.w.w.9.w.q.w.w.w.w.w.w.w.w.w.w.w.w.w.w.w.w.w.x.w.w.w.w.w.w.w.w.w.w.w.w.9.x.x.9.9.r.n.| + C l.).&.8 P.|.m.m.m.m.|.m.m.m.m.m.m.m.m.m.m.m.m.m.m.m.m.m.m.m.m.m.m.m.m.n.m.m.m.m.m.m.m.m.m.n.m.m.n.m.n.m.m.m.m.m.n.m.m.m.m.m.m.m.m.m.m.m.m.m.m.m.m.m.m.m.n.m.m.c.m.m.|.m.m.m.P.P.P.%XN - 7 :.^.h.~ F v.x.x.M.x.c.x.x.x.c.v.c.x.c.v.c.x.c.x.v.c.x.c.v.x.x.v.c.x.v.c.v.c.x.c.c.c.x.x.x.x.x.x.c.c.x.c.x.c.x.c.c.w.x.x.v.x.x.x.x.x.v.x.x.x.v.x.c.x.v.c.x.c.c.x.x.x.x.v.c.x.r.x.x.x.c.x.|.v 8 H.1.=.= K 5Xm.m.m.m.m.m.m.m.m.m.m.m.m.m.m.m.m.m.m.m.n.m.m.m.m.m.m.m.m.m.m.m.m.m.n.m.m.m.m.m.m.m.m.m.m.m.m.m.m.m.m.m.m.m.m.m.m.m.m.m.m.n.m.m.m.m.m.m.m.m.m.m.m.m.m.m.m.m.m.m.m.m.c.|.m.|.N.) C B.).L 7 y.D.U.M.b.M.b.b.b.M.N.",
"n.c.n.n.n.n.U.U.= h Y.^.j.o k v.9.f.9.q.9.9.9.f.9.x.w.w.w.w.w.w.w.q.x.w.w.w.q.9.w.w.q.w.w.w.w.w.w.w.w.w.w.w.w.w.w.w.w.q.w.9.w.w.w.x.x.9.f.w.9.9.x.w.9.x.f.w.w.w.w.w.w.w.w.w.w.w.w.w.w.w.w.w.9.w.w.x.w.x.q.c.v e L.J.!.% j P.5.r.r.x.x.f.9.9.w.9.w.w.w.w.w.w.w.w.w.w.w.w.9.w.w.w.w.w.w.w.w.w.w.w.w.w.w.w.w.w.w.w.w.w.q.w.w.w.w.w.w.w.w.w.w.w.w.w.w.q.w.w.w.w.w.w.w.w.w.9.w.w.w.w.9.w.w.w.w.w.w.w.w.w.9.w.w.w.n.| # Z j.^.$.5 +Xm.m.m.m.|.m.m.m.m.m.m.n.m.m.n.m.m.m.m.m.m.m.m.m.m.m.m.m.m.m.m.m.m.m.m.m.m.m.m.m.m.m.m.m.m.m.m.m.m.m.m.m.m.m.m.m.m.m.m.m.m.m.m.n.m.m.m.m.m.m.m.m.m.m.m.|.m.m.m.|.+XP.P.P.$XF ; w :.).g.~ F v.x.x.x.c.c.x.x.c.x.x.x.x.x.x.x.x.v.x.v.x.x.c.x.c.v.x.x.x.x.c.r.x.x.x.v.c.v.c.v.c.x.x.x.c.x.c.v.x.x.w.c.c.c.c.x.c.v.c.w.c.c.x.x.x.c.c.w.x.x.x.c.x.x.x.x.x.c.x.x.c.v.w.c.x.c.c.|.v 8 F.l.*.# ( 5Xm.m.m.m.m.m.m.m.m.m.m.n.m.m.m.m.m.m.m.m.m.m.m.m.m.m.m.m.m.n.m.m.m.m.m.m.m.m.m.m.m.m.m.m.m.m.m.m.m.m.m.n.m.m.m.m.m.m.m.m.m.m.m.m.m.m.m.m.m.m.n.m.m.m.m.m.m.m.m.n.m.c.m.m.|.|.e.G N -.).W 7 7.S.U.b.M.b.M.N.M.M.N.",
"n.n.n.n.n.n.L.T.1 e Y.Y.j.o N c.q.9.9.x.w.f.9.v.9.9.w.w.w.9.w.w.w.w.9.9.w.w.x.9.w.w.w.w.w.w.9.w.w.w.w.9.9.w.w.w.w.9.w.w.w.9.x.q.f.9.9.q.x.w.x.9.q.f.9.9.w.w.w.w.9.w.w.w.9.w.w.w.w.w.9.w.w.w.w.w.w.w.r.w.r.c.V y G.K.!.= h P.9.9.w.w.9.w.w.w.w.w.w.w.9.w.9.w.w.w.9.w.w.w.w.w.w.w.w.w.w.w.q.w.w.w.9.w.w.9.w.w.w.w.9.9.x.w.w.w.w.w.w.w.9.w.w.w.w.9.w.w.w.9.w.w.w.w.9.w.w.w.w.9.w.w.w.w.w.9.w.w.w.w.w.w.w.w.w.q.n. .# Z g.!.' 5 +X+Xc.m.c.m.m.m.m.m.|.m.m.m.m.m.m.m.m.m.m.m.m.m.m.m.m.m.m.m.m.m.m.m.m.m.n.m.m.m.m.m.m.m.m.m.m.m.m.m.m.m.m.m.m.m.m.m.m.m.m.m.m.m.m.m.m.n.m.m.m.m.m.m.m.m.m.m.m.m.m.m.P.P.m.$XJ - i -.^.d.~ J v.n.n.x.x.x.c.x.c.v.c.v.x.x.x.v.x.c.x.c.x.c.x.x.x.x.x.x.c.c.c.x.x.x.x.c.x.x.x.x.x.v.x.c.c.w.x.x.c.x.c.x.x.v.x.x.x.x.c.c.w.c.x.c.v.x.x.x.v.c.v.c.x.c.x.v.x.v.c.x.c.x.c.r.w.x.c.+Xx e F.l.*.= ( 5Xm.m.n.m.m.m.m.m.m.m.m.m.m.m.m.m.m.m.m.m.m.m.m.m.m.m.n.m.m.m.m.m.m.m.m.m.m.m.m.m.m.m.m.n.m.m.m.m.m.m.m.m.m.m.m.m.m.m.m.m.m.m.m.m.n.m.m.m.m.m.m.m.m.m.m.m.m.m.m.m.m.m.c.|.|.|.e.Z M -.^.U 8 | S.N.b.b.N.b.b.M.N.A.",
"n.n.n.n.n.c.P.T.1 k Y.Y.8.O ^ m.9.q.9.9.f.x.q.9.w.w.w.w.w.w.w.w.w.w.9.w.w.w.w.9.w.w.w.9.w.w.w.w.w.9.9.w.q.w.w.w.w.w.w.w.w.9.w.w.9.9.f.q.9.x.w.f.w.9.9.x.w.w.w.9.w.q.w.w.w.w.w.w.w.w.w.w.w.w.w.w.w.r.w.w.w.c.F e Y.F.!.* h U.9.r.w.f.x.9.9.w.w.q.q.x.9.w.w.w.w.w.w.w.w.w.w.w.q.9.w.w.w.w.w.w.w.w.w.w.9.9.w.w.w.w.w.9.w.w.q.w.w.w.w.w.w.w.w.9.w.w.w.w.w.w.w.w.9.x.w.w.w.w.9.w.w.w.w.w.w.w.w.w.q.w.w.w.w.w.w.w.m.} o Z j.Y.' 5 P.+Xn.n.c.m.m.|.m.m.m.m.m.m.m.m.m.m.m.m.m.m.m.m.n.m.m.m.m.m.m.m.m.m.m.m.m.m.m.m.m.m.m.m.m.m.m.m.m.n.m.m.m.m.m.m.m.m.m.m.m.m.m.m.m.m.m.m.m.m.m.m.m.m.m.m.m.m.m.m.P.m.m.+XP.=XD ; w ;.^.g.~ ( v.n.x.x.x.x.x.v.c.c.x.x.x.c.w.v.x.x.w.c.x.x.x.x.v.x.c.x.c.w.c.x.x.x.x.c.c.v.x.x.x.x.x.x.c.c.x.x.v.x.x.x.c.x.c.v.x.v.c.x.c.x.c.x.x.v.x.c.c.c.c.x.x.c.x.v.c.x.c.x.x.x.w.x.c.c.c.+Xv 8 G.z.=.% ( hXm.m.n.m.m.m.m.m.m.m.n.m.m.m.m.m.m.m.n.m.m.m.m.m.m.m.m.m.m.m.m.m.n.m.m.m.m.n.m.m.m.m.m.m.m.m.m.m.m.m.m.m.m.m.m.m.m.n.m.m.m.m.m.m.m.m.m.m.m.n.m.m.m.m.m.m.m.m.m.m.m.m.c.m.m.|.v.Z M u.).L 8 7.XX@Xb.b.M.b.N.N.b.N.",
"n.n.n.c.n.n.m.&X< k Y.!.d.O H M.9.q.9.v.w.w.9.x.f.w.w.w.9.w.w.w.w.w.w.w.w.w.w.w.w.w.w.w.w.w.w.q.q.x.w.w.w.w.w.w.w.w.w.w.w.w.w.w.x.9.w.x.9.9.w.w.w.v.f.9.w.9.w.w.w.w.w.w.w.9.w.w.w.9.w.w.w.w.9.w.w.v.r.c.w.c.F e J.F.!.& z m.9.r.r.x.f.v.9.w.w.w.w.w.9.w.9.w.w.w.w.w.w.9.w.w.x.9.w.w.q.w.w.w.9.w.w.w.x.q.w.w.w.9.w.w.w.w.w.w.w.w.w.9.w.w.w.w.w.w.w.9.w.w.w.w.9.q.9.w.w.w.w.w.w.w.9.w.w.w.w.w.w.w.r.w.w.w.w.r.m.6.$ Z g.Y.' 4 .X+Xm.m.m.|.m.m.m.m.m.m.m.m.m.m.m.m.m.m.m.m.m.m.m.m.m.n.m.m.m.m.m.m.m.m.m.m.m.m.m.n.m.m.m.m.m.m.m.m.m.m.m.m.m.m.m.m.m.m.m.m.m.m.m.m.m.m.m.m.n.m.m.m.m.m.m.|.m.|.m.P.P.m.m.=XJ ; y -.^.g.) ( q.x.v.x.x.x.x.c.x.x.c.v.x.x.c.c.x.c.c.x.v.c.x.c.x.c.x.x.c.c.x.x.v.c.c.w.x.c.x.c.v.c.x.c.x.v.c.x.c.x.c.x.x.x.x.x.x.c.x.x.c.v.x.x.x.c.x.x.x.c.x.v.x.v.c.x.x.x.x.v.x.c.c.x.x.c.c.|.v e F.F.*.= K lXm.m.m.m.m.m.m.m.m.m.m.m.m.n.m.m.m.m.m.m.m.m.m.m.m.m.m.m.m.m.m.m.m.m.m.m.m.m.m.m.m.m.m.m.m.m.m.m.m.m.m.m.m.m.m.m.m.m.m.m.m.m.m.m.m.m.m.m.m.m.m.m.m.m.m.m.m.c.m.m.m.m.m.m.|.|.b.~ N -.!.] 8  .XXN.b.b.b.A.b.b.N.M.",
"n.n.n.n.n.n.P.U.1 h Y.J.j.O ^ m.9.5.f.w.w.w.9.f.9.w.w.w.w.w.w.w.w.q.w.w.q.x.w.w.9.w.w.w.w.w.w.w.w.w.w.w.w.w.w.w.9.w.w.9.w.9.w.w.v.9.9.x.x.x.9.9.w.w.w.w.x.9.w.w.w.w.9.9.w.w.w.w.w.w.w.w.w.w.w.w.w.r.w.w.r.b.x e J.J.!.- j m.w.w.9.x.f.w.w.w.w.w.w.w.w.w.w.w.w.q.w.9.w.w.w.w.w.w.w.w.w.w.9.w.w.w.w.w.w.w.w.w.w.w.w.w.w.w.w.w.9.w.w.w.w.9.w.w.w.w.w.w.w.w.w.9.w.w.w.w.w.w.w.q.x.w.w.w.q.w.w.w.w.w.w.w.w.r.w.w.L.u.= Z l.Y.) 5 m.m.m.m.c.m.m.m.m.|.m.m.m.m.m.m.m.m.m.n.m.m.m.m.m.m.m.m.m.m.m.m.n.m.m.m.m.m.m.m.m.m.m.m.m.m.m.m.m.m.m.m.m.m.m.m.m.n.m.m.m.m.m.m.m.m.m.m.m.m.m.m.m.m.m.m.m.m.m.m.+Xm.P.m.m.=XF - i -.^.j.) ( v.x.v.x.c.x.x.x.v.c.v.x.v.c.x.x.x.v.x.x.w.c.v.c.x.x.c.c.v.x.x.v.x.x.x.c.w.c.v.x.x.w.c.v.c.x.w.c.x.x.c.c.x.x.c.x.w.c.c.x.x.c.w.v.x.v.x.c.x.r.c.x.x.x.v.x.c.w.c.x.c.v.x.x.x.r.OX+XF h G.z.,.= O.hXm.m.m.m.m.m.m.m.m.m.m.m.m.m.m.m.m.m.m.m.m.m.n.m.m.m.m.m.m.m.m.m.m.m.m.m.m.m.m.m.m.m.n.m.m.m.n.m.m.m.m.m.m.m.m.m.m.m.m.m.m.m.n.m.m.m.m.m.m.m.m.m.m.m.m.n.m.m.m.m.m.m.m.|.m.|.N.~ C -.).L 7 7.N.N.b.b.b.M.v.b.b.D.",
"n.n.n.n.n.n.P.+X< k Y.!.,.# ^ n.5.9.w.v.x.w.x.w.x.w.w.q.w.w.w.q.w.w.w.w.9.9.w.w.w.w.w.w.w.9.w.w.w.w.w.9.w.w.9.w.w.w.w.w.w.9.x.q.w.f.9.9.q.9.9.9.9.w.w.w.q.w.w.w.w.w.x.q.w.w.9.w.9.w.w.w.w.q.w.w.w.x.w.w.9.c.V e J.F.!.% j m.q.w.w.w.9.w.9.w.w.w.w.w.9.w.w.w.w.w.w.w.w.w.9.w.w.w.w.9.w.w.w.w.w.w.9.w.w.w.9.w.w.w.w.w.w.q.w.w.w.w.w.w.w.w.w.9.w.w.w.w.q.w.w.w.w.w.w.w.w.w.w.w.9.9.w.w.w.w.9.w.w.w.w.w.w.x.w.q.m.q.= C <.J./ : x.+Xc.m.m.m.|.m.m.m.m.m.m.m.m.m.m.m.m.m.m.m.m.m.m.m.m.m.m.m.m.m.m.m.m.m.m.m.m.m.m.m.m.m.m.m.m.m.m.m.m.n.m.m.m.m.m.m.m.m.m.m.m.m.m.m.m.m.m.m.m.m.m.m.n.|.m.m.m.|.m.P.P.P.n.9.l - r -.!.l.) ( v.x.x.x.x.x.v.x.x.x.x.x.x.c.x.c.x.c.c.x.c.x.x.x.x.c.v.w.x.c.x.c.x.c.x.v.x.x.c.c.c.x.c.x.x.x.v.c.c.x.v.w.x.c.v.x.c.x.v.x.x.x.c.c.x.c.c.w.x.x.x.v.x.x.c.x.c.c.x.x.c.w.c.c.x.c.x.+XF h G.j.,.= ( hXm.m.m.m.m.m.m.m.m.m.m.m.m.m.m.m.m.m.m.m.m.m.m.m.m.m.m.m.m.m.m.m.m.m.m.m.m.m.m.m.m.m.m.m.m.m.m.m.n.m.m.m.m.m.m.m.m.m.m.m.m.m.m.m.m.m.m.m.m.m.m.m.m.m.m.m.m.m.m.m.m.m.m.m.m.|.N.E N <.!.A w v.b.U.b.M.b.v.Z.M.Z.N.",
"n.n.n.n.n.x.m.U.= c Y.!.,.= | m.q.x.m.c.v.v.w.w.w.w.w.w.w.w.w.w.w.w.w.w.w.w.w.w.w.q.x.9.w.w.w.w.w.q.w.w.w.w.w.w.w.w.q.x.w.q.w.w.9.v.9.9.x.w.w.w.x.w.w.9.9.9.9.w.w.9.w.w.9.w.w.w.w.w.w.w.w.w.w.w.x.r.w.w.9.c.V e G.G.!.= j M.9.9.w.9.x.w.w.w.w.w.w.w.9.w.9.w.w.w.w.w.w.w.w.w.9.w.w.w.w.q.w.w.w.q.w.q.w.w.9.w.w.w.w.w.w.w.9.w.w.w.w.9.w.w.w.w.9.w.w.w.9.w.w.w.9.w.w.w.w.q.w.w.w.w.w.w.w.w.9.v.w.w.w.w.w.w.w.r.L.q.1 Z g.Y.~ : x.+Xm.c.c.m.m.m.m.|.m.m.m.m.m.m.m.m.m.m.m.m.m.m.m.m.m.m.m.m.m.m.m.m.m.n.m.m.m.m.m.m.m.m.m.m.m.m.m.m.m.m.m.m.m.n.m.m.m.n.m.m.m.m.m.m.m.m.m.m.m.m.m.m.m.m.|.m.m.m.m.m.P.m.m.x.J , w :.!.g.) J v.x.v.x.x.x.v.x.x.x.x.x.x.x.c.v.c.v.w.x.x.c.x.w.c.c.c.x.w.c.c.x.c.c.x.x.x.v.c.x.c.x.c.x.x.x.x.x.c.x.x.c.x.x.x.c.x.x.c.x.w.x.x.x.c.v.c.x.c.x.x.x.c.v.x.x.v.x.x.c.x.x.c.w.c.c.x.+XK h G.z.*.* O.5Xm.m.m.m.m.m.m.m.m.m.m.m.m.m.m.m.m.m.m.m.m.m.m.m.m.m.n.m.n.m.m.m.m.m.m.m.m.m.m.m.m.m.m.m.m.m.m.m.m.m.m.m.n.m.m.m.m.m.m.m.m.m.m.m.m.m.m.n.m.m.m.m.m.m.m.m.m.m.m.m.m.m.m.m.m.|.M.E C -.!.[ 7  .Z.M.b.b.b.b.b.Z.b.D.",
"n.n.n.n.n.n.m.$X< h Y.J.,.= ( M.x.m.&Xb.x.w.w.x.x.w.w.w.w.9.w.w.w.w.9.w.w.w.w.9.w.w.w.9.w.w.9.w.w.w.w.9.9.w.9.9.w.w.9.9.w.w.w.w.9.x.9.x.w.w.v.x.v.w.r.9.5.9.w.9.w.w.w.w.9.q.w.w.w.w.w.9.w.w.w.w.w.w.w.w.w.c.F e Y.F.!.% f c.9.9.w.9.9.9.w.w.x.9.w.w.w.w.w.w.w.w.w.w.9.w.w.w.w.w.w.w.w.w.w.w.9.x.w.w.w.w.w.w.w.w.w.w.w.w.w.w.w.9.w.w.w.w.w.w.q.x.w.w.w.w.w.w.w.w.w.9.w.w.w.w.9.w.w.9.w.w.9.9.w.w.w.w.w.w.w.w.m.q.; Z d.Y.' ; x.|.c.m.m.m.m.m.m.c.n.m.m.m.m.m.m.m.m.m.m.m.m.m.m.m.m.m.m.m.m.m.m.m.m.m.m.m.m.m.m.m.m.m.m.m.m.m.m.m.m.m.m.m.m.m.m.m.m.m.m.m.m.m.m.m.m.n.m.m.m.m.m.m.m.m.m.m.|.m.+Xm.P.P.n.+XJ , w >.!.l.Q K v.x.9.x.v.w.x.x.x.v.x.x.c.v.x.x.x.c.c.x.x.v.x.c.c.v.x.x.c.v.x.x.v.x.c.x.x.c.x.x.v.x.x.v.v.c.v.c.v.x.x.x.c.r.v.x.c.x.x.x.c.x.c.c.x.x.c.x.v.x.x.c.x.x.c.x.x.c.v.x.c.x.x.x.w.c.x.+XK h F.l.,.* { 5Xm.n.m.m.m.m.m.n.m.m.m.m.m.m.m.m.m.m.m.m.m.m.m.m.m.m.m.m.m.m.m.m.m.m.m.m.m.m.m.m.m.m.m.m.m.m.m.m.m.m.m.m.m.m.m.m.m.n.m.m.m.m.m.m.m.m.m.m.m.m.m.m.m.m.m.m.m.m.m.m.m.m.m.m.m.+XZ.E C u.!.W 8 D q.U.Z.Z.v.b.v.b.v.A.",
"x.n.n.n.n.n.P.+X; l Y.J.d.% , j v.M.m.v.c.v.x.w.w.w.9.q.w.w.w.w.w.w.w.w.w.9.w.w.w.q.w.w.9.w.w.w.w.w.w.w.w.w.w.x.w.9.w.w.w.9.w.w.f.w.w.f.w.w.x.w.9.9.9.w.w.q.w.9.v.w.x.9.9.x.9.v.f.w.w.w.w.w.w.w.w.w.w.x.r.v.I h G.G.J.% d m.9.x.x.q.x.q.w.w.q.9.w.w.w.q.w.w.9.9.q.9.w.w.q.w.w.w.w.w.w.w.9.w.9.w.w.w.9.9.w.w.w.w.w.q.9.w.w.w.w.9.w.9.9.w.w.w.w.9.w.9.w.w.w.w.w.w.w.w.w.9.w.w.w.w.w.w.w.w.w.w.9.w.w.x.w.w.w.9.n.6.= Z l.!.$.5 +X+Xm.m.m.m.m.m.m.|.m.m.m.m.m.m.m.m.m.m.m.m.m.m.m.m.m.m.m.m.m.m.m.m.m.m.m.m.m.m.n.m.m.m.m.m.m.m.m.m.m.m.m.m.m.m.m.m.m.m.m.m.m.m.m.n.m.m.m.m.m.m.m.m.m.m.m.m.m.m.m.P.P.L.M.4.d * i ;.J.1.) K q.f.c.v.x.w.v.x.x.v.v.x.w.c.x.c.x.x.x.c.c.x.c.x.x.x.x.x.c.x.c.x.c.x.w.c.v.x.c.x.x.x.x.c.x.x.x.c.c.c.x.c.c.c.v.x.v.x.x.v.c.v.x.v.x.v.x.x.x.c.c.x.x.x.v.c.x.c.x.c.w.c.x.x.c.c.x.+XK l G.z.=.* ( 5Xm.m.m.m.m.m.m.m.m.m.m.m.m.m.m.n.m.m.m.m.m.m.m.n.m.m.m.m.m.m.m.m.m.m.m.m.m.m.m.m.m.m.m.m.m.m.m.m.m.m.m.m.m.m.m.m.m.m.m.m.m.m.m.m.m.m.m.m.m.m.m.m.m.m.m.m.m.m.m.m.m.m.m.m.m.+XM.E C 0.).] 4 + 5 o.A.b.b.v.b.v.N.S.",
"n.n.n.n.n.n.P.U.= k Y.J.d.O 5 8 9.x.x.w.w.w.w.w.x.w.w.x.9.w.9.w.w.w.9.w.w.w.w.w.w.w.w.w.9.x.q.w.w.w.w.w.w.w.w.q.w.w.w.w.w.w.w.w.9.9.v.9.9.x.9.7.r.w.w.w.w.x.x.9.9.w.f.9.9.x.9.w.w.w.w.w.w.w.w.w.v.r.w.w.9.c.F 8 G.G.J.= 5 M.9.w.x.9.9.w.w.w.w.w.w.w.w.w.w.w.x.q.x.9.w.w.w.w.w.w.9.w.w.w.w.w.w.w.w.9.w.x.q.w.9.9.9.x.9.w.9.w.q.x.q.x.w.q.9.w.w.w.w.w.w.w.w.q.w.9.w.w.w.9.x.q.w.w.w.w.9.w.w.w.w.w.w.r.w.w.w.r.n.&.# C j.^.' 8 m.+Xc.c.m.c.|.m.m.m.m.m.m.m.m.m.m.m.m.m.m.m.m.m.m.m.n.m.m.m.m.m.m.m.m.m.m.m.m.m.m.m.m.m.m.m.m.m.n.m.m.m.m.m.m.m.m.m.m.m.m.m.m.m.m.m.m.m.m.m.m.n.m.m.m.m.|.m.m.m.|.P.m.m.x.f.k - i >.J.l.Q K | v.x.v.v.c.x.x.x.x.x.x.c.x.x.x.v.c.x.c.x.x.v.x.x.c.v.c.x.x.v.x.x.x.c.v.c.c.w.x.x.c.x.x.c.x.c.w.x.x.x.v.x.c.x.x.x.c.x.c.x.c.x.c.x.c.c.w.c.w.x.v.x.c.x.x.x.v.x.x.c.v.x.c.c.c.x.=XK h F.z.=.= ( wXm.n.m.n.m.m.m.m.m.m.m.n.m.m.m.m.m.m.m.m.m.m.m.m.m.m.m.m.m.n.m.m.m.n.m.m.n.m.m.m.n.m.m.m.m.n.m.m.n.m.m.m.m.m.m.m.m.m.m.m.m.m.m.n.m.m.m.m.n.m.m.m.m.m.m.m.m.m.m.m.m.m.m.m.n.+XD.R Z -.!./ , # ; x _ v.b.v.v.v.m.$X",
"n.n.n.n.n.n.m.+X1 k Y.J.d.O h  .x.w.w.v.w.v.9.w.x.w.w.q.w.w.w.w.w.q.q.9.x.w.w.w.w.w.w.w.w.w.9.w.w.w.w.w.w.w.9.9.w.w.w.w.r.9.w.w.f.q.f.q.f.x.G D 5.c.c.w.w.w.w.f.f.w.9.9.x.q.9.f.9.9.9.q.9.w.w.w.w.w.w.w.r.b.V e L.G.J.= 5 M.9.9.9.9.9.9.9.9.9.9.9.9.w.w.9.9.f.9.9.9.w.w.w.w.9.9.w.w.w.w.w.w.w.w.q.f.w.q.x.9.q.9.w.q.f.q.9.9.9.9.w.q.9.9.9.9.q.r.w.w.q.9.v.x.w.w.q.q.f.w.w.w.q.w.w.q.9.q.w.9.w.q.w.r.9.9.9.9.m.^ o Z j.Y.' 8 +X+Xc.c.m.m.m.m.m.m.m.m.m.m.m.m.m.m.m.m.m.m.m.m.m.m.m.m.m.n.m.m.m.m.m.m.m.m.m.m.m.m.m.m.m.m.m.m.m.m.m.m.m.n.m.n.n.m.m.n.m.m.m.n.m.m.m.m.n.m.m.m.m.m.m.m.m.m.m.m.m.m.P.m.m.2Xo.4 3 >.K.j.Q K ' q.b.f.x.v.x.x.v.x.x.x.c.x.x.c.c.x.x.v.x.v.x.x.v.c.x.x.c.v.c.c.v.x.x.c.x.x.v.x.x.x.x.c.x.c.c.c.x.x.c.x.v.x.c.c.v.x.x.x.x.x.c.c.v.x.n.n.n.c.c.x.x.v.c.x.x.v.x.w.v.x.x.x.w.c.x.+XK k k.z.=.& J wXn.m.P.m.m.n.m.m.m.m.m.m.m.m.m.m.m.m.m.m.m.m.m.m.m.m.m.m.m.m.m.m.m.m.m.m.m.m.m.m.m.m.m.m.m.m.m.m.m.m.m.m.m.m.m.m.m.m.m.m.m.m.m.m.m.m.m.m.m.m.m.m.m.n.m.m.m.P.m.m.m.m.m.m.m.+XM.Z C g.!./ : # ; q 6.q.v.9.x.5.$XpX",
"n.n.n.n.n.x.P.T.# 8 Y.J.,.o ( @Xx.f.x.9.f.9.9.f.9.9.9.x.9.9.w.w.9.x.9.9.9.9.w.9.w.w.w.w.w.w.9.x.x.w.w.f.w.f.q.9.9.9.f.f.h.f.q.9.9.9.9.f.q.x.h 4 5 | m.x.x.q.x.9.9.x.x.w.9.x.w.x.9.x.x.x.x.x.w.x.x.x.x.v.f.m.5 : Y.G.G.- z x.9.9.9.9.9.9.9.q.f.9.9.9.9.f.q.9.9.9.q.x.q.q.q.f.q.x.q.f.w.q.f.q.q.w.w.w.q.w.9.q.x.q.v.w.w.w.f.9.v.w.w.f.w.q.q.v.f.f.f.x.x.h.G r J | x.x.x.f.f.v.f.x.x.f.x.x.x.f.x.f.x.w.w.w.9.r.M. .o Z j.^.~ ; x.|.|.c.c.|.m.m.m.|.m.m.m.m.m.m.m.m.m.n.m.n.m.m.m.n.m.m.m.m.m.m.m.n.m.m.n.m.m.m.n.m.n.m.m.m.m.m.n.m.m.m.L.P.P.P.P.m.L.m.L.m.m.m.L.m.m.n.L.m.m.m.m.m.m.m.m.m.m.P.m.m.m.N.m.$Xs.e 7 :.J.<.R x } v.m.x.w.x.w.x.x.x.x.x.w.c.x.v.x.x.x.x.w.x.x.x.x.x.x.c.x.c.v.c.x.x.c.c.c.c.c.c.c.c.M.c.c.v.c.c.c.c.c.c.x.c.c.n.c.x.c.v.c.v.c.x.c.q.G V k G 7.v.n.n.n.x.x.x.x.x.x.x.x.x.c.c.x.+XJ h F.l.=.% J 2Xm.x.| } 5.v.c.n.m.n.n.m.n.m.m.m.m.m.m.m.m.m.m.n.m.m.m.m.m.m.m.n.n.m.m.m.m.m.m.n.m.m.m.n.m.m.m.m.m.P.m.m.m.m.m.m.m.m.m.m.m.m.m.m.m.m.|.m.|.m.m.m.m.L.P.m.P.m.m.+X|.c.m.m.m.+Xv.E C g.Y.[ 2 > |  Xv.f.f.w.w.x.n.*X",
"n.x.x.n.x.n.+X2X+ 7 Y.Y.d.. ~ P.f.f.9.9.f.9.9.q.9.9.f.w.f.x.w.9.9.9.9.9.r.9.9.9.9.5.9.9.w.r.9.9.9.9.9.9.9.9.q.9.9.9.f.9.f.9.9.9.9.9.9.9.9.x.e : 0 X.n.v.9.9.9.x.9.w.x.w.w.w.9.w.9.x.9.x.w.x.w.w.w.x.9.f.f.M.f : Y.F.G.: x x.9.9.9.f.f.9.9.f.9.q.9.w.9.9.r.9.9.9.9.9.w.9.w.9.9.q.w.9.q.w.q.9.f.w.w.9.9.w.9.w.w.w.9.9.w.9.w.q.9.q.q.w.9.x.x.9.x.f.f.f.f.f.G 4 8 N k.f.x.x.x.f.f.f.f.f.k.f.f.f.f.f.x.9.w.w.w.9.m.| + Z h.^.' ; m.m.c.n.c.m.n.m.m.n.m.m.m.m.n.m.n.n.m.m.m.m.n.n.m.m.n.n.n.m.n.m.m.m.m.n.n.n.m.m.n.m.m.n.m.m.m.m.m.m.m.P.m.L.L.P.m.L.m.m.m.m.n.n.m.m.m.m.m.m.m.n.m.n.n.n.n.n.m.m.n.c.n.x.x.+X( 5 i :.J.-.E V 4.f.m.x.w.w.w.x.x.x.f.x.w.x.w.x.x.w.x.x.x.x.x.x.w.x.v.x.x.x.c.c.c.v.v.x.c.v.c.x.c.c.c.c.c.M.n.m.c.c.c.M.x.n.c.c.x.x.v.x.x.c.v.x.c.5.l 7 > y N ) c.m.b.c.w.x.x.x.x.x.n.x.x.x.x.P.U k F.j.*.= J /.n.c.N N Z r.c.n.n.m.n.n.n.n.m.m.m.m.m.n.m.m.m.m.m.m.m.m.m.m.m.m.m.n.m.m.m.n.m.m.m.n.m.m.m.m.P.m.m.m.P.m.m.m.m.m.m.m.n.m.m.m.n.m.m.m.n.m.m.m.m.m.m.m.m.m.m.m.m.m.c.m.c.n.m.P.f.A R 0.^.U 4 z v.$Xx.x.x.n.x.x.x.c.",
"m.+X+XP.+Xm.5XcX+ 7 Y.G.d.. _ %Xn.n.m.n.n.n.m.m.m.P.m.m.m.m.m.n.n.n.x.x.x.w.x.x.x.x.w.x.x.x.x.x.x.x.x.n.x.n.x.x.n.x.x.x.x.x.x.x.w.x.x.v.x.x.k 4 J q.n.c.c.x.c.x.c.x.x.x.c.x.c.x.c.x.x.x.x.n.x.k.x.n.c.n.c.|.V 8 G.F.G.* V P.m.m.n.m.m.m.m.m.m.n.n.n.m.n.c.c.c.|.c.n.c.m.c.c.c.c.c.c.m.c.c.c.c.c.x.c.c.c.n.c.c.x.c.x.x.c.c.c.c.c.c.c.c.c.n.n.n.m.m.m.P.m.$XrX} _ P.m.m.P.m.m.L.P.L.m.n.n.m.m.m.m.n.m.m.n.n.n.$Xv.# G d.Y._ 8 +X+X|.|.+X+X$X$X$X2X2X2XT.2X2XT.2X2X/.$X/.T.2X/.$X/.2XT.2XT.2X$X/.T.$X2X2XT.2XT.T.T.$XT.T.$XT.T.T.T.T.$XT.$X$XT.T.$XT.T.T.$XT.T.P.$XT.+XT.P.T.T.T.T.$XP.+X+X$X=X$X$X+X+XP.%Xk % w %.J.d.~ F q.m.@Xn.n.m.m.P.m.P.P.P.+XP.P.|.P.P.m.P.P.|.|.P.P.|.$X*X*X*XP.P.q.e.m.m.+X+XP.P.m.+XP.P.P.P.P.P.P.P.P.+X+X+X+X+X+X+X+X=X|.|.|.|.|.m.r.k : 8 4 > l ( w..X|.|.m.OX|.|..X+XP.T.P.%X' M F.l.,.> 0.nXP.x.} 8 5 P.2X5X3X2X2X%X3X2X%X%X%X=X=X=X+X+X+X=X+X+X+X+X+X+X+X+X+X=X+X+X+X+X+X=X+X+X+X=X+X+X+X$X$X+X$X$X$X$X$XP.$X+X$X+X+X$X$X+X+X+XP.+X$XP.$X$X$X$X2XP.|.+X+X+X+Xm.m.+XT.T.M.~ C 0.^.] w 9.P.%XP.P.P.P.P.m.m.n.",
"N.e.e.e.a.b.#XyXO 8 Y.L.,.+ [ V.6.6.7.t.t.t.t.( J G ( O.| | O.( J  .X.i.7.7.7.t.7.7.| 7.| 7.| | O.( ( ( X.6.t.6.6.| t.X.| | 6.6.>.6.6.6.t.0.h 4 { o.| y.| 7.| | 7.| | y.7.7.X.y.7.t.| 7.7.6.| 7.7.7.| 7.| a.j 8 Y.G.J.= j u.| t.t.t.t.6.t.X.7.7.| o.| | o.7.| | | | | y.| 7.| | | | y.| 7.| 7.7.7.7.7.7.7.7.7.7.7.7.7.7.7.7.7.7.7.7.7.7.7.| y.| X.| X.X.X.| b l X.X.7.X.| X.X.X.X.X.y.X.y.X.o.y.X.y.X.y.y.X.q.{ # G d.^.) - 4.a.q.q.q.q.i.i.7.q.7.a.7.q.7.i.7.i.q.q.i.q.q.q.q.q.q.q.u.q.7.q.q.q.q.q.q.q.q.v.h.v.v.v.h.v.v.v.f.Z.v.e.e.e.e.e.e.a.e.e.e.e.v.e.e.e.e.e.a.v.e.e.e.e.e.i.q.q.7.7.6.X.| | O.F 5 * 9 >.Y.d.~ , D | | ( (  .| |  .( |  . .( ' |  .( '  . . .( | |  .| X.y.X. .( N h e D J O.( O.' O.' ( ' | ' | ' ' | ' ' | ( ' ( ( ~ ^ (  .| y.7. .J h 5 8 7 7 7 e k G O.| X.o.| ( H G ' | | | b y F.z.=.* { :XN { X.k b V.a.i.Z.a.i.7.| v.e.e.e.e.e.v.v.b.c.b.b.v.e.c.b.v.v.v.v.b.v.b.v.v.e.v.b.e.v.v.v.b.b.M.v.b.b.b.M.b.v.b.b.v.h.Z.v.v.v.h.h.Z.v.h.Z.v.Z.a.7.7.Z.U 8 G y.7.y. .( i.a.e.t.t Z B.J.A 7 ( ^ D.,X;X;XS.A.N.a.| ",
"H l h l l  .4.8.+ 8 Y.J.d.% e p t t t e e e 7 4 : : , 5 8 5 , , : 4 c k M l k k k z k k k k h r 7 4 4 7 7 w w t t y w w w y t a a t t a t p 2 : h k e e h h h k h k h h h k k h h k k c h c l c c h k h h k , 7 ^.J.G.; ; h e y e e e e e e e h c h h h c c h h c h c c h h c c c h c e c h c c l l l k l l l l l l k l l l l k l l l k k h c d d d 8 8 5 4 ; ; 4 5 8 5 d 8 d 8 d d d d 8 8 d d 8 d e e h 8 k 8 + Z h.Y./ - M N k l k z h c c h d d c d c h h h h h h h h h h h h k h h h k h e h k h k l M l N N N N N N N N N N N l l l l l l l D D D D N N D D D N N D D D D N M M h e w 7 7 5 5 , ; * * e &.J.d.C = 8 8 8 7 8 8 8 5 8 8 8 8 8 8 8 8 8 8 8 8 8 8 8 8 8 8 8 8 8 8 8 8 5 , & ; , 6 4 7 4 7 4 7 7 7 7 7 7 7 4 7 7 7 7 7 7 4 2 4 7 h k k k e e e e 7 8 7 2 4 2 4 7 e 8 h e 7 4 4 4 4 7 7 : 7 F.l.=.% 8 _ : : k 8 e l h e h k e 8 4 l N N N N N G ^ ^ } _ H H G H G G G H G G G G H ^ H H ~ G H G H G ~ ~ ) ) ) ~ ~ E ~ Z Z Z Z C Z Z Z Z Z C Z Z Z Z M M e e h * @ - 4 h d 8 , h l k e 3 Z u.J.A 4 8 e k 4.4.} _ ) _ N h ",
"% & % % * * % O o e Y.G.,.- 2 : 2 > 2 > : > : ; : > : ; ; ; ; > ; ; > - - * * - - * - * - - - - - - * > > - : - - & - * - * - & > * - - - - - : % % - - * ; ; = - - * - - * * - * * - & * & & & & & * - - - % 4 G.j.j.7 : - - - - & - - - > - - - - : > - : > : - : : : : > : > : : : : : : : : > : : > : - > > : : - : : ; > : : > : : : > > 2 2 : 3 2 > 2 : 2 3 2 > 2 2 2 3 2 2 2 2 : 3 2 2 2 7 3 3 3 3 3 3 2 2 ~ j.Y.$.8 2 2 2 3 2 2 : : 2 > : > 2 2 : 2 2 2 2 2 3 3 3 3 2 3 3 3 3 3 3 3 3 3 3 3 2 3 3 3 3 3 2 3 4 i 3 2 2 2 4 2 2 2 : 2 2 2 3 3 2 2 3 3 3 3 2 3 3 3 3 3 2 2 3 2 2 2 2 2 2 2 3 3 3 3 2 3 y ;.L.j.) , y t t w w t t t t t y t t t t t t y t t t t t t t y t t t y p t p p t y t t t y a t t a a t t a t a p y a t y p t a a t t y t a p p M a a y y r t e z t e t t t t t y t p y a y p Q F.l.d.8 4 5 2 : : 2 : 2 2 2 : : : 2 2 2 > 2 2 > 2 2 : : 2 > : 2 2 : 3 : : 2 2 : 2 : 2 : 2 2 2 2 2 : 2 2 3 3 3 3 2 7 3 3 3 3 2 3 3 3 3 3 2 3 3 3 3 3 2 3 3 3 3 3 2 3 i i i i i i 3 w w i w w Q <.F.' t - : ; - - * * * & = ; ",
"W W / W A W A F z ) G.G.k.W ] ` ` ` ` ` ` ` ` ` / ` ` [ ` ( ` [ / W W / [ ] / ] W [ ] / ] [ W [ / [ ] W / ] ! [ ` ` / [ ] ` [ / ` ] ` W ` [ ` / W [ ] A ] / ] ] / ] / ] ] W W W ] W W W W W W / W W W W W W B / J.j.k.' W B A A A A Z A A A W A W W A ~ W E W E / W / W / / W / / W / / W W / W W / / / / ` / W / [ ` / / [ ` / [ ` / [ [ ` ` ` ` ` ` ` ` ` ` ` ` ` ` ` ` ` ` ` ] ` ` ` ` ` ` ` ` %.%.%.%.` ! &.` =.k.G.d.) ` ` %.{ ` ` ` / ] ` ` ` ` [ ` ` ` ` ` ` ` %.` ` %.>.%.{ %.` %.%.` >.%.%.{ %.%.{ %.{ %.` ` >.` %.` ` ` ` { ` ` { %.{ ] ` ` ` ` ` %.` ` %.` %.` ` %.` >.` [ ` ` ] ` ` ` %.%.` %.` %.<.J.k.d.W &.;.%.%.%.;.;.;.;.&.&.&.&.&.;.&.&.-.;.&.%.;.&.%.&.;.;.&.;.-.&.>.;.t.&.&.&.&.;.&.&.;.;.-.-.&.;.;.&.&.;.#.;.;.&.-.%.;.;.&.;.-.;.;.;.-.-.;.-.;.&.&.;.&.&.;.>.&.&.&.&.&.-.-.-.;.;.;.;.d.F.K.F.&./ ' ` ` ` [ ` W ] / ` / ] ` / ` ` ` ` ` ` ` ` %.` %.` >.` ` ` ` ` ` ` ` %.` ] ` ` ` ` ` ] ` ` ` ` ` %.%.%.` ` ` ! ` ` ` %.%.%.{ %.` %.>.` %.` %.` %.%.>.%.%.%.` ` ` ` ) &.%.%.` %.@.<.j.G.8.$.[ ` / / ] L [ U W [ { ",
"gXjX{.jXgXjXjXhXjXgX/.Y.^._._.{.{._.[._.[.[.[.{.[.{.[.{.[.{.[.[.{.[.{.{.[.{.{.{.{.[.{.{.{.{.{.{.{.{.{.{._.^._.4XjXgXgX).[.nX{.[.jX{.jXjX{.{.{.{.{.{.).).{.).{.{.{.{.{.{.{.{.{.{.{.{.{.{.[.{.[.{.jX{.[.{.{.{.{._.).~.!.`.`.)._././._._._._._._._.[._._._.[._.[.[._._._._._._._.)._._._.[.{.).[.[.{.[.).[.[.{.{.).J.).).^.^._._.).)._.)._._.).)._.).)._.).)._._.).)._.).)._.).[.).)._.{._._.)._.{._._._._._.).)._.).).^.^.).)._._.)._.)._.).)._.)._.)._.)._.).{._._.).)._.).)._.{._.{.).[.{.)._.{.).).[.).).[.).).!.!.!.[._._._._._._._.[.[.[._._.{.)._.)._.)._.).)._.)._.)._.).)._.)._.)._.).)._.).).)._._.).^.^.J.Y.!.^.^.^.^.^.^.^.^.^./.^.^./.^./.^.^.^././.^.^.^.^.^.^.Y.^.^.^.Y.^.Y.^.^.^.Y.^.^.Y.Y.G.G.^.^.^.J.^.L.G.L.R.Y.Y.Y.Y.^.Y.^.^.^.`.^.).).^.^.^.^.^.^.^.).^.^.).^.^.^.).^.^.).^.).).^.^./.).^.^.^.^.^.).).).).).^.).).).).)./.)._.)._._._.[._.[.[.jX{.gXjXgXjXgXgXgX[.).).).).{.).{.{.).{.).[.[.[.).).!.J.{.{.{.).).{.).).{.).).).{.).).{.).{.).).{.).).).).).).).).Y.^./.Y./.2X/././.^.^.^.J.J.^.^.^.^.^.^.).^.).).).).[.",
"M M k t t y e e 7 7 7 w y w w t t t t t w t w t w e 7 e 7 e w e y e e h e e e e h h h e e k e e t t k t y w k k 8 e Z ' ' z h k t k k t t M k c k k p y t t y w w w e e 7 w w w e y w y e y w w w w y e y w t y y t t z t z e k t e z l k N k N k l M k M M k l k M k k M k k M k N M k t t w w a t h e h k ) 0.K.1.,.w w y w w 7 7 7 w w 7 7 7 7 w w w w 7 w w w w w 7 w w w w w w w w w w w w w w w y y w t t t t t a t y w w w w w w y y t e p t t k t t t k k t t k t t t e t e e e e e t t e e e e k B y R ,.d.0.Z t k e 8 8 8 e e y w e e 8 8 e e 8 8 7 8 8 7 8 8 8 7 8 8 8 8 7 8 8 7 8 8 8 8 8 8 8 8 e h k t h h e e t e k e t e e e 7 8 t t k t t e t t t k t k M M t M M k M M k p M k M t M t C W 2 Q K.F.d.A M Z M p p t t e e e w e t t e 3 y y t t t t t t t y t y t y t t t t t k k M M M t k M t p M k k k p k k k k k l k z N C V C V M Z W B A Z A Z Z R E ~ R C C Z E ~ ~ G G Z G A M V N R z z d.j.k.6.W M t w y t p M M p k t M p t M p p t p p M k p k M y t y t M k t k e w t t t M p M M p p M M k k t k h z e V ",
"z e z z B P P V z B B P z 8 r r y z B P V P Y U z z F V I U U [ U J T [ { T T ( ( T O.U T U ( U 8 8 8 B B b V V > : h Z D 4 8 F A V j 4 , : j ..T { U { I T T T I Y T T I U Y T I Y Y T I Y Y Y Y Y Y Y I T T +.{ T { T T { { T { T { ......{ ......{ ........T U K T U T ( U K K T T T U { n b { T I T T c k &.J.F.*.i Y { Y Y Y Y Y Y I I Y Y I Y Y L U L Y Y L Y Y I Y Y Y Y Y Y Y Y Y Y Y Y [ Y Y Y U Y U Y Y Y Y Y Y Y { T Y Y Y Y U { { { { { [ T { T T T { T { T T T I T T T T T I T T I T T T U J J : t d.k.g.r h P P x m P F P V P m I F m b b m b b x b b x b x b b b b b x b b b x b b b b b b b P I I I I J U U U J I U I U U V , 6 j n b I U I I U U Y [ [ [ U [ { Y [ [ U [ [ U { [ [ [ Y t.` % a F.G.g.e k { { { [ Y { I Y Y Y { +.{ z > Y { Y { Y { Y Y { Y Y Y { Y U U U U U [ { { { T { { J U U U { T { T { { { T U { { T T O.( z h k B e 7 k D / G / ' ' ' / / ( 6.6.N N l N l N k k e e N 8 , =.j.G.N 7 L +.P Y +.Y o.o.{ { { { { { { ..{ { { { { { { T { { { Y [ [ B k J J V / J [ [ A A A A A B A V B l z z c j x ",
"~ ~ ~ $.0.K.7XhX3X5XcXf.$.) $.$.Z =.).b.c.N.=X0X@X%XcXcXcXcXcXcXcXcXcXcXzXzXcXzXcXzXzXNXVXVXVXzXN l ^ 6X5X_.n.q.9 4 y ) ~ 7 M C.mXU.z 5 6 , _ Q.7X@X@X X#X#X#X&X&X&X&X+X+X@X&X>X>X>X>X*X7X-X-X<X*X-X0X*X*XuX*X#X*X<X>X-X*X>X>X*X>X>X7X:X*X*X*X*X*X*X*X,X#X#X#X,X#X#X*X1X1X#X#X>X#X#X#X#X@XW.V.Z.;X X1XtX<Xw.e ] !.k.$.5 s.rX*X*X*XrX7X0XrXrXrXrX0X*X0X0X0X*X0XrX0X7X-X0X0X-X7XrX0X0X0X-XrX0X0X0X0X0X7X0XrX0X0X0X0XrX-X0X0XrX0X0XiXrX0X0X0X-X-X0X0X*X0X-X7X-X*X-X>X*X-X1X*X-X*X-X*X1X%X1X-X*X*X-X*X*X*X*X7XyX8 t j.L.U.< N N.T.U.L.P.P.P.P.P.P.m.m.m.P.m.m.m.m.m.m.P.m.m.m.m.m.n.m.m.n.m.m.P.m.m.m.m.m.P.m.m.m.P.P.P.L.P.P.P.P.P.P.P.P.L.P.U.k 8 5 e H M.n.L.L.m.m.m.M.n.n.M.m.x.m.m.n.M.M.n.n.n.b.m.m.m.L.z.< w %.J.g.- D A.8X7X*X*X#X*X@X#X;X@X@X@X>X>X*X;X,X@X&X@X;X>X;X#X&X&X@X>X@X*X@X#X@X@X;X;X@X@X;X@X@X@X&X@X&X;X@X@X@X@X@X@X@X#X#X&X=X=X@X~ 0.M.' Z 8 Z 0.3X2X$X&XU.+XP.P.%XrXFX) Z Z Z Z Z ~ H G ~ ~ l 8 ~ g.G.9 , Z ^ 7.7.w.S.>X*X<X1X1X#X1X1X#X1X1X#X1X1X1X#X1X1X#X,X#XlXrX&X_ 9.tXcXcXNX7X+XU.n.f.k.x.f.f.f.8.9.9.8.5.5.4.4.",
"R Z Z ~ E Q ) 4.P.%X3X) E C E E Z ~ #.q.f.f.v.9.F w.wX5X3X3X3X3X3X3X2X3X3X3X2X3X3X5X8X8X5X8X5X3XN.4.( h.d.8.) E 8 2 z ~ W 8 C g.' e 4 4 6 6 4 N ,X XN.N.b.c.v.b.c.v.b.r.v.r.b.b.b..Xb..XN..X XN. X.XN.N.A.b. X.XN.N. XN. Xb.N.b.N.N.M.A.N.N.N.N.A.N.N.b.N.b..X.XA..XA. XN.b. X.XN..XA. XN.A.A.A.S.S.A.#Xb.9.k [ F.l.*.4 o.U.N.N.N. X XA. X.X.X XN.N.N.N. XN.N.N.N.N.N.N.N.N.N.N.N.N.N.N.N.b.N.N.N.N.N.N.N.N.N.N.b.N.N.N.N.N.N.b.N.N.N.N.N.N.N.N.N.b.N.N.N.N.N.N.b.N. XN.N.S.N.N.N. Xb.b. X XN. XN.N. XN. X&X4 t k.F.z.8 h ' M.x.f.f.9.9.9.9.9.9.q.w.9.9.9.5.q.9.9.9.9.9.r.9.9.9.9.9.9.9.9.5.9.9.9.9.5.9.9.9.9.9.9.9.f.9.9.f.9.9.9.9.f.9.9.b.Z 8 7 5 z k _ x.f.9.9.f.f.9.r.9.9.5.q.9.9.9.9.9.9.9.q.9.9.r.k.z.0 t -.Y.g.: H XX X.XN.m.b.b.b.v.b.b.N.b.M.b.M.b.M.b.b.M.b.b.N.b.b.M.v.b.b.b.b.M.N.N.N.N.N.b.N.M.N.b.b.M.b.M.N.N.b.b.N.N.N.b.b.M.N.N.c.8.~ t k e y N E ' q.h.m.m.f.f.x.x.9.q.~ Z E E E E E Z Z Z ~ x 7 E g.J.j : M M G 4.4.q.b.b.Z.b.A. X@X X XN.N.@XN.@XN. X.XN.N.b.b.k.f.=.Z $.T.3XwXhXP.4.) ) ) ) ) ) $.) _ _ $._ _ _ _ ) ",
"Z C C N N Z ~ t.7X7X%X0.Z Z Z C C C M 4.f.q.0._ 7 0.wX3XwX5X5XrX5XwX5X5X5X6X7X5X5X5X5X5X3X5X3X3X8Xx._ 8.) Z R W 7 2 z ~ G 7 E B.4 : : 0 4 7 : 4 .XXX@XN.XX X X X X.X XA. XXXN..XA.XX.XA.XXb.A..XN. X.XA..XA.XXA.S.XXXXb. XA.A.A.A.D.D.D.D.A.Z.A.D.b.A.A.A.A.A.A.A.A.XXA.A.A.A.A.XXA.A.A.S.A.A.XXU.S.S.@XN._ t / k.d.@.r p.:X;XU.A..X.X.XOXXXA.A.N.A.A.A.A.S.A.A.S.A.S.S.A.A.A.N.A.A.N.b.N.A.N.A.Z.A.b.b.A.A.b.b.b.A.b.b.A.A.b.b.b.A.b.b.A.A.b.b.A.A.S.b.A.A.N.A.N.A.A.A.S.A.A.A.A.A.A.A.A.a.A.A.A.A.a.b.U.&X, t F.j.z.j k N f.n.x.f.f.9.5.9.r.5.5.9.q.9.5.9.5.5.5.q.5.5.5.q.5.5.9.5.5.7.5.5.5.9.5.9.q.5.q.5.9.5.q.f.q.f.f.w.9.f.f.q.9.f.f.v.( e 4 4 4 5 } x.q.f.w.w.q.r.9.e.r.e.9.r.9.r.r.7.r.9.q.9.9.r.n.v.0 a *.F.0.>  . X.Xv.b.b.b.v.b.M.M.M.b.M.b.M.b.M.b.M.M.M.b.M.M.N.M.b.N.M.M.M.N.N.M.M.N.M.N.M.N.M.M.N.N.N.M.N.M.N.M.N.N.M.M.M.N.N. XN.S.U.t.r y t e M Z 7 k 4.L.m.f.c.x.0._ G E E E E E Q Q ~ C E Q B 7 C <.!.j > B / >.v.q.4._ ' ~ ' q.@X;XM.N.N.U.N.U.N.N.A.b.N.N.N.b.0.) ~ Z $.U.5X5XcXL.$.E ~ ~ ) Q ~ ~ ~ ~ ~ ~ ) ~ ) ) ) ",
"Z C Z Z E M 8XPXeX%Xx._ ~ W R C ~ ~ R E ~ ~ C C f.S.4.n.rXcX7X@XwX3X3X3X3X3X3X5X5X7X5X3X5XeX5X$Xa p t.q.~ C ~ ~ 8 3 B R W 8 l  .hXq.7 7 7 4 3 3 e.S.;X;X XXXXXXXXXXX.XA.XXb. XA..XA..XA.A.A.A.XXA.XXA.A.XXXXXXXXA.XXXXA.A.A.N.A.S.A.N.N.S.N.S.S.S.S.N.N.S.XXA.N.A. XN.S.A. XA.A.S.S.N.S.S.N.A.N.XXS.S.jXQ.M w ` n.d.#.i p.@XD.S.A.N.N.XXZ.A. XA.N.S.S.N.S.S.S.S.S.S.N.S.S.S.N.S.XXN.S.N.N.N.A.N.S.S.N.S.S.S.S.S.S.N.S.S.N.S.S.S.S.S.N.N.S.S.S.S.S.N.S.S.XXN.A.N.S.N.S.S.XXS.A. XS.S.XXS.A.A.A.N. X XN.b.U.&X6 a K.F.H.e N 7.M.x.w.x.w.w.e.w.x.w.w.e.w.w.w.e.w.x.q.9.x.9.w.w.q.x.w.w.w.w.v.q.w.w.w.w.w.w.w.w.w.w.x.q.9.f.f.q.9.v.w.f.f.f.x.9.7 7 k N h 7 | v.w.9.q.9.w.9.w.f.9.q.9.9.9.9.q.9.q.9.9.9.w.9.k.k.0 p <.F.0.: $.,Xv.b.v.b.b.M.M.b.b.b.M.M.b.b.b.b.b.b.b.b.b.Z.b.b.b.b.M.b.b.Z.b.b.b.b.M.A.M.M.M.b.b.b.b.b.N.b.M.b.b.D.M.b.N.N.b.b.N.b.A.e.( N k t k M N G k [ v.n.m.M.M.n.9._ ~ E E E E E E E E R ~ B 2 R <.!.j 4 ~ ) ) _ _ ) ) ~ ) Q ) N.;XN.S.Z.|  .i.i.$.4.&.=.q.=.#.) ) ) _ ~ &.7X5X$X8.~ _ ) ) ) ) _ #._ ) ) ~ ) ) _ ) #.",
"Z Z Z E Z M 9.0XNX0Xf.E ~ ~ ~ $.6.' R Z Z ~ A M 5.6.N 6.b.wX4._ P.%X5X3X3X%X%X5X5X3X3X3X3XwX7XL.a C u.V.~ C Q ~ 8 7 z ~ G 8 N a.wX@X) 2 7 4 3 3 ' b.N.N.XX X X XA.OXXXA..XXXA. XXXA.A.XXA..XA.A..Xb.A.XXb.XXA.A.XXA.A..X XA.A.A.A.S.b.N.S.S.S.S.N.S.S.S.S.S.N.XXN.A.S.S.S.N.A.XXS.S.S.S.S.S. XA.S.S.S.5XQ.k y ! G.l.#.y p.@XS.S.XXN.A.A.S.A.A.XXS.S.S.S.S.N.S.S.S.S.S.S.S.N.S.S.S.S.S.A. XA.N.XXS.N.S.S.S.S.N.S.S.S.S.S.S.S.S.S.N.S.N.A.S.N.S.S.S.S.S.S.S.S.N.XX XA.N.A.N.S.N.A.N.A.N.N.A. XN.XXA.A.A.A.M.&X6 t G.F.l.t e F M.x.q.w.w.9.x.q.w.q.w.w.w.w.w.w.q.w.w.w.w.w.9.w.9.q.w.w.w.w.w.f.w.w.w.w.w.q.w.w.w.w.9.w.9.9.9.9.9.9.w.9.q.w.v.q.M F G F F x 5.w.w.9.q.w.q.w.9.q.9.9.9.q.x.9.q.f.x.q.q.w.w.w.x.v.0 M -.J.0.2 N a.b.b.N.v.b.v.M.b.M.b.b.b.b.b.b.b.M.b.b.b.b.b.M.M.b.b.Z.b.b.M.b.v.M.Z.b.M.b.b.N.Z.M.b.Z.M.b.b.b.M.M.b.b.M.b.N.A.b.b.b.b.5.N e t t M t z A.' { $.0.f.x.m.v.4.$.~ Q Q E ~ Q Q E Z Z ~ V 7 ! g.J.j 7 ~ / ) _ ) ) ) ) ) Q ) N.oXD.;XZ.M G | | ) ) ) #.) _ ) ) _ _ 4.~ ~ 7X5Xf.4._ ) ) _ _ ) ) ) ) ) _ _ _ ) _ ) ) ",
"E Z Z E Z E Z A CX-X_ C C 0.v.x.9._ E C E ~ Z ~ i.{ w 2 k 5XA P 8.$XwXwX5X3X3X3X3X5X5X3X3X2X@X9.a E $.h._ C Q ~ 8 7 t ) / 6 ~ S.5XrX2X9 > 7 r t { V.N.S.S.U.U.@XN.@XS.S.N.S.S.A. X XA. XA..XA..XA.XXA.XXb.OXb.b..XA..XA.XXA.XXA.A.S.S.N.S.S.S.S.A.N.S.S.S.S.S.N.A.N.S.S.S.S.S.S.N.S.S.S.S.S.S.S.S.S.N.%XD.k y %.!.j.#.y p.@XA.S.A.A..XA.XXb.XXb.S. XS.S.A.N.XXN.S.S.S.S.S.S.S. XS.S.S.S.S.S.S.S.S.S.S.S.S.N.S.S.S.S.S.S.S.S.S.S.S.S.S.S.N.S.S.S.S.S.S.S.N.XXS.S.S.S.S.S.S.S.S.S.XXN.S.N.S.S.S.N. XA. Xs. XQ.4 a K.j.j.M 2 u b.x.q.w.w.w.w.w.w.w.w.w.w.w.w.9.w.w.w.9.w.w.q.x.9.w.w.w.9.w.w.w.w.w.w.w.w.w.w.q.x.9.w.w.w.w.w.w.w.w.w.w.w.w.x.x.c.q. .J M } e.r.r.9.w.w.w.w.w.w.w.w.w.w.w.w.w.w.w.w.w.w.9.r.n.v.0 t -.K.g.2 4 I N.b.b.b.M.M.v.b.b.b.b.b.M.Z.b.M.b.b.M.b.N.b.b.b.b.b.b.N.v.N.b.b.b.b.N.b.M.b.N.b.b.b.b.b.b.b.M.M.b.N.b.N.b.M.b.N.b.N.N.e.^ y t y M y t rX4.M C ~ 8.n.m._ ) ' ~ ~ Q E E E E Q G Z ~ V 7 E 1.J.j 4 ~ ) _ ) ) ) ~ ) #.) ) b.S.A.S.} e ~ ~ ~ _ ) #.) #.$.) ) $.) _ ) ' rXwX4._ ) ) ) ) ) _ ) ) ) ) ) ) ) ) _ ) $.",
"Z E E C E C E E E E E 9.v.c.q.) a C C Z Z Z C ' &XuXP.m.9.4.~ G U.&X+Xm.P.%X%X3X5X7X5X3X%X3XwX=XC C Z ~ Z N Q ~ 4 7 z ~ ~ 4 _ >XcX5X3XrXT.x.~ t.>XS.U. X;XU.;XN.v.7.t.S.S.A.A.S.S.A.A.A. XA.XXA..XA.XXA.A.b.r.A.XXA.A.A.XXA.b.A.A.A.A.S.S.S.S.N.N.S.S.S.N.S.S.S. XA.S.S.S.S.S.S.A.N.S.S.S.N.S.S.S.N.A.@XZ.e w ` !.j.*.w p.:XS.S.XXb.A.A.A.XXb.A.S.A.N.S. XN.A.S.S.S.N.S.S.N.S.A.S.S.S.N.S.S.S.N.N.S.S.S.S.S.S.S.S.S.S.N.S.S.S. XS.S.S.S.S.S.S.S.N.A.S.S.N.A.S.N.S.S.S.S.N.S.S.S.N.A. XA.S.S.S.S.A.N.A..XN.:X< t K.F.z.y w T v.9.w.w.w.w.w.9.w.w.w.w.9.w.w.w.w.w.w.w.w.w.w.w.9.w.w.w.w.w.w.w.w.9.w.w.w.9.w.w.w.9.9.w.w.w.w.q.w.9.w.q.w.v.w.w.9.9.9.| k j 7.w.w.w.w.w.w.w.w.w.w.9.w.w.9.w.w.w.w.w.w.f.9.9.x.v.5 k =.F.<.: _ A.v.b.b.b.b.b.b.b.b.b.b.b.b.b.b.Z.b.b.b.b.b.b.b.b.b.b.D.v.b.b.b.b.b.M.b.M.b.N.b.M.b.Z.N.M.b.b.b.b.b.M.M.b.b.N.N.b.b.N.b. XN.N.4.R i Z ~ } $.E R ~ _ 0.4.E E ~ E Q E E Q Q E ~ Z R ~ V 7 ! g.J.j 7 ~ ' ) ) ) _ ) ) ) 6.D.,XD.4.$._ ' ) _ _ _ ) ) $._ _ ) ) ) ~ ) _ _ 7XrXmXU.) ) _ _ ) ) _ ) _ ~ _ _ ~ ) _ ) ) ",
"E Z E E Z E E C M Z ~ 4.8.5._ Z C C C C Z C G ~ 4.n.rXuX9.Z ~ q.*X&Xm.f.n.3X3X3X5X3X3X3X%X*X0X%XC C Z Z C C Q ! 8 7 y ~ ~ 7 ^ XXwX3X2XcXcX&X8.Z.>XN.N.U.N.N.S.N.q.Z N A.A.S.A.S.N.A. XA.A. XOXXXA..XA..X.Xr.r.v.XXXXA..XA.A.b.A.S.N.A.S.N.S.S.S.S.S.S.S.XXN.S.S.S.S.S.S.S.S.A.N.S.S.S.N.S.S.S. XS.S.S.#Xs.h w ! Y.l.#.i p.@XN.S.A.XXA.N.b.XXb.XXS.S.S.S.S.S.S.S.S.S.S.S.N.A.S.S.N.S.S.S.N.S.N.S.S.S.S.N.S.S.S.S.N.S.N.S.S.XXA.A.S.N.S.S.S.S.N.XXS.N.S.S.N.S.S.S.XXN.S.S.S.S.S.N.S.S.S.S.S.N.S.S.S.N.N.a.N.&X< a K.F.l.t k o.9.9.w.w.w.w.w.w.w.w.w.w.w.w.w.w.w.w.w.w.w.w.w.w.w.w.w.w.w.w.w.w.w.w.w.w.w.w.w.9.w.w.w.w.9.x.w.w.w.w.w.w.w.w.9.x.r.9.v.| F P 4.r.9.w.w.9.w.w.w.w.w.w.q.w.w.w.w.9.w.w.w.w.w.r.x.v.0 e -.G.<.: _ U.M.b.c.b.b.b.b.b.b.b.b.b.b.b.b.b.b.b.b.D.b.b.Z.M.b.N.A.M.b.b.A.b.b.M.N.b.N.b.b.N.b.M.b.b.b.b.N.b.M.N.b.M.A.N.b.b.N.b.N.b.N.@Xb.0.B 7.a.i.D.} C Z Z ~ ~ Z Z E ~ E Q E E E R ~ Z Z ~ N 7 Q <.J.j 4 / ) ~ _ ) ) _ ) Q } D.c.8.) ) ' _ ) #._ ) ) ) ) _ ) ) $.#._ _ ) ) f.P.wXm.) ) _ ) ) _ ~ _ ) _ _ ) _ ) _ ) ' ",
"C E Z Z E Z Z E E E C C Z C C Q ~ Q R C ~ ~ C Z t Q &X&X4.2 5.$X3XP.n.~ $.wX3X3X3X5X8X7X%Xc.w.4.M C ~ ~ G E E ) 5 7 z Q W e 5 v 2X3XwX5X3X2Xn.S.N.v.M.N.N.N.S.A.| r 1 S.XXS. XA.A.N.XXA.A.A.A.b.A.XXXXA.e.x.5.b.XXXXb.A.b.XXXXA.A.A.S.S.S.S.S.S.S.S.S.S.N.A.S.S.S.S.N.S.S.S. XS.S.S.S.S.S.S.S.A.S.S.A.@XA.d w [ G.j.#.w p.@XN.S.b.XXN.A.XXA.XXb.S.S.S.S.S.S.S.S.N.S.S.S.XXN.S.S.A.S.S.S.A.N.XXS.S.S.S.S.S.N.S.S.N.A.XXS.S.N.N.N.S.S.S.S.S.N.N.A.S.S.S.S.S.S.S.S.N.A.N.S.S.S.S.A.S.S.S.S.S.S.S.S.S.S.N.A.N.@X4 t K.F.z.w N 7.q.f.w.w.w.9.w.w.9.w.x.q.w.9.w.w.w.w.w.w.w.9.w.w.9.w.w.w.q.w.w.q.w.w.9.w.w.w.w.w.w.w.w.w.9.q.w.w.w.w.w.w.w.x.x.v.9.9.w.F e h 5.c.r.q.w.w.w.w.w.w.q.w.x.w.w.w.w.w.w.9.9.r.9.9.x.v.f M -.F.g.: _ S.v.b.M.M.b.b.M.b.b.M.D.b.b.b.N.b.b.b.b.v.b.b.b.b.b.b.b.v.b.b.b.b.b.b.b.M.b.M.M.b.b.b.b.b.b.b.b.M.b.b.N.b.N.N.b.b. XN. Xb.b.b.N. X@X.X Xb.S. XA B E Z Z Z C Z Z E E E ~ E Q ~ G Z ~ x 5 R l.J.r 7 ~ ' ) _ ) _ ) ) Q 4.D.&.~ ) ) ) ) $._ ) _ ) ) _ #._ ) _ ) ) _ _ $.~ Z E Q ) _ _ _ ~ ) ) ) ) ) ) ) ) ) _ ) ) ",
"Z E Z R C E Z Z E Z E E E E E R E E E C Z E C Z Z ~ _ _ ~ k _ q.P.n.P.~ ) +X7XwX8XwX8XwX$X4.D.7.M Z E ~ E E Q E 0 7 t Q ~ e k ( n.n.P.%X7X&Xc..XN.N.N.N.S.S.S.S.XXa.( ^ y.XXS.N. XXXA. XA. X XXX.XXXN.XX Xb.b.b.XX Xb.b.S.S.S.S.S.S.S.S.S.S.S.S.S.N.A.S.S.S.S.S.S.S.S.N.XXA.S.S.S.N.S.S.XXN.S.S.N.S.S.*Xs.h e ] G.j.#.7 p.;XS.S.XXOXA.XXXXA.S.S.S.S.S.S.XXA.N.S.S.S.S.N.XXA.S.S. XS.N.S.S.S.S.S. XA.A.XXS.S.N.S.N.S.S.S.S.S.S.S.S.S.N.S.S.S.N.XXA. XS.S.N.S.S.S.A.N.S.S.S.N.XXN.S.S.S.S.S.N.A.N.S.N.A.b.N.@X< a J.F.j.r k O.x.f.w.w.w.w.w.9.w.w.9.w.w.w.w.w.w.q.w.q.w.w.w.w.w.w.w.w.w.w.w.w.w.w.w.w.w.9.w.w.q.w.w.w.w.w.w.w.w.w.w.9.w.w.9.w.w.w.w.5.N , F K w.q.w.w.w.w.w.w.w.w.9.9.w.q.w.w.w.w.f.w.w.w.x.9.# 8 -.J.<.: ^ S.M.N.b.b.b.N.b.b.Z.M.v.b.b.b.b.b.b.A.b.b.b.b.Z.M.b.b.b.b.b.v.D.b.b.b.b.b.b.b.b.b.b.b.b.b.b.b.N.N.b.b.N.N.N.N.N.N.b.b. X.XA.A..Xv.c.v.b.r.A.e.y.t.~ C Z Z Z Z E E E ~ E E E ~ Z Z ) V 7 ! g.J.j 7 ~ ) ) _ ~ ) ) ) ) 0.Z.$.) ) _ ) ) ) ) _ ) ) #._ #._ ) _ ) ) ) $.$.) ) _ ) _ ) _ ) ) ) ) ) _ ) ) ) ) _ ) ) _ ",
"Z Z Z Z E Z C E C E Z Z Z E R W E Q E E E Z E Z C Z M M C C ~ $.f.n.N.) ~ f.%XwX8XwX7XwX$X/ _ ~ C Z ~ Z G E E ~ 7 7 t ~ ~ r C t.9.4.9.P.+X+Xc.b.N.N.N.b.S.S.S.XX;X Xm.N | N.S.b.b.N.N.XX XA.A. XA.b.XXN. XA.N..XXXA.N.XXN.S.S.S.S.N.S.S.S.S.N.S.S.S. XS.S.S.S.N.N.S.S.S.N.N.S.S.A.XXN.S.N.A.S.S.S.S.A.=XD.d 7 [ G.g.*.i p.:XN.XXb.XXA.A.b. XS.N.S.S.A.N.N.S.N.S.S.S.S.S.N.N.S.S.S.S.A.N.XXS.S.S.S.N.N.N.S.S.S.S.N.A.S.S.S.S.S.S.S.S.S.S.S.S.N.A.N.S.S.S.A.S.S.S.S.S.S.S.N.XXN.S.N.S.S.S.N.A.N.XXS.S..XA.N.@X< a F.j.z.t e ( x.q.9.9.w.w.w.w.w.w.9.w.w.w.w.9.w.w.9.x.w.w.w.q.w.9.w.w.w.9.9.w.9.9.w.w.w.w.w.w.w.w.9.w.w.w.w.q.w.w.w.w.w.w.q.w.w.w.w.n.7.9 4 8 4.5.x.9.w.w.w.w.w.9.w.w.w.w.w.w.w.w.q.w.w.w.x.}   7 -.F.g.: _ A.v.b.N.b.b.M.b.N.b.b.M.b.b.b.b.b.b.M.M.b.b.b.b.b.b.b.M.b.b.b.b.b.M.b.b.b.b.b.b.b.b.b.b.b.b.N.b.m.b.N.N.m.b.N.N.N.b.b.b.b.OXe.N..Xe.b.b..XS.5._ _ Z E E Z Z C E Z E Z E Q E E Z G ~ l 7 E 1.Y.j 7 / ) ) ) _ ) ) ) _ Z.4.~ ) ) #.) _ ) ) ) ) $.) ) ) ) ) #.) ) ) ) ) _ ) ) ) ) ) ) ) _ _ ) _ ~ ) _ ) _ ) _ ) ) ",
"E Z Z E E C E Z Z Z C E Z E E E E E E E W E E E R Z Z Z C E ~ E x.P.P.~ Z 4.rXNX&Xf.$.%XM.M C C C Z Z Z Z Z ~ ! 8 4 t ` ~ 8 t ` x.x.x.x.x.x.x.c.N.N.N.N.XXS.S.XXS.N.v.v.b.b.Z.N. XA..X XXXA. XA.A. X XXX XA.N.XX X X XA.S.S.S.N.S.S.S.S.S.S.S.S.S.S.S.S.N.A.A.N.XXN.S.S.A.S.S.S.N.S.S.S.S.S.S.S.S.N.N.&XD.T e ] J.j.*.4 o.@Xb.XXA.A.A..XXX.XN.A.S.S.N.S.S.S.S.N.S.N.S.S.S.S.S.N.S.S.S.S.N.S.S.S.S.S.S.S.S.S.S.S.N.XXS.S.S.N.S.S.S.S.S.S.S.S.N.S.S.S.S.S. XS.N.S.S.S.N.S.A.S.S.S.A.S.S.S.S.S.S.N.S.A.A.a.N.N., t F.F.j.e h ( c.9.q.x.w.w.w.w.w.w.w.w.9.w.x.9.w.w.9.w.w.9.w.w.w.w.w.w.w.w.w.w.w.x.q.x.w.w.9.w.w.w.w.w.9.w.w.w.w.w.w.w.w.w.w.w.w.w.w.9.q.5.8 ; 0 ( x.9.w.q.w.w.w.w.w.w.9.w.w.w.w.w.w.w.w.f.x.e.; e -.F.0.> _ M.b.b.b.N.M.b.b.b.b.b.b.A.b.b.Z.M.b.b.b.b.M.b.b.b.b.M.b.b.b.b.b.b.b.b.b.N.b.b.b.b.b.N.b.b.b.b.N.v.N.N.M.b.N.N.N.N.b.c.v.c.b.N.N.b.b.b.N.=Xq.~ Z Z C Z E G E E E E E E E Z C ~ C E ~ z 7 R <.J.j 4 / ) ) _ ) ) _ ~ &.i.$.~ ) ~ ) _ #.) #.) _ ) ) ) #._ _ ) _ _ ) #._ ) ) #._ ) _ ) ) ) ) ) ) ) _ ) ) ) ) _ ` _ ",
"C E Z E Z E Z E E Z E Z E E E E E E E Z Z Z E Z Z E E C E ~ C Z $.q.9.C Z 6.U.T.m.$.C 8.4.N ~ W E ~ Z Z Z Z Q E 7 7 y E ~ e t ` n.x.x.x.x.x.x.b.N.N.N.N.U.S.S.XXS.A.N.N.b.b.N.S.XX XA.A.N. XA. X XA.A. XA.A..XN.A. XA. XS.S.S.S.S.S.S.S.N.S.S.S.S.S.S.S.S. XXXN.A.N.S.S. XS.S.S.N.S.S.S.S.S.N.S.S.N.N.&XD.V w ! G.j.=.6 o.,Xb.b..XXXA.A.XXA.XXS.N.S.S.S.S.S.S.S.S.S.S.S.S.S.S.S.S.S.S.S.A.N.N.S.S.S.S.S.S.N.S.S.S.S.S.S.N.A.S. XA.N.S. XA.S.S.S.S.S.S.S.S.S.N.A.S.S.S.S.N.S.S.S. XS.S.S.S.S.S.S.S.A.A.OXN.N., k F.F.z.e e U c.f.w.w.w.9.w.w.w.w.q.w.w.w.q.w.w.w.w.w.w.w.w.w.w.w.9.w.w.w.w.w.w.q.9.9.w.w.w.w.w.w.w.w.w.w.w.w.9.w.w.w.w.9.w.w.w.w.w.9.e.9.^ D J } w.9.w.w.9.w.w.w.w.w.w.w.w.w.9.w.w.w.w.w.x.v.1 y =.J.<.: ) N.N.b.m.N.N.N.b.M.b.b.b.b.b.M.b.b.b.b.b.b.b.b.b.b.b.Z.b.Z.N.b.b.M.b.b.b.b.b.N.b.N.b.b.b.b.b.b.b.N.M.b.b.b.b.b.U.N.6.$.q.a. X>XP.P.@XP.@X X0.C Q Z E E E Z E E E Z E E E E Z Q E C ~ B 7 R d.J.r 4 / ) ) ) _ ) _ ) $.&.) ) _ #.) ) _ _ _ ) ) ) _ ) _ ) ) ) ) #._ ) ) ) ) _ ) ) ) ) ) _ _ _ ~ _ ) ) ) _ ) ) ) ) ",
"E E Z E Z Z E Z E Z E Z E Z E E E E E C E E E Z E E E Z E ~ Z Z Z ~ _ E ~ _ ) ) 9._ Z C Z ~ Z Z Z E E E E E ~ E 8 7 y Q W e y G n.n.m.n.x.x.v.c. X XN.N.N.N.S.U.N.N.A.A.N.XX XXXXXXXXX X XA. XA.XXXXb.XXA. XA. XXXb.A. XS.S.S.S.XXA.N. XS.S. XS.S.S.S.S.S.S.S.S. XA.S.A.S.S.S.S.S.S.S.S.S.S.S.S.S.S.N.&XD.z 7 [ J.F.*.6 o.:XN.XXXXOXA. XA.XXN.A. XA. XS.S.S.S.S.S.S.S.N.XXN.S.S.S.S.S.S.S.S.S.S.S.S.S.S.S.S.S.S.S.A.S.S.S. XS.S.S.S.S.S.S.S.N.A. XS.S.S.S.S.S.XXS.N.XXN.S.S.S.N.N.S.S.S.N.S.S.S.S.S.N.a.N.x., t F.j.j.r e U c.x.w.w.q.9.w.w.w.w.w.w.w.w.w.w.w.w.w.w.x.q.w.w.w.w.w.w.w.w.w.w.9.w.w.w.w.w.w.9.w.w.w.w.w.w.w.w.w.w.w.w.w.w.w.9.w.q.x.9.x.9.x.n.n.x.x.w.w.w.w.w.w.w.w.w.w.w.9.w.w.w.9.w.x.9.n.h.= e -.G.<.: ) M.N.N.M.b.b.b.b.b.b.b.b.b.M.b.b.b.Z.b.b.b.Z.b.b.b.b.M.b.b.b.b.b.b.b.b. X ._ v.A.N.N.N.b.b.b.b.b.M.N.N.N.N.m.S.D.4.C E ~ Z 4.&X&X$X&X$X&Xq.$.E Q ~ E E E E Z E E E E E E E E E Z E ~ B 7 R d.J.r 7 E ) ) ) _ ) ) _ _ ) ) ) ) _ ) #._ ) #.) ) ) ) _ ) _ $.) ) $.) _ ) _ ) ) #._ _ ) ) ) ) ) ) _ ~ ) _ ) ) _ ) ) ",
"Z Z E C E Z C E Z E Z Z C Q E E E E E E A E E Z Z Z C E ~ E C E E E ~ E Z E ~ ~ ~ ~ C Z C Z E Z Z Z E E E Z Q Q 8 2 r E Z k 7 x 6.^ J 7.v.x.w.v.N.A.N.N.N.N.S.S.N.N.S.S. XS.S.N. XXXN.A.XX XA. XN.N.A..X XA. XA..XXX XA. XA.S.S.N.S.N.A.S.S.A.S.S.S.S.S.S.S.S.S.S.N.S. XS.S.S.N.S.N.S.S.S.S.S.S.N.A.S.=XoXT w ] J.1.*.: o.:XN. Xb.XXA.A.A..XXXA.A.N.S.S.N.N.S.S.S.S.S.S.A.S.S.S.S.S.S.N.N.S.S.S.S.S.A.N.S.S.S.N.S. XN.S.S.A.S.S.A. XS.N.S.S.S.S.S.S.S.S.N.A.S.N.S.A.N.S.S.S.S.A.S.S.S.S.S.S.S.S.A.XXA..XN.b.< t F.F.z.t h ( c.w.w.w.x.9.w.w.q.w.w.w.9.w.w.w.w.9.w.9.9.w.w.w.9.w.w.w.9.w.w.w.w.w.w.w.w.9.w.w.w.w.x.q.w.q.w.w.w.9.w.w.w.w.w.w.w.w.9.9.f.9.x.9.w.v.9.w.w.w.9.w.w.w.9.w.w.w.w.w.w.9.w.q.9.9.n.b.; e -.J.<.: ~ D.N.b.N.b.N.N.b.b.b.M.b.b.b.b.b.b.M.b.b.b.M.b.b.b.b.Z.b.b.M.b.b.b.b.b.S. .^ e.S.N.b.b.b.b.b.b.N.b.b.m.N.M.b.v.h.) p E E C ~ 8.$X7X7X+XL.$.~ R ~ E Q E E Z ~ E E E Z E E Z R ~ Z E Q z 7 R <.G.j 4 / ) ) _ ~ _ ) ) ) ) ) $.) ) _ ) ) ) _ _ ) _ #.) ) ) ) ) ) ) ) ) ) ) ) _ ) ) ) ) ) _ ) _ ) ) _ ) ) ) ) _ ) _ ",
"Z Z Z E E Z E C E C E Z E E E E E E E Z E E Z E E C Z E E C C ~ E ~ ~ Z Z ~ E C R Z Z E Z Z E ~ C Z Z E Z Z Q W 8 7 r Q E h 7 z ^ N w M ) c.v.b.A.S.A.XXN.N.N.N.b.N.XX;XXXS.N.A.XXN.A. Xb.XXXXN.A.XXA. XXX XA. XA.N.XX XS.S.S.N.S.S.S.N.S.S.S.N.N.A.S.S.S.N.N.XXXXA.N.A.N.S.N.S.S.S.S.S.S.S.S.S.N.A.A.*XS.k w W J.l.*.> o.@XA.N.XXN..XA.A.A.XXb.S.S.S.S.XXA.S.S.S.N.S.S.N.N.S.S.N.S.S.S.S.S.S.N.S.S. XS.N.S.N.S.S.S.S.S.S.S.S.S.S.S.S.S.S.S.S.S.S.S.S.XXXXN.N.N.S.S.S.S.N.S.S.N.S.S.N.S.S.S.N.S.A.XXA.A.S.XX< t F.k.j.e h J v.9.9.w.w.w.w.w.w.w.9.w.w.w.w.9.w.w.w.w.w.w.w.w.w.w.w.w.w.w.w.q.w.w.w.q.w.w.w.w.w.w.9.w.w.w.w.9.w.w.w.q.w.w.w.w.9.w.w.w.w.w.x.9.w.9.w.w.9.w.w.w.w.w.w.w.w.w.w.w.x.9.x.9.9.x.n.N.< t =.G.<.: ) A.c.N.M.b.N.b.M.b.b.b.b.b.b.Z.b.b.b.b.b.b.b.b.b.M.b.b.b.M.D.b.b.b.b.M.N.a.e.Z.b.b.b.b.b.b.b.b.N.M.N.b.b.b.v.8.4._ a C E N ~ ) U.7X3Xn.v.v.$.#.R Q ~ E Z E E E Z E Z E E E Z ~ Z C ~ z 2 R <.J.r 4 ~ ) ) ) _ ~ _ ) ) _ ) _ #._ ) _ ) _ ) ) ) ) _ ) ) ) ) ) ) ) ) _ _ ) ) _ ) _ _ ) _ ) ~ _ ) _ ) _ _ ~ _ ) ) _ ",
"E E E E Z E E ~ E E E E E Z E E E E E E E E E E Z E Z E E E E E E Z E ~ Z C Z ~ E E C Z E E Z E ~ E E ~ Z Z Q ) 8 2 y W W t 7 B 5./ e > V -XXXv.v.S.XXA.oXXXXXXXN.b.S.S.XXS.A. XS.S. XA.A..XN. XXXXXXXN.b. XN.A.A.S.A.N.S.S.S.S.S.S.S.S.S.S.S.S.S.S.S.N.S.N.A.S.XXXXN.v.N.S.A.S.S.S.S.S.S.S.S.S.N.A.N.=XD.k i ! J.1.*.: o.#XN.A.A.A.A. XA. Xb.XXS.S.S.S.N.S.S.S.A.XXS.S.S.S.N.N.S.S.S.S.S.S.S.S.S.S.S.S.N.A.XXS.S.S.S.S.S.S.N.S.S.S.S.S.S.N.S.S.N.S.A.N.A. XA.A.S.S.S.S.S.S.S.S.S.S.S.S.S.S.S.S.N.A..Xa.S.U.< t F.k.z.e e J x.f.w.w.w.w.w.9.w.w.w.w.w.w.w.w.w.9.q.w.w.w.w.9.w.9.w.9.w.w.w.w.w.w.w.w.w.w.w.9.w.w.9.w.w.w.w.w.w.w.w.w.w.9.w.w.w.w.w.9.w.w.w.9.x.x.w.q.w.w.w.w.q.w.w.w.q.w.w.w.q.w.q.9.9.q.n.c.1 e -.G.0.: ) A.b.b.b.b.b.b.b.b.b.N.b.b.b.N.M.b.b.b.A.M.b.b.b.A.b.b.b.b.v.b.b.b.b.b.b.Z.b.b.M.v.b.b.b.b.b.b.N.b.b.b.b.N.v.Z.q._ C A Z Z C k 5.@X8X_ >.P.&X=XE C E Z Z Z Z Z E E E E E E E E R C Q B 7 R <.J.r 4 W ' ) _ ) _ ) ) ) _ ) _ ) ) ) _ ) ~ _ ) ) _ ) ) _ ) _ ) _ ) ) ) ) ) ) ) ) ) ) ) ) ) _ ) ) ) ) ) ) _ ) _ ) %.",
"E E E Z E E E Z E E E E E E E E E E E E E E Z E E E Z ~ Z E E Z E Z E E Z E E Z E E Z Z E E Z E E E E E E Z Q E e 4 r E Z h 7 u N | 7.( t.S.S.A.Z.XX XM G s.A.oXS.A.N.v.v.b. XA.XXS.N. X XA. XA. Xb.N.XXN.b.A. XS.S.N.XXN.S.S.S.S.S.S.S.XXN.S.S.S.S.S.N.S.S.S.S.S.N.v.v.b.A. XS.N.S.S.S.S.S.S.S.S.S.N.&Xa.l i W K.1.*.> o.>Xb.S.A.N.A.A.A.A.S.S.N.A.S.N.A.N.S.S.N.S.S.S.S.S.S.A.S.S.N.S.S.N.S.S.S.S.N.S.S.S.S.S.S.N.XXS.S.N.N.XXS.S.S.N.N.A.S.S.S.XXN.v.b.N.XXN.N.S.S.S.S.S.S.S.S.XXA.N.S.S.S.S.XXA.XXA.b. X4 p F.j.z.t e J c.w.w.w.w.9.w.w.w.w.w.w.w.9.w.w.w.w.w.w.w.w.w.w.w.w.w.w.w.q.w.w.q.9.w.w.9.w.w.w.w.w.w.w.w.9.w.w.9.w.w.w.w.w.w.w.w.w.9.w.w.w.w.w.w.w.w.w.w.w.9.w.w.w.w.w.w.w.w.w.w.w.9.9.w.x.x.8.= y ;.G.<.: ~ D.b.b.b.v.A.b.b.b.Z.b.b.b.b.Z.b.N.b.M.b.b.b.b.Z.M.b.b.b.b.Z.M.b.b.Z.b.b.b.v.Z.b.b.b.b.b.M.b.b.b.m.b.N.b.M.N.N.S.h.C Z Z C Z Z +X3XrX$./ m.x.8.Z Z ~ E E Z Z ~ E E Z E E Z E ~ C C ~ z 7 R ,.J.h 4 ~ ) ) ) _ ) _ ) _ ) ) _ _ ) ) ) ) _ ) _ ) ) ) ) _ ) ) _ ) ) ) ) ) ) ) _ ) ) ) _ _ ) _ ) _ ^ ) ~ _ ) ) _ ) ) ",
"E E E E E E E E E E Z E E Z Z E E E Z E Z E E E E E E E E E E E E E E E E E E E Z E E E Z E E E Z E Z E E Z Q Q e 2 r W ~ e 7 t M _ b.0._ } f.S.e.b.,Xw w G e.XXA.N.XXw.w.v.v. XS.XX XA.N.XXA. Xb.r.b.A.XXXXN.A.S.N.A.S.A. XS.S.N.N.S.S.A.S.S.S.N.S.S.S.S.S.S.S.v.w.r.N.N.A.S.S.S.S.S.S.S.S.S.S.S.S.XX&XA.l i W G.F.*.: { :XA.b.XXN. XA. X XA.S.S. XS.S.S.S.N.A.N.S.S.S.S.S.N.XXS.S.S.S.S.S.S.S.S.S.S.S.S.S.S.S.S.A.N.S.S.A.N.S.S.S.S.S.N.XXN.S.S.XXN.v.e.N.A.N.S.S.N.S.S.S.S.S.S.N.A.N.N.S.S.S.A.N.b.A. XXX0 p G.k.j.e e U v.x.w.w.w.w.w.9.w.w.w.w.w.w.w.w.w.w.w.w.w.w.w.w.w.w.w.w.w.w.w.w.x.9.w.w.w.w.w.w.9.w.w.w.w.w.w.w.w.w.9.9.w.w.w.9.w.w.w.w.w.w.9.w.w.w.w.w.w.w.w.w.w.w.w.9.w.w.9.w.w.w.w.q.q.w.x.9.= w ;.G.g.: ) D.b.b.A.v.b.b.b.N.b.b.b.b.b.b.b.b.b.b.b.b.b.b.b.b.b.b.b.b.b.b.b.b.M.b.M.Z.b.A.b.b.N.v.M.b.b.b.N.b.b.N.b.b.v.b.A.b.' G A Z C ;.rXrX3X_ W 7X8.~ Z Z Z Z Z E Z Z E Z E E E E R ~ C E Q z 2 R <.J.r 4 / ) _ ~ ) ) ~ ) ) ) ) ) ) _ ) _ ) ) ) ) _ ) _ _ ~ _ ) ) _ ) _ ) _ ) ) ) _ ) _ ~ ) _ ~ ) _ ) _ ) ) _ ) _ ) _ ",
"E E E E Z E E E Z E Z E E E E E E Z Z E ~ Z E E E E E E E E E E E Z Z E E E E E E E E E E E E E E E Z Q E Z ~ ~ r 4 r Q W t 2 r W C ~ ' Z Z ~ 7.b.v.b.y w 7 7.XXXXb.b.b.b.N.N.S.S.XXS. XS.S. XS.b.v.N..X Xb.b. XN.S.S.S.S.S.S.S.XXA.S.S.N.N.S.S.S.XXN.S.S.N.XXN.v.v.N.N.N.N.N.XXS.S.N.S.S.S.S.S.S.S.N.$XZ.J w ] F.1.*.- [ -X@XN.b.A.A. XA.A.S.S.S.S.S.S.S.S.S.N.A.N.S.N.S.S.S.S.S.S.S.S.S.S.S.S.S.N.S.S.S.XXA.S.S.N.S.S.S.S.A.N.N.N.S.S.S.S.S.S.S.XXA.w.c.N.A.b.S. XXXN.A. XS.S.S.S. XS.S.S.S.N. XA. Xb. XXX6 p F.F.z.e h [ x.w.q.w.w.w.w.w.w.w.w.9.9.w.w.w.w.w.w.w.w.9.q.w.9.9.w.w.w.w.w.w.w.w.w.9.w.w.w.9.9.w.q.w.w.w.9.9.w.w.q.x.w.w.w.w.w.w.w.q.x.w.w.w.w.w.w.w.9.w.w.w.x.q.w.w.w.9.w.w.9.w.w.9.w.w.x.q.= w %.G.<.> ~ Z.c.b.b.v.v.b.b.b.b.b.M.b.b.b.b.b.v.b.b.b.b.D.b.b.b.b.Z.b.b.b.b.b.M.b.b.b.b.M.b.b.b.N.b.b.b.b.N.N.b.b.N.b.v.b.~ C Z M W M 4.&XU.U.W t y wXM.E Z Z Z Z Z E E Z Z ~ E E E E E E E Z ~ B 7 R d.G.r 4 ~ ) ) _ ) ) _ ) ~ _ ) ) ) ~ ) ~ _ _ _ ~ ) ) ) ^ ) ) ) ) ) ) ~ _ ) ) ) ) ) ) ) ) ) ~ _ ) ) ) ) ) ) ) _ ) ) ) ",
"Z E E Z E E Z E E E E E E Z E E E E E E E E Z E Z E E Z Z E E Z E E E E Z E E Z E E Z E Z E E Z E E E E E Z Q ~ e 7 r E ~ e : 9 C Z E E E C C | @XN.N.Z M N 4.S.XX XA.A.A.N.S.S.S.S.N.S. XS.S.S. X X Xb.b.XXXXA.S.S.N.A.N.S.S.S.N.S.S.S.S.S.N.A.S.S.A.N.S.S.A.N.XXXXN.N.N.A.N.N.S.S.S.S.S.S.S.S.S.S.S.@XD...7 ] F.j.*.: T D.a.i.N.N.XXA.A. XN.A.S.S.S.S.S.S.N.XX XN.A.XXN.S.S.S.S.N.S.S.S.S.N.S.N.A.S.S.S.N.N.N.S.S.N.S.S.S.S.S.A.XXN.S.S.S.S.S.S.S.N.b.b.XXN.N.S.A.N.A.N.S.S.S.S.S.S.S.S.S.S.S.A.N.A.N..XoX7 p F.F.j.e k O.x.x.w.w.w.w.9.w.w.w.q.x.w.w.w.q.w.w.w.w.w.w.w.w.w.x.9.w.w.w.9.w.w.w.w.w.w.w.9.v.w.w.w.w.w.w.w.x.q.w.w.w.w.w.9.w.w.w.w.w.9.9.w.w.w.q.9.w.w.w.w.9.9.w.w.w.w.w.w.w.w.w.w.w.9.9.n.f.; e ;.G.<.: ) D.b.b.b.b.N.D.v.b.b.b.Z.b.b.M.b.b.D.b.b.b.M.v.b.M.b.b.N.b.b.b.b.b.A.b.b.b.b.b.b.b.D.v.b.b.b.b.b.M.b.b.b.M.N.D.q.6.) ' _ ~ D.U.+X@Xh.u.} 3Xn.C ~ Z Z Z E E E Z E E E Z E Z E E C E ~ B 2 ! <.J.r 4 W ) ) ) _ ) _ ) _ ) ) _ ) _ ) _ ) ) _ ) _ ) ) ) ) ) ) ) _ ) ) _ ) _ _ ) _ ) ) _ ) _ _ ) ) ) ) ) ) _ ) _ ) _ ",
"E E Z E E E Z E E Z E E E E E E E E Z E E E E E E E E E E E E E E E ~ Z E Z E E E E E Z ~ Z E E E E Z Q Z Z Q ~ t 7 r Q A e : 6 E R E E E E M Z &X@Xx.v.e.A.A.A.b.XXS.S.S.S.S.S.S.XXN.S.N.S.S. Xb.e.b. XS.N.N.S.S.S.S.S.N.N.N.S.S.S.S.S.S.S.S.N.S.S.S.S.S.S.S.S. XA.S.N.S.S.S.S.S.S.S.S.N.S.S.S.S.S.N.@XA.{ i S F.j.*.: 7 z e k c.A.b.XXN.A.A. XS.S.S.S.S.S.S.S.S.S.S.S.S.S.S.S.S.S.S.S.S.N.S.S.S.N.XXN.S.S.S.N.S.S.S.S.S. XS.S.S.S.S.S.S.S.N.S.S.S.S.S.S.S.S.S.S.S.S.S.S.S.N.S.S.S.S.S.N.S.S.S.S.S.N.N.N.S.w p F.k.d.t k O.v.x.w.w.w.9.9.w.q.w.w.9.w.w.w.w.w.w.9.w.q.x.9.w.w.w.w.w.w.w.w.w.9.w.w.w.w.w.w.w.w.9.w.w.w.w.w.w.q.w.w.w.w.w.9.w.q.w.9.q.w.w.w.w.q.w.x.q.w.w.9.w.w.w.9.w.w.w.w.9.w.w.x.9.q.9.x.v.1 7 %.F.<.: ~ D.b.b.A.A.b.b.v.A.A.b.b.b.b.b.b.b.M.b.b.b.b.M.Z.b.b.M.b.b.b.b.M.A.b.b.b.b.b.b.b.b.M.b.b.b.b.b.M.b.N.b.N.N.b.N.S.S.e.A.e.5.A..X X XN.=X=X$XN.6.E Z Z Z Z E Z Z ~ E E E E Z C W Z R ~ z 4 R <.G.r 4 ~ ) ) ) _ ) _ ) ) ) ) _ ) ) ) ) ) ) ) ) ) ) _ ) ) _ ) _ ) _ ) ) _ ) ) ) _ ~ ) ) ) ) ) ) ) ) _ ) ) _ ) _ ) ) ",
"Z E E E E E E E Z ~ Z E E Z Z E E Z E E E Z E Z E Z E E E Z E E E Z Z E E E E E Z E E E E E E E Z E Z E E Z Q Q e 7 r Q E e w t C E Z C Z C Z Z ' ' G A i. XM.S.A.XXN.N.N.N.S.S.S.N.@XS.S. XS.S.b.b.N.A.S.S.A.N.S.S.S.S.XXA.S.S.S.S.S.S.S.S.S.S.S.N.XXS. XS.S. XN.N.N.N.S.U.S.S.S.S.S.S.U.S.U.S.N.S.N.=XA.J 7 S F.g.*.: 7 t , 2 4 | XXA.N.XXXX XN.N.S.S.S.S.S.S.S.S. XA.S.S.S.S.N.S.S.S.N.A.S.S.S.N.A.S.S.S.S.S.S.S.S.S.N.A.S.S.S.S.S.N.S.S.S.S.S.S.S.S.S.S.S.S.S.S.N.A.S.S.S.S.S.N.S.S.S.S.S.S.S.N.A.S.N.;X9 a F.F.z.z h ( x.9.w.w.q.x.w.w.w.w.w.w.w.w.w.9.w.w.w.w.w.w.9.w.9.w.w.w.q.w.w.w.w.w.w.w.w.w.w.w.w.w.w.w.9.w.w.w.w.w.9.w.w.w.w.w.w.w.w.x.9.w.w.w.w.w.w.9.w.w.w.w.q.w.w.w.w.w.w.w.w.w.q.9.9.9.x.v.= w ;.F.g.: ) C.r.b..Xr.b.b.b.b.e.b.b.Z.M.b.b.b.Z.b.b.b.b.b.b.b.b.b.b.M.b.b.b.b.b.b.v.b.b.b.b.b.Z.b.b.b.N.b.b.b.b.b.N.N.N.N.N.b.b.b.b.v.v.b..Xb.v.v.x.$XyXM.N Z Q ~ Q E E R ) ~ Z A Z ~ Z Q C R ~ z 7 R <.J.h 4 W ) ) _ ~ _ ) ) _ ) ) _ ~ _ _ ) _ _ _ ) ) _ ~ _ ) ) ) _ ) ) _ ~ ~ _ ) _ ) _ _ ) _ ) _ ) ) _ ~ _ ) ) ) _ ) _ ",
"~ Z E E Z E E E E E Z E E Z E E Z ~ E E E Z E E E Z Z E E Z E Z E Z E E Z E E Z E E E E E E E E E E E E E Z Q ~ e 7 r Q W 8 w M E C Z C C Z Z Z Z Z N M t.:XA.S. XN. XS.S.U.N.N.N.S.N.A.N.N.S.S. XA.S.S.A.A.S.S.N.N.N.S. XA.S.S.A. XS.S.N.A.N.N.S.N.N.S.S.S.N.N.S.S.S.S.Q.S.S.U.S.S.S.S.S.S.U.S.S.S.S.@XA.l 7 S k.1.*.- P ~ 2 j n H e.S.A.A.b.w.w.b.XXS.S.S.S.S.S.S.S.N.S.S.S.S.S.S.S.N.S.S.S.S.S.S.S.S.S.N.S.S.S.A.N.S.S.S.S.S.S.S.S.S.S.S.S.S.S.S.S.S.S.S.S.S.S.N.A.N.A.XXS.S.S.S.S.S.S.S.S.S.S.S.N.A.XX X7 p F.F.z.y e J x.f.9.w.w.w.w.9.w.w.w.w.w.w.w.w.w.w.w.9.w.w.w.w.w.w.9.w.w.w.w.9.w.w.w.9.w.q.9.w.w.w.w.w.w.w.9.w.w.w.w.w.w.w.w.9.w.w.w.w.w.w.w.w.w.w.w.w.w.w.w.w.w.w.w.w.w.w.w.w.q.w.w.9.q.9.f.x.= 8 ;.G.<.: ) D.A.A.A.b.b..Xb.b.b.b.b.b.b.b.M.b.b.b.M.b.A.b.b.b.b.b.b.Z.b.b.b.b.b.b.D.b.Z.N.M.b.b.b.b.M.b.b.b.b.N.b.e.q.e.6.v.b.b.A.b.b.v.b.b.b.c.v.h.P.k.4. .| C R R E E u.D.| G ' G Z E ~ E C Q B 7 R <.J.j 4 ~ ~ ) ) ) ) _ ~ _ ) ) _ ) ) ~ _ _ ~ ) _ ~ ) ) ) ) _ _ ~ _ ) _ ) _ ) _ ) ) ) ~ _ ) _ ) ) _ ) ) _ ) _ ) ) ) _ ",
"E E Z E E E Z E E E E E E E E E E E E Z E E E E E E E E E E E E E E E E E E E E E Z E E Z E E Z E E E E E Z ~ ! h 7 i ~ E 8 w a C Z E E E Z Z M M N Z M / v.v.b.XXN.XXXXS.S.S.U.S.@XXX;X>X&X@XS.S. XA.S.A.S.S.S.XXA.S.S.S.N.S.S.N.S.S.S.S.S.S.XXN.XX;X| q.;XN.;XS.N.S.N.XXS.S.S.XXQ.S.S.S.S.S.S.N.S.S.@XA.l 7 ] k.j.*.& X.rXN {  .D D N. XA.N.v.v.N.XXv.v.S.S.S.S.S.S.S.S.N.A.N.S.S.S.S.S.S.S.N.S.S.S.S.S.S.S.S.N.XXN.S.N.S.S.S.N.S.S.S.S.N.S.S.N.S.S.S.N.S.S.S.S.S.N.XXN.N.S.S.S.S.S.N.S.S.N.S.N.XX XA.XXw.2 p F.k.k.h e F v.x.w.w.w.9.w.w.w.w.w.w.w.w.q.w.w.w.w.w.w.w.q.w.w.w.w.w.w.w.w.w.w.w.w.w.w.w.w.w.w.w.w.9.w.w.x.w.w.w.w.w.w.w.w.w.w.w.w.w.w.9.w.w.w.w.w.w.9.w.w.w.w.w.w.w.w.q.w.w.w.w.w.9.9.q.n.h.= e %.F.g.: ~ Z.r.A.b.a.b.b.b.b.b.b.b.M.b.b.A.b.b.b.b.b.b.b.b.b.b.A.b.b.b.b.b.b.Z.M.b.b.b.b.b.b.b.b.b.Z.b.b.b.b.N.e.} z y w _ Z.b.b.b.b.b.b.c.b.b.b.q.) ~ z 9X-XC Q R C $.;XA.q.e.Z.} t C ~ C E ~ B 7 a <.J.9 4 / ~ ) _ ) _ ) ) _ ) ) ) ) _ ) ) ) ) ) ) _ ) ) ) ) ) ) ) ) ) ) ) ) ) ) ) ) _ ) ) ) ) ~ _ ) ) ) ) _ ~ ) _ ) _ ",
"E E E E E E Z E E E E E E E E E E Z E E E Z E E E E E E E E E E Z E Z ~ E Z E E E E E Z E E E E E Z E E E Z ~ ~ t i r Q ~ 7 w B Z C E C Z Z Z Z Z Z Z M Z ~ ) | U.N.:XS.S.S.S.S.@Xv.s.X.F ( D.S.A.S.S.A.A.S.N.S.S.S.S.S.S.S.S.S.S.S.S.S.N.S.S.S.S.N.;X5 h A.S.N.U.S.U.S.XXS.S.N.U.S.S.U.S.S.S.S.S.U.S.@XA.v 2 L j.j.#.> P ~ ~ 7.7.a.A.XXS.XXXXS.v.w.b. XS.S.S.S.S.N.S.S.S.S.S.S.S.S.S.S.N.S.S.S.S.A.N.N.S.S.S.S.N.S.S.S.A.S.S.S.S.S.S.S.S.S.S.S.XXS.S.S.S.S.S.S.S.S.S.S.N.S.S.S.S.S.S.S.S.S.S.S.A.S.N.N. Xx.: C F.k.j.z e F x.f.w.w.w.w.w.w.w.9.9.w.w.w.w.w.w.w.w.w.w.9.w.w.w.w.w.w.w.9.w.w.w.w.w.9.q.w.9.q.f.w.w.w.w.q.9.w.w.q.w.w.w.q.w.w.w.w.w.w.w.w.w.w.w.9.w.w.w.w.w.w.w.w.w.w.w.w.w.q.w.w.w.q.x.5.n.z.= 7 ;.G.g.: ' D.v.b.b.r..Xe.b.b.b.b.b.Z.N.b.b.b.M.b.v.b.b.b.M.b.Z.b.b.b.b.b.M.b.b.b.b.b.b.b.b.Z.N.b.b.N.b.b.b.b.b.b.A.6.G ' b.v.b.b.b.e.v.b.b.b.v.b.w.M.S.7. . .0.R R i.A.;XA.S.S.S.v.4.' R E Z ~ B 7 R <.G.j 4 G ~ ) _ ) ) ) ) ) ) ) _ ) _ _ ) ) ) ) ) ) ) ) ) ^ _ _ ) ) ) ) ) ) ) ) ) ) ) ) _ ) _ ) ) _ ^ ) ) ) ) ) _ ~ ) ",
"E Z Z E E E E E E E Z E E Z Z E E E E E E E E Z E Z Z E E Z Z E E E E Z E E E E Z E E E E E Z E Z ~ Z Q E Z Q Q h 7 i Q E 8 w M E Z Z Z Z Z Z Z Z Z Z N Z Z ^ i.U.N.S.S.S.U.S.S.XXq.^ x 4 4 H e.S.A.A.S.S.A.S.S.S.N.S.S.S.S.S.S.S.S.N.S.S.S.S.S.S.N.N.; 8 v.D.N.S.S.S.S.S.S.U.S.S.S.S.S.U.S.U.S.S.S.N.@XoXT 7 L k.,.#.: 6 4 ^ D.v.5.A.XXXX XA.b.b.v.e.N.S.S.S.S.S.S.S.S.S.N.S.S.S.S.S.S.S.S.S.S.N.XXS.S.S.S.N.S.S.S.S.S. XS.S.S.S.S.N.S.S.S.S.S.N.S.S.S.S.S.S.S.N.S.S.N.S.S.N.S.S.S.S.S.S.S.S.S.N.S.N.A.oXw.2 M F.j.l.z 7 U x.v.w.w.w.w.w.w.w.w.w.w.w.w.w.9.q.w.w.w.w.w.w.w.9.9.w.9.w.w.w.w.w.q.w.x.w.w.r.9.w.w.w.w.w.w.9.w.w.w.w.9.w.w.w.9.w.w.9.w.w.w.w.w.w.w.w.w.q.9.w.9.9.x.w.9.w.w.w.w.w.9.w.9.9.9.m.h.# e ;.G.0., ~ D.b.b.b.b.A.A.v.b.b.N.b.b.b.b.b.b.A.b.D.b.b.N.b.b.M.b.b.b.b.M.b.b.b.b.b.M.M.b.b.b.b.b.b.v.b.b.b.b.b.N.N.A.0.i.XXv.e.b.b.b.b.b.b.b.b.b. X+Xw.} c D b.) W 8.x. XM.D.S.N.S.S.' Q Z C ~ M 7 C 0.G.9 , / ~ ) ) ) ) _ ) _ ) _ ~ ) ) ) ) ) _ ) _ ) _ ) ) ) _ ) ) ) _ _ ) _ ) ) ) ) ) ) ) ) ) ) ) ) ) _ ) ) ) ) ) _ _ ",
"Z E E E E Z E E Z E Z E E Z ~ Z Z E E E E E Z E E Z E E E E E E E R E R E E Z E Z E Z Z Z E Z Z E E Z E E E Q E e 7 r Q E 8 w M Z C C C Z C Z Z Z C C M Z ~ ' 6.Z.S.N.S.N.A.:X;XN.N.;XX.l 8 : 9 XXA.A.S.S.A.S.S.S.S.S.S.A.A.S.S.A.S.S.S.S.S.S.N.N.XXXXq.v.XXN.S.S.S.S.A.S.N.S.S.S.S.S.S.S.S.S.S.N.N.N. XA.J 7 L j.j.*.: 7 7 4 V H } A.XX XS.S.N.N. X XXXS.S.S.A.S.S.A.N.S.S.XXN.S.S.S.A.S.S.S.S.S.S.S.S.S.S.S.S.S.S.S.S.S.S.S.A.S.S.S.S.S.S.S.S.S.S.S.S.S.S.S.S.S.S.S.S.S.N.XXA.S.S.S.S.S.S.S.S.N. XN.A.XXb.7 C F.F.l.h h J v.9.9.q.9.r.q.w.w.w.w.w.q.w.9.9.r.w.9.w.q.w.r.9.x.v.9.9.9.9.9.w.9.9.9.9.9.w.9.9.9.9.w.9.9.9.9.9.w.w.9.9.w.9.w.q.9.w.q.9.9.w.9.9.9.9.w.w.9.9.9.9.9.q.9.9.9.9.w.w.9.9.9.9.q.5.n.k.= e =.F.0., ~ D.r.b.b.A.b.b.b.A.b.b.N.v.b.b.A.b.b.b.b.M.A.b.b.b.b.A.b.b.b.b.Z.b.b.A.b.b.b.b.b.b.b.b.M.b.b.b.b.b.b.N.N. XN.N.b.A.b.b.v.b.b.b.b.b.v..X Xx : > 5 c h.i.) a &.XXXXS.Z.N.S.' Z R Z G ~ B 7 R g.G.9 , G ~ ) _ ) ) ~ _ _ ) _ ~ ) ) _ ) ) ) ) _ ) ) ) _ ) ) ) ) _ _ ~ _ ) _ ) _ ^ _ ) ) _ _ ) ^ ) ) ) ) ) ) ) _ ) ) ",
"E E E E E E E E E E E E ~ E R E R Z R E Z R R E R E E R E Z R Z R E E E R R E E E E Q E Q E Q E E E Z Q E Z ~ Q e 7 r ) E 8 w a Z C Z Z Z N Z Z Z Z N Z C } _ } b.Q.U.N.S.N.| X.@XU.@Xv.X.5 , r ;XS.S.S.XXS.N.N.XXN.S. X X XA. X XN. XN.XXN.XXS. XN. XS.S. XS.S.S.U.;XU.U.XXN.XXXXU.S.XXU.S. XS. X XN.*XA.l 2 L F.j.*.: 0 8 8 8 O.].D.S.U.@Xi.s.D.X. .v.S.M.N.S.U.N.S.N.N.N.N.N.N.N.N.N.N.N.N.N.N.N.N.N.U.N.N.N.N.N.U.N.N. XN.N.N.U.N.N.N.N.U.N.N.N.N.N.U.N.N.S.U.N.N.N.N.N.N.N.S.U.N.N.N.N.U.N.N.N.N.N.@XN.- M G.j.l.e G 0.x.x.9.x.f.f.9.x.f.9.x.9.f.x.x.f.f.f.9.x.f.9.x.v.^ ^ v.x.w.x.w.x.x.9.x.x.w.x.x.w.x.x.w.x.x.w.x.9.x.x.x.w.x.9.x.x.9.x.x.9.x.x.w.x.w.x.w.x.x.w.x.x.w.x.x.9.x.x.w.x.x.9.v.x.w.w.n.q.= e -.G.B., ~ S.v. Xb.b.b.c.b.b.b.v.m.M.b.b.m.b.v.b.m.b.c.b.v.b.c.b.v.b.b.c.b.b.c.b.v.b.v.b.c.v.b.b.v.b.v.b.b.b.c.b.b..Xv.c.r.b.b.c.b.b.b.c.b.m.b.N. X^ h , , N U.x.9.4.w. XU.S.D.S.S.a.q.=.E Z R B w M =.J.9 , / ) ) ) ) ) ) ) ) ) ) _ ) _ ) ) _ ) _ ) ) _ ) ) ) ) ) ) ) ) ) ) ) ) ) ) ) ) ) ) ) ~ ) _ ) ) ) ) ) ) ) ) ) _ ",
"R E R E E W E R E Q E E E E R R R R R R R R R E E R R R R W R R R R R R Q R Q R Q Q R Q Q R Q Q Q R Q E E Z ~ ~ d 4 y ) E e w M Z C Z Z Z Z Z Z Z Z Z Z ~ w.c.N.@X:X>XQ.Q.oX, f -X>X&X7Xv.9 4 ..:X;X,X;X;X;X;X;X;X;X;X@X;X,XXX X1X#XOX,X#X X;X,X#X X;X;X@XXX;X@X*X&X&X,X,X@X;X;X@X;X#XXX;X;X@XXX;X@X;XlX,Xv : S !.1.*., 7 e 8 8 K D H v.yX6XJ h N 5 0 f.M.b.U.Q.:X:XQ.,X:X:X;XQ.:XQ.:X;X;XQ.;XQ.:X:X:X*X;X>X&X;X:X:X@X:X&X:X&X:X@X:X:X:X:X:X@X:X:X:X:X&X:XQ.:X;X:X@X:X;X&X:X:X&X:X&X:X@X;X&X:X:X:X:X&X6X>X X; f J.1.j.9 #.T.M.b.n.M.M.m.n.M.n.M.b.m.n.M.n.m.b.n.n.M.n.M.m.v.: k @Xm.m.m.m.m.P.m.m.m.m.m.L.m.m.m.m.m.m.m.m.m.P.m.m.U.L.m.m.m.m.m.m.m.L.m.m.m.m.m.U.m.m.m.m.P.m.m.m.U.m.m.m.m.m.m.m.M.n.n.m.f.= e -.G.-.; ~ Q.@X@X@X@X@X@X@X+X@X@X;X@X@X@X@X@X@X@X@X@X@X X X X X X X.X X X X X.X X X X XN. X XXX X X X X X X X X X X X X X XU.@XU.U.;X:XU.@X:X;X@X&Xe.D , q { mXrX*X#X-XdX>XU.4.M.U.v.n.Y.;.E ` B 7 f $.~.5 < ) ` #.#.) %.#.$.#.&._ $._ _ _ $.$.$.$.$.$.$.$.#.*.$.#.#.#.#.#.$.$.#.#._ ) ) ` ) ) ) ` #.) _ ) ) #.) _ #._ 6.",
"C Z N C C C Z N M Z N Z Z Z N Z Z N N C N C C N S C C Z N C C N M N N N V M z l M l l N l N N l N N N N N Z Z Z 9 : r W W 7 w u z a z z z z z M z z M y F 7.7.a.Z.s.Z.s.].s.9 6 y.s.t.| ..n d T o.p.o.s.s.s.s.s.s.s.s.s.s.O.f 9 T T d < n y.s.p.g ..D.p.s.s.s.s.K o.o.s.s.s.s.p.s.p.s.s.s.y.s.s.s.s.p.y.o.T 2 P !.j.*.; 5 e 8 8 5 5 4 c F c 4 9 5 6 4 7 8 b p.s.y...J J { X.t.X.t.t.o.t.X.X.o.o.o.o.X.t.t.t.| | | t.y.p.p.s.p.p.s.p.p.y.X.t.p.~ ~ { t.p.p.t.{ ' t.' X.>.X.>.X.' { t.t.p.t.t.t.t.X.' { ( K T f Z F.j.g.7 C i.' ' ' ( ( ' ' { ( | ' ' { ' ' { ' ' { ' O.| X.D 4 d F X.| X.X.| | | | X.| X.| | X.X.| 6.| X.| | | | | | | X.X.| t.| | X.| | | X.| X.| | t.| X.| | | | | | X.X._ ^ ( | y.7.6.q.t.= w 0.F.-.7 G p.o.o.o.o.o.o.p.p.o.p.p.o.p.p.p.p.p.o.t.p.p.p.p.p.y.p.p.p.p.p.y.p.p.p.p.y.s.s.p.s.p.s.p.s.y.p.p.s.s.p.s.p.p.s.s.s.y.o.O.O.O.O.o.p.s.o.s.s.o.X.o.y.U.XXXXA.s.O.f < = , b X.t.D.p.G v j 4 Z <.J.5 , J J J J / ~ ~ / / ~ / W A / A / W W W / / W / ) ' #._ ' ' / J / J J ~ / ` ) %.` ) ` / ~ / / / J / / / / / >.",
"7 w 7 8 7 w 8 w e e 8 e 8 e 8 w 7 7 8 w 7 w w 8 7 7 8 7 w 7 7 7 7 7 7 7 7 7 7 7 8 8 8 8 8 5 8 8 8 8 8 8 8 8 e e ; 4 M E C e 7 7 2 4 2 2 2 2 2 2 2 2 : 3 7 j c k c k h h c c - * d h d 8 5 : , 4 5 6 5 h j h h h h h h h 5 4 * = 4 - ; O > e z 7 O 4 k e e z e h 0 8 d d 8 t e e e e 8 h r z h e 8 w 8 5 h h 4 B J.1.*.: 6 7 5 5 5 4 4 5 8 7 4 4 4 7 4 4 4 7 h z t 8 8 w e e e y y y w e e w e e y e e k h t t k e k k k k k k k k k k k e t t t y t t t t t t t t y w t t y y t e t w t t y y t y w y w e h 7 Z F.j.g.e t p 7 7 7 7 7 3 7 7 7 7 3 7 7 7 7 7 7 3 7 7 7 8 8 8 , 4 4 8 e w e w e e e e e e e e 8 e e e y e r e e e e e e e e e e e e 8 e e e e 8 w e 7 8 e w 8 e 8 e w e w e w 8 8 w t k z M t O 8 $.F.=.w 7 r d h d e 8 e w 7 e e w e e w 8 e e r e e e e y e e e e e e e e e t h y e e h h e h e h e h h h h h k h k h h z h d 8 5 5 4 8 d d 8 5 d k l k e t M Z D l h f ; = = * - e k k k h 8 , , C <.K.h 4 8 8 8 8 e w y y w 7 w 7 7 7 w w w w w w w w y t k t p t e r 8 8 7 7 8 e y y t t w 7 7 8 7 e 0 8 8 8 8 8 8 V ",
"O # O % % O O # # # # # # # # # % = # O # % # O = O % # # # O = % = % = % = % * * % = = * % = = = = % # = O O = O 7 E ~ ~ C : % + + O O O O + + + + + O + + + + + o o + + + + O + + + + O O + + O % O % O % O % O % O % % % % = % = % = = % = = * = = = = % = = > - - > = = = 1 = = > = = = > = = 1 > > > < r ` j.,.#.7 0 , 0 7 e e e y e y y e e y e y e w i 7 9 i w i 7 i 6 7 4 7 6 6 6 < 4 6 6 5 5 6 0 5 6 4 6 4 4 : 4 6 6 4 < 4 4 0 7 6 4 0 4 0 0 4 0 7 4 0 0 6 7 7 0 4 4 4 0 6 i 4 4 4 0 7 0 4 7 7 y a 3 C j.F.j.t - % % O O O % O % O % O O % O O O % O O O % O % + + % % % + O O O O O + O O + + O O O O O O O + O O + + O O O + O O O + O O O + O O O O O % + O O O O O O + O O % + O O + O O O O % + 7 >.d.=.t - & > > 2 6 6 3 6 3 6 3 3 6 2 6 2 3 6 3 6 3 < > < > 1 ; > 1 ; 1 1 ; 1 ; = > 1 > > = - > > > - = & & = % % % % % O O % = & % & % = % = = = = > ; = > = = = = = = > 2 2 : > > > * = = = = ; Z ,.K.Q h = = = = = = = * = = = % % = = % = & & = & * % = % = = O # # O O # # O # # O + O O $ + $ o o $ o o o o o o $ ",
"A A C S A C B Z C N N N C N N C N M C S M C N C M C V C C C C B M N C B C M N N M N N N N N N N N N C N N M C V M A ~ Q E A C C A V B B A A B A B N B C / &.&.$.4.6.&.6.4.&.&.&.>.&.-.&.-.&.&.-.-.-.;.:.;.-.-.-.-.-.&.-.-.<.-.-.-.-.:.;.;.-.;.;.>.;.;.;.;.;.%.;.;.;.;.;.:.;.;.:.:.:.;.:.:.:.:.;.-.:.:.0.B.u.0.-.j.1.l.-.0.-.-.-.<.<.<.g.<.-.-.g.0.-.0.-.<.<.<.<.<.2.<.<.<.<.<.-.<.<.<.-.-.:.0.-.-.0.<.0.<.g.0.-.-.-.=.=.-.g.0.<.<.<.-.g.<.<.<.<.<.<.<.-.-.<.<.<.<.<.<.<.<.<.<.<.<.<.<.<.<.<.<.<.<.<.<.;.,.<.<.1.2.,.d.-.&.;.;.;.&.;.&.;.%.>.;.>.;.&.>.;.;.%.&.;.>.;.&.;.&.#.0.&.$.;.&.;.%.%.%.>.;.%.%.;.%.%.%.;.%.%.%.%.%.%.;.%.&.%.;.&.%.%.%.%.&.%.&.%.%.;.;.&.%.%.%.%.%.%.%.%.%.;.;.&.%.%.>.%.;.&.;.#.%.&./ $.g.d.d.;.%.:.u.3.<.-.-.<.:.3.<.3.3.<.3.3.<.3.3.3.3.3.3.-.:.:.-.:.:.-.:.:.:.-.-.u.:.:.:.0.0.:.;.;.%.>.&.-.-.&.:.;.>.;.;.;.-.-.-.-.-.-.;.-.-.-.-.-.:.0.0.-.-.-.-.-.-.-.:.;.-.-.;.;.;.;.&.&.&.&.;.&.&.-.d.F.<.-.` ' ` ) %.;.#.%.&.$.&._ ' &.&.$.&.-.&.&.&.&.&.$.&.&.&.&.&.&.>.6.&.&.&.$.&.$.&.#.` $.' &._ $.' ) _ #.` ) ) ;.",
"Q Q ~ Q ~ Q ) ~ ) #._ #.) ) ) ) Q ) ) ~ ) ~ ) ! ) Q ) ~ ~ ) Q ) Q ~ ) Q ) Q ~ ) ) ~ _ ~ ) ) ~ ) ) ) ~ ~ ~ ) ) ) ) ~ Q E C C ~ ~ ) ) ) ) #.) ) ) #.#.) ~ $.j.k.F.F.I.L.k.k.k.k.F.F.G.F.F.F.F.F.F.j.F.F.F.F.F.F.F.F.J.K.F.F.1.1.F.F.j.1.1.1.1.1.1.1.1.1.1.1.1.1.,.,.,.,.,.2.1.1.1.2.1.1.2.1.1.1.1.1.1.1.,.d.d.=.*.*.*.2.1.1.1.1.j.1.2.,.j.1.,.1.,.,.,.1.2.1.2.2.1.1.1.2.1.2.2.2.1.1.2.2.2.2.2.2.2.1.2.1.1.1.1.1.1.1.1.F.F.F.1.1.j.1.1.1.1.1.2.2.1.2.2.2.2.2.2.2.2.2.2.2.2.2.1.2.2.2.2.2.2.2.2.2.2.2.2.2.1.*.2.F.2.*.~ ~ ,.,.d.d.j.j.1.d.d.1.,.1.1.1.j.d.1.d.j.d.j.j.1.j.j.j.j.F.j.j.j.1.,.1.1.1.1.1.,.,.1.1.1.1.1.1.F.F.1.1.j.j.d.1.1.1.f.1.1.1.j.j.d.1.1.1.1.,.d.1.1.j.j.1.j.j.j.j.1.1.j.1.1.1.1.1.j.j.j.d.d.8.8.=.*.,.*.*.=.,.,.,.,.1.2.2.2.1.1.1.1.1.1.1.1.1.1.2.2.1.1.2.1.,.2.2.1.,.,.2.2.1.2.,.1.1.1.,.1.F.F.j.,.2.j.,.1.1.1.j.j.1.1.F.1.F.1.1.1.1.F.F.1.j.j.j.j.1.1.j.1.2.2.1.1.1.2.1.2.,.,.2.2.,.,.,.,.=.*.=.=.*.@.=.2.*.*.,.,.,.*.,.,.2.,.2.*.,.d.d.j.d.,.j.j.d.2.j.j.d.2.j.d.j.1.d.j.j.j.j.k.j.j.j.G.G.j.j.k.F.j.j.F.j.j.F.F.j.j.",
"y y t t t t y t k M C N k e k h h h h e e h h h h h h h h c h h j c h h h h h h h h h h h c h h h h h c h h e h h h h c h h j c h h h h h c h h h h j c h r J D % 5 O.F 4 O ; ; ; : 4 z V J F J z 8 6 B z z < ; -.d.d.9 : > 0 0 > % % 9 9 6 ; 6 z j j q 9 0 j h d j j f d j f f j j f f j f f f j f f j j j j h j j c j j j j j c j x j l l F D G K D J D V Z F G F x N N x l V l V F D G K K K J G J H K G N j $ : S !.! , Z Z J N V F l v x v N l x v x v N l l v x v N x x l l x v F N v x v N l v v x v l v v x v v l v x l x l v x v x v x v x v l l x c x l c c c l c x c c c v c c c j j r j 9 f j 9 o u K.*.C = f f f c f f c c c f f f c c f f f f f c x v c f c v K v K H K K K v j j f v x v F F v F D j c j k j l j j z z z j z z h z j z j j j z h k j j j h j f d f d f 5 9 f d 1 ; f q < # ; F.,.) . ; | 4 2 6 z B 2 2 2 2 2 3 2 2 2 2 3 3 2 3 3 : 2 2 2 3 2 2 2 3 3 2 2 2 2 > 2 3 > 3 3 2 2 2 2 3 3 2 3 2 2 2 2 2 2 3 2 2 2 2 2 2 3 3 2 2 2 3 2 2 2 2 3 2 2 2 2 2 2 3 2 2 3 2 : ; > < = G 8.F.l 4 7 6 0 7 9 5 d d h h l ",
"C C A B C B M t k Z ~ z e M A A C A N N C A N N Z A C N Z A Z C Z Z A N C A C A Z Z A N C A Z N Z C A N Z A Z Z N A Z N Z Z Z C A C Z A Z C N C Z Z Z C N A { i.X.Z.,X| M e k z e z N i.D.D.D.S.D.i.s.Q.D.i.F 8 =.d.H.f 5 { o.X.{ 4 q i.s.{ F s.Q.;X,XQ.Z.Z.e.i.a.7.y.7.y.y.i.q.y.i.y.i.7.i.i.y.y.i.y.7.y.i.u.i.i.i.7.i.i.e.q.e.i.q.7.a.i.a.a.e.a.e.Z.a.a.a.i.v.v.a.a.a.i.i.i.i.a.i.a.a.e.e.Z.v.a.a.e.Z.a.a.q.y.f w ] K.~ , V.Z.0.i.7.7.i.7.7.7.7.i.i.e.7.7.i.7.a.7.7.7.i.7.7.7.q.7.7.7.7.7.7.i.7.i.7.i.7.7.7.i.i.7.i.7.7.i.7.7.7.y.7.i.7.e.7.7.7.7.y.a.7.i.i.7.i.i.a.i.i.i.i.y.i.i.7.s.y.7.y.y.t.y.y.i.u.X.o B K.,.C q o.i.y.y.y.y.o.7.o.y.y.s.o.r.o.s.| s.y.y.y.a.s.o.a.a.a.a.a.e.e.a.e.a.y.y.o.a.a.a.e.e.a.a.a.s.a.y.s.y.y.s.s.i.y.y.i.y.i.p.y.i.y.i.y.u.s.y.p.i.i.y.y.y.s.i.y.y.s.y.o.y.a.X.O.y.p.y.g , F.<.#.% I D.o.[ p.D.;XX.A B s S B B S M s B B B B B B S s B B S B B B B B S B B B S B B B B B a S B B B B B B S B B M s B M s B B B B M s B B B B V B B B B B B B B B B B B B B V z z V d , Z -.F.N 8 A J W A / / / H / ( ' ",
"~ ~ ~ ~ ~ ~ N h t Z ~ e 8 Q Q Q R Q R Q R R Q R R Q Q R Q R Q R Q R Q Q R Q Q R R Q Q R R Q R Q Q R Q Q R Q Q Q R Q R Q Q R Q Q R Q R Q R Q R Q E Q Q Q R C #.d.gX5X2X$.0.q.&.~ C Z Z P.+X+X+X+X&X$X%X2X2XU.6.C $.d.J.j e 5.w.x.m.l , 2XP._ d.&XmXcXzXxXcXhXwX2X+XP.T.+XP.$XP.+XP.+XP.+X$XP.+XP.+XP.P.T.P.T.P.L.P.P.P.T.+XP.P.P.P.P.P.m.m.n.m.n.m.m.n.m.m.m.m.m.n.m.m.m.m.n.n.m.m.m.m.m.m.m.m.n.m.m.m.n.n.n.L.x.z p %.F.G - m.P.x.n.n.n.k.n.f.n.x.n.n.k.x.n.n.k.k.x.n.x.k.x.n.n.x.n.k.n.n.n.x.n.x.n.n.x.n.f.n.n.n.n.n.n.n.n.n.n.x.n.n.x.n.n.f.n.k.n.n.x.n.n.n.n.n.n.n.m.n.m.n.n.n.n.x.x.x.x.x.x.x.n.n.n.P.f.o z K.d.R 0 e.m.n.n.m.m.n.n.n.n.n.n.n.c.n.n.n.n.n.n.n.n.n.n.n.c.n.x.x.c.n.n.x.c.c.c.c.c.c.c.c.c.c.c.c.c.c.m.c.|.|.m.c.n.n.m.x.n.n.x.n.n.n.m.n.m.m.} } m.+Xm.m.|.|.m.m.m.m.|.m.+Xm.+XP.n.m.3Xv 8 F.,.#.> ( P.~ 4.3XwXrXx.4.Q ) ~ ~ ~ ) ~ ~ ) ~ ~ ) ~ ) ~ ) ~ ~ ~ ~ ~ Q ~ ~ ) ~ ~ ~ ) ~ ) ~ ~ ~ ~ ~ ~ ~ ~ ~ ~ ~ ~ ~ ~ ~ ~ ~ ~ ~ ~ ~ ~ ~ ~ ~ ~ ~ ~ ~ ~ ~ ~ ~ ~ ~ ~ ~ ~ Q ~ ~ ~ ~ ~ Q ~ ~ Q N 7 M ;.F.z 7 ,.$.*.=.$.$.$.$.$.$.$.",
"E Z E C Z R M e t N ) r 7 C Z C C Z Z C C Z Z Z E C E Z Z Z Z Z Z Z Z Z Z C Z Z Z Z Z Z Z Z Z Z Z Z Z Z Z Z C Z Z Z Z Z Z Z C Z Z Z E Z Z Z Z Z A C Z Z Z Z E E ~ ' _ ) 8.&Xb.5.5 e e N 6.n.n.n.n.x.n.m.m.n.h 2 ,.j.F.j > > 5.x.P.D : h 8 : 4 U cX5X5X5X2X$Xn.x.x.x.x.x.x.x.c.x.n.x.n.x.x.x.x.c.x.x.x.x.f.x.f.n.f.n.f.x.x.x.n.x.x.x.f.9.f.x.x.x.f.x.v.x.f.x.x.f.x.v.x.x.x.f.v.x.f.x.f.v.x.x.x.x.c.x.x.x.x.v.m.e.f 7 ] !.W * f.n.n.x.k.f.x.x.n.x.x.x.x.x.x.x.x.x.x.x.x.n.n.x.n.f.f.x.x.x.f.n.f.x.n.x.k.x.n.x.n.f.n.f.n.f.f.x.f.n.n.x.k.x.n.f.n.x.x.x.n.f.n.f.x.k.x.x.k.f.k.f.x.x.x.x.f.x.x.x.x.x.x.f.x.f.x.f., E K.0.Q g q.x.x.v.c.w.x.c.x.x.c.x.x.x.x.c.x.v.x.x.x.x.x.v.x.x.x.v.x.x.v.x.x.x.w.x.c.r.x.x.r.x.c.r.x.x.c.r.x.x.w.w.w.x.v.w.x.w.v.x.v.9.f.v.w.x.m.N 4 4.w.w.w.w.w.r.v.c.x.w.c.x.x.x.w.x.x.+Xc 5 F.d.=.% g G P.%XwXq.N 4.4.C E ~ Q Z E ~ E E ~ E E E E E E E ~ E Q ~ Q E E E E ~ E E E E ~ E E Q E E ~ E Q E E Q E E E E E Q E E Q E ~ E E Q E E Q E E E Q E E Q ~ E E E E ~ ~ Q ~ R Z E S 7 t ;.J.j , ) ) %.) #.) _ _ _ _ _ ",
"Z Z Z ~ Z E N e t C ) e 7 C W E Z E C Z Z E Z Z Z Z Z Z Z E ~ Z E Z Z E Z Z E Z E Z Z E E Z Z E E A Z Z Z Z Z Z Z Z Z Z E Z Z Z E Z E C E Z E Z Z E Z Z R A C ~ ~ ~ ~ h.v.m.q.^ , e G ' 5.n.n.m.n.x.n.n.c.5.4 : ,.1.K.r : 9 a.c.9.z : e 8 , 7 { rX2X7X2X$XP.n.x.c.n.c.n.n.x.n.c.n.n.n.c.n.n.n.n.n.n.n.c.n.x.n.n.n.n.n.n.c.n.n.n.x.x.x.x.x.x.x.x.x.x.x.x.f.x.x.x.x.x.x.x.x.x.x.x.x.x.x.x.f.x.x.x.x.x.f.x.x.x.P.v.h w ! !.W * f.b.n.m.n.x.n.x.n.n.n.x.n.n.x.n.n.x.x.n.x.x.n.x.n.x.n.n.x.n.n.n.n.n.n.x.x.n.n.x.x.n.n.x.n.n.x.n.x.x.n.x.x.n.x.n.x.n.x.n.n.n.x.n.x.x.n.n.x.x.x.n.x.x.n.x.x.x.x.x.x.x.x.x.f.n.n.v.: R K.2.Q u q.n.x.c.x.x.c.x.x.x.x.x.c.x.x.v.c.c.x.x.x.v.x.c.x.x.x.c.x.c.c.x.x.x.c.c.x.x.x.c.c.c.x.c.c.x.c.x.x.x.w.c.w.x.x.v.x.v.x.w.v.x.x.v.x.x.+X7.I v.e.c.c.v.w.c.c.c.c.c.c.m.c.x.x.w.x.$Xg < F.d.8.@ , 7.*X%XcXe.Z 6.' C ~ E E E ~ E E ~ ~ E E E ~ E ~ E E ~ Z E E E ~ ~ E ~ Q ~ ~ E ~ E ~ E E ~ E ~ E ~ ~ E E ~ E ~ ~ E E ~ E E E E ~ E E ~ E E ~ E E ~ ~ E ~ E E ~ E Z ~ ~ ~ E E Q N 7 y %.J.h , ~ ) #.$.) ) _ ) _ ) _ ",
"~ ~ E ~ E Q N h t C ~ z 7 C W W Z R E C E R R E W R R E E E E E E E E E ~ E E E E E E Z Q E E E E E E Z Q E E E E Z Q E E E ~ E E ~ E E E ~ E E E E E E E C E Z Z E R P.n._ N 5 O J M.2X$Xm.n.n.n.n.n.m.4.h ; - ,.j.J.9 y e.q.~ 4 5 4 e 8 , Z D.f.n.P.n.n.n.n.n.n.n.n.c.n.n.n.n.n.n.n.n.n.n.m.n.n.m.n.n.n.n.x.n.n.n.n.n.m.n.m.n.n.x.x.x.x.x.x.x.x.x.x.x.x.x.x.x.x.x.x.x.M.x.x.x.x.x.x.x.x.x.x.x.x.x.x.x.x.x.$XM.M a ! F./ * ~ 9.m.k.x.f.x.x.x.f.x.x.x.f.x.x.f.x.x.f.x.x.f.x.x.x.x.x.x.x.f.x.9.x.f.x.x.x.f.x.x.9.x.x.f.x.x.f.x.x.x.x.x.x.x.x.x.9.x.x.x.f.x.x.f.x.x.f.x.x.x.x.x.f.x.x.f.x.w.x.f.9.x.f.f.n.5._ = M K.,.E u e.n.x.c.c.x.c.v.x.M.c.x.x.x.x.c.x.x.c.x.x.x.c.c.c.x.x.x.x.c.c.c.x.x.c.c.x.c.c.c.c.c.x.x.c.c.c.r.c.c.c.c.c.x.x.x.x.v.x.x.x.x.x.x.c.x.v.n.m.x.c.c.c.c.c.c.c.c.v.c.c.c.c.x.x.x.x.&Xc d F.d.,.o h $X9.f.P.v.5.^ G ~ Z ~ E ~ E E E E E E E ~ E ~ E ~ E E ~ ~ Z ~ E E E Z ~ Z E ~ Z ~ E ~ ~ Z E E E ~ Z ~ ~ E ~ E E ~ ~ Z ~ ~ ~ ~ E ~ ~ Z ~ ~ E ~ ~ Z ~ E Z ~ ~ E E ~ E E E E R ~ M 7 y &.J.j 4 ) ) ) #.) ) ) _ _ ) _ ",
"Z E E Z Z ~ N e e C ) t 7 W E E E E R Z E R Z Z E E R E R E E E E E E Z E E C E E E E Z E C E E R E E E Z E E E E E E E E R R Z R E E E E E E E E E E Z Z Z Z E E E R 9.b.4.} 6.( 7.f.} ~ ~ N.m.x.n.n.m.~ : > - ,.1.G.9 e v.c.4.e 8 4 7 7 4 J X.7 ~ m.M.f.n.n.n.n.n.n.n.c.m.n.n.n.n.n.m.m.c.n.c.n.n.n.n.n.n.n.n.n.n.n.n.m.n.n.c.n.x.n.x.x.n.x.c.x.x.n.x.M.x.x.n.x.x.n.x.x.x.n.x.x.x.x.n.x.x.n.x.x.x.x.n.x.x.$XM.x y ! !.W * k ~ h.x.x.x.x.x.f.x.f.x.x.x.x.x.f.x.x.x.f.x.x.x.x.x.x.x.x.x.x.f.x.x.x.x.x.x.f.x.x.x.x.x.x.x.x.x.x.x.x.f.x.x.x.x.x.x.x.f.x.x.x.x.x.x.x.x.x.x.x.x.x.x.x.x.x.x.x.w.x.x.x.f.x.n.f.8.O C K.-.R 9 q.m.M.n.n.c.x.x.c.x.x.x.x.c.x.x.c.v.v.c.x.c.c.c.x.x.c.c.x.c.c.x.x.c.c.c.x.c.c.w.c.c.x.c.x.c.c.r.c.w.c.x.c.x.x.x.w.c.x.v.x.x.x.c.x.x.c.v.x.c.x.M.c.w.c.c.c.n.x.c.c.x.M.x.x.x.x.$X9 : F.,.=.o e T.9.9.n.8._ C E E E E E E E E E E Z Z E E Z E E E E E E E E E E E E E ~ Z E Z E E E ~ E E E E ~ Z E E ~ E Z E E Z E E E E Z E E E E E E E E E E E E E E E E E ~ E E E ~ E Z Q N 4 t ;.J.c , ) ) ) _ ) _ _ ) _ ) _ ",
"E Z Z Z Z E N e e Z ) h 7 C E E R E E C R E E R E E Z E E Z Z R C E E R R E E E E R E E E E E E E E R Z R E E Z R E Z E E Z E E Z E E C E C R Z R E E Z Z E E C E E Z _ q.b.9.5.9.5.9.N e z b.P.n.n.n.m.~ & ; : <.,.K.9 e 9.m.9.e 4 4 7 8 7 N k > k 7.m.x.f.M.m.n.n.m.c.n.n.n.n.n.c.n.c.n.n.n.m.n.m.n.n.n.n.n.n.n.n.n.c.c.n.m.n.x.n.c.n.x.n.n.n.n.n.x.c.x.n.c.n.n.c.x.n.n.n.x.c.n.n.n.x.c.n.x.n.x.M.c.n.n.x.$XM.c w ] !./ - e M $.c.n.f.x.f.x.x.x.x.x.f.x.x.x.x.x.x.x.x.f.x.x.x.x.f.x.x.x.x.x.x.x.x.x.x.x.x.x.x.f.x.x.x.f.x.x.x.x.x.x.x.x.f.x.x.x.x.x.x.x.f.x.x.x.x.f.x.f.x.x.x.x.x.w.w.x.x.x.x.f.x.x.f.n.h.% B F.,.E q q.m.n.c.n.x.c.x.c.x.v.c.c.c.x.x.x.x.x.c.x.x.v.x.x.c.v.x.v.x.x.v.r.c.v.x.c.c.x.c.c.w.c.c.c.x.c.c.c.x.c.c.v.c.c.x.v.c.x.c.v.x.v.c.c.x.c.w.c.c.x.x.x.c.c.c.c.x.c.c.c.c.c.x.x.w.x.=X0 > K.d.$.o j E.9.9.x.f.4.W E ~ E R C E E E E E Z E Z E E E E Z E E Z E Z E E Z E Z E E E E E E Z Z E E Z E E E Z E Z E Z E E E E E E Z E Z E Z Z E E E Z E Z E Z E E E Z E E E E E E Z R ) V 7 p %.J.j 4 ~ ) ) ) ) _ ) ~ _ _ _ ",
"~ E E ~ E E N k z M ) z e R E E R E E R E C Z R C E E Z Z R E E E E R E Z E E E E Z R Z R Z Z E Z R Z E Z E Z R E E E R E E R E E Z E E E E R E Z E E E E C Z E E Z E C C C M C M ) M.l 4 0 v.+Xn.n.n.=Xx.M , > ,.d.F.r 2 n N.4.% 2 7 7 e 7 7 7 7 : u m.n.x.n.n.n.c.x.n.c.c.n.c.n.x.c.c.n.n.n.n.m.n.m.x.c.c.x.x.x.n.n.n.n.n.n.n.n.n.n.x.n.c.x.c.n.c.x.n.x.c.x.n.x.n.x.c.n.c.x.n.x.c.x.n.x.n.n.c.n.x.n.x.x.c.$Xm.c y ! !.) * t W ~ x.n.x.x.x.f.x.x.x.x.x.x.x.x.x.x.x.x.x.x.x.f.x.x.x.x.x.x.x.x.x.x.x.f.x.x.x.f.x.x.x.x.f.x.x.x.f.x.x.x.x.x.x.x.x.x.x.x.x.x.x.x.x.x.x.x.x.x.x.x.x.x.x.x.x.x.x.x.x.f.x.x.n.n.f.& M K.8.Z q a.m.c.n.n.c.c.M.c.x.c.x.x.v.x.v.x.v.c.x.c.x.x.x.x.x.x.x.x.c.x.c.x.v.c.x.w.c.x.c.v.c.x.x.c.c.c.x.x.c.v.x.x.x.x.x.x.x.x.x.x.x.x.c.v.c.x.c.v.c.c.c.c.x.x.c.v.c.c.n.n.x.x.x.x.x.n.%X0 - F.,.*.X j 2Xf.x.f.x.x.x.8.$._ ) C Z Z W E R E E E E E Z E E Z E E Z ~ Z E E E E E Z E E E E E E E Z E Z Z E E E E E E E E E E E E ~ E Z E E E E Z E E E E E E E E E E E ~ Z E E E Q E Q B 4 p >.J.k 4 ) ) _ ~ _ _ _ _ ) _ _ ",
"E E E E E E N h e Z ) y 7 R W Z E E E Z E E E E E E E E E E Z E E E Z Z E E Z R E E E E E E E E E E E E E E E E Z E E Z E Z Z E E R E E E E Z Z E E E Z Z Z ~ Z E Z E Z Z C C Z Z E ' N N ^ M.P.n.x.v.m.0.t 4 : ,.,.F.9 7 | c.9.w 8 7 7 7 7 7 4 4 y / m.n.x.c.n.n.x.n.c.n.x.n.x.c.n.n.x.c.c.m.c.c.n.c.c.c.n.n.n.n.n.n.n.m.c.m.c.N.m.n.x.x.x.n.n.n.x.n.c.n.n.n.x.c.n.n.n.x.n.n.c.n.n.x.n.c.n.x.n.x.n.c.n.n.x.T.b.l y ! !.W * C ~ C f.n.x.f.x.x.x.f.x.x.x.x.f.x.x.x.x.f.x.x.x.x.x.x.x.x.f.x.x.f.x.x.x.x.x.x.x.x.x.x.x.x.x.x.x.x.x.x.x.f.x.x.x.x.f.x.x.f.x.x.x.x.f.f.x.x.x.x.x.x.x.x.w.x.w.x.f.x.x.x.x.f.f.n.9.O C F.0.C g q.m.c.n.n.c.x.c.c.x.x.v.x.c.x.c.x.x.x.x.x.v.x.x.v.c.x.c.c.w.x.x.c.c.x.x.c.x.v.x.x.x.c.x.v.w.c.x.x.x.c.x.x.c.v.c.c.x.c.v.c.x.c.w.x.x.x.x.x.x.x.x.c.x.c.c.x.c.x.c.c.c.c.x.x.x.n.%Xq ; F.d.#.. 4 f.9.f.9.9.9.9.4.~ ' _ W R E E ~ ~ E E C E E ~ Z E E E E E E E E E Z E E E Z E E Z E E E E E E E E E Z E E E E Z E Z E E Z E E E E E E ~ Z E Z E E E Z E E Z ~ E E E ~ Z E Q ~ Z 7 p %.J.z 7 ~ ' ) _ ) _ ~ _ _ ) _ ",
"E E E E E E N t e C ) z 8 R E W Z E Z R E R Z E R Z Z E E E E E E E Z E E Z ~ Z E E E E E E E E Z ~ E E E E E E E E E E E E E E E Z E E E ~ Z E E E E E Z ~ Z Z E E E Z Z Z ~ Z Z N Z / 4.+X+X+Xc.9.4.4.~ t 0 : ,.d.F.0 h v.x.9.' M 4 e e 7 - - e ' v.c.x.x.n.M.n.c.x.n.c.n.c.n.x.x.n.c.c.n.n.m.n.n.n.n.n.c.n.c.c.n.n.n.n.n.n.n.n.m.M.x.x.n.c.x.x.n.c.n.x.n.c.x.n.n.n.x.n.x.n.c.c.x.n.n.c.x.n.x.x.n.x.n.n.c.+Xb.N w ] !./ * ~ ' A v.n.x.x.x.f.f.x.x.x.x.x.x.x.x.x.x.x.x.x.f.x.x.x.x.x.x.x.x.x.x.x.x.x.x.x.x.x.x.x.x.f.x.x.x.x.x.x.x.f.x.x.x.x.x.x.x.x.x.f.x.x.x.x.x.x.x.x.x.x.x.x.f.x.w.x.x.x.x.f.x.x.x.n.9.@ B K.-.Z q e.n.c.c.n.c.c.x.c.x.c.v.x.x.c.w.x.x.v.c.x.c.x.x.c.x.c.w.c.x.c.x.c.x.c.x.x.x.x.x.c.x.c.v.c.c.v.x.x.c.x.c.x.c.x.c.v.c.x.x.x.v.x.c.c.v.c.x.c.x.c.c.c.c.c.x.x.c.c.c.c.x.c.x.x.x.x.%X6 - J.,.#.o * J 5.f.9.9.f.q.4._ R C E E G C E E E Z Z E E E E Z E E Z E E Z E E Z E E E Z E E E E E E E E E E E E E E Z E Z E E Z ~ E E E E E E E E E E E Z E E E E E E E E E E E E E E Q ~ C 7 M %.G.M 8 ~ _ _ _ _ ) _ ) _ ) _ ",
"E ~ E E E E N h t C Q h 8 Z R E R ~ E Z E E E E E E ~ Z E Z E E E E E E E E E Z E Z E E E Z Z E E Z E E E Z E E E Z E E E E Z E E E E E Z E Z E E Z Z Z Z Z ~ Z E E E Z Z E Z Z Z ~ G x.m.m.m.w.Z Z N Z Z _ 5 4 -.,.F.9 e v.m.x.4.X.k 2 8 M _ 5.m.M.n.n.x.f.n.n.n.c.n.x.n.x.n.x.n.c.x.n.c.m.n.n.n.n.c.x.x.n.x.n.x.c.c.n.n.n.c.n.n.N.n.n.x.x.n.n.c.n.n.x.n.c.n.x.n.x.x.n.c.n.x.n.n.n.x.n.c.n.c.n.n.c.n.c.x.x.m.c.N a ! J.~ * C &.f.n.x.x.x.f.x.x.f.x.x.x.f.x.x.x.f.x.x.x.x.x.x.x.f.x.x.x.x.x.w.x.f.x.x.x.f.x.x.x.x.x.x.x.x.x.f.x.x.x.x.x.x.x.f.x.x.x.f.x.x.x.x.x.x.x.f.x.f.x.x.x.x.x.x.w.x.x.x.f.x.x.x.f.x.f.% C F.=.N g e.n.c.n.m.n.x.x.x.x.x.x.c.v.c.c.x.c.x.x.v.x.x.c.v.x.c.c.c.w.v.x.x.x.v.x.x.c.v.c.x.x.c.x.w.x.c.x.x.v.v.c.x.v.x.x.c.w.c.x.x.c.x.c.x.x.x.x.x.x.v.x.c.w.x.c.x.x.c.c.x.c.c.x.x.x.x.3X5 : F.,.=.. z 5Xf.9.f.9.q.5.5.0.v._ C R C ) _ C Z Q E C C Z E E E E E E E E E E E E E E E E E Z Z E E Z Z E E Z Z E E E E E E Z E Z E E E E Z E E Z E E Z ~ E E E Z Z E Z ~ E E ~ Z E ~ R ) A 5 p &.Y.z 8 ) ) ) ) _ _ ) _ ) _ $.",
"E E ~ E E E N e t N #.e 7 R E R R E E E E E E E E Z E E E Z Z E E Z Z E E Z E E E Z Z E E E E E E E E Z E E E Z E Z ~ Z Z E Z E E E E Z E E E E E E E Z Z Z E Z Z Z E ~ Z Z E Z C G G 9.v.x.q.$.Z Z Z Z Z _ j 2 ,.2.H.i e c.e.4.Z D e 7 N { Z.c.m.n.n.n.x.x.n.n.x.n.x.c.c.n.c.n.n.x.n.x.n.n.c.m.n.c.x.x.x.c.x.x.x.n.c.n.m.c.x.x.c.m.c.x.x.n.x.n.n.x.n.x.x.n.x.n.c.n.c.c.x.c.n.c.c.x.c.n.n.c.n.x.c.n.x.n.n.x.m.b.G y ! ~.W * Z q.n.x.x.x.x.x.f.x.x.x.x.x.x.x.x.f.x.x.x.f.x.x.x.x.x.x.x.f.f.x.x.x.x.x.x.9.x.x.x.f.x.x.x.x.x.x.x.x.x.x.x.x.x.x.x.x.x.x.x.x.x.x.f.x.x.x.x.x.x.x.x.x.x.w.x.x.w.x.x.x.x.x.x.x.n.9.+ B K.8.N < e.n.c.n.c.c.c.x.v.c.c.x.x.v.x.x.c.v.x.x.x.x.x.x.x.x.x.x.x.x.c.x.c.c.x.c.v.x.x.c.v.c.x.x.x.c.v.x.x.x.x.c.w.c.c.x.x.x.x.c.c.x.x.w.x.x.v.c.x.c.c.c.c.c.c.c.c.x.r.c.x.x.c.v.v.x.n.$Xq : F.d.*.o x /.9.q.9.9.9.9.q.4.v.v.a ~ 6.i.Z.' C E R Z E E Z E E E E Z Z E E Z E E E Z E Z E E E E E E E E E E E E Z E E E E E E E Z E E Z Z E E Z E Z E Z Z E E E E E E E E E E ~ E E R ~ N 8 p &.G.z 5 _ ) ^ _ ) ) _ _ ) _ ' ",
"~ E E E E E N h t C ~ z 8 C E E Z E E E E E Z Z E E E E E E E E E E E E E E E E E E E E E E Z E Z E E E E Z E E E E Z E E E E E E Z E E E Z E E E E E E E E E E E E Z Z Z Q Q ~ Z Z ~ C C &.` C E Z E C Z _ j : =.,.F.9 e c.k : 7 2 > A 6.U.x.x.r.v.n.x.n.n.x.c.n.c.n.n.n.x.n.x.c.n.c.n.c.n.n.n.m.n.x.x.x.x.c.x.x.x.x.c.n.n.x.x.c.n.c.x.x.x.x.c.c.n.x.n.n.c.n.c.x.n.x.n.n.n.x.n.n.x.n.x.x.n.x.n.n.x.c.n.n.x.|.c.N a ! J./ * H 5.x.x.x.f.f.x.x.x.x.x.f.x.x.x.x.x.x.x.x.x.x.x.9.x.x.x.x.x.x.x.x.x.x.x.x.x.x.x.x.x.x.f.x.x.9.x.x.x.x.f.x.x.9.x.x.x.f.x.w.x.x.x.x.x.f.x.x.x.x.x.w.x.x.x.x.x.x.x.x.x.x.w.x.x.n.9.@ M F.6.Z q e.n.n.n.M.c.c.x.x.x.c.w.x.c.x.c.x.x.c.x.c.x.c.v.c.x.c.v.c.v.x.x.v.x.w.c.c.x.c.w.c.w.c.x.x.x.c.x.c.x.c.w.x.c.v.x.x.c.v.c.x.x.c.v.x.c.c.w.c.w.x.c.x.c.c.w.x.c.c.c.c.w.x.x.w.m.P.2X< : G.,.=.+ 6 Q 4.9.8.9.9.q.q._ c.N.y b.#X_ 7.4.R C E Z E E ~ Z Z E E E E E E ~ Z E E E Z ~ E E E E Z E E E Z E E E ~ Z E Z E E E Z E E Z ~ E E E E E E E E E E E E Z E E E E ~ E E E E Q Q V 4 M %.J.j 4 ~ ) _ _ ) _ ) ) _ ) $.",
"Z E E ~ E E N t e N ) e 7 C E E E E E E E E Z E E E E E E E E E E Z ~ E E E Z E E E E E E E E E E E Z E E E E E E Z E E E E E E E E Z E E E E E Z E E Z E Z E E E Z Z ~ Z D N N Z Z ~ Z E ) ~ E E C Z ~ / C r 8 =.,.F.9 8 v.9._ > 7 7 h.x.f.w.x.x.n.n.n.x.n.x.n.n.c.x.n.n.x.n.n.n.x.n.c.n.n.c.n.c.n.c.x.x.x.x.c.x.x.x.x.x.x.x.x.c.c.x.x.n.n.x.n.n.c.n.c.c.n.c.n.x.n.x.n.n.c.x.n.x.n.c.n.n.x.n.x.c.n.x.n.n.c.m.b.D y ! J.W * _ v.x.x.f.x.x.f.f.x.x.f.x.x.x.x.x.x.x.x.x.x.x.f.x.x.x.f.x.w.x.x.f.x.x.f.x.x.x.f.x.x.x.x.x.x.x.x.x.f.x.x.x.x.x.x.x.f.x.x.x.x.f.x.x.x.x.x.x.x.x.x.x.x.x.x.9.x.x.x.f.x.x.x.x.x.n.5.o B F.<.Z < s.m.x.n.x.c.x.n.x.c.v.c.x.x.v.c.v.x.x.v.c.w.x.x.x.x.x.x.c.x.x.x.x.x.x.v.x.v.c.x.x.x.x.v.c.v.c.c.c.x.c.x.c.x.c.x.x.x.c.x.c.c.w.c.x.c.x.c.x.x.c.c.c.c.c.c.c.c.c.w.w.c.|.N.x.U.n.f.* : F.j.=.o 5 #._ 0.c.q.8._ ~ W e.Z._ e.w.W R E C R E E Z E E Z E E Z E Z E E Z Z E E Z E E E E E E E E E E E E E E E E E Z E E E E E E E Z E E E E E E E E E E E E Z E Z E E E E E ~ E E ) C 8 p &.J.z , ) ) $.) _ ) $._ _ ) $.",
"E E E E E E N h z C ) z 8 R R E R E E E E Z Z Z E E E Z E Z Z E E E Z E Z E E E E Z E Z ~ Z Z E E E E E Z ~ E Z E E E E E E Z E E Z ~ E E Z Z E ~ Z E E E E E Z E E E Z Z l D N Z Z Z ~ E C Q ~ Z Z C ~ C w h h ;.,.F.9 8 | b.9.- 4 k P.n.x.x.x.n.n.n.x.n.x.x.n.n.x.n.x.x.n.x.x.c.n.n.x.c.n.m.n.n.c.9.x.c.x.x.n.c.c.c.n.x.x.x.9.x.x.n.M.c.x.n.c.x.n.x.n.x.x.n.x.n.c.n.c.x.n.c.n.n.c.n.x.c.n.c.n.x.n.x.c.x.n.m.b.l t ] J.A * 4.v.x.f.x.x.x.x.x.x.x.x.x.x.f.x.x.x.f.x.x.x.x.x.x.x.x.x.x.x.x.x.x.x.x.x.x.x.x.x.x.x.x.x.x.f.x.x.x.x.x.x.x.f.x.x.x.x.x.x.f.x.x.x.x.x.x.x.x.f.x.x.x.f.x.x.x.x.x.x.x.x.x.x.x.w.m.9.o z K.=.Z q a.m.x.M.n.c.c.x.x.c.x.x.x.c.x.x.c.x.x.x.c.c.x.c.v.c.w.c.x.x.v.c.x.c.x.c.x.c.c.c.x.c.x.c.c.w.x.x.v.c.w.x.v.x.x.x.v.c.x.x.v.x.x.c.v.c.x.x.c.v.w.c.c.x.x.c.c.c.c.w.5.} .X+Xx.m.b.9.% > F.d.=.o 0 #.~ 7.N.5._ R C M _ i.q.v.5.E R C E E E E E E E ~ E E E E E E E E E E E E E E Z E Z E E Z Z E E Z E Z E E E E E E E Z Z E E E E E Z ~ Z E E Z Z E E Z E E E E ~ E E E E E R ) V 7 M ;.J.h , ) ) ) _ ) _ _ _ ) _ _ ",
"E E E E E E N h t S Q z 7 R E E Z Q Z E E E Z ~ E E Z ~ E Z E E Z E E Z E E E E E Z E E Z E Z E Z E E Z E Z Z E E Z Z E E Z ~ Z E Z E E E E E E E E E E E E E E E E Z Z Q Q Q R Z ~ ~ E Z C C E E ~ _ 0.4.) ^ G #.,.F.r 4 8 D N E q.f.P.n.x.c.c.m.n.x.n.x.n.n.x.n.c.n.x.n.c.x.n.n.x.n.n.n.n.n.n.P.7.N 4.v.x.x.x.x.m.+Xn.x.n.x.x.x.x.c.x.x.x.x.n.n.c.n.x.n.n.x.n.c.x.x.n.x.n.x.n.x.n.x.c.x.n.n.c.n.c.n.c.c.x.m.c.l w ] !./ = 9.c.x.x.w.f.f.x.f.f.f.x.f.x.x.x.x.f.x.x.x.f.x.x.x.x.x.x.x.x.x.x.x.x.x.x.x.x.x.x.x.x.f.x.x.x.x.f.x.x.f.x.x.x.x.f.x.x.x.x.x.x.x.x.f.x.x.x.x.x.f.x.x.x.x.f.x.x.f.x.x.x.w.x.v.x.c.5.X z K.d.Z < e.m.m.c.n.M.x.n.x.x.x.x.v.c.x.c.x.x.c.c.v.x.v.x.x.c.c.c.v.c.x.x.c.v.w.c.x.c.x.r.x.c.x.c.x.x.v.c.x.c.c.x.c.w.c.v.w.c.x.c.c.x.x.v.x.x.v.c.x.x.x.c.w.c.c.x.c.w.c.c.D 8 k q.+X4.8.U.: : F.1.*.o 7 #.R ) &.~ Z C R E Z t.#XoX X) E Z ~ Q Z R E E E Z Z E E Z E E E E E E E E Z E Z E E E E E E E E E E Z E Z Z E Z E E E E E Z E Z E E Z E Z E Z E E E Z ~ E E E Z E E E E Q R ~ N 7 p &.!.j 4 ) ) _ $.$.) ) _ ) ) $.",
"E E ~ E Z Q N h e C ) e 8 C R Z Z E E ~ E E E Z Z ~ E E E E E E E E E E E E Z E E E E E E E E E E E E E E E E E E E E E E E Z E E E Z E E Z E E E E Z E E Z E E E Z E Z Z Z E E Z Z E E E E E E ~ _ 4.5.$.&.O.N ;.<.F.r 4 8 h e $.i.q.x.x.c.c.c.h.M.n.x.k.x.n.n.x.n.c.n.x.n.n.x.x.n.c.x.c.n.n.c.P.7.l 4.w.n.n.x.x.7.^ x.n.n.x.M.x.M.c.c.n.x.n.c.x.n.c.n.x.c.n.c.x.n.n.c.n.x.n.c.n.c.n.n.n.x.x.n.x.n.x.n.n.x.|.b.l w ] !.W * 4.v.x.x.x.x.x.x.x.x.x.x.x.x.x.x.x.x.x.x.x.x.x.x.f.x.x.x.f.x.x.f.x.x.x.x.f.x.w.x.x.x.x.x.x.x.x.x.x.x.x.x.x.x.x.x.x.x.9.x.x.x.x.x.x.x.w.x.x.x.x.x.x.x.x.x.x.x.x.x.x.x.x.x.x.x.c.9.o z F.-.Z < 7.m.c.c.c.x.c.c.v.c.x.c.x.x.c.w.v.x.c.x.c.x.c.x.x.x.x.v.c.w.c.x.c.x.c.x.x.v.x.x.x.v.x.x.c.x.x.x.x.x.v.x.c.x.c.x.c.x.x.v.x.x.x.c.x.c.x.x.x.c.c.v.c.c.c.c.c.c.c.N.X.h : ~ M.7.G l ; 4 F.d.=.+ 8 #.E E ~ Z C Q ~ C ) a.b.a.e.~ Q C ~ E C E Z E E E E E E E Z E E Z E E E Z E E ~ Z E E Z E E Z E E Z ~ E E ~ E E E E E Z E E E E E E E E E E E E E E E Z E E E ~ E E E ~ Z Q Q V 0 M %.J.h 4 ) ) ) ) _ ) _ _ _ ) $.",
"E E ~ Z E E N h t C ) y 8 R E E E E ~ E E E Z ~ E E E E Z E E Z E Z E E Z E E E E E Z ~ Z E E Z E E Z E E Z ~ Z E E Z E E Z E E E E E E E E E E E E E E E E E E E E Z E Z N N N E G E E E E Q ~ ) 6.9.4._ ~ ( k ;.,.F.r 2 8 : 7 4.q._ } b.#X@Xf.M 8.m.x.n.x.n.n.n.x.n.n.n.c.x.n.x.n.x.n.n.x.n.x.m.7.k 4.v.m.x.x.m./ 7 x.m.m.x.c.x.c.x.M.x.n.x.c.x.c.x.n.x.n.c.n.n.x.n.c.n.c.n.c.n.x.n.c.n.x.n.x.n.x.n.c.x.x.+Xv.v w ] J.W * 4.x.x.f.x.x.f.x.x.x.f.x.x.x.x.x.x.f.f.x.x.x.x.x.x.x.x.x.x.x.x.x.x.x.x.x.x.x.f.x.x.x.x.x.x.x.x.x.x.x.x.x.x.x.x.f.x.x.x.f.x.x.x.x.x.x.x.f.x.x.x.9.x.x.x.x.x.x.x.x.x.w.x.x.x.w.x.9.o z K.0.G < e.m.x.c.c.c.c.c.c.x.x.x.x.x.c.c.v.x.r.c.x.c.x.x.c.x.x.v.x.x.x.x.c.x.v.x.x.x.c.v.x.c.x.c.c.v.x.c.v.c.x.c.x.v.w.c.c.x.c.x.c.c.v.x.x.v.w.c.x.c.x.x.M.c.c.c.c.|.c.|.| k % N q.4.k > ; , F.d.*.+ 9 #.~ ' ~ C A ) ~ Z ~ t.9.C C ~ R E E E E E E E Z E E E E Z E E Z E E Z E E E E E E E E Z E E Z E E E E E E Z E E Z E E Z E E E E E E E E E E E Z E E E Z E E ~ ~ E E E E ~ E Q C 4 M ;.J.z 4 ) ) ) ) _ _ _ ) _ _ $.",
"Z ~ E E E E N h e C ) j 8 C R E R E Z E E E Z Z E E E E E E E E E E E E E E E Z Z E E Z E E E E E E E E E E E E E E E E E E E Z E Z Z E E Z Z E E Z Z E Z E E Z E E E Z Z E ~ Z Z E E E Z ~ Z E _ 0.h.q.4.$.N e #.,.j.r : 4 7 7 7 7 w ;X;X;XF 4 h 5.n.7.q.n.m.m.c.x.x.x.x.x.n.x.n.x.n.n.x.n.c.n.n.x.x.x.c.m.x.w.n.l 4 D 5.M.x.x.c.x.x.x.c.c.n.n.n.n.n.c.n.c.n.x.n.c.x.n.x.c.x.n.x.n.x.n.c.n.c.n.c.n.x.n.n.x.|.v.v w ] J.W * } v.x.x.f.f.x.x.f.x.x.x.x.x.x.x.x.x.x.x.n.x.x.x.x.x.w.x.x.f.x.x.x.x.f.x.x.x.x.x.x.x.x.x.x.x.x.x.x.x.x.x.x.x.x.x.x.x.x.x.x.x.f.x.x.x.x.x.x.x.x.x.x.x.x.x.f.x.x.x.x.x.x.x.x.x.x.9.+ z F.-.N < a.n.x.x.x.x.c.x.v.x.x.v.x.c.w.c.x.c.x.x.x.v.x.c.x.v.x.c.x.c.w.c.x.x.c.x.x.x.x.x.v.x.x.w.x.c.x.x.x.c.x.x.x.c.c.x.v.x.x.x.w.c.x.c.x.c.c.x.x.v.x.x.|.c.^ Z z ^ ' ` y.G C b.9.; , 5 * , j.<.#.+ 0 E ) 6.~ E Z ~ ~ E C ' t.Z Z E E Z E R E Z E E E E Z E E E E E E E E E E E Z E Z E E E ~ Z E E E E E Z Z E E E E E E E E E E E Z E E Z E Z Z E E E E E E E E Z E E E E E E Q Q A 5 t &.J.z 4 $.) ) ) ) ) ) ) ) ) ) ",
"E ~ E E E E Z e t N ) h 7 R E E Z ~ E E E E E Z ~ E E Z E E E E Z E E E E Z E E E E E E E E E E Z E E E E E E E E Z E Z E E E E E Z E E E E E E Z E ~ Z E E E E E Z E Z E E Z ~ Z Z E E E E E E E ~ ) _ 4.h.I e %.2.j.r 2 7 7 7 7 7 7 a.7.4.5 5 ( A.x.k Z 4.M.m.n.c.x.x.x.x.n.n.x.n.n.x.n.x.n.x.n.c.c.x.x.c.x.x.f.k 4 z ' n.x.x.x.c.x.c.x.n.n.c.x.n.x.n.x.n.c.n.n.x.n.c.x.n.c.n.n.c.n.c.c.x.n.x.n.c.n.c.n.x.+Xv.l w ] !.W * } x.c.w.x.x.x.f.x.f.f.x.x.x.x.n.x.x.x.x.n.x.x.x.x.x.x.x.x.x.f.x.x.f.x.x.w.x.x.x.f.x.x.x.x.M.M.n.x.x.x.x.x.f.x.x.x.x.x.x.x.x.x.x.x.9.x.x.x.x.x.x.x.x.x.x.x.x.x.x.x.x.x.x.f.x.n.x.# z K.-.N 1 a.c.x.v.n.v.x.x.c.x.x.x.x.v.x.c.x.v.x.x.x.x.x.v.c.c.x.x.x.x.c.c.c.x.c.x.x.x.c.x.x.c.v.x.x.c.x.c.x.x.w.c.x.x.v.x.x.x.c.v.x.x.x.v.x.x.v.x.x.c.x.r.c.r.M t y M k w ~ ~ ^ D.b.V 8 5 ; : j.d.#.@ 9 $.6.a.i./ C Z Z E C ~ &.Z Z E Z E E Z E E Z E E Z E E E E Z E E Z Z E E E E E E E E Z Z E E Z Z E E E E E Z E E E Z E E Z E Z ~ Z E Z E E E E E E Z E E E E E E E E E E E E ~ N 5 t %.K.h 5 $._ ) ) ) ) ) ) ) ) $.",
"E E E E E R N h t C Q z w C C E C E E ~ E E Z Z E Z E E E E Z E E E E Z Z ~ E E E E E E Z E E E E E Z E Z E E Z E E E E E Z E E E E E E E E Z E E E E E Z ~ Z E E E ~ Z Z E E Z E E E Z E E E Z Z N C ~ 4.x.J t *.,.j.r : 2 : 2 7 3 7 k ..D 4 V v.x.f.* 9 ' f.n.m.m.P.+XP.m.m.n.n.x.x.n.x.x.x.x.c.x.x.x.w.w.c.c._ 8 0 7 ( x.f.v.v.c.x.x.c.x.c.M.n.c.n.x.n.x.n.x.c.n.x.n.n.n.x.x.x.n.x.n.n.n.x.c.x.n.x.n.c.x.|.b.c w ] !.W = 4.v.x.x.f.x.x.x.n.f.x.x.x.x.x.x.x.x.x.x.x.x.x.x.f.x.x.x.x.x.x.x.x.x.x.x.x.x.x.x.x.x.x.x.x.x.x.x.x.x.w.x.x.x.x.x.f.x.x.x.f.x.x.x.x.x.x.x.f.x.x.x.f.x.f.x.x.x.x.x.x.f.x.x.x.x.n.w.+ k K.=.N 1 a.n.x.c.c.c.x.x.x.v.c.x.x.c.x.v.x.c.x.c.r.x.x.c.w.c.x.c.v.c.x.v.v.x.x.x.c.c.v.x.x.x.c.c.w.x.x.v.v.c.c.x.x.c.c.x.c.x.c.x.x.c.x.c.x.c.c.x.v.x.x.c.c._ i k Z y y 7 ' 5.q.c.m.3Xq.5 ; 4 F.d.#.+ z 2XA.Z.~ E E Z E E Z ~ ~ Z Z E E E E E E E E E E E E Z E E ~ E E E ~ Z E E E Z E E E E E E E E E E E E Z E E E Z E E E E E E E Z E E E E E E E Z E E E Z E E E ~ Z E ~ E E Z Q N 4 k %.!.z 4 $.~ ) ~ ) _ ) _ ) ) $.",
"Z ~ E E ~ E N h t N ) j 8 R W E E E E E E E Z Z E E Z E Z E E Z E Z E E Z E E Z Z E E Z Z E E Z ~ Z E E E E Z E E E Z E E E Z E E E E E E E E E E E Z E E E E E E E E E Z E E E E E Z E E E E E E Z C ~ ~ _ 8 4 *.,.j.j 4 z _ ~ 2 7 7 z ..B z A ~ q.m.G i.c.x.x.+X4.G h D 7.f.M.n.n.n.x.n.x.c.c.c.x.x.x.x.x.c.c.x.k 7 N 6.c.x.x.x.x.x.c.c.x.m.c.n.n.c.x.n.n.n.c.n.x.x.n.c.n.c.n.n.c.c.n.x.n.n.n.n.c.n.c.x.x.P.b.v 7 ] J.W * 4.w.x.w.x.x.f.x.x.x.f.x.n.x.x.x.x.x.x.x.x.x.x.x.x.x.x.x.x.x.x.x.x.x.x.x.f.x.f.x.x.x.x.x.x.x.x.x.x.f.x.x.x.x.x.9.x.x.x.x.x.x.x.x.f.x.x.x.x.x.x.x.x.x.x.x.x.x.x.x.x.x.x.x.x.b.M.5.o t K.;.a < s.c.w.x.v.x.x.x.x.v.x.x.v.x.x.x.x.x.c.w.c.x.x.x.x.c.x.v.c.x.c.x.c.c.v.c.x.x.c.x.x.c.x.x.c.c.x.c.w.c.x.x.c.x.x.x.w.v.x.x.c.v.c.x.v.c.x.x.c.c.w.w..X5.t t t M / G v.N.r.x.x.m.h.) ; > K.d.$.o z 6XA.| Z G Z ~ E Z Z E Z Z Z ~ E E E E Z E E E Z E E E E Z Z E E Z E E E Z E Z E E E E E E E E E E E E Z E Z E E Z E Z E E E E Z E E E E E Z E E E E Z ~ E E Z E E E ~ Z E Z ~ N 4 t %.K.z 4 $.) ) ) ) ) ) _ ) ) ' ",
"E E E E Z E N t t C ) y 7 C R E E E E E E E Z ~ E E E E E E Z ~ E E E E ~ E E E E E E E E E E E Z E E Z E E E E E Z E E Z E E E E Z E Z ~ Z Z E Z E E E Z E Z E E Z Z E E E E E E Z E Z E E Z ~ E E Z Z A ) d 4 #.,.1.r 7 [ XXq.7 7 e e e 7 k X.6.f.m.5.w.n.f.x.+X .h - 4 k _ f.n.n.M.n.x.n.x.x.x.c.x.c.c.c.x.n.=X' U 6.q.c.x.x.M.c.n.c.c.n.c.n.n.c.n.c.x.c.n.x.c.n.c.n.n.x.n.x.n.x.n.x.n.x.x.c.x.n.x.n.n.c.m.c.v w ] J.W * } x.x.x.f.x.x.x.f.x.x.x.x.x.x.x.x.n.x.x.x.x.x.x.x.x.f.x.x.x.x.x.w.x.x.x.x.x.x.x.w.x.x.x.x.x.x.x.x.x.f.x.x.x.x.x.x.x.x.x.w.x.x.x.x.x.f.x.x.x.f.x.x.x.w.x.x.f.x.f.x.x.x.x.x.m.x.4.@ a K.*.M 1 a.m.x.c.c.c.x.c.x.c.x.c.c.c.c.x.c.v.c.c.c.c.x.x.x.v.x.c.x.x.r.x.v.c.x.x.c.v.x.x.x.v.v.c.v.x.x.x.v.c.c.x.c.c.r.x.c.c.x.c.c.w.x.x.c.c.w.c.x.x.c.w.m.w.~ M y M p.q.c.c.x.x.f.b.q.5.; > F.,.*.@ k T.i._ C Z E Z E E E Z Z E E E Z E E Z ~ E Z E E E Z E E E E E E E E E E E E E Z E E Z E Z E Z Z E E Z E E E E E E E E E E E E E E E E Z E E E ~ Z E E Z E E ~ E E E E E E Z Q B 4 t @.!.k 5 $.) ~ ) ) _ ) ) ) ) #.",
"E E E ~ Z E N h t M ) h 8 R E E R E E E E E E E E E E E E E E E Z E E Z Z E E E E E E E E E E E E E E E E E E Z Z ~ E E E E E E E Z E E Z E Z E E E Z E E E Z E E Z E E E E E Z E E Z Q ~ Q Z Z Z Z C ~ Q ~ z 7 ;.,.j.8 7 ~ G k 7 7 7 7 w e 7 [ $Xn.x.f.x.w.x.x.+Xv.^ 4 0 : 2 P 5XU.n.x.x.x.x.c.x.c.x.n.m.n.x.c.m.+XU.N.m.M.m.M.x.x.c.x.c.n.c.c.n.n.n.c.n.c.n.c.n.c.n.n.c.n.x.n.x.c.x.n.c.n.c.n.n.c.n.x.x.x.+Xv.v w ] !.W * } v.x.x.x.x.f.x.x.x.x.x.x.x.n.x.x.x.x.x.x.x.x.x.x.x.x.x.x.f.x.f.x.x.x.x.x.x.f.x.x.x.x.x.n.M.n.n.x.x.x.x.x.f.x.x.x.x.f.x.x.x.x.x.x.x.x.x.x.f.x.x.x.f.x.x.x.x.x.x.x.x.f.x.9.x.n.v.o p K.&.M 1 y.m.w.c.x.x.x.v.x.c.x.x.c.w.c.x.x.x.x.x.c.x.x.v.x.x.v.x.c.c.x.x.x.x.v.c.x.c.w.v.x.x.x.c.c.c.x.c.x.x.x.x.c.v.x.x.x.c.x.v.c.x.c.v.x.x.x.x.x.x.c.w.c.c.+X.Xm.w.| i _ v.c.x.c.c.m.$Xj 8 k.8.#.@ 9 =.Z C Z Z Z ~ E E E E ~ Z Z E Z E E Z E E E E E E ~ E E E E E E E Z E E E E ~ Z E E Z E E E E Z E E Z ~ E E E E E E E E Z Z E E Z Z E Z E E E Z E Z E E E E E E E E Z E E E ~ l 4 e %.K.t 4 &.) ) ) ) ) _ ) ) ) _ ",
"~ E E E E Q N e t C ) z 7 C E E Z E Z ~ E ~ Z E E Z Z E E Z E E E E E E E E E Z E E E Z Z E E Z E E E E Z E E E E E E Z E E Z E E E E E E E E E E E E E E E E E E E E E E Z E E Z G Z E Z E Z Z Z Z Z Z Z E h 8 %.,.1.j 4 t N Z y w w 7 7 V { ~ n.x.x.f.x.x.f.x.n.m.9.2 4 7 9 { 4.h.m.x.x.x.x.x.x.x.c.n.N.n.x.c.n.n.n.m.m.m.b.c.c.n.n.c.x.c.x.n.n.c.c.c.n.n.c.n.x.n.x.x.n.x.n.c.n.n.n.c.n.x.n.x.n.x.x.n.c.c.|.b.l w ] J.W * x.n.x.x.x.x.x.x.f.x.f.x.x.x.x.x.x.x.x.x.x.x.x.x.f.x.x.x.x.x.x.x.x.x.x.f.x.x.x.x.x.x.x.c.n.b.m.n.x.x.x.x.x.x.x.x.f.x.x.x.x.x.x.f.x.x.w.x.x.x.x.x.x.x.x.x.x.x.x.f.x.x.x.x.x.x.c.m.= p K.=.M 1 a.m.x.v.c.x.c.c.w.x.v.c.x.x.x.v.c.x.x.c.v.x.x.c.c.x.c.x.x.v.x.x.x.x.x.x.x.x.c.c.c.x.c.w.x.x.x.v.c.x.c.v.x.x.c.v.x.x.x.c.x.x.x.x.x.c.v.c.x.c.x.c.x.c.c.c.c.c.9.} ^ } m.c.m.v.m.&Xc 4 j.-.#.O 9 #.Z Z ~ E Z Z Z E E E ~ E Z E E E E E Z E E E Z E Z E E Z Z E E Z E E E Z E Z E E E E E E E E E E E E Z E Z E E E Z E Z ~ E E E E E E E E E Z E E E E E Z E E ~ E E ~ E E Z E N 6 t ` !.z 5 #.) ) ) ) ) ) ) ) ) &.",
"E E E E E E N e t Z ) y 7 R R E R G E E E E E E E E E E E E E Z E E Z ~ Z E E Z E E E E Z E E Z E E Z E E E E E E E E E E E Z E E Z E E E Z E E E Z E E E E E E Z E E Z E Z E Z Z Z Z Z Z Z Z Z G Z Z Z Z G z e @.,.1.j 4 y ' ' M V t 7 7 y 5.c.v.x.x.x.x.c.x.x.x.P.|.2 2 e e l e q.P.v.v.x.x.x.x.x.x.x.n.x.n.x.x.n.n.n.n.n.n.m.m.n.n.n.c.c.x.c.n.x.r.m.m.n.n.n.n.n.c.M.n.n.n.n.c.n.n.n.n.c.n.x.x.c.x.n.n.x.P.v.v e ] !.W = P.$Xx.x.x.c.x.v.x.x.v.x.x.x.x.x.x.n.x.x.x.x.x.x.x.x.x.x.f.x.x.x.x.x.f.x.x.x.x.x.x.x.x.n.x.n.x.n.x.x.x.x.x.x.x.x.x.x.x.x.x.x.x.x.x.x.x.x.x.f.x.x.x.f.x.x.x.w.x.x.f.x.x.x.f.x.n.v.= l J.$.M 1 i.m.w.c.x.x.r.c.c.c.x.c.x.c.v.x.x.x.x.v.x.x.x.c.c.x.c.x.v.c.x.c.c.v.c.x.x.x.c.w.x.c.x.x.x.c.c.v.x.x.x.x.x.c.x.v.c.c.x.x.x.c.v.x.x.x.x.x.c.v.c.c.c.c.x.x.x.x..X|.| ' c.c.c.b.n.%Xf < j.0.Q O 8 #.G Z Z Z E Z Z E E Z E E E E Z E E Z E E E Z E E E Z E E Z E E Z Z E Z ~ E Z E E Z E E E E Z E E E E E E E E Z E E E E Z ~ Z E E Z E E Z ~ Z E E Z E E Z E E E E E E E Z E E N , t ` !.z 4 _ ~ #.) ) ) ) ) ) ) _ ",
"E E E ~ E E N h t M ) j 8 R E E E E E E ~ E Z E E Z Z E Z E E E E E E Z E E E E E E E E E E E E E E ~ Z Z E Z E E Z E E E E E E E E E E E E E Z E ~ Z E E E Z E E E E ~ E E E E ~ C Z N N Z G Z E E E G Z E l e %.<.1.h 2 e ~ 7.@X6.z e 7 4 4 8 c K } x.n.n.n.x.c.c.n.8 7 7 k | &X@XM.c.x.x.x.x.x.x.x.n.n.c.c.n.c.n.n.c.n.c.n.c.c.n.c.n.x.v.c.c.n..X=X+Xm.n.c.n.c.x.n.c.c.n.c.x.n.x.c.x.x.n.x.n.n.n.n.c.x.n.+Xb.l w S K.W & ^ q.x.x.n.m.M.c.v.x.f.x.x.x.x.x.x.x.x.x.n.x.x.x.x.f.x.x.x.x.x.x.x.f.x.x.x.x.x.f.x.x.x.x.x.n.x.x.x.x.x.x.x.f.x.x.f.x.w.x.x.x.x.f.x.x.x.x.x.x.x.x.x.x.x.x.x.x.x.x.x.x.x.x.x.w.n.b.1 v J.-.p 1 i.m.x.c.c.x.c.x.x.x.v.x.x.x.c.x.c.v.c.x.v.c.x.v.v.x.x.v.x.c.w.x.x.x.x.x.c.v.c.c.x.v.x.x.v.x.x.c.c.x.c.v.x.v.x.c.x.x.c.v.x.x.x.c.w.c.c.v.x.x.w.c.c.c.c.x.x.c.x.x.x.c.v.c.c.m.M.P.f 5 j.=.Q % 9 $.E Z E Z Z E E Z E E E E E E E E E E E Z E E E Z E E E Z E E E E E E E Z E E E Z E E E Z E E E Z E Z E E E E E E Z E E E E E E E E E E E Z E E E E E E E E ~ E E E E ~ E Z Q l 4 t ` F.t 5 ~ ) #.) ) ) #.) ) ) #.",
"E Z E E E E N e t C ) t 8 C W Z C E E E E E Z E E E E E E E E E E E E E E E E E Z E E Z E E E E E Z Z E E E Z E E Z Z E Z E E Z E E E Z E E E E E Z E E Z E Z E E E E Z E E E E E E Z N N N Z Z E E Z Z Z E z e @.,.j.d , 7 M ) 9.N 7 e 8 8 4 0 4 N  .m.m.m.n.n.n.v.Z.I e 4 ( V.P.m.m.m.x.x.c.n.x.x.n.x.n.x.n.x.c.n.c.n.m.n.n.n.c.n.c.n.c.c.c.x.n.|..X5.r.m.n.c.n.c.m.m.N.n.x.x.x.n.x.n.n.c.n.c.c.n.x.n.c.x.|.b.v w S !.W * h N 4.c.n.x.M.c.c.x.x.x.x.x.x.x.x.x.x.x.x.x.x.x.x.x.x.x.x.x.f.x.x.x.x.x.f.x.x.x.x.x.x.x.x.x.x.x.x.f.f.x.x.x.x.x.x.x.x.x.x.x.x.x.x.x.x.f.x.w.x.f.x.x.x.x.x.x.x.x.x.x.x.x.x.x.c.b.= k K.-.p 1 a.m.w.c.v.x.c.x.v.v.x.x.c.x.x.x.x.x.v.x.c.x.w.c.x.x.x.c.c.x.x.x.x.x.v.c.x.x.x.x.x.c.x.x.x.c.c.w.v.x.x.x.x.x.c.x.c.w.x.x.x.c.w.x.c.x.x.x.x.x.c.c.c.w.x.c.c.c.c.x.c.c.c.c.c.v.c.@Xg < k.-.Q % e ) Z Z E Z G E Z R R E R Z E Z E Z E E E E E E E E E E E E E E E E E E E E E E E E E E E E E E E E E Z E Z E E E Z E E E E E E E Z E E E E E E E E E E E E E E E ~ E ~ E E Z ~ V 4 t ` F.h 4 ~ ) #.) ) ) ) ) ) ) ) ",
"E ~ E E Z Q N h k M ) j 7 R E E E E E E E E E E E Z E E E Z E E E E E Z E Z E E E E Z ~ Z E E Z E E E E E E E E E E E E E E E E E Z E E E Z E E E E Z E E E E E Z E E E E Z E E ~ E G Z N N Z Z E Z Z E Z E l e @.,.j.j : 4 b h 8 4 : 8 e h 8 8 : k 6.rX3X$X+X.Xw.Z z l 7 > 9.m.v.c.c.v.M.x.c.x.x.x.x.n.x.n.c.n.c.n.n.n.c.c.c.n.n.c.n.x.c.x.c.x.n.x.c.8 ) n.x.x.m.m.m. Xm.m.n.x.n.c.c.n.x.n.x.n.n.x.n.c.x.x.+XN.v 8 ] J.W * 4 r V v.m.v.x.x.x.v.x.x.x.x.x.x.M.x.x.x.x.x.x.x.x.x.x.f.x.x.x.x.x.x.x.x.x.x.x.x.x.x.x.x.x.x.x.x.n.x.x.x.x.x.f.x.x.x.x.x.x.f.x.x.x.f.x.x.x.x.x.x.x.x.x.f.x.x.x.f.x.x.x.x.f.x.m.c.# p K.*.p 1 a.m.v.c.c.x.x.x.x.c.x.x.x.v.c.x.x.x.x.x.x.x.c.x.x.c.x.x.x.x.c.v.x.c.x.x.c.x.x.c.v.x.v.x.x.x.x.x.x.c.x.x.x.x.v.x.c.x.c.x.v.c.c.c.c.v.c.x.c.x.x.c.x.c.c.v.r.c.c.c.c.c.c.c.m.c.x.+Xc < F.=.R % r $.E Z Z E E Z E E Z E Z E E E E E E Z E E E Z E E Z E E Z Z E E E Z E E E Z E E E Z E Z ~ E Z E E Z ~ E E Z E E E E Z E E Z E E E Z E E Z E Z E E Z E E Z E E E Z E E E E E E N , t ` F.z 5 ~ ~ ) #.#.) ) ) ) ) ' ",
"E E ~ Z E E N h t C ) h 7 C R E E E E Z ~ E E R E Z E E E E E E Z E E E E E E Z E E E E E E E E E E E E Z E E E E E E E Z E E E E E E E ~ Z Z E E E E Z E E E E E E E E E E E E Z G Z Z Z Z Z Z Z Z Z Z Z E l e @.,.j.9 d e.s.G 4 4 4 4 5 8 8 8 i 8 V A.' V } b.|.9.4.4.) G 9.x.n.n.n.n.x.n.x.x.c.x.x.x.n.x.n.c.c.x.n.n.n.n.n.x.n.c.n.n.c.x.c.c.m.c.r.e _ n.x.x.m.N.m.U.N.m.n.x.n.c.x.n.n.x.n.x.x.x.n.x.n.x.P.c.F w S K.W * l t.5.x.n.x.x.9.x.c.b.n.x.x.x.x.x.x.n.x.x.x.x.x.x.x.x.x.x.x.x.x.x.x.x.x.x.x.x.x.x.x.x.9.) G q.n.x.x.x.x.x.x.x.x.x.x.x.x.x.x.w.x.x.x.x.w.x.x.x.x.x.x.x.x.x.x.x.x.x.x.x.x.x.x.n.v.+ t F.&.a 1 i.m.x.c.x.x.v.x.c.x.x.x.x.x.c.x.x.x.x.x.c.c.v.x.x.v.c.c.c.c.x.x.x.v.x.x.v.c.x.x.x.c.x.x.x.c.c.v.c.v.x.x.x.c.c.x.v.x.w.c.x.x.x.x.x.v.x.v.w.c.x.x.c.x.x.c.x.c.x.x.v.v.q.x.c.c.v.n.= * F.*.C = r $.Z Z Z G Z ~ E E E E E E E E E E E E E E E E E E E E Z ~ E E E Z E E E E E E E Z E E E E E E E E E E E E E E E E E E E E E E E E E E E Z E E Z E E E E E E ~ E E E ~ E E C ~ B 4 e ` d.h 8 #.) ) ) #.) ) _ ) ~ _ ",
"Z E E R Z E N h t M #.h e R E E C C E E Z E Z C Z E Z R Z Z Z Z E Z Z E Z Z Z Z Z E Z Z Z E Z Z C Q Z E E E Z R E Z Z C Z E E Z Z E Z Z E Z E Z Z E Z E Z E Z E Z E Z Z Z R Z Z C Z Z Z Z Z N M Z Z Z Z Z E l e %.,.F.8 c XXA.H 4 5 5 8 4 , 7 e r e x ( e - k  .c.w. Xc.e.q.c.M.m.m.n.x.x.x.v.c.x.c.x.x.x.c.n.x.M.x.c.x.c.x.x.x.c.c.c.c.c.x.w.c.c.b.5.7 G r.w.v.v.m.n.b.m.M.x.x.x.x.x.x.x.x.x.x.x.x.x.x.x.x.N.b.l w S K.C ; h N } v.m.v.x.x.v.v.v.x.x.x.x.x.x.x.x.f.x.v.x.f.f.x.x.f.x.v.x.9.x.f.x.v.9.x.9.x.9.x.x.q.' [ q.x.x.x.x.9.x.v.x.9.x.v.9.x.f.x.x.9.f.x.x.x.x.x.f.x.9.x.x.9.x.x.x.f.x.f.x.9.x.f.c.f.@ t K.;.a 1 a.n.w.e.v.x.x.v.w.x.v.v.r.w.v.w.c.w.x.x.w.x.c.w.x.v.x.w.w.v.c.w.x.x.x.w.w.x.c.w.x.x.v.x.w.x.x.w.x.c.v.x.v.w.x.v.x.x.x.v.x.v.v.x.x.x.x.c.x.v.v.c.c.w.x.x.w.v.w.v.e.} Z 9.m.v.v.U.= = K.;.C * j _ Z Z Z C Z Z C C Z C C E C R Z E Z Z Z C Z Z Z Z Z C E Z Z E Z E E C Z Z Z E E Z Z C Z Z Z Z Z Z Z Z Z Z Z Z Z R Z Z Z R Z Z Z Z Z E E Z E Z C E Z E C E C Z E Z Z Z E E Z Q l , t / d.z 8 #.) ~ ~ ) ~ ) ) ) ) ' ",
") ~ ) ~ ~ Q Z k e N ) r 7 #.) Q ) @.Q Q Q Q Q Q Q R Q E E Z E R Z C E C E E Q Q Q Q Q Z R E Q ~ ~ ~ ~ ~ ~ ~ ~ ~ ~ ~ Q Q ~ ~ Q Q E E E W C R Z R W C R Z C E W C W C R E W C R E E C E E Z M d 8 M Z C ~ ) #.l e @.1.K.9 h N.;X5.4 8 e h e , e k t V.U.8 8 e 4 5 c N 7.U.+X&Xq.q.q.v.m.U.P.E.m.m.m.M.M.f.h.k.L.L.T.Y.P.L.m.M.c.M.x.n.v.M.n.M.c.0./ 7.5.V 4 ; Z q.@X$X&Xf.v.x.b.m.P.P.P.U.P.U.P.P.T.T.T.U.m.c.' J k y ] F.Z - : , 7 0.I.f.z.k.I.I.I.M.I.I.z.M.I.n.M.n.I.m.m.m.M.m.M.k.M.k.H.m.M.n.L.m.L.I.I.m.L.U.I.L.U.P.P.m.U.P.m.L.n.k.k.k.M.L.m.L.P.P.U.P.$X2X2X2X2X2XP.L.n.I.k.m.L.U.P.P.P.P.P.P.P.P.P.m.* M F.@.M = M./.7.^ K P.E.P.m.M.n.m.N. XP.+X@XU.$X&X&X$X$X%X%X$X%X$X$X$X$X&X&X$X&X$X$X$X&X&X$X&X$X&XE.T.L.L.E.T.E.E.T.E.T.E.(.T.&X$X$X2X%X3X=X%X$X$X$X$X$X$X$X$X$X$X$X@Xm.M.g.$.Z 0.H.4.M.lX; = K.@.C - M *.) ) @.) ) #.) Q Q ~ ) Q ~ ) ~ ~ ~ ~ ~ ~ ~ ~ ~ ~ ~ ~ Q ~ Q ~ ~ ~ ~ Q ~ ~ ~ ~ ) ) ) _ _ _ _ _ _ ) ^ _ ) _ _ ~ ~ ~ ~ Q ! ~ ) E ! ~ E Q ~ ! Q E W E ) E Q E ~ ~ ! Q ~ ~ ) ~ ~ #.N , e A 8.c 8 _ _ _ _ _ _ _ ^ _ _ _ ",
"e 8 e e e e 8 4 t N Q k 8 e y t e y y e e y e 8 e 8 8 8 e 8 8 8 e 8 8 e 8 e 8 8 8 8 8 e c 8 e 8 8 e e 8 8 e 8 8 e 8 8 e e e 8 7 7 7 7 7 8 7 7 7 7 7 8 7 7 7 7 7 7 7 7 8 8 8 8 8 8 e 8 8 8 8 , , 7 8 8 e 8 e < 4 ) 2.F.8 : < d , * - - : - ; : : : d 8 * ; ; * ; ; , 4 8 8 8 , : , 4 8 8 8 8 8 8 8 4 5 , 4 4 5 8 8 8 8 5 5 < 5 < , < < , < , , , : , , < ; = ; : 8 8 8 : 2 , 4 4 4 5 4 4 4 4 7 4 5 5 8 5 5 4 ; ; ; 7 ] K.M = = ; - 4 8 4 4 4 5 4 4 4 4 < , 5 4 , 4 5 5 5 6 5 5 4 5 4 5 4 5 4 5 5 5 5 5 5 5 4 8 5 5 5 5 5 5 d 5 5 4 4 4 2 2 4 4 4 5 5 5 5 d d d 5 d 5 d 8 5 5 5 5 5 5 5 8 5 8 8 8 8 5 8 8 8 8 + z K.;.t + 5 h < ; = 5 8 5 5 < < < 5 5 d 5 d d d d d d d d d h d d d d d d h d d d d d d d d d d d d d d 5 8 5 8 5 8 5 8 8 d d 8 d d d d d d 8 d 8 d 8 d 8 8 d 8 5 8 4 , , , , < 5 8 , 5 h # ; K.;.C % < 8 4 5 4 4 4 4 4 4 7 4 4 7 4 4 4 4 4 4 5 , , 4 4 4 4 , 4 , 4 4 4 4 4 4 4 5 4 4 4 4 5 4 , 4 , < 4 < , , < , , 4 4 2 2 4 , , , 2 , : 4 , , , 4 : 4 , , 2 , , 4 : , , 4 : : 2 2 4 > ; t W $.N 8 d d h d 8 8 8 8 8 8 e ",
"= ; = = = = ; , k C Z M 8 ; ; ; ; ; ; ; ; ; ; ; ; ; ; ; ; ; ; ; ; ; ; ; ; ; ; = = ; ; ; < < ; ; ; = ; ; = ; ; ; ; ; ; ; ; ; ; ; ; ; ; ; ; ; = ; ; = ; ; ; ; ; ; ; ; ; ; ; ; ; < ; ; ; ; < ; ; < ; ; ; ; ; > 1 ; ~ g.j.7 %     o O + O O O # O O O O O O = % # O O + + o o . o o o o o o o o o o o o o X   X X . X   X X X X X   X X X X X     . @ o . + + + o o   .   . . . . . . . . . . .     .   X   . . X o + - a J.M O O o o @ o     X     X .       . X       X X X   X     X       .     X     X                     X         . .   .                       . X X .   X X X               .         o e F.@.t o     X o o         X     X     X X X X X     .   .         X X X X   X X   X X X X X X     X X                                       . . . . .   . . .           X X o o o o o o o * K.;.M o # + o X X o X o o o o + + + + + + o + o + + + o o + + + + + + + + + + + + + + + + + o + o o o o + o o o o o o o o o o o + o o o o o o o o o o o o o o o o o o o o o o o + o o @ @ % C E _ N 5 * * = * = ; = = = ; = ",
"~ ~ ~ ~ ~ Q ~ Q Q ~ #.~ Q ~ ~ ) ) ) ~ ) ~ ~ ~ Q ~ ~ E Q Q Q Q R Q Q Q R ~ Q ~ R Q G C M l Z Z G E Q G E E E R R Q R E R E E ~ Q E ~ Q ~ ~ ~ ~ ~ ~ ~ ~ ~ ~ ~ ~ ~ ~ ~ ~ ~ ~ ~ ~ ~ ~ ~ ) ~ ~ H ~ ~ ~ _ ) ) ) ) H G =.j.F.#.Q R ~ ~ G G G Z Z Z Z E Z Z E R C E E E Q E ~ ~ ~ ~ ~ R E E Q E W ~ C ~ Z G G @.#.#.#.#.%.#.#.*.*.*.*.*.*.*.*.*.*.*.*.*.*.*.#.#.#.) #.$.*.#.#.#.#.#.#.@.*.*.@.#.#.Q #.#.%.%.*.*.*.*.*.*.*.*.2.K.2.@.@.@.! @.@.@.@.*.@.*.*.@.@.@.*.*.@.@.@.*.#.*.*.#.*.*.*.*.*.*.*.*.*.*.*.=.*.*.*.*.*.*.*.*.*.*.*.*.#.@.*.@.@.*.@.@.@.*.*.#.*.*.*.*.=.=.=.*.=.*.=.;.*.*.*.*.*.*.*.=.*.=.=.*.=.*.*.*.*.,.2.*.*.@.*.*.@.@.@.@.*.@.@.@.@.*.@.*.*.*.*.*.*.*.*.*.*.*.*.*.*.*.*.*.*.*.*.*.*.*.*.*.*.*.*.*.*.*.*.*.*.*.,.,.=.#.#.#.#.$.#.#.#.#.#.#.#.#.#.#.#.@.@.@.#.#.#.*.%.#.*.#.*.=.=.#.#.$.#.#.@.Q Q #.F.1.*.Q ) *.#.*.#.#.#.#.#.#.*.#.#.#.#.#.#.#.#.$.) #.#.$.#.#._ ) ) ) ~ ~ ^ ~ ~ H G ) ^ ) ~ ) _ ) _ _ ) _ ) ) ) ) _ _ _ #.$._ $.$._ _ _ _ ) _ _ _ _ _ _ _ _ _ _ _ _ _ _ _ _ _ _ _ ) _ $.) ) ~ #.$.$.#._ $.$.#.$.$.$.$.=.$.$.8.",
"E W E W E W ~ W C A ~ Z A G ~ ~ ~ ~ ~ ~ G A ~ G W ~ W W A W A W A ~ W W A W W A Z Q @.Q R Q ~ Q ~ Q ~ Q E R E E E R Q Q E ! W R W A W / G / ~ / W ~ W / / ~ / / ~ / W G ~ W ~ J W W / E ~ W ~ ~ / ~ / ~ E ~ G G ;.*.,.` E W W ~ G G Z G G A W A G W A W A W ~ W W W W Z W E W W W W R W Z W W Z A G / %.&.` %.;.-.=.;.%.;.;.;.;.-.;.;.;.;.;.:.;.<.;.-.-.;.&.-.-.0.;.-.-.-.&.-.;.-.-.-.&.;.-.-.-.;.-.-.-.-.3.-.;.-.;.2.0.;.;.%.;.;.;.;.;.;.;.;.;.;.;.;.:.;.:.-.;.:.;.:.;.:.%.;.:.;.;.;.:.;.;.;.;.;.&.-.-.-.-.;.-.,.j.1.<.<.-.:.:.-.;.:.-.-.-.:.-.-.:.-.:.<.:.-.-.:.-.0.:.-.:.3.3.<.<.-.0.g.-.B.-.<.0.g.-.<.-.-.-.-.*.<.<.<.<.<.;.<.<.<.-.-.-.-.<.<.-.,.-.<.,.<.-.<.<.<.,.<.2.<.<.-.<.<.-.<.<.<.<.<.<.<.<.<.-.<.<.-.1.,.<.-.-.-.-.0.&.-.&.$.0.&.&.-.6.0.&.&.&.-.&.&.-.&.0.;.-.-.0.-.-.0.-.-.0.0.-.;.-.-.-.-.<.1.<.<.;.-.-.;.-.-.&.-.:.;.;.-.-.-.-.-.&.-.-.&.&.&.&.&.&.&.:.&.&.| ' &.' &.' ' ' ' $.' &.' ' ' ' ' $.' $.$.$.} _ ' ' _ &.%.' #.&.` ' ' ' ' ' ' ' ' ' ' ` ' ' ( ' ' ' ' ' ' ' ' _ ' ` ' ' ' ' ' ` ' ' ` ' _ ' ' _ _ ' ' _ ' &.",
"2 4 2 2 4 4 4 5 ; < 4 , , , , , : , , 4 4 5 4 5 , 4 4 4 4 4 4 4 2 : 4 : 4 4 5 4 5 g.}.~.~.H.z.j.$.) ~ Z Z N l k c Z ~ Z ~ ~ 8 4 4 7 7 2 4 i 2 4 7 2 4 7 4 3 2 2 2 4 2 2 2 2 7 4 2 7 7 4 4 7 4 3 2 2 2 > : > > : i i 3 2 2 & - > > > > : 2 2 2 > 2 : : > : : > 2 2 2 7 7 7 7 7 w i 7 i 7 7 7 7 2 4 2 : 4 7 8 k R ) ) E M t w 7 7 7 w 7 w w w w w w y y y y w 7 7 7 7 7 7 7 7 7 4 4 7 8 8 7 7 8 w w e w 7 7 7 w 7 7 i 7 : 7 w w w w w w i i i 7 2 2 i 7 7 3 3 3 4 7 7 7 8 8 8 4 7 7 4 i 2 4 4 0 7 8 7 7 8 8 7 8 M #.,.=.W p w w 8 7 w w 8 e w 7 8 w w w 7 w i w w w w w 7 w w w 7 w e e e y t e e e y e e y t e y y t t t t p C a C p C E R R R R R R C W E E E C C C a a a a a a C C C N Z M N C Z M M N Z Z G G G ,.=.Q y 7 w e w y e y y y h e h k h c l l h h e h e h e h e e e h h t k k k M C C R R Q Q E B y w e 8 r 8 8 8 8 5 8 e e e e t k t t e e e h y e h h e 8 y t t t p p p M p p a M p t d h c 5 N ^ $._ _ G l 5 8 8 7 7 w 7 3 7 i 7 3 2 2 2 2 2 4 7 2 2 4 4 2 2 2 2 2 3 4 3 2 4 2 2 2 4 4 4 6 4 4 4 4 4 4 4 4 4 0 6 4 4 0 ",
"Z Z ~ 4._ t C R 4.~ k h h ~ 7.9.q.q.4.N M k k k k k y e h M N Z _ ~ N N N Z M N M ~ &._ $.' ) ~ ) ~ ~ E Z Z Z C k w r Q ~ e t M M M M M M M M M M M N M M M M M M M M M M M M M M M M M M M M M Z M M ~ 4.x.M.n.m.m.m.c.c.c.n.x.5.^ D G Z C ~ Q ) ) _ _ _ ~ N t 7 y t t t w w t t t w t t t y k C _ 9.} N k > 0 4.) Q % h 9.) }  .) G ~ M t ) ~ C t w w k k 8.x.P.P.P.n.n.n.n.n.n.9.4.^ _ _ } $._ $.4._ _ $._ _ ) J G K G Z C C ` #._ 4.4.} 4.} 6._ ^ ^ ) ^ ^ ^ ~ N t 2 w t 4.~ : E 4.4.4.4._ ) _ ^ ~ ^ _ } = 4 ;.=.=.t l ^ H H 4.4._ ^ ^ ^ ^ ) ^ } ^  .4.4.8.4.4.' ' ) ~ G ~ ~ ~ ~ ^ ^ ^ ^  .^ _ ^ ^ ^ H ^ ^ G H ^ ) H _ G t y t E M e 7 7 e 8 7 8 8 8 8 8 8 t a p a y a a y y y k N ^ 4.} _ 4.8.8.9.} M C ^ t B 1.;.y y M ^ ^ ^ D D G H G N G G ~ Z Z e e M ) 5.} 4.5.5.5.5.4.4.~ _ 4._ ~ M e r } 4.9.e 7 i N _ w.r.~ M t t t k t k t p t k p t t k t p t k M t 7 w M G G ~ Z C t t w w w w p p p e 8 8 k ^ 8 ; ) ' 4.k e N N M C E ~ ~ R C C C W E ~ C C Z Z C Z C C Z C Z C Z C C Z C Z C ~ G p Z C C Z Z G E G ~ G Z Z Z Z Z Z Z Z ",
") &.Z.,XM.C ) #.U.D.^ D G q.;X+X*Xm.x.t.~ M Z ~ C M t k M ~ $.0.f._ E ~ ) ~ ~ E E Z Z Z C Z Z Z E E E Z Z Z Z W M 7 6 ~ G 7 t W E Z ~ E W E ~ E Z W E E E E E ~ E E E ~ Z E ~ E E G E ~ ~ E ~ ~ ~ ~ Q _ x.rXwXrXwXeXeXpXpXpXeXwX*XXXA.v.q.q.f.Z.U.U.N.@XM.N.0.' y M k M M p t p p k k p M M M Z Z 4.9.#Xr.y.= < 8.) ~ o x :Xe.Z.v.a.Z.a._ p.Q.D.y.` U e k k m.7XwXzXzXwXwXtXwXrXwX7X&Xc.N.P.N.N.m.N.m.M.U.N.M.N.A.D.D.D.s.D.s.V.Z.Z.D.v.b.A.XXXXXXb.c.b.b.N.b.c.e.' Z U J t.*X5.9 q.;Xm.M.N.b.v.v.v.v.e.b. X1 5 <.,.g.7 H oXoXA.D.oXoXA.A.oXS.oXXXXXXXXX;X&X*X*X:XS.Z.Z.Z.Z.Z.D.D.oXoXD.oXoXD.oXoXA.A.A.A..XA.a.Z.A.oXA.D.D.o.X.].s.J 5 d 5 0 5 4 5 4 4 4 5 5 e a p M a p M M A { p.s.oXoX#XA.;X>X*X Xc.' t.7.k u j.-.8 k o. Xv.b.r.e.b.A.e.i.e.e.e.a.u.{ ..{ a.m.m.b.m.b.m.U.m.m.v.b.=XN.q.t.T b ^ _ w.f 5 w ~ v.m.x.4.G C B W A Z B C A Z B C A Z A C C A B Z W y M / _ _  ._ ~ Z S a y t B B A / J c k ( S.9 % Z ) _ z e ' u.6.6.8.0.0.$.) ) ) ) $.#._ _ $._ ) $.$._ $._ $.) _ _ _ $.) $._ 0.) ) ) $.$._ $._ $.4._ _ $._ $._ $._ _ 4.",
"0.N.&X@Xv.i Z } N.N.N.9.5.L.n.I.h.$.#.&.Q p C R C C k ) &.8.z.n.d.) R ~ ~ ~ E E E G Z ~ G E Z ~ E Z Z ~ E ~ Z A M i i / A w k C Z Z Z E Z Z R Z Z E R E E E E E Z E E E Z R C E E R R E E R E C C E ~ ) b.%X+X+X&X$X=X=X=X%XT.U.U.N.A.A.M.f.f.f.f.f.n.m.|.+Xm.x.M t t t M M t k M t t t t t p t w 2 u mXwX$X- 6 4.) ) O c :Xe.v.b.e.v.v.b.b.N.M.;X0X$Xk e y $XcXcX5X5X8X7X$X3X2X2X%X$X2X+Xm.m.L.m.L.P.m.m.L.L.M.A.A.A.Z.A.D.S.D.w.9.9.q.e.e.e.v.N.r.w.e.w.r.c.w.w.5.q.eX+X XcXcX5XP.v.4.8.9.9.9.9.9.w.5.f.x.= 5 2.=.-.7 } oXA. X XA.A.XXA. XXXA. XXX X X@X@X&X@XQ.A.Z.D.Z.Z.D.D.D.S.D.D.A.A.A.A.A.A.A.A.A.A.b.e.b.A.oXA.A.A.A.S.oXe.} F ( J 8 5 5 4 4 5 4 5 5 e t t p M t y ~ D.oX X#X.X.X=X=X X=X@X Xr.c.@X( e t j.<.t h ( =Xn.v.m.m.|.m.|.m.P.m.M.m.m.+Xm.m.m.m.c.n.c.c.c.x.x.c.c.M.m.P.n.+X' 2 * > 7 y G x.m.m.' N t M Z N Z Z Z M Z Z Z M Z C Z Z C Z Z Z Z Z Z N Z Z M M C C Z C C C R G E ~ ) ~ ^ 4.v.+XJ : Z ) _ k t 4.&X%Xf.$.E ) ` ) ) ) ) ~ ) ) ) ) ) ) ~ ) ~ ) ) ) ) ) ) ) ) ~ ) ) ~ ) ) _ ' ' ) _ ) _ _ ~ _ ) _ _ ) ) ~ ) _ ",
"b.XXU.N.b.| a.oXN.N.M.D.M.I.n.n._ ) E ~ ~ C Z R E Z Z g.d.M R E _ ) ~ Z E Z ~ E E E E E E Z G Z G Z Z Z E Z Z Z N 3 i ) ~ w p A Z E E E E Q E E Q E E E E E E E R E E E E ~ Z Q E E ~ E E ~ E C C Z C q.D.f.n.m.n.n.n.n.n.n.x.M.b.b.N.b.x.x.f.n.f.x.x.n.m.m.x.x.4.N t M M k M t t t M t p k t k y M 0.eX3Xn.% < 8._ ` O c U.Z.b.b.b.b.b.A.s.v.5.} Q.f.e k t _ I.wX5X5XG 9.3XP.P.+X$X%X5X$Xm.m.m.m.n.m.m.P.M.m.b.N.N.S.S.b.b.S.S.w.w.v.r.w.w.v.b.b.e.w.w.r.w.w.r.w.e.w.n.b.c.%X@XP.b.c.w.w.q.r.9.9.q.r.5.9.v.= 4 ,.,.<.7 O.oXXXN.s. XXXN. XA. X XN.N. XN. XU.@XN.U.N.A.S.A.A.S.A.A.S.A.A.b.b.b.v.XXA.XXXXb.A.b.e.b.b.b.N.N.A.b.b.b.A.Z.7.| i.8 5 4 4 5 4 8 4 4 e M t t p C N ^ Z.XXXX.X.X X X X X@X X XN.N.XXD y B j.=.e 8 J =Xx.w.c.c.c.c.c.c.c.m.c.m.c.x.c.c.c.c.x.x.c.c.c.x.x.f.x.c.m.e.4.v.y.M e M ' 0.v.c.N.m.v.' M Z Z C C C Z Z Z C Z Z Z C Z Z N Z Z M Z C N C N M Z C C Z Z C C N Z N Z Z ) _ } r.w.|.T , M ( $.z e A 9.f.$.$.~ ) ) ) ) ) ) ) ) ~ ~ ) ) ) ) ) ) ) ) ~ ) ) ) ) ) ) ) ) ) ) ) ) ) ) _ _ _ ) _ _ ) _ _ ~ _ ) _ ) $.",
" X X Xb. X,X.X.X XN.b.M.x.m.m.m.' ~ ~ Z G ~ G Z ~ E E n.d.y M k E Z Z Z Z C E G E E ~ E E Z Z G E Z E Z ~ ~ C Z z 3 i E / w t Z Z Z E E E Q R E Q E E Q E E R Q E E Q Q E E Q E E Q E E E E E E Z E E 4.8.q.c.c.x.x.x.f.f.d.8.f.w.r.w.w.w.x.x.c.x.x.x.c.m.m.n.c.P._ k ~ M z k t k k p t M M M k y &.N.8X%Xm.% 1 8.) ) + 8 ;XN.b.b.e.b.b.v.~ }  .( 4.^ w k M y ' 5XlXrX2 _ rXN.x.+X8X8X8X+Xm.m.m.m.n.m.U.U.U.U.U.U.U.XX@XN.b.N.XXb.r.r.w.w.r.w.w.w.w.w.w.w.w.w.x.r.x.x.r.w.w.r.9.q.w.x.x.q.w.w.w.v.9.9.5.w.f.= < ,.2.<.7 l i.:X_ F ;X X XA. XA. XXXN.N. X XS. XN.@XS.S.U.;XS.U.S.S.S.N.N.N.N.N.N.A. XXXN. XN.N.N.b.XXb.b. XA. XA.N.A.A.A.;XXX9 4 5 8 5 5 8 j 9 T Q t p p i.e.i.XXoX X;XN. XXX XN.S.;XXX.X X;Xx e B j.#.7 8 F +Xx.r.m.c.w.w.c.c.x.v.x.c.x.x.x.x.v.v.x.x.x.x.x.x.c.c.c.x.x.~ G _ _ _ ' _ q.2X$Xc.n.m.c._ N C Z Z Z Z M Z M C Z C N M Z M Z Z M M M M M C M N Z C Z Z Z A Z Z N M M N $.q.5.5.w.+XF : t ~ 4.z 7 z _ 4._ ) ~ #.) ) ) ) ) ~ ) ) ) ) ) ) ) ) ) ) ) ) ) ) ~ _ ) ) ) ) ) ) ) ) ) ) ) ) ) _ _ ~ _ ) _ ) ) _ ) ) _ ",
"N. X.XA.7...a.XXN.N.M. Xb.m.m.N.c.4.Z E Z E ~ Z Z G Z E E C C Z L.8.Z Z ~ ~ E E E E Z E E G E G Z E Z Z Z E C ~ M 7 0 ) W 7 t E ~ Z E E E E Z E E Z E E E E E E R E Z E E E ~ E E E E ~ Q E E Z C C C C _ c.n.P.c.x.x.f.x.M.x.x.x.n.n.c.w.x.x.w.c.c.x.x.c.m.x.x.x.x.q.~ N t p t t p k t t t t S G m.wX3X8XhX> < 9.) ' + 5 S.S.N.N. X Xi.y > } v.r.l e t k t e Z M.M.m.cXcXwX9.Z 2 _ m.hX/.n.m.U.P.I.m. XS.;X;XS.S.A.A.A.A.N.Z.A.w.e.v.v.w.w.w.w.r.w.w.w.v.r.w.w.w.w.w.x.x.w.w.f.w.w.9.w.w.w.w.w.w.9.w.9.v.c.= 4 ,.1.,.2 > Y lXf.7.S.b.N. XA.A. XS. X XA.S.S.N.XXS.U.XXU.N.U.Q.U.U.XX;XN.N. X XN. XXX;XN.XXXXXXXXXX X XN.N. XN.N.N.N.S.A.A.Z.| h 4 4 4 , l e.7XD.G w y y Z.,XN.N. X XS.S.S.S.S.S.S.S.S.XX XD.T e B j.-.e : , H r.c.c.|.c.c.c.c.c.x.x.c.x.x.x.x.c.x.x.c.c.x.x.c.n.b.c.v.x.7 > 2 : 9 @Xm.c.x.n.c.n.c.Z M N N M M Z N Z C Z Z M Z C Z C Z C Z Z Z Z N M Z Z Z Z C Z C Z E Z ~ E ~ ) 0.v.x.M.x.x.m.x - k G _ z 7 M ' 4.) ) ) ) ) #.) ) ) ) ) ) ) ) ) ) ) ) ) ) ) ) ) ) ) ) ) ) ) ) ) ) ) ) ) ) ) ~ ' ) _ _ _ _ ) _ ~ _ ) ) $.",
"XXOXoXa.| 8  .S.N.N.N.U.U.N.n.m.f.' Z G E Z Z Z C Z E C Z Z ~ ) U.$.C Q E Q Q Z E E E E E Z E Z ~ Z E Z E E Z G M 2 0 E E 7 t Z E Z E E E E E E E E E E E E E E E E E E Q E E E E ~ E E E E E Z Z E _ ' q.n.n.m.n.x.x.x.x.f.f.n.x.n.n.x.x.x.w.x.x.x.x.x.x.c.x.x.x.f.8.M M a t k t k t t k k Z ' 4.P.8X5X3XrX- 6 9.#.` o 4 v.u._ ' q.A.( k y i.5.^ k k k k t e k ~ 4.f.cXL.8.' Z z 8.$X5X$Xm.m.m.U.b.b.M.N.XXS.S.N.b.A.Z.b.D.b.b.e.b.A.q.w.w.r.q.9.9.r.w.w.w.w.w.w.w.w.w.w.w.w.w.w.w.9.w.9.w.w.w.w.w.r.9.v.v.1 , ,.1.2.2 4 { yX@XA.A.N. XXXN. XA. XA.A. XS.S.N.N.U.;XS.U.N.N.XXXXXXU.XX X X XXXA.a.7.5.N.N.XXXX XXXN.N. XN.A. XN.N.N.A.N.A.S.D.o.8 5 8 4 ^ b.#XN.6.M M ' S.;X XS.S.S.N.U.S.S.S.S.S.S.XXXXN.S.F r B 1.%.y 4 8  .w.c.c.c.c.c.|.c.x.x.n.x.x.x.c.c.c.c.c.c.x.x.v.c.m.m.x.v.x.7 4 7 4 d +Xc.c.x.c.c.M.x.7.~ M Z Z C N C C N C M Z M Z M Z M Z M C N C Z M M C Z Z Z C Z Z Z E M N _ q.v.x.n.b.n.c.m.F : t / $.z e C ' $.) ) ) ) _ ) ) ) ) ) ) ) ) ) _ ) ) ) ~ ) ) ) ) ) ) ) ) ) ~ _ ) ) ) ) ) ) ) _ ) _ _ _ _ ~ _ ) _ ) _ ~ ' ",
"r.oXoXs.( % Z M.M.m.M.b.m.M.c.n.4.~ Z E E E Z E Z Z Z Z ~ Z _ v.c.~ p ) ~ W E E Z E E Z E E E E Z E E ~ E ~ E A t 3 q E W 8 k C ~ E E W E E E G Z Z Z E Z Z E Z E E Z ~ Z ~ E E E E E E ~ E E E R 5.|.c.m.n.c.x.n.x.n.f.x.x.n.x.n.x.x.x.x.x.x.f.x.x.x.x.x.x.x.x.x.9.4.W t w y y t k M t N | x.c.n.3XwX5X7X+X& 6 f.#.) o 2 *.p w i C W t M C ( C 3 t M t t t t t y Z.N.M.M & k C @XcXxXwX%X=X@X XXXS.N.b.N.oXQ.S.N.D.M.A.D.b.b.D.b.e.v.r.r.w.w.9.9.9.9.9.w.w.w.w.w.w.w.w.w.w.w.w.w.w.w.w.w.w.w.w.w.w.q.f.f.c.= 4 2.1.<.: k y.S.A.A.A.XXA.N.S.S.S.S.S.S.S.S.S.S.S.S.S.N.S.N. XN.XXXXU.S.S.XXN.;X7.e e ( XXN.N.S.S.N.N.XXN..XA.A. XN.S. XS.S.S.7Xs.h e 4 4 A.#XA.b.@Xu.a.@XS.S. X XN.S.S.S.S.S.S.S.S.S.S.XXU.Z.v 8 z j.=.e 8 T =Xm.x.x.c.c.c.c.c.c.x.x.x.c.x.v.x.x.x.x.c.c.x.x.x.x.c.M.x.c.A 8 4 5 l N.x.x.x.c.c.x.x.+X0.t M C Z C Z Z C Z N M Z M M Z Z Z M M C M M M C Z C Z C C C Z C E 7 h 5.v.c.n.x.m.n.c.N.F : k ~ 4.z 7 N ~ _ _ _ _ ) ) _ ) ) ) _ _ ) ) ) ~ ) ) ) _ ) ) ) ) ) ) ) ) ) ) _ ) ) ) ) ) ) ) _ ) ~ _ ) ) _ ) ) ) ) ) ) _ ",
"Q.S.Z.a.( 7 G q.M.x.x.x.f.x.n.x.~ Z Z C Z E E E C C M Z G C E ' c.c.w.C ) c.) C E R Z E E E E E E E E E ~ E Z Z z 2 i R A w w M C Z C ~ Z E ~ Z Z Z Z Z Z Z C Z Z Z ~ E Z ~ E E E E E E E E E ~ ~ 9.m.c.c.x.x.x.n.x.n.f.x.x.x.n.n.x.f.n.x.x.x.x.x.x.x.x.x.x.x.w.f.x.n.f.4.4.4._ Z N ~ ' q.v.x.x.x.3XcX3X:X9.% q 8._ Q + : M y k t t t t y y t t t k M M t t t t C { Z k t k t M b.wXcXq.~ ' :Xc.t.s._ / D. XS.S.b.v.v.b.v.q.v.A.v.9.9.w.q.w.r.9.9.9.w.x.w.w.w.w.w.w.x.q.w.w.q.w.w.w.w.w.w.w.9.w.w.w.w.q.x.M.= : ,.,.*.: G ;XD.N.A.S.N.S.A.S.S.S.XXN.A.S.A.S.S.S.S.N.S.S.S.N.XXN.S. XN. XU.S.S.Z.' 4.Z.S.A.N.S.S.XXN.A.XXN.S.N.XXS.S.S.S.S.N.N.q.D 4 e  .S.;XN.S. XXXS.S.S.S. XS.N.N.S.XXS.S.S.S.S.S.S.XX XoXs.e u j.%.8 e / n.x.c.c.c.w.c.x.v.x.x.c.x.x.c.c.v.c.v.x.x.x.c.v.x.x.c.c.v.m.^ k k k G .Xn.v.x.x.x.x.x.n.0.M _ ) Z Z M C Z N C Z M Z Z Z N Z N M M Z Z Z Z Z C Z C E E C E C w J =Xv.c.x.c.m.M.c..XJ 2 k ~ $.z e Z ' _ _ ) _ ) ) ) _ ) ) ) ~ ) ) ) ) ) ) _ ~ _ ) ) _ _ ) ) ) ) _ ) ) ) ) _ ) _ ~ _ _ ) ) _ ) ) ) _ ~ ) ) ) $.",
"Q.S.4.N G T _ 8.c.x.f.x.n.x.x.x.G Z E E E E E E W Z C ' ' ) ) ) 5.c.|.) _ N._ R E E E E R E Z E E E Z E E ~ Z A t 2 0 W W 8 7 t M M M Z Z Z Z Z Z G Z C Z Z C E ~ _ $.' ~ E E E E E E ~ ~ E E ~ ~ 4.x.c.n.x.x.x.x.x.x.n.x.x.n.f.n.f.n.x.f.n.x.x.f.x.x.x.x.x.x.x.x.x.x.x.M.m.M.f.6.4._ 4.v.c.c.c.x.=XwX5X*X9.& 6 f.$.~ O : k t t M t t p p w w w M M t t t t t k M t t e t M t M _ 7X5XN t o.,X_ k Z / p.D. X;XS.v.w.9.w.w.9.q.e.9.5.9.w.w.9.9.9.r.9.w.q.w.w.q.w.w.9.9.w.w.w.w.w.w.w.w.w.w.w.w.w.w.w.w.f.f.f.$ : ,.,.-.: ~ >Xv.A.S.A.S.S.N.S.N.S.N.S.N.S.N.S.S.N.S.S.S.S.S.S.S.S.N.N.N.N.S.;XS.S.S.A.A.S.N.N.S.S.S.S.N.S.A.S.S.S.S.U.S.S.S.N.S.D.7.P { A. X XN.N.S.XX X XN.;XN.S. XXXN.U.S.S.S.S.S.U.U.XX XoXr.h u j.=.8 e X..Xc.c.x.c.c.c.x.c.x.c.c.x.c.w.c.x.x.c.x.x.x.x.x.M.x.c.m.c.c.7. .X.( | N.m.c.x.v.x.v.c.n.q.) 4.} ^ ~ N Z Z Z N Z Z N M Z Z N M M M | 0.~ ~ C Z C Z C C E C E k X.=Xx.c.c.n.m.x.x.P.J 2 k ~ $.z e A ^ ) ) ) ) ` _ ) ) ) _ _ ) _ ) _ ) _ ) _ ) ~ _ ) ) ) _ ) _ ) _ ^ ) _ _ ~ ) ) ) ) ) _ _ ~ _ ) _ ) ) ~ _ ) ' ",
"oXs.v ; ; 5 } %X|.m.x.m.m.m.f.q.$.~ E G G R C C M E q.M.M.n.c.x.v.w.w.c.c.=X4.E R E E E E Z E E Z E Z ~ Z Q ~ Z z 2 0 E Z e 7 r k k t t t t M M Z Z Z Z G ) 4.9.x.c.c.x.4.C E E E E E E Z E Z Z R ) 4.c.c.c.x.n.n.x.x.n.x.k.n.f.x.x.f.x.n.n.f.x.x.x.x.f.x.w.x.x.x.f.f.9.f.x.f.x.n.n.x.' 9.x.x.x.x.m.+XwX5X2X- q f._ E + : M t p p p p p p M t t t t k t t p p t t M p t t t t t w N N e M ' A t w w e b.S.S.N.M.v.v.9.9.9.9.9.9.5.q.q.w.w.w.w.r.w.w.9.w.w.w.w.w.w.w.w.w.9.w.w.w.w.w.w.w.w.w.x.w.q.w.w.c.| Z = > =.2.-.: ^ ;XA.b.S.S.S.S.N.XXS.S.S.S.S.N.XXN.S.S.S.S.S.N.S.S.S.S.N.N.N.N.S.N.S.;XN.U.S.Q.S.S.S.S.S.N.S.S.N.XXS.N.Q.S.S.U.U.S.S.N.N. XN.N. XXX XS.N.S.@XN.N.S.S.N.S.XXS.N.S.S.S.S.S.S.N.XXS.S.O.h u 1.-.y M y.=Xc.c.w.c.c.x.c.x.x.x.x.v.x.x.x.v.c.x.v.c.v.x.c.c.x.x.M.c.m.c.m.n.m.c.c.c.c.x.r.x.x.c.c.x.x.m.N.m.^ M t M Z Z Z ) M w f.6.l 8 7 B b.+Xw._ E Q E Z Z C E C C D } c.x.N.n.n.m.x.x.P.J 4 p ~ 4.k 7 M k N ~ _ _ _ ) ) _ _ ) ) ) ~ _ ) _ ) ) _ ) _ ) ) _ ) ~ ) _ _ ~ ) ) ) ) _ ) ~ _ ) _ ) ^ ) ) _ ) ) _ _ _ ) _ ",
"c.e.H h c G H 4.x.c.c.v.x.n.E y Z ~ ~ Q ~ ) ) ~ _ 4.M.N.b.x.x.f.w.x.w.N.c.v.u.E E C Q E Q Z E E E E E Z ~ ~ ~ Z r 2 r R W 8 7 y M M p t t p M E ) $.9.4.0.q.f.x.x.w.x.v.4.R E E E E E Z E Z E E E ~ 4.c.c.f.x.x.x.x.n.f.x.n.x.x.n.x.n.n.x.x.x.x.x.x.x.x.x.x.x.x.x.x.x.f.x.x.x.x.x.x.x.f.9.x.c.x.w.m.m.+XU.P.& 6 d._ ~ # , M t t p M t M p t p t t M M M t t t p t p t k t t t t y k N e k M t p w k ~ Z.S.XXN.v.v.w.v.v.w.q.9.9.w.w.9.9.r.q.9.9.w.w.w.w.w.w.w.9.9.w.w.w.w.w.w.w.w.w.w.w.w.w.q.q.w.w.9._ ~ N = 2 =.2.,.> G ;XA.N.S.S.S.N.A.S.S.S.S.S.S.N.A.S.S.S.S.S.S.S.S.S.N.S.N. XN.b.b.b. XS.U.S.U.S.U.S.U.N.S.S.S.N.A.N.S.S.S.S.S.S.S.S.N.N.A.N.N.A.N. X XN. XS.S.S.N. X@XS.N.N.S.U.S.S.S.N.N.S.S.N.N.oXo.e u 1.-.y e ( +Xc.c.c.c.x.c.c.x.v.x.x.v.c.x.c.x.x.x.x.x.c.x.x.c.c.x.x.c.c.M.m.c.c.c.c.x.v.x.c.x.x.x.v.x.v.w.v.w._ Z ^ _ 6.7.' A N ~ i.G 8 5 r ' M.m.w.9.q.' ~ R Z E C C Z _ 5.n.c.c.m.n.M.c.x..X( 4 k / $.z 7 M A k 7 A _ ) _ ) ) ~ _ ) _ ) ) _ ~ _ ) ) ) ) ) _ ~ _ ) ) ) ) _ ) ) _ ) ) ) _ ) ) ) ) ) ) ) ) ) ) ) ) ) ) ' ",
".Xw.5.( { @Xu.{ v.w.x.r.w.+XA : N ~ 8.&.) _ q.5.v.v.b.M.M.b.x.x.x.f.w.m.x._ ) ) ` ~ R Q E C ~ E E E E ~ E ~ E Z h 2 r R W 8 7 e t p p M C M ' 6.w.m.m.m.n.c.x.x.x.x.x.v.$.Z ~ E E E E E E E Z E R ~ 4.m.c.w.x.x.x.f.x.x.x.x.x.n.x.n.x.x.x.n.x.x.x.x.x.x.w.w.x.x.x.x.x.x.x.x.x.x.n.x.x.x.x.c.x.x.c.c.m.w.w.x.* 6 d.$.~ + , k t M p t p t p t t M M M M M k t p t t M t t t t t t e t k k k M M p k >.s.h.v.XXS.v.9.9.9.x.w.q.9.9.e.w.9.w.w.w.w.r.9.w.w.w.w.w.w.w.w.w.w.w.w.w.w.w.9.w.w.f.w.c.4._ w.w.5.N M N = 2 =.,.,.: G S.A.N.N.S.S.S.S.S.N.S.S.S.N.S.S.S.S.S.S.S.S.S.N.A. XS.S.XXXXb.v.c.S.XXS.S.Q.XXN.S.S.N.S.S.S.S.S.S.N.S.S.S.S.U.S.S.S.S.S.N.S.N.S. X X X XN.S. X XN.S.S. XN.XXN.S.S.S.N.Q.N.S.S.N.XXO.8 u 1.=.e 4 F c.c.c.c.c.c.x.c.c.c.v.x.x.v.x.x.x.x.x.c.v.c.x.x.x.x.n.m.M.n.n.n.n.c.c.c.x.w.c.v.x.v.x.v.x.x.w.w.w.5.6.9.w..Xx.} w ~ q.l e 5 4 k v.v.c.c.x.n.4.E C C C ' C / w.v.m.m.c.c.n.m.x.x.P.U 4 z ~ $.z w { u.E > B _ ) ) ) ) ) ) ^ _ _ ) ) ) ~ _ ) ) ) _ ) ) _ ) _ ) ) ) _ ) ) ) ) ) ) ) ) ) ) _ _ ) ) _ ~ _ ) ) ~ _ ",
"c.v.c.c.x.c.c.b.x.x.x.x.c.P.9.~ e 7 z S.f.$.x.M.f.n.n.M.m.N.M.n.x.x.x.c.x.x.M.x.v.4.' ~ Z C ~ ~ Z E E Z Z Q E Z r 2 r R Z 8 2 w t t M M t.8Xm.c.x.c.x.n.n.x.x.x.f.x.x.w.9.5.~ C E E E E ~ Z Q E M _ w.c.x.x.x.x.x.x.x.x.f.n.x.x.x.x.x.k.x.f.x.x.f.x.x.x.x.x.x.x.x.x.w.x.x.x.w.x.x.x.x.x.x.x.c.x.x.c.c.w.x.f.* i 8.$.~ = : M t p k M M p M M t t k M M M M k p t t p t p t t t M k k k y t w Z { b.S.S.e.f.c.v.9.9.9.9.9.w.9.w.r.w.w.9.w.w.q.w.w.9.9.x.9.9.w.w.w.w.w.w.q.9.w.w.w.w.w.w.w.w.m.r 7 N { N e M Z # > =.2.,.: e y.;XN.S.S.S.S.S.S.S.S.S.S.S.S.S.S.S.S.N.S.S.S.A.N.S.S.A. X XN.m.b.N.XXU.S.S.XXS.S.S.S.S.S.N.S.S.S.S.S.S.S.S.S.S.U.U.S.S.S.S.N. XN.S.S.S.XXN.S.S.N.XXXXS.;XS. XN.S.S.N.N.N.N. XXXS.O.e u j.=.e ; ; 4.w.c.x.x.c.c.x.x.v.x.c.x.c.x.x.c.x.c.c.x.P.J e x q.n.c.v.c.c.x.c.c.c.v.x.c.x.c.x.c.x.c.x.v.c.c.e.w.x.v.r.x.x.r.5.| l > , : 4 { 7Xx.x.x.x.v.9.4.} 4.4.x.8.q.c.c.m.b.c.n.x.v.x.w.+XF : k / $.M e V / ) _ ) _ _ ) ) ) ) ) ) _ ) ) ) _ _ ) _ ) ) ) ~ _ ) ) ) ) ) _ ) ) ) ) ) ) ) ) ) ) ) ^ _ ) ) ) _ ) _ ) _ $.",
"c.x.c.c.n.x.x.M.n.f.v.x.c.n.x.4.G ' ( N.x.q.f.n.x.M.x.x.M.M.b.c.x.f.x.x.x.n.M.x.x.x.q.4.) C E ~ E E E E E ~ E Z e 2 r R A e 7 r t k M t ~ +Xn.n.x.x.n.x.x.x.x.x.x.x.x.w.x.9._ ~ E ~ ~ E E E R E C 4.c.x.x.x.x.x.x.x.x.x.x.x.x.x.f.n.x.x.n.x.x.x.x.x.x.f.x.x.x.w.x.w.c.w.w.x.x.x.x.x.x.x.x.c.x.c.c.x.x.w.v.f.* 6 8._ ~ = 4 M t k p M t M t M t k t t k M M M t t t t M t M t t B C M M t M ^ t.D.D.S.U.q.9.9.9.x.f.9.q.w.x.9.w.w.q.w.w.w.w.w.w.9.w.w.q.9.w.w.9.q.w.w.w.w.w.w.w.w.w.q.w.w.v.w.7 7 F ( M N M B = 2 ;.1.-.2 2 I ;X XS.S.N.S.S.S.S.S.S.N.S.S.A. XS.S.S.N.S.N.N.XXS.S.S.N.N.N.N.N.N.;XN.S.S.S.N.N.S.N.S.S.S.S.S.S.S.S.S.S.S.S.S.S.S.XXS.N. XS.N.N. XN.U.XX XS.S.N.} v.;X;XS.N.N.N.N.N.N.S.S.S.S.A.K e u j.=.t : < / e.c.c.x.x.c.x.x.x.c.c.x.x.v.x.x.v.x.x.c.P.y.H X.v.n.c.c.x.x.x.c.c.x.x.c.v.x.x.w.v.x.x.r.c.v.w.r.c.w.w.c.x.c.v.v.F 8 : 4 8 h _ +Xc.v.M.x.m.b.x.v.h.v.x.f.x.v.c.c.c.c.M.x.f.9.w.+XX.7 t ~ 4.l e j ~ _ ) ) ) _ ) ~ _ _ ) ) _ ~ _ ) _ ) ) ) ~ ) _ _ ) ) _ _ ~ ) ) ) ) ) ) ) ) _ ) _ ) ) ) ~ _ ) _ _ ~ ) ) ) _ ",
"x.x.c.x.x.x.x.x.x.n.x.x.n.n.x.n.@X@X XM.x.n.n.x.n.n.x.M.b.I.n.x.n.n.n.x.x.x.f.f.n.n.m.m.x._ C C E Z Z Z Z G Z C r 2 y Z Z 8 2 e y t t w k b.c.x.x.n.c.n.x.x.x.x.x.x.x.x.x.x.x.5.E C R Z Q Q Q Q ) q.n.x.x.x.x.x.x.x.f.x.x.n.k.x.x.n.n.x.n.f.x.f.x.x.x.x.x.w.x.x.x.x.w.x.x.x.x.x.x.x.x.x.x.x.c.x.x.c.w.w.v.d.- 6 d.$.~ = 4 C M k k t M p M t p t k y y / M t t M M p t t t w p / ~ M M t 6.>Xv.6.( v.S.v.q.x.9.w.w.9.x.w.q.w.w.w.w.w.w.w.w.w.w.w.w.w.w.w.w.w.w.x.w.w.w.w.w.w.w.w.w.w.w.w.v.5.r e ' i._ x.S i = : $.1.*.7 * = N.XXA.S.S.S.S.N.S.S.S.S.S.S.N.S.S.S.S.N.A.XXS.S.S.S.S.S. XN.N.N.N.S.S.S.S.S.XXA.S.S.S.S.S.S.S.S.N.S.S.S.S.U.S.S.S.Q.N.N.;XN.;XN.S.XXN.S.N.N.XXb.V 6.XXS.;XN.S.A.N.S.N.N.N.S.@XA.K h u j.-.e , , 9 7.n.c.c.c.x.c.v.x.x.c.r.x.c.x.c.x.c.v.v.c.m.m.+Xx.w.c.x.x.x.M.x.x.c.x.x.c.c.x.c.c.x.c.x.x.c.c.x.c.c.c.c.x.c.w.4.e > , 7 I 7.r.w.c.x.x.M.v.x.x.x.x.c.x.v.c.c.c.v.c.v.c.m.P.x.w.x.7.k t / $.M w e ~ ) ) ) _ ) ) _ ) ) ) _ ~ _ ) ) ) ) _ ) _ ) _ ~ ) ) ) ) _ _ ~ _ ) _ _ _ ^ ) ) ) ) ) ) _ ) ) ) _ ) ) _ ) ' ",
"M.x.n.c.c.x.c.c.x.v.x.x.x.n.x.x.c.v.m.v.x.n.x.n.n.x.x.M.M.U.m.x.f.n.x.x.n.x.f.x.c.x.x.m.f.R Q Z E ) $.~ ~ ~ G N = - y Q A 8 7 z Z N M M ~ m.m.x.x.n.x.n.x.x.x.x.x.f.x.x.x.x.x.w.4.5.5.q.q.9.f.f.9.x.x.x.x.x.x.x.x.f.x.x.x.n.f.n.x.x.x.x.n.x.x.x.x.x.x.x.x.x.w.x.w.x.x.x.x.x.x.x.f.x.x.x.x.c.x.x.x.c.c.w.v.8.- 6 d.) ~ = 7 C k k M p t t M M M k t 4.x.M.6.M t M M M t p M M $.5.9.4.G y s.@XM M Z q.N.v.v.f.f.w.x.q.w.w.w.w.w.w.w.w.w.w.w.w.w.w.9.w.q.w.w.w.w.9.9.w.q.x.9.9.w.q.w.w.w.9.w.w.5.} 7.9.9.m.&XT.= 2 =.1.*.7 > g @XXXN.S.N.S.S.S.S.S.S.S.S.S.S.S.S.S.S.S.S.S.S.N.S.S.S. XN. XN.N.;XN.U.S.S.A. XA.S.S.N.S.S.S.S.S.S.S.S.S.S.U.S.S.S.S.U.S.N.XXN. XS.N. X XS.S.N.XXS.A.b.b.S.b.S.A.N.N.N.S.N.U. XoXo.e u F.=.t ; ; ~ q.n.c.c.c.n.x.x.c.x.c.v.x.x.c.v.c.x.x.x.x.x.x.x.x.x.x.x.x.M.x.x.c.c.x.x.w.x.x.x.c.v.x.x.x.c.w.c.w.x.v.c.c.w.c. XH e 4 N v.v.x.v.c.c.v.x.x.M.n.m.c.x.v.x.v.x.v.M.x.c.m.| V h h D J e y ~ $.V 8 k ) ) ) ) ) ) ) ) ) ) ) ) ) _ ~ _ ) _ ) ~ _ ) ) _ ) ) _ ) ) ) ) ) _ ~ _ ) ) ) _ ~ _ _ ~ _ ) ) _ _ ) _ ) ) _ ",
"x.c.x.x.x.M.n.M.M.b.M.b.c.M.v.x.x.c.n.n.n.x.n.x.x.n.x.x.x.n.M.f.x.n.k.x.x.n.x.x.f.x.x.f.4.' _ _ _ 4.v.5.4.0.4.' - & u E Z 8 h { 4.' ^ ' 4.n.c.x.n.x.n.n.x.x.f.x.x.x.x.x.f.x.x.9.x.w.x.M.c.x.M.x.x.x.w.x.x.w.x.x.x.x.x.x.x.x.n.x.x.k.n.x.f.x.x.x.x.w.x.x.x.w.x.x.x.x.w.x.w.f.x.x.x.x.x.x.x.x.x.c.x.x.x.w.v.d.- 6 8.$.~ - 7 C h k M p C ~ C M 6.' { M.P.m.v.~ t M M p t M M / v.f.c.Z.6.w | #Xt.p.p.D.U.b.v.9.9.q.x.9.f.9.x.w.9.w.w.w.w.w.9.w.w.w.w.w.w.w.w.w.w.w.w.w.w.w.w.w.w.w.w.w.w.w.w.w.w.x.9.9.q.P.wXxX= : =.2.,.4 : P @X@XS.S.S.S.S.S.S.N.S.S.N.S.S.S.N.S.S.S.S.S.S.S.N.N.S.S.N. XS. XN.S.S.S.S.N. XA.A. XS.S.S.S.N.S.S.S.S.S.S.S.S.S.S.S.S.XXS. XN.S. XS.S.S.S.@XN.XX;XN.b.v.e.v.b.A.N.A.N.N.N.S. XoXO.8 u 1.=.t , 6 6.q.n.x.c.n.c.c.c.x.x.x.x.c.x.x.x.x.x.v.v.x.c.x.w.x.v.c.v.x.c.x.n.x.x.v.x.c.x.c.v.x.c.x.c.r.c.r.v.c.x.c.r.w.c.c.+X7.N h ^ c.x.x.M.x.c.x.x.M.b.b.b.x.x.x.x.x.c.x.x.c.c.M._ 8 4 8 G I 8 t ~ 4.M w B / _ ~ ) ) _ ^ ) _ ) _ ) _ ) _ _ ~ ) ) _ ) ) _ ) ) _ ~ ) ) ) ) ) _ ) ) _ ) ) ) _ ) ) _ ~ _ ) ) ) ) ) ) ) _ ",
"x.x.M.n.M.c.v.b.M.M.M.M.N.v.x.x.x.x.x.x.x.x.n.n.n.x.x.x.c.b.n.x.k.n.x.n.n.n.f.x.x.x.x.w B |.c.c.x.m.|.m.m.+X%X&Xj 2 y Z ~ 7 G M.+X|.n.c.x.x.x.c.c.n.n.x.x.x.x.x.x.x.x.x.x.x.x.x.f.x.x.x.n.k.x.x.x.x.x.w.x.x.x.x.x.x.x.x.f.n.n.x.n.x.x.x.x.x.x.f.x.x.x.x.x.w.w.x.x.w.w.x.x.x.x.x.x.x.f.x.x.x.c.x.c.x.x.w.v.d.* 6 8.) ~ ; 7 C k k w Z V.cX$.u cXNXrXP.f.x.x.n.G M M p M 7 M &.v.f.v.} t.M _ *XN.N.b.A.S.v.9.9.x.x.9.x.q.9.q.w.w.w.w.w.w.w.w.w.w.w.w.9.w.w.w.w.9.w.w.9.w.w.w.w.9.w.w.9.w.w.w.w.q.9.9.5.e.x.3XxX= : $.,.=.2 : n @XN.S.S.S.S.S.S.S.S.S.XXN.S.S.S.S.S.S.A.N.S.S.S.S.A.S.N.N.N.N.S.N.S.S.S.S.A.A.A.N.A.S.S.N.N.S.S.S.N.S.S.S.S.U.S.S.U.S.U.XXN. XS.@XN. XN.N.S. XXXXXS.b.b.A.A.N.N.N.N.N.N.S. XN.S.O.e u j.&.y e J L.n.c.x.x.x.x.x.c.v.x.c.c.w.v.c.x.x.c.x.x.x.x.v.f.x.x.x.c.x.x.x.x.c.x.c.x.v.c.w.x.x.x.c.x.v.x.x.c.w.c.w.c.c.x.c.c.x.b.n.x.c.c.c.c.v.v.x.v.x.m.N.M.v.x.x.v.x.c.v.c.c.c.c.m.m.v.w.P.[ 7 t / $.x e y ~ ) $._ _ _ ) ~ ) ) ) ) _ ) ) ) ) _ ) ) ) ) ) ) _ ) ) ) ) ) _ ) ~ _ ) _ _ ) _ ) ) _ ) _ ) ) _ ) ) _ ) ) ' ",
"x.x.x.x.x.x.b.M.b.b.N.A.N.b.v.M.v.M.x.x.x.x.x.n.x.n.M.x.M.m.n.x.x.x.n.x.x.n.n.x.M.x.n.6.f.n.x.c.n.n.x.x.n.n.L.m.1 - s Q / 8 N q.n.n.n.x.x.x.x.n.x.x.x.x.x.x.x.x.x.x.f.x.x.x.x.x.x.x.x.f.n.f.x.f.x.x.x.w.x.w.x.x.x.x.f.x.x.x.x.f.x.x.n.f.x.x.x.x.x.x.x.x.x.x.x.x.x.x.x.x.x.w.x.f.x.x.x.x.x.c.x.c.x.w.v.w.f.f.- 0 d.) ~ - 4 M h e y k / 7X@XQ.rX5Xx.x.w.f.q.q./ t k M t ~ ) } 9.x.f._ ~ J Z 7.v.9.q.x.M.v.9.9.9.9.9.w.9.x.9.9.w.w.w.w.q.w.w.w.w.9.w.w.w.w.w.w.w.w.w.w.w.w.w.w.w.w.w.w.w.w.w.w.w.w.9.9.w.x.m.&X= : =.2.-.2 - n ;X@XS.N.S.S.N.S.S.S.N.S.S.S.N.S.S.S.N.XXN.S.S.S.N.XXS.N.b.N.N. XXX XS.S.XXS.XXN.A. XS.S.XXS.S.S.S.S.S.S.S.S.S.S.S.S.S.S.S.S.S.S.S.S.S.XXN.S.S.N.S.A.b.A.N.N.A.A.N.A.S.N.S.N.N.oXo.7 r j.=.e y J x.M.x.c.x.M.c.x.x.x.v.x.c.c.x.x.c.x.v.x.x.c.x.x.x.v.x.x.x.v.c.x.c.c.x.x.c.c.x.c.c.v.x.x.x.c.x.v.c.x.c.c.x.c.r.x.c.x.x.c.c.x.v.c.x.x.c.c.x.x.v.m.x.x.x.v.x.x.c.x.c.c.c.c.v.m.c.w.N.F : z ~ $.M e z ~ ) e Z _ _ _ _ _ ) ) ) ^ _ ) _ ) ~ _ _ ) ) _ ~ _ _ ) _ ) ^ _ ) _ ) ) ) ~ _ ~ _ ) ) ) ) ) _ ~ ) _ ~ _ ) _ ",
"x.x.n.x.n.x.M.b.M.b.N.A.N.A.N.N.M.x.x.x.x.n.x.n.x.n.n.n.M.n.n.x.f.x.n.n.x.x.n.x.x.n.c.n.n.n.n.n.n.n.n.x.x.x.m.x.o * B ) ' 8 N 7.c.x.n.x.x.x.x.x.x.x.c.x.x.x.x.x.x.x.x.x.x.x.x.x.x.x.x.x.x.x.x.x.f.x.x.x.f.x.x.w.x.x.x.x.x.f.x.x.w.x.x.x.x.9.x.x.x.x.x.x.x.x.x.x.x.f.x.x.x.x.x.x.x.x.x.x.x.x.x.x.9.f.9.w.f.8.* 9 8._ ~ : 2 h e w e t t 9.7XcX3X$X5.9.9.w.5.} k B ( e A w.v.5.9.x.f.} ~ N y N w.x.w.w.v.w.w.9.w.w.9.w.w.w.w.w.w.w.w.w.w.w.w.9.q.w.w.w.9.w.w.w.w.w.w.w.x.q.w.w.w.w.w.w.w.w.w.w.9.w.w.w.w.w.w.5.= , ;.1.*.2 - q @X@XS.U.S.U.S.S.S.S.S.S.U.S.N.S.S.S.XXS.S.S.N.A.S.S.N.N.N.N.N.S.S. XA. XA. XA. XS.S.A.XXS.S.XXS.S.N.N.XXS.S.S.S.S.S.S.S.A.N.S.S.S.S.S.S.S.S.S.S.S.A.N.N.N.N.A.S.S.S.S.S.S.S.S.XXO.8 u j.=.e k o.M.x.x.x.n.x.x.x.x.x.c.v.x.x.x.x.v.x.x.v.x.c.x.c.x.c.w.c.x.x.w.v.c.x.c.x.x.x.x.x.x.c.x.x.v.c.c.c.x.c.v.c.w.c.c.x.c.x.c.c.v.c.x.x.c.x.x.w.c.c.c.c.v.c.x.v.x.v.x.w.c.c.x.c.c.c.w.x.c.d ; t / $.M e z _ ~ = h $.) _ _ ) _ ~ _ _ ) _ ) _ ) _ _ ~ _ ~ ) ) ) ) _ ~ ) ) ) ) _ ) _ ) ) ) ) ) ~ _ _ _ ) _ ) _ ) ) ) _ ",
"c.c.c.c.c.x.c.n.c.b.M.A.A.b.M.M.x.x.x.c.n.c.n.c.n.x.n.f.n.x.n.n.n.n.x.x.n.k.x.n.n.x.x.f.x.m.n.n.n.n.n.n.n.x.L.M.1 - z ) ` 5 N u.x.x.n.x.n.x.x.n.x.n.x.n.n.x.x.x.x.x.f.x.x.x.x.x.x.f.x.x.x.x.x.x.x.x.x.x.x.x.x.x.f.x.x.x.x.x.x.x.x.x.x.f.x.x.x.x.x.f.x.x.x.f.x.x.x.x.x.x.f.x.x.x.w.x.x.f.w.x.9.x.n.+X$XP.P.k.- 6 d._ ~ > 4 k $._ k t e 8.U.$X5X3X9.w.w.w.w.9.} e.w.5.9.w.9.v.f.9.9.w.9.q.4.5.v.9.w.w.v.w.w.9.w.9.w.w.w.w.w.q.w.w.w.w.q.w.w.9.x.w.w.w.w.w.w.9.w.w.w.9.9.w.w.w.9.w.w.w.9.w.w.w.w.w.9.w.w.9.x.n.1 , %.,.*.: 2 I ;XU.S.S.S.S.S.U.S.U.U.S.S.S.S.S.S.S.N.S.S.S.N.XXN.S.N.N.N.S.N. XN.N. XA. XN. XS.S.S.N.N.S.S.N.S.S.A.A.N.S.S.N.S.S.S.S.S.N.XXS.S.N.S.S.S.S.S.S.S.N.S.A.A.S.S. XS.S.S.S.U.U.S.S.S.K e u j.-.e k X.x.x.x.M.x.x.M.x.c.c.x.x.x.c.c.r.c.x.x.x.x.x.v.c.x.x.v.c.c.x.c.c.x.x.x.x.v.c.w.c.v.c.x.c.c.x.w.c.w.c.x.x.c.x.v.x.v.x.w.c.x.x.c.x.x.x.x.c.x.v.c.w.x.x.x.c.c.x.c.x.x.x.c.c.c.w.x.x.|.c * t ~ 4.N 7 u F h * d ~ _ _ ) _ _ _ _ ^ ) _ ~ ) ) ) ) _ ) ) _ ) ) _ ) ) _ ) _ ) ~ ) ) ) ) ) ) ) _ ) ) ^ ) ) ) ) ) _ ) $.",
"b.M.c.M.n.x.x.x.c.v.m.M.M.b.c.c.x.x.x.n.c.n.x.n.x.n.x.n.x.n.x.x.n.n.x.n.x.n.x.n.n.x.c.x.x.9.w.c.n.n.n.x.x.f.n.x.g 2 z #._ 5 l q.n.x.x.x.x.x.n.x.x.x.n.x.x.x.x.x.x.x.x.x.w.x.x.x.x.x.x.x.x.f.x.x.x.x.f.x.x.f.x.x.x.x.x.x.x.x.x.x.f.x.x.x.x.x.x.x.x.x.x.x.x.x.x.x.x.x.x.x.x.x.x.f.x.x.x.x.x.x.x.x.n.m.b.9.i.^ * 0 9.) ~ - 2 S f.h.~ ~ ~ G q.%X$XP.9.w.w.r.w.w.r.9.r.w.w.w.9.w.w.9.9.9.x.v.w.v.w.q.w.v.v.w.w.9.w.w.w.w.w.9.w.w.w.w.w.w.w.w.w.w.w.w.w.q.w.w.w.w.9.9.w.w.w.w.w.w.w.w.w.w.w.w.w.q.w.w.w.w.q.q.x.P.; < #.,.2.> 2 Y ;X@XS.S.S.S.S.Q.S.S.S.S.S.N.S.S.N.S.A.N.S.N.S.S.S.S.S.XXXX XXX XS.S.XXb.N.XXA. XA. XN.S.S.S.A.N.S.N.N.S.S.S.XXA.S.N.S.N.S.S.S.S.S.S.S.S.N.S.S.S.N.S.S.S.S.S.S.S.S.N.S.S.S.N.;XS.K e u 1.=.t e N } v.n.x.c.x.x.x.v.x.c.x.c.w.x.c.x.x.x.x.x.c.x.x.x.v.x.x.x.x.x.x.c.v.v.c.c.w.c.x.c.x.x.5.9.x.x.x.x.x.x.v.x.x.v.x.c.x.x.x.x.c.v.x.x.v.x.x.c.x.x.c.v.x.x.x.v.x.x.x.c.v.c.w.c.x.r.x.=XT * t / $.z e z / N , 4 k ~ ~ _ ) _ ) ) ) ) _ ) ) ) _ ) ) _ ) ) _ _ ) ) _ ~ _ _ _ _ ) ~ _ ^ _ ) ) ) ) ) ) ) ) _ ) _ ) ) ' ",
"c.M.c.n.n.x.x.x.c.M.M.b.b.c.x.n.n.n.n.x.n.x.c.n.n.x.n.x.n.x.n.n.n.x.n.x.n.x.n.x.x.n.m.m.v.Z ) w.n.n.n.n.n.n.x.f. .h r $.' 9 k y.x.x.x.n.n.x.x.c.n.x.x.x.x.x.f.x.f.x.x.x.x.x.x.f.x.x.x.f.x.x.x.x.x.x.x.x.x.x.x.x.x.x.w.x.x.x.f.x.x.x.x.x.x.x.f.x.x.x.x.f.x.x.x.f.x.x.f.x.x.x.x.x.x.x.x.x.n.n.x.x.5.4.' ; < * % 0 8.) Z - 4 ' U.L.v.n.x.w ) P.r.9.w.w.x.r.w.w.w.w.w.w.w.w.9.w.x.9.f.x.9.9.9.x.x.x.x.w.w.v.w.w.w.w.w.w.w.w.w.w.9.w.w.w.w.9.w.w.w.w.9.x.w.w.9.w.v.9.q.w.w.w.w.9.w.9.w.9.w.w.w.w.w.w.w.w.r.9.x.U.1 4 *.,.;.: 7 Y @X@XS.U.S.S.S.XXS.S.U.S.S.N.S.S.S.S.N.S.S.S.S.S.S.S.N.N.N.N.XXS. X X.XXXN.XX XA.N.S.S.S.S.N.S.S.S.S.S.S.S.S.N.N.S.S. XA.S.N.S.S.S.S.S.S.S.S.S.S.S.S.N.S.S.S.S.S.S.S.S.S.@XN.S.S.O.e u ,.=.t e x v 7.n.x.x.M.M.x.x.x.x.v.c.c.c.c.x.v.x.c.x.v.x.c.x.c.c.x.c.v.c.x.c.x.x.x.c.c.c.v.x.x.x.( 4.c.v.c.x.c.c.x.c.x.c.x.c.x.x.c.v.x.x.c.x.c.x.c.v.x.x.x.c.c.x.c.c.x.v.c.x.x.x.x.c.c.c.c.=XK : z ~ $.N e y ( ~ h 7 1 N ~ _ ) ) _ ) _ ) ) _ ) _ ~ ) _ ) ) ) _ ) ) ) ) _ ) ~ ) ) _ _ ) ) _ ) _ ) _ ) ) ) ) ~ _ ) ) ) _ ",
"M.n.c.c.x.n.x.c.x.n.c.m.x.n.c.x.n.n.c.n.n.c.x.n.x.n.n.x.x.n.x.x.n.x.n.x.n.x.n.n.x.x.M.m.9.y 4.m.n.n.n.x.x.k.n.M.6.k r #.&.5 k i.n.x.x.x.x.n.n.x.x.x.x.x.x.x.x.x.x.x.x.x.x.x.x.x.x.x.x.x.w.x.x.f.f.x.x.x.x.x.x.f.x.x.f.x.x.x.x.w.x.x.x.x.x.x.x.x.x.x.x.x.x.x.x.x.x.x.x.x.x.x.f.x.f.x.x.w.x.x.f.x.x.x.x.8.k = % 6 8.) Z * - - k.P.f.x.q.4.C ( v.w.w.w.w.w.w.w.r.w.w.w.w.w.q.9.9.9.w.w.9.9.x.x.x.w.w.v.w.w.w.w.w.w.w.w.w.w.9.9.w.w.w.w.w.w.w.w.w.9.9.w.w.w.w.w.w.w.w.w.w.w.w.w.w.w.w.w.w.q.w.w.q.9.w.v.9.9.w.w.= , &.,.=.> - P :XU.S.S.S.S.U.S.S.U.S.S.U.S.S.S.S.S.S.S.S.S.S.S.S.N.S.N. XN. Xb.N.N.A.A. XA.A. XA.A.S.S.N.S.S.S.S.S.S.S.N.A.A.N.S.S.S.S.S.S.S.S.S.N.S.N.S.S.S.N.S.S.S.S.S.S.S.S.S.S.U.S.XXXX XXXO.e y F.=.y h D 5.v.x.v.x.v.x.x.x.x.x.v.c.x.c.x.c.x.c.v.c.x.x.v.w.c.x.v.w.c.v.c.w.c.x.x.c.x.c.x.v.x.v.c.c.x.x.c.x.v.c.x.c.x.x.x.x.r.x.x.v.x.x.x.x.v.c.x.c.x.x.x.x.x.c.x.c.w.c.c.x.x.c.x.c.x.x.x.%XU : t / $.N 7 z ~ _ ~ ~ ^ _ _ ) _ ) ^ _ _ ) ) _ ) ) ) ) ) _ ) ) ~ _ ) ) _ _ ) ) ) ) _ ) ) _ ) _ ) ) ) ~ _ ) ) _ ) _ ) ) _ ",
"c.x.c.c.x.M.n.n.n.x.x.c.c.n.x.n.n.c.x.x.n.x.n.x.n.x.n.x.x.x.x.n.M.x.x.n.x.n.x.n.n.n.x.n.4.z v.n.c.n.n.n.n.x.n.m.q.k r $._ 0 l q.n.x.n.x.x.x.x.x.n.n.x.n.x.x.x.f.x.x.f.x.x.x.f.x.x.f.x.x.x.x.x.x.x.x.x.x.x.x.x.x.x.x.x.x.x.x.x.x.x.x.w.x.f.x.x.x.x.x.f.x.w.x.f.x.x.x.w.x.x.x.x.x.x.x.x.x.x.x.x.x.n.m.m.U.X.0 % 6 8.) G * & > M.P.x.9.x.q.~ N r.w.w.w.w.w.w.w.w.w.w.w.w.w.w.9.x.x.9.v.x.w.x.q.w.w.w.w.v.w.w.w.9.w.q.w.w.w.x.q.w.w.9.w.w.w.w.9.w.w.w.w.q.w.9.w.w.w.w.w.w.w.w.w.w.w.w.w.9.x.w.w.x.9.w.9.w.9.w.v.# : *.,.*.2 > Y &XN.S.S.S.S.S.S.S.S.S.S.S.S.S.S.S.S.S.S.N.S.S.N.S.S.S.XXXXS.b.b.c.b.A. X X X XN.A. XS.S.XXS.S.S.S.S.S.S.S. XN.S.S.S.S.S.S.S.S.S.N.A.S.S.S.S.S.S.S.S.S.S.N.S.N.S.S.S.S.S.S.S.XXA.O.8 u j.=.y y ..m.v.x.x.x.x.x.v.x.x.x.c.x.x.w.x.x.v.x.x.x.v.x.c.c.x.c.c.c.x.x.x.x.c.x.c.v.x.x.x.c.x.x.x.c.c.x.v.c.x.x.x.v.x.x.x.c.c.c.c.c.x.c.x.c.c.c.v.x.x.v.c.x.c.x.v.c.c.c.x.x.c.x.c.c.x.c.c.$XJ : z ~ 4.M e z ~ ) ) ) _ _ _ ) _ ) ) _ _ _ _ ~ _ _ ) ) _ ) ) ) _ ~ _ ) ) ) ) ) _ ) ) ) ) ~ _ ) ) ) _ _ ) _ ~ ) ) ~ _ ) ' ",
"x.n.n.x.c.x.c.c.n.x.x.x.x.n.x.n.n.c.n.c.n.c.n.x.n.x.x.x.c.c.+X+Xn.n.n.n.n.n.n.k.n.n.n.n.f.6.M.f.x.n.x.n.M.x.m.m.7.k q =._ 6 k y.c.n.x.x.n.n.x.n.x.x.x.x.x.x.x.x.w.x.x.x.x.x.x.x.x.x.x.x.x.f.x.x.x.x.x.w.x.f.x.x.x.x.x.x.f.x.x.x.x.x.x.x.x.x.x.f.x.x.x.x.x.x.x.x.f.x.x.x.x.x.x.x.x.x.f.x.f.w.x.x.x.x.x.n.m.P.* 6 9.) Z * * > 7.r.q.x.q.w._ ' 5.w.w.w.w.r.r.w.r.w.r.w.w.w.w.w.r.r.w.w.x.w.9.9.w.w.w.w.w.w.w.w.w.q.9.9.w.w.w.w.w.9.w.w.9.w.w.w.w.9.w.w.w.w.w.w.9.w.w.w.w.9.q.w.w.w.w.w.9.w.w.w.w.w.w.w.w.9.x.x.= : #.,.-.: 7 { &XU.S.S.S.S.N.S.S.S.S.N.XXS. XS.S.N.S. XXXA.N.A.S.S.N.S.N.S.N.N.N.b.N. XA. XN.XX XA.S.S.N.A. XS.S.S.S.S.S.S.S.S.S.S.S. XS.S.S.S.S. XS.S.S.S.S.S.S.S.S.S.S.S.S.S.N.S.S.S.S.N.N.oXO.8 r j.=.w 7 [ P.n.x.x.x.x.c.x.v.x.x.x.x.c.c.c.x.c.c.x.c.c.x.x.v.x.x.x.x.x.x.c.x.v.v.x.c.c.x.v.x.c.x.w.c.x.x.x.v.x.x.v.x.x.x.x.c.c.c.w.v.x.v.x.w.c.x.c.c.v.x.w.c.v.x.c.x.x.x.x.x.c.n.c.c.c.x.x.%XU : t / $.V w k ~ ) ) ~ ) ) _ _ ~ ) ) ~ _ ) ^ ) ) _ ) ~ _ _ _ _ ) _ ) ) _ ~ _ ) _ ^ ) ) ) ) ) ) _ ) ) ) ) ) _ ) ) _ ) ) _ ",
"x.x.n.x.x.n.c.n.n.n.x.n.n.c.n.c.x.n.x.n.x.n.c.n.c.x.w.x.5.h H ( n.n.n.n.n.n.n.n.n.n.n.n.x.f.m.n.n.x.n.x.n.x.n.M.e.e u $.&.4 k i.x.x.x.n.x.x.x.x.x.n.x.x.x.x.x.x.x.x.x.f.x.x.x.x.x.x.x.f.x.x.x.x.x.x.x.x.x.x.x.x.x.f.x.x.x.x.x.x.x.f.x.x.x.x.x.x.9.x.x.x.f.x.x.x.x.x.x.x.x.f.x.x.x.x.x.x.x.x.x.x.x.x.c.x.c.9.* 6 8.) G = 4 G } e.9.w.x.w.9.5.q.w.w.w.w.w.w.w.r.w.w.w.r.w.w.w.x.w.w.w.w.w.w.x.w.x.w.w.w.w.w.w.w.w.w.x.9.w.w.w.w.w.q.w.w.w.w.w.w.w.w.w.w.w.w.w.w.w.w.w.w.w.w.w.w.w.9.w.w.w.9.w.w.w.w.w.w.q.x.N.# : =.,.2.> > n >X@XD.D.S.S.S.S.S.S.S.S.S.;XS.S.S.S.S.A.N.N.S.S.S.S.S.S.S.S.N.XXS. XXXA. XA.N.XXS.N.S.S.S.N.A.N.S.S.S.S.S.S.S.S.S.S.S.A.N.S.S.S.S.A.S.S.N.S.S.S.N.S.S.S.S.S.N.S.S.S.U.S.N.N.XXS.o.8 r j.&.w 7 8 G q.c.w.c.x.v.x.x.c.c.v.x.x.x.v.x.x.x.x.w.c.x.c.c.x.c.x.c.v.x.x.x.c.c.x.x.w.x.c.x.v.c.x.c.v.c.x.c.x.x.c.v.c.x.x.v.x.x.x.c.x.c.x.c.x.x.w.x.c.c.x.c.x.x.x.c.x.v.x.v.c.c.c.c.c.v.x.$XK : k ~ $.z e z / ) ) ) ) ) ) _ _ ) _ ) ) ) ) ) ) ) ) ) _ ~ ) ) ) ) ) _ ~ _ ) ) ) _ ) ) ) ) _ ) ~ _ ) _ ) ) ) _ ) ) ) _ _ ",
"n.x.n.n.c.n.c.n.n.x.n.c.n.x.x.n.n.c.c.n.x.n.c.n.x.x.x.w.5.q : 5 n.n.n.n.n.n.n.n.n.n.n.n.x.x.x.n.x.n.x.n.f.n.k.m.q.e r =.&.4 k 7.n.x.x.x.n.x.x.x.x.x.x.n.x.x.x.x.x.x.x.x.9.x.x.f.x.x.x.x.x.x.x.x.x.x.x.x.x.x.x.f.x.x.x.x.x.x.x.f.x.x.x.x.x.x.x.x.x.x.x.f.x.x.x.x.x.x.x.x.x.f.x.w.x.x.x.f.x.x.x.f.x.x.x.x.9.4.* 6 0._ G % h P.5.7.e.w.e.c.w.w.q.9.r.w.9.9.w.9.w.w.w.w.r.w.w.w.w.w.w.w.x.w.x.w.x.w.w.w.w.w.w.w.w.w.w.w.w.w.w.w.w.w.x.9.w.w.q.w.w.w.9.w.w.w.9.w.w.w.9.w.q.x.9.w.w.w.w.w.w.w.w.w.9.w.w.w.f.9.x.v.= : #.,.=.3 - > N.N.S.S.S.S.S.S.S.S.N.N. XN.N.S.S.S.S.S.S.S.S.S.S.S.S.S.S.S.S.S.S.S.N..XXXb. X.XA.A.N.XXA.S.S.S.S.S.S.S.S.S.N.S.S.S.S.S.N.N.N.A.S.N.S.S.S.S.S.S.S.S.N.S.S.S.N.N.N.S.U.S.S.XXN.XXO.h y d.&.w 2 9 b X.c.w.c.r.c.w.c.c.x.c.v.x.w.c.c.c.x.x.x.v.x.c.c.v.v.x.x.x.v.x.x.c.c.w.c.x.x.c.c.c.v.c.x.c.x.x.v.x.x.x.v.c.x.x.v.x.x.v.c.x.x.v.x.x.c.x.x.c.x.x.x.c.c.v.x.x.5.w.w.x.m.m.m.c.f.v.$X[ , t ~ $.N w z ~ ~ ) ) ) ) ) ) _ _ ~ _ _ ) ) ) ) ) ) ) ) _ ) _ ) ) ) _ ) _ ~ _ ) _ ) ~ _ ) ) ) _ _ ) ) ) ) ~ ) _ ) ) ) _ ",
"x.x.x.x.x.n.n.x.c.n.x.n.c.n.n.c.n.x.n.x.n.x.n.x.n.c.c.x.c.c.x.x.n.n.M.n.n.m.n.n.x.n.k.n.f.x.x.x.n.x.n.x.n.n.n.b.7.e u $.' 2 M t.x.x.n.n.x.x.n.x.x.n.x.x.x.x.f.x.x.f.x.x.x.x.x.x.x.x.f.x.x.x.f.x.x.f.x.x.x.x.x.x.x.x.9.x.x.x.x.x.x.x.w.x.x.f.x.x.x.x.x.x.x.x.f.x.f.x.x.x.x.x.x.x.x.x.x.x.x.x.x.x.x.x.x.w.x.9.* < 8._ Z = k M.5.r.r.w.w.w.w.w.w.r.r.w.r.w.w.r.9.r.r.w.w.w.w.w.w.w.w.w.w.w.9.w.w.w.w.w.w.w.w.w.x.q.w.q.w.w.9.w.w.w.w.9.w.w.w.w.w.w.9.x.w.w.w.w.w.w.w.w.w.w.9.w.w.w.w.w.q.w.w.w.w.w.w.w.q.r.w.m.= , ;.1.*.> 7 e c.S.A.S.S.A.A.A.@Xa.h v.XXN.XXS.S.S.S.S.S. XS.S.S.S.S.S.S.N.S.S.S.N.A.A.N.N.XXA.S.S.S.S.N.N.S.S.S.N.A.N.S.S.A.N.S.S.S.S.XXA.S. XS.S.S.N.S.S.S.S.S.S.S.S.S.S.XXA.S.S.S.N.XXN.;XXXO.e r j.$.w y { 5Xm.c.c.v.c.c.w.c.v.x.x.x.c.x.c.v.x.c.x.c.c.x.x.x.x.c.x.c.x.c.x.v.x.x.x.c.v.x.x.w.c.x.x.x.x.x.x.x.v.c.x.x.x.c.x.c.x.c.x.x.x.c.x.c.x.x.v.c.c.x.c.v.x.c.x.v.c.N e 8 e O.n.c.N.v.q.U.O.7 t / $.z e z ~ #.) ) ) ) ) ) ) ) ) ) ) _ ) ) ) ~ _ _ ~ ) ) ) ) _ ~ ) ) ) _ ~ _ _ ) ) _ _ ) ) ) ) ) ) _ _ _ ) ) _ ) _ _ ",
"c.x.M.n.n.x.c.x.n.x.x.c.n.c.x.n.n.c.x.n.n.x.c.x.n.x.c.x.x.c.x.n.M.n.x.n.n.M.n.n.n.n.n.n.n.n.x.n.n.c.x.n.n.x.n.m.7.t r $.&.6 t 7.n.x.x.x.x.n.x.n.x.x.n.n.x.x.x.x.x.x.x.x.x.f.x.x.x.x.x.x.x.x.x.x.x.x.x.x.x.f.x.x.f.x.x.x.x.f.x.x.x.f.x.x.x.x.x.x.x.f.x.x.x.x.x.x.x.x.x.f.x.x.x.x.x.f.x.x.x.f.x.x.x.x.x.x.M.f.% q 9.~ ~ = h m.5.e.q.w.w.e.w.w.9.w.9.r.9.9.9.r.w.w.w.w.r.w.w.x.r.w.w.w.x.w.w.w.w.w.w.w.w.w.w.w.q.w.w.w.9.9.w.w.w.w.w.w.9.w.w.w.w.w.w.q.w.w.w.w.q.w.w.9.w.w.w.w.9.w.w.w.w.w.w.9.w.w.q.w.w.9.x.n.# ; ;.*.;.> e ..p.D.Z.S.S.S.A.S. XZ.( b.XXN.N.S.N.S.S.S.S.A.S.S.N.A.N.S.S.S.S.XXA.A.XXA. XXX XN.S.S.S.S.N.S.S.S.S.S. XS.S.S.N.A.S.S.S.S.S.S.S.S.S.S.S.S.S.S.S.S.A. XS.S.N.S.S.S.S.S.S.S.A. XU.D.o.e u 2.$.w 7 { +Xm.w.c.x.x.c.c.c.c.c.x.x.x.x.x.x.x.v.x.w.c.v.c.c.x.x.c.w.v.x.c.c.x.c.x.c.x.x.x.c.x.c.x.x.v.v.c.x.c.x.v.x.c.c.v.x.x.x.x.c.w.x.x.c.w.x.x.x.w.c.x.x.x.x.x.c.c.7.~ ' ' 5.x.m.c.Z / N.{ 4 t / 4.N e z / ) _ ) _ ~ _ ) _ _ ) _ _ ~ _ ) _ _ _ ) _ ) ) ) ) ) _ ) ) _ ) _ ) ~ ) _ ) ) _ ) _ ~ _ ) _ ) ~ ~ _ _ ) ) $.",
"x.v.x.n.n.n.c.n.c.n.x.c.x.n.n.x.x.n.n.c.x.n.c.n.c.x.x.c.x.c.x.c.n.n.n.n.n.n.n.n.n.n.n.n.n.x.n.n.n.n.M.x.x.x.n.M.6.t u 8._ 3 k t.x.x.n.x.x.x.x.n.n.x.x.x.x.x.x.x.x.x.x.f.x.x.x.x.x.w.x.x.f.x.x.x.x.x.x.f.x.x.x.x.x.x.x.x.x.x.x.x.x.x.x.f.x.x.x.f.x.x.x.x.f.x.x.x.x.x.x.x.x.x.f.x.x.x.x.x.x.x.x.x.x.x.x.x.b.m.* < 8._ G O h m.9.r.w.w.r.w.w.w.9.r.w.w.9.9.9.w.w.r.r.w.w.w.w.w.w.w.w.w.w.w.w.x.x.w.w.q.w.w.w.w.9.w.w.w.w.x.w.w.w.9.w.w.w.w.w.w.w.9.w.w.w.9.w.w.w.w.w.w.w.w.q.w.w.w.w.w.q.w.w.w.w.w.w.w.w.w. X$Xo ; @.;.;.& e ^ d ..A.Z.A.S.S.S.S.XXXXXXN. XS.S.S.S.S.S.S.N.S.S.S.N.S.S.S.S.S.N.N. XN. XA. XA.XXN.S.S.S.S.S.A. XS.S.S.S.S.S.S.N.XXN.S.N.S.S.S.S.S.S.S.S.N.A.N.S.N.S.S.S.S.S.S.N.XXN.S.N.N.N.S.XXO.4 y ,.&.8 4 j 5.w.c.c.w.c.w.x.v.w.x.x.v.c.x.c.v.c.c.x.c.x.x.x.c.w.x.x.c.c.x.c.w.x.v.x.x.x.c.v.x.x.x.x.c.x.x.x.x.c.c.c.c.w.c.w.c.x.c.v.c.c.c.v.c.x.v.c.x.c.x.v.c.v.x.c.c.x.m.m.m..Xn.x.N.c.u P f.P > t ~ $.B w z ) #.) ) ) _ ) ) ) ) ) ) ~ _ ) ) ) ) ) ) ) ^ ) ) ) ) ) _ ) ) ) ) ) _ ) ) ) ) ) _ ~ _ ) ) ) ) ~ ~ ) ) _ _ ) ",
"XXv.n.c.n.c.n.n.n.n.n.m.c.n.c.m.n.n.c.m.n.n.n.n.n.n.c.x.x.n.x.n.x.n.x.n.n.n.n.x.n.x.n.n.n.x.n.x.n.x.n.c.x.x.x.m.7.M u 8.$.2 N 7.n.x.x.n.x.n.x.x.x.x.n.x.x.f.x.x.x.x.x.x.x.x.x.f.x.x.x.x.x.x.x.x.x.w.x.x.x.x.x.f.x.x.x.x.x.x.x.f.x.x.x.x.x.x.x.x.x.x.w.x.x.x.x.x.x.x.x.x.x.x.9.x.x.x.x.x.x.x.x.x.x.x.x.x.n.m.8 h 4.) ~ V ' x.5.r.w.w.w.w.w.w.w.w.w.w.w.w.w.w.w.w.w.w.w.w.w.w.w.w.w.w.w.w.w.w.w.w.w.w.w.w.w.w.9.w.w.w.w.q.w.w.w.9.w.w.w.w.w.9.w.w.w.w.w.w.w.w.9.w.w.w.w.w.w.w.w.w.w.w.w.w.w.w.w.w.w.w.w.P.$X0XF k >.2.;.+.].].l G Z.A.A. XXXS.S.S.N.N.S.S.A.XXN.S.S.S.S.S.S.N.S.S.S.S.N.S.S.S.N.A. XA.N.XXN.A. XA.S.S.S.S.S.N.A.N.XXN.S.S.S.S.S.S.N.S.S.S.A. XA.A.S.N.XXN.S.S.S.S.S.S.N.S.S.S.S.S.A.A.XXXXXXoX].].P ,.*.a t F n.x.c.v.x.c.x.x.x.c.x.w.c.c.v.c.x.x.x.x.x.c.v.x.c.x.c.x.x.x.c.v.x.c.x.x.v.c.c.c.w.c.c.v.x.x.x.x.c.c.x.x.x.c.v.x.x.c.x.x.x.c.v.x.c.x.x.x.c.x.x.c.x.x.x.x.v.x.c.v.x.x.D.M.b.n.].fXfX+.+.+.) 8.N k N ` #._ ) ) ) _ ~ _ ) _ ) ) ) ) _ ) ) _ ~ _ _ _ ) ) ) ~ _ _ ) _ ) ) ) _ ) ) ) _ ~ _ _ ) ) ) ~ E W ) _ ) / p."
};
