/* XPM */
static char *rickandloathing[] = {
/* columns rows colors chars-per-pixel */
"500 500 256 2 ",
"   c #09090A",
".  c #0C0E14",
"X  c #0D0F18",
"o  c #0E111A",
"O  c #0E1016",
"+  c #12141C",
"@  c #181818",
"#  c #15110D",
"$  c #271B16",
"%  c #30261B",
"&  c #171B25",
"*  c #1D222D",
"=  c #1D2225",
"-  c #1E2431",
";  c #1C3526",
":  c #282828",
">  c #212633",
",  c #262B39",
"<  c #2B333B",
"1  c #373838",
"2  c #353028",
"3  c #1A261A",
"4  c #432B1D",
"5  c #4F301B",
"6  c #71241A",
"7  c #483526",
"8  c #4D362C",
"9  c #6B372E",
"0  c #5D1D17",
"q  c #364B31",
"w  c #1E6E20",
"e  c #594736",
"r  c #524833",
"t  c #674936",
"y  c #765639",
"u  c #6C5332",
"i  c #786635",
"p  c #4C6A30",
"a  c #2D3343",
"s  c #2E3846",
"d  c #333A49",
"f  c #303648",
"g  c #1F3542",
"h  c #613A4E",
"j  c #394449",
"k  c #3C4555",
"l  c #3A5048",
"z  c #3B5568",
"x  c #434B5C",
"c  c #434A57",
"v  c #48545B",
"b  c #4E504B",
"n  c #685846",
"m  c #72554A",
"M  c #536E50",
"N  c #756652",
"B  c #474E61",
"V  c #4B5364",
"C  c #4C5867",
"Z  c #525A6D",
"A  c #525968",
"S  c #555D72",
"D  c #585F74",
"F  c #465A73",
"G  c #56656B",
"H  c #596275",
"J  c #5C6677",
"K  c #58706C",
"L  c #626A7C",
"P  c #64737A",
"I  c #6E726A",
"U  c #73516D",
"Y  c #902C1C",
"T  c #963524",
"R  c #AB3B28",
"E  c #851F17",
"W  c #914F2D",
"Q  c #B34B2E",
"!  c #8C7338",
"~  c #B1702F",
"^  c #C7462B",
"/  c #C75736",
"(  c #D25634",
")  c #D9653A",
"_  c #D27434",
"`  c #E17A35",
"'  c #8A574D",
"]  c #876649",
"[  c #926F53",
"{  c #AA7256",
"}  c #8F766B",
"|  c #B57B65",
" . c #B0716A",
".. c #A35664",
"X. c #DE6842",
"o. c #D1724F",
"O. c #E16E43",
"+. c #D6677F",
"@. c #D8677F",
"#. c #D7797C",
"$. c #CF7070",
"%. c #E47C7A",
"&. c #C75950",
"*. c #A13F3A",
"=. c #2E8F32",
"-. c #38A23D",
";. c #3DA443",
":. c #6A9350",
">. c #74A64D",
",. c #6A8769",
"<. c #4EA44D",
"1. c #62963A",
"2. c #99833D",
"3. c #B38936",
"4. c #B2A43D",
"5. c #C88D2E",
"6. c #C99636",
"7. c #D59935",
"8. c #D08935",
"9. c #E69037",
"0. c #DAA239",
"q. c #998646",
"w. c #AB8D4E",
"e. c #938678",
"r. c #B98765",
"t. c #B2906E",
"y. c #A9A973",
"u. c #D39053",
"i. c #E99852",
"p. c #D5A645",
"a. c #EEB14C",
"s. c #C5996B",
"d. c #D9857B",
"f. c #CD9172",
"g. c #F4976B",
"h. c #E6867E",
"j. c #EC9B6F",
"k. c #C9A56C",
"l. c #D4A973",
"z. c #D9B674",
"x. c #CFAE70",
"c. c #F0AD74",
"v. c #8ED749",
"b. c #ABE56D",
"n. c #DBCB75",
"m. c #E6D579",
"M. c #E4CB71",
"N. c #F5C14F",
"B. c #4F6A87",
"V. c #4E6A87",
"C. c #516D88",
"Z. c #6C6786",
"A. c #656C83",
"S. c #676985",
"D. c #746786",
"F. c #7B6786",
"G. c #6B7587",
"H. c #727B8C",
"J. c #767D92",
"K. c #7E4483",
"L. c #3E6B86",
"P. c #846986",
"I. c #886C85",
"U. c #8D7485",
"Y. c #8B7986",
"T. c #937A84",
"R. c #996591",
"E. c #AB5E9E",
"W. c #C86781",
"Q. c #DA6680",
"!. c #D56880",
"~. c #D97681",
"^. c #E37A85",
"/. c #E16E83",
"(. c #C27BB0",
"). c #BC60C3",
"_. c #C667CC",
"`. c #75828D",
"'. c #7B8695",
"]. c #72908F",
"[. c #6296B0",
"{. c #71B2D4",
"}. c #73B7DC",
"|. c #76D1E1",
" X c #998883",
".X c #838B9B",
"XX c #919292",
"oX c #A89589",
"OX c #AC968C",
"+X c #B5A69A",
"@X c #B2AB8E",
"#X c #878DA2",
"$X c #8B94A4",
"%X c #949AAB",
"&X c #B6B0A9",
"*X c #9BA1B3",
"=X c #D88A81",
"-X c #DC9582",
";X c #CC8E88",
":X c #E68885",
">X c #E39B81",
",X c #E99786",
"<X c #EA9C95",
"1X c #CBB28F",
"2X c #EAA582",
"3X c #F4AA83",
"4X c #EBB888",
"5X c #F5B787",
"6X c #EAA39C",
"7X c #F8BA98",
"8X c #EBBA94",
"9X c #C6B7AD",
"0X c #EBAAA5",
"qX c #EBB4AE",
"wX c #CD95AD",
"eX c #D2C894",
"rX c #FAC488",
"tX c #E8D988",
"yX c #F4C49A",
"uX c #E9DD94",
"iX c #ECC794",
"pX c #EDE297",
"aX c #F1E59A",
"sX c #EFE18D",
"dX c #CAC4BB",
"fX c #DAD1AA",
"gX c #F9C4A4",
"hX c #F4CBA5",
"jX c #E5DBA7",
"kX c #F0D3B1",
"lX c #EDE3A8",
"zX c #F3E8A8",
"xX c #F5EBB3",
"cX c #ECE5B3",
"vX c #CCF39D",
"bX c #8AB9D1",
"nX c #95B9D4",
"mX c #92C7DA",
"MX c #90C9E6",
"NX c #A7D6E9",
"BX c #B0DBEA",
"VX c #AADCE0",
"CX c #D3CCC5",
"ZX c #D8D3CC",
"AX c #DCD7D1",
"SX c #DCD8D3",
"DX c #CCC9C4",
"FX c #E3DCC6",
"GX c #E1DED4",
"HX c #ECE6D7",
"JX c #EBE5D1",
"KX c #F2EEE4",
"LX c #F4F1E9",
"PX c #ECEBE6",
"IX c #DAE0DB",
"UX c #CEA5C7",
/* pixels */
"~ ~ ! ~ ~ 2.~ 3.~ ~ ~ 3.3.~ 3.~ 3.~ 5.3.~ 3.5.~ 5.~ 5.3.5.~ 5.5.~ 5.5.5.~ 5.5.5.3.5.5.5.3.5.5.5.5.5.5.5.5.5.5.5.5.5.5.5.5.5.5.5.5.5.5.5.5.7.5.5.5.5.5.7.5.5.5.5.5.5.5.5.5.5.5.5.5.5.5.5.7.5.5.5.5.5.5.5.5.5.5.5.5.7.5.5.5.5.5.5.5.5.5.u r `.`.H.G.P L 1 < G C C v C v B z v l x v l k v k z v z k x k l k k z l c k x k l k l > O m | | | | { | | | { | | | { | | { |  .r.{  .{ r.{ r.| { t.{ r.{  .r.[ | { r.{ { r. .w. .} | | } r.| r.{ { } | { r.{  . .w. .r.w. .r.} r.r.w.| w.} | { r.{ r.{ t.r.{ t.r.{ r.r.w.| w.r.r.{ r.r.r.w.r.r.r.r.r.r.r.w.r.r.r.r.r.t.r.r.r.r.w.t.r.s.s.w.s.r.r.s.r.t.k.w.s.r.s.w.s.r.s.s.t.w.k.k.t.s.s.r.s.s.w.k.s.s.y.s.k.r.r.s.s.w.k.k.s.s.t.t.s.s.s.s.4.s.k.dXdXt.s.s.y.s.t.k.t.k.s.4.s.w.k.w.k.t.s.y.r.t.t.s.r.s.t.w.t.t.t.4.t.w.t.w.w.s.w.w.t.w.w.t.w.w.q.2 2 v v v v v V b B v v c B v : e ! 2.2.2.2.2.2.! 2.! 2.! 2.! 2.i 2.i 2.i ! ! i i 2.i i ! i ! i ! i 2.i i i ! 2.i i i i i i i i i i i i i i i i ! i i i i i i i i i i i i i p i u i i p i u i u i u i i u i p i p u u p u u u p u i u u u u u ",
"! ~ ~ ~ ~ 2.2.~ ~ 3.~ 3.~ 3.3.3.3.~ ~ 5.~ 5.3.3.3.5.~ 5.5.3.3.5.5.5.5.3.5.3.~ 5.5.5.5.5.5.5.5.5.3.5.5.5.5.5.5.5.5.5.5.5.5.5.5.5.5.5.5.5.5.5.5.5.5.5.5.5.5.5.5.5.5.9.5.5.5.7.5.5.9.5.5.5.5.5.5.5.7.5.5.7.5.5.5.5.5.5.5.7.5.5.9.5.5.5.3.2 P '.'.`.P P v = v C v v v v k v v c B k c k x k c k k k k l k x k x c k l k k l x k , @ n | | | | | | | | | | | | { r.| | r.| { { r.{ t.{ r.r.{ r.{ r.{ r.{ | | | { { r.| } | { { r.| { { r.| { { t.r.{ r.{ | w.| w.r.} { | { r.r.{ t.{ r.{ | |  .r.{ r.{ r.r.{ { r.t.| | t.r.r.r.t.w.r.r.r.r.r.r.r.w.r.r.r.{ t.r.r.r.w.t.r.r.r.r.r.s.w.t.r.r.r.s.t.r.s.r.s.s.r.r.s.r.s.w.s.s.s.k.t.s.s.k.w.s.s.t.k.s.k.w.k.k.s.k.t.s.s.s.t.s.k.k.s.s.4.r.y.s.s.k.+XDX1Xk.s.4.s.k.4.k.r.k.t.s.s.t.k.s.s.k.w.s.4.w.s.4.s.w.k.w.s.t.w.r.s.w.y.r.w.y.w.w.t.s.w.t.w.w.N % 1 v v v v v v v v v v x b c : u 2.2.2.2.2.2.2.2.! ! 2.! 2.2.2.! 2.2.2.2.i 2.! i 2.2.! 2.i i ! i 2.i ! 2.i i i i ! i ! ! i 2.i i i i i i i i i i i i i i i i i i i i i i i i i i i i i i i u i i u u i u i u u i i u i i u u i u p p u u p ",
"! ~ 2.~ ~ ~ 2.~ 2.~ 3.~ 3.3.~ 5.~ 5.3.5.5.~ 5.~ 3.5.5.5.~ 5.5.5.3.5.~ 5.5.5.5.5.5.5.5.5.3.5.5.5.5.5.5.5.5.5.5.5.5.5.5.5.5.5.5.5.5.5.5.5.5.5.5.5.5.5.5.5.5.7.9.5.5.7.5.5.5.5.9.5.5.5.5.5.5.5.5.5.5.5.5.5.5.9.7.5.5.5.7.5.5.7.5.5.5.5.u b .X'.'.`.P J < < C C C C C v x v v x z c v z x x l v k k c z k k k l z k x v k c k < @ t | | | |  .| | | | | | | | | | r.| { r.r.t.{ r.| | { { r. .r.} | w. .{ r.e.| { | { | { r.| { r.{ r.{ r.| | r. .r.w.|  .r.r. .{ t.r.r.{ { | t.| r.{ r.r.{ { { r. .r.{ r.r.{ t.{ r.r.r.| r.r.r.t.r.t.r.r.r.w.r.t.r.r.r.t.r.w.s.r.r.w.r.r.r.r.r.r.r.w.s.s.r.w.r.s.t.t.k.t.s.r.t.w.k.k.t.s.k.s.k.4.k.y.s.s.k.s.k.s.k.s.k.s.s.s.s.s.4.s.s.s.4.t.s.k.t.s.s.k.w.t.k.DXdXt.s.s.k.s.s.s.k.k.r.k.k.s.k.4.s.k.t.k.w.k.k.y.t.k.w.y.w.w.k.y.w.s.w.t.y.y.w.s.w.t.w.t.w.w.t.i 3 1 v v v v v v v c B v v v j 2 i 2.2.2.2.2.2.! 2.2.! 2.2.2.i i 2.i i 2.! 2.i 2.i ! i i 2.2.i 2.i i ! i ! i ! i ! ! i i i i ! ! i i ! i i i i i i i i i i i i i i i i i i i i i i i i i i i i i i i i i i i i i u i u i u u u u i i u u u ",
"3.~ ! ~ ~ 3.~ ~ ~ 3.~ 3.~ ~ 3.~ 3.5.~ ~ 3.5.3.5.5.~ 5.3.5.3.5.~ 5.5.5.5.5.5.5.5.5.5.5.5.5.5.5.5.5.5.5.5.5.5.5.5.5.5.5.5.5.5.5.5.5.7.5.5.5.5.5.7.5.7.5.5.5.5.5.5.5.5.5.7.5.7.5.5.5.5.7.5.7.5.9.5.5.5.9.5.5.5.5.5.5.5.5.5.5.5.5.5.5.3.2 G..X.X].H.P v : v C C v v v z v x k x l v k v k l x k l B l k k v l c k k k k k z < @ 8 | | r.$.| | | | | | | | | | | | { | r.| {  . .r.{ | | r.{ r.{ | |  .r.{ | { | r.{ | r.r.{ r.t.{ r.{ t.{ { r.{ w. .| } r.{ { r.| { r.{ t.r.r.{ r.{ r.r.| r.r.r.{ t.r.r.t.{ r.r.r.| r.w.{ t.w.r.r.r.w.r.r.r.r.r.r.r.r.r.r.t.r.r.r.s.s.s.r.r.r.r.s.t.r.s.t.s.s.s.s.4.k.w.k.r.k.r.k.r.s.k.k.w.s.s.s.s.s.k.s.w.k.r.k.w.k.w.k.s.s.s.s.s.k.s.s.s.k.s.s.k.s.k.s.k.k.k.dXDXx.k.k.t.s.k.t.k.t.k.k.w.s.t.s.y.k.w.s.s.s.w.w.s.s.s.r.k.t.k.w.s.w.k.s.w.w.s.w.t.w.t.w.w.t.w.w.e $ b v V v B v v b V v v v v j 2 ! 2.2.2.2.2.2.2.2.2.2.! 2.2.2.! 2.2.2.! ! 2.! 2.2.i 2.i i 2.i ! 2.i 2.i ! i 2.i i 2.i ! ! i i ! i ! i i i 2.i i i i i ! i i i i i i i i i i i i i i i i i i i p u i i u u i i i u i p i i p i u u p i u ",
"~ ! ~ ~ 3.~ ~ 3.3.~ 3.~ 5.~ 5.3.~ 3.5.3.~ 5.~ 5.5.~ 5.~ 5.5.5.5.5.~ 5.5.~ 5.5.5.5.5.5.5.5.5.5.5.5.5.5.5.5.5.5.5.5.5.5.5.5.7.5.5.5.5.7.5.7.5.5.7.7.5.5.9.5.5.5.5.5.5.5.9.9.5.5.7.5.5.9.7.9.5.5.5.7.5.5.7.5.5.5.5.5.5.7.5.5.9.5.5.3.u b .X#X.X`.G.L , j G v C C v v v B B V l x x x l B x x x z k x k l x x k k v k c c < @ 8 | | | | | | r.$.| | | | | | | | | r.| r.| | | r.| | r.{ r.| | | | r.r.{ | { r.r.{ r. .| r.r.{ { r.r.| r.| t.r.| | | | | r.{ r.{ { r.r.t. .r.r.r.r.w.r.| r.{ r.{ r.{ { t.| { t.r.r.r.r.r.s.w.| r.r.t.r.r.r.s.r.w.r.r.r.r.r.t.s.w.w.t.w.s.r.r.s.w.s.r.r.r.k.w.r.s.s.4.s.s.w.k.t.s.s.s.s.s.k.k.y.s.k.k.s.k.t.s.s.s.s.s.s.s.s.k.r.k.s.y.s.k.w.k.k.s.s.r.k.s.k.s.s.s.9XCX1Xk.s.s.4.k.k.w.k.s.s.y.@Xk.t.k.4.t.k.s.y.s.t.4.w.k.w.s.s.y.s.w.w.t.k.w.t.t.r.w.t.r.w.y.w.t.y.w.r @ l V v v v v v v c v v v c 1 r 2.2.2.2.2.2.2.2.2.~ 2.2.2.2.! 2.! 2.i 2.i 2.2.! 2.i 2.! ! 2.i i 2.! i 2.i 2.i i ! 2.i i i 2.i i 2.i i i ! i i ! i ! i i i i ! i i i i i i i i i i i i i i i i i i i i i i i p i u i i i i u i u u i u ",
"~ ~ 2.~ ~ 2.2.~ ~ 3.~ 3.~ 3.5.~ 5.3.~ 5.3.3.5.5.3.5.3.5.3.5.3.5.5.5.5.3.5.5.5.5.5.5.5.5.5.5.5.5.5.5.5.5.5.5.5.5.7.5.5.5.5.5.7.5.5.5.5.7.5.5.7.5.5.5.5.5.7.5.7.5.7.7.5.5.5.5.7.5.7.5.5.5.5.5.7.7.7.5.5.7.9.5.9.5.5.9.5.5.5.5.5.7.3.2 G.$X$X'.`.G.c : C C C v v v v z v l z v V k k z k z k l c x l x k x v k k x c c f o 8 | r.| r.$.| | | | | | | | r.| | r.| | | | | | r.{ | | | | | r.| w.| { | t.| | r.{ | | r.r.{ { t.| t.{ | w.r.{ | r.{ | | | r.{ | r.r.t.{ { r.r.r.{ r.| r.| r.r.r.r.| r.| | | r.r.r.| r.r.r.r.t.r.t.r.r.r.r.r.w.s.s.r.r.w.t.r.r.s.s.s.r.s.r.s.r.r.s.r.k.s.r.r.k.s.s.t.s.k.w.s.k.k.r.k.t.s.k.t.r.s.s.s.s.s.k.k.k.k.k.y.s.k.k.s.s.s.k.s.k.k.k.k.k.s.k.k.k.s.s.s.k.k.s.k.DXdXk.k.s.t.k.k.t.t.s.k.k.eXk.y.s.s.s.k.t.w.s.k.s.w.y.k.w.s.w.t.s.s.k.w.t.t.4.w.k.4.t.s.w.t.w.w.w.q.2 : v V v v v v v v v c v v c 2 e 2.2.2.2.2.2.2.2.2.2.2.i 2.! 2.2.2.2.! 2.2.i ! 2.2.i 2.2.i 2.2.i i 2.i 2.i ! 2.i i i 2.i 2.i i ! i 2.i i ! ! i ! i i i i i i i ! i i i i i i i i i i i i i i i i i i i i i i i i i u i u p i i u p i ",
"2.3.~ ~ 3.3.~ 3.3.~ 3.~ ~ 5.~ 5.~ 5.~ 5.5.5.~ 5.5.~ 5.5.5.~ 5.5.5.5.5.5.5.3.5.5.5.5.5.5.5.5.5.5.5.5.5.5.5.5.5.5.5.5.5.7.5.5.5.5.5.7.5.5.5.5.5.5.9.5.5.5.5.5.9.7.5.5.7.5.7.5.5.7.5.5.5.7.5.7.7.5.5.5.5.5.5.5.7.5.5.7.7.5.5.5.5.7.u b #X#X.X`.G.K : j Z C C C v z B z c v V k z c k v v k v z c l x v k l k l x l k j @ 7 { f.| f.r.| r.$.| | | | | | | | | | r.r.r.| w.| r.| r.| | r.r.| r.| | r.| | r.| r.{ t.r.w.| r.| r.r.r.| r.| | w.r.| r.w.r.{ t.| r.r.r.{ r.r.w.| r.| | t.w.r.r.| | r.r.r.r.| r.r.r.r.r.r.r.r.r.r.r.r.r.r.r.r.w.s.r.r.r.r.s.r.s.s.r.r.r.s.r.r.r.s.r.k.k.r.s.s.s.s.s.r.s.s.k.s.s.s.s.t.k.t.s.s.s.s.y.s.s.4.s.s.k.k.k.k.k.k.s.s.k.k.k.s.k.k.s.k.s.s.s.k.k.k.y.k.s.k.k.k.k.dXDX1Xt.k.k.k.t.k.k.k.t.x.dXk.s.k.y.s.k.s.k.k.t.s.k.s.w.s.k.s.w.w.s.w.t.s.t.4.t.s.y.w.s.t.w.s.w.s.r.q.% 2 v v v v v v c v v v v v b ; i 2.3.2.2.2.2.2.2.2.2.2.2.2.! 2.2.! i 2.2.i 2.i 2.2.i 2.2.i ! i 2.i 2.i 2.i i 2.i 2.! i i i ! i i 2.! i ! i i ! i i ! i i i ! i i i i i i ! i i i i i i i i i i i i i i i i i i i i i i i i i i u i ",
"~ ~ ~ 2.~ ~ 3.~ ~ 3.~ 5.3.~ 3.3.3.5.3.3.5.~ 3.5.5.5.5.3.5.5.5.5.5.5.5.5.5.5.5.5.5.7.5.5.5.5.5.5.5.5.5.5.5.5.5.5.9.5.5.7.5.5.5.7.5.5.7.7.5.7.7.5.5.7.7.7.7.5.5.5.5.7.5.7.5.5.9.5.7.5.9.5.7.5.5.5.7.5.9.5.7.5.5.7.7.5.5.5.5.5.5.5.2 H.$X$X].`.G.k : C Z C C v v C v v v z z v B l v z k x x l k z x k z c z c x x j @ 2  .| | | | | r.| | r.| | r.| | r.| r.r.r.| | r.| r.| r.| r.u.{ r.r.| r.| r.r.| w.| | r.r.| r.r.t.{ r.{ r.r.r.| r.r.r.r.r.r.r.r.r.r.r.r.r.r.r.t.r.r.r.r.r.r.r.r.r.r.r.r.r.r.r.r.r.r.r.r.w.r.r.r.r.r.r.t.r.r.r.s.s.t.r.s.s.s.s.r.r.r.s.r.s.r.r.k.r.s.s.t.r.s.s.s.w.k.t.k.s.s.s.s.s.s.s.s.s.p.4.k.k.s.s.k.k.k.k.s.k.t.k.k.s.k.k.y.k.s.k.s.s.k.s.k.k.k.k.s.k.k.k.k.k.s.k.k.k.1XZXdXk.k.k.k.k.k.k.s.k.k.dX1X4.s.s.k.4.s.k.t.k.s.s.s.k.y.w.k.k.y.y.k.4.t.s.t.y.w.w.s.w.w.y.w.s.w.w.w.n 3 1 V v v x v v V b v c v v q 2 i 2.2.3.2.2.2.2.2.2.2.2.2.2.2.2.2.2.2.2.2.2.2.i i 2.! i 2.! 2.i 2.i 2.i 2.2.i 2.i ! 2.i 2.i 2.i i ! ! i ! ! 1.! ! ! i 2.i ! i i 2.i ! i i i 2.i i ! i i ! i i i i i i i i i i i i i u i i p i i i ",
"~ ~ ~ 3.~ 3.3.~ 3.5.~ 3.~ 5.~ 5.5.3.3.5.5.3.3.5.5.5.5.5.5.5.5.5.5.5.5.5.5.5.5.5.5.4.5.5.5.5.5.5.5.7.5.7.5.5.5.5.5.5.5.7.5.7.5.7.5.5.7.7.5.7.7.5.7.5.5.7.7.5.5.7.9.7.5.7.7.5.7.7.5.7.7.5.7.5.9.7.7.5.7.5.5.7.9.5.5.9.5.7.5.5.5.W c $X$X#X`.H.G : l K C C C v v v v x v k B v z v z z c l B k z v z c B l l k c k = : [ f.| $.r.r.f.| | r.| r.r.| f.| r.| | r.| r.r.r.| r.| u.| r.r.r.| r.| r.r.| | | r.| | r.r.r.r.r.r.r.r.r.r.r.r.r.r.r.r.r.s.r.r.r.s.w.r.r.r.r.r.r.r.r.r.r.r.r.r.s.w.s.s.r.r.r.r.r.r.r.r.r.r.s.r.r.s.r.s.t.s.s.s.t.k.r.s.w.s.w.r.s.t.4.s.s.s.s.s.r.s.s.s.k.s.s.s.s.r.k.r.k.k.t.t.k.k.t.s.s.k.s.s.s.s.s.s.s.k.k.k.k.s.k.s.k.k.k.k.k.s.k.k.k.k.k.k.k.s.k.k.k.s.k.k.k.k.k.k.k.s.x.CXdXk.s.k.k.k.s.s.k.k.s.eX&Xk.k.s.s.k.s.s.k.4.y.w.k.k.w.k.k.k.t.w.w.k.y.w.y.4.t.4.t.4.t.w.s.w.t.w.t.w.r $ j v v V v b V v v v v v v 1 2 ! 3.2.2.q.2.2.2.2.2.2.2.2.! 2.2.2.2.2.2.! ! 2.! 2.2.i ! ! ! ! ! ! 2.i 2.! i ! i 2.2.i 2.i ! i 2.i i ! i ! i ! i i i ! i i 1.! ! ! i ! ! i i i ! i i ! i i ! ! i i i i i i i i i i i i i i i i i ",
"3.~ 2.~ ~ ~ 3.~ 3.~ 5.~ 5.3.3.3.3.5.5.~ 5.5.5.3.5.5.5.4.5.5.5.5.5.5.5.5.5.7.5.7.5.7.5.7.7.5.7.5.5.5.5.5.7.5.7.5.5.7.7.5.7.5.5.7.7.7.7.5.5.7.7.5.7.7.7.5.7.7.7.7.7.5.7.5.5.7.5.7.7.7.7.7.7.5.7.5.7.7.5.7.7.7.5.7.5.7.7.7.7.7.5.% H.$X'.].`.G.j < C C C v v z V v z v z V l v x k x c v x l v x k c z k c x v k = $ [ $.| | r.| | | r.| $.r.| $.| | | r.| r.| u.| | r.| u.r.| | r.| r.r.r.r.| | r.r.r.r.r.w.r.r.r.r.r.r.r.r.r.r.r.r.r.r.r.r.r.t.r.r.r.r.r.r.r.r.s.r.r.t.w.s.s.r.r.r.t.r.r.w.s.s.r.r.r.s.s.k.r.s.w.r.s.t.4.r.s.k.r.s.w.s.s.k.k.r.s.s.s.s.s.k.t.k.t.k.s.s.s.t.k.s.t.k.s.k.k.k.s.s.k.k.s.k.k.k.s.k.s.k.k.k.k.k.k.k.k.s.k.k.k.k.k.f.k.k.k.k.s.k.s.k.k.k.k.k.k.k.k.k.k.k.k.k.k.k.k.k.k.dXSX@Xk.k.s.k.k.s.k.k.s.1XDXk.k.k.s.4.k.s.y.s.k.k.s.s.y.s.w.s.4.k.s.4.t.s.t.t.s.t.s.w.s.y.s.y.w.t.4.t.w.r 3 c v V v V v v v B b v v V 1 r ! 2.2.4.2.2.3.2.2.2.2.2.2.2.2.2.2.2.! 2.2.2.2.i 2.2.2.2.1.2.! 2.i 2.2.2.2.2.i 2.i 2.i 2.! 2.i i 2.! ! ! ! ! i 2.2.i ! ! i ! i 1.i i i i ! i i :.i i i i i i i ! i ! i i i i i i i i i i i i i ",
"2.~ ~ 3.3.3.3.5.3.~ 5.5.5.3.~ 5.5.3.5.5.5.5.5.5.5.5.5.5.5.4.5.7.5.5.5.5.5.5.5.5.7.5.7.5.7.5.5.5.5.5.5.5.5.7.7.7.7.5.7.5.5.7.7.7.7.5.7.7.7.7.7.7.7.7.7.7.7.7.7.7.7.7.7.7.9.7.7.7.7.9.7.7.7.7.7.7.5.9.7.7.7.7.7.5.7.7.7.5.7.6.u r $X$X.X`.G.G - l F C C C C v V z v v v v V z z v l v z x k z B k l x z x v k : @ ' | $.f.f.| f.| r.| | r.$.| r.| | | f.| | f.r.r.f.r.r.| r.r.f.| r.r.r.r.r.r.r.r.r.r.r.r.s.r.r.r.r.r.r.r.r.r.r.w.r.r.r.r.w.r.r.r.r.r.r.r.r.s.s.w.r.r.r.t.s.w.r.r.w.s.s.r.s.r.r.s.s.r.s.t.r.k.s.s.s.s.r.s.4.s.r.s.s.s.s.s.s.t.k.r.s.s.s.s.r.k.k.k.t.k.k.4.s.s.k.s.s.s.k.t.s.k.s.k.k.k.k.k.k.k.k.k.k.k.k.k.k.k.k.k.k.k.k.k.k.k.k.k.k.k.k.k.k.k.k.k.k.k.k.k.k.l.l.k.k.k.k.k.k.k.k.k.1XIXeXk.k.k.k.k.k.y.k.k.x.CX@Xk.k.y.k.w.s.4.s.t.k.y.s.k.y.s.s.s.k.t.s.t.t.k.k.w.y.s.k.t.k.w.y.t.s.w.w.y.[ % : v v v v v v v V v b V v v , r 2.4.2.2.2.q.3.2.2.2.2.2.2.2.2.2.2.2.2.! ! 2.2.! 2.2.2.! ! ! i 2.2.i i i 2.2.! ! i 2.! ! ! ! 2.! ! 1.1.! i 2.i 2.! i 2.i ! i i ! i 2.i ! 2.i i ! i 2.! i i i i i i i i i i i i i i i i i i i ",
"~ 3.3.3.~ 3.3.~ 5.3.3.3.~ 3.5.5.3.5.3.3.3.5.5.5.5.5.5.5.5.5.5.5.5.5.5.5.7.5.7.5.5.5.7.5.5.7.5.7.5.7.7.5.7.5.5.5.5.7.7.7.7.7.7.7.7.7.5.7.5.7.5.0.7.7.7.7.5.7.7.7.7.5.7.7.5.7.7.7.7.7.5.7.7.7.7.7.7.5.5.7.7.5.7.5.5.7.5.7.p.2.2 ,.$X#X'.G.P 1 < Z C C v C C V V v v z V k k v c k B c z x v c z x z x k B l , # m f.f.r.r.| r.r.$.$.| f.| r.r.f.| | f.| r.r.| | f.| r.r.r.r.r.| r.s.r.r.r.| s.r.r.r.r.r.s.r.r.r.r.t.r.t.r.r.r.s.t.r.r.s.r.s.r.r.r.s.r.t.r.r.r.r.r.s.r.s.s.t.r.s.r.k.s.r.s.t.r.s.t.r.s.4.s.s.r.s.t.r.s.k.s.s.k.r.k.k.k.t.s.s.s.k.s.t.s.k.r.k.k.s.s.k.k.s.s.k.s.k.t.s.k.k.k.k.k.k.k.k.k.k.k.k.k.x.k.k.k.k.s.k.k.k.k.k.k.k.k.k.k.k.k.l.k.k.l.k.k.k.k.x.k.k.k.k.k.k.k.l.k.k.k.x.p.x.k.x.ZXDXk.k.k.k.k.k.k.k.s.x.dXdXx.k.k.k.k.k.k.k.k.k.s.s.k.4.s.y.k.s.4.s.k.4.s.t.s.w.t.4.s.w.s.w.4.w.s.s.w.t.! $ 1 v v V v v V v v A v v v c 2 u 2.2.w.2.4.2.2.2.2.2.2.2.2.2.2.2.2.2.2.2.2.2.2.2.2.2.2.2.! 2.2.2.i 2.2.2.i ! ! ! ! ! :.! ! 2.i ! ! ! ! 2.i 2.i ! ! i ! i 2.! ! ! i ! i 2.i ! ! i i i ! 2.i i ! i ! i ! ! i ! i ! 1.i i i i ",
"3.3.3.3.3.3.3.5.3.5.5.3.5.5.5.3.5.5.5.5.5.5.5.5.5.5.5.5.5.5.5.5.5.5.7.5.5.7.7.5.5.7.7.5.7.5.7.5.7.5.7.5.5.7.7.7.7.5.7.7.7.7.5.7.7.7.5.5.7.7.7.7.7.7.7.7.7.7.7.7.7.7.7.7.7.7.7.7.7.7.7.7.7.7.7.7.7.7.5.9.7.7.7.7.6.7.7.7.6.u v .X$X].`.G.A ; z G G C v C v C v v z v z v z c c v k V v l B z v l c z c v , + m r.r.r.| | f.| $.t.f.| $.f.r.| r.$.r.| s.f.| f.| | r.f.| r.r.s.s.r.| f.r.r.r.r.| r.r.r.r.s.r.r.s.r.r.r.r.r.r.r.s.t.s.t.s.s.u.r.r.| r.r.r.s.s.r.r.s.r.k.w.s.s.r.s.s.s.r.w.k.s.s.w.s.s.s.s.s.s.s.s.k.s.r.t.s.s.t.k.s.k.s.s.t.k.t.k.t.k.s.k.r.y.s.s.k.k.s.t.k.s.k.k.k.k.k.k.s.k.k.k.k.k.k.k.k.k.k.k.k.k.k.k.k.k.k.x.k.k.k.l.k.k.k.x.x.k.x.k.k.x.x.x.x.k.k.k.l.k.l.k.l.k.k.k.k.x.k.l.k.k.dXSX1Xk.k.k.k.k.k.k.k.k.1XCX1Xk.k.k.k.k.s.k.y.k.k.k.s.k.s.4.t.s.s.s.4.k.t.w.k.k.t.w.k.w.k.s.s.y.s.w.y.w.w.i @ j v V v v v v b v v A v v c 2 i 4.3.q.q.2.3.2.q.2.2.2.2.2.2.2.2.2.2.2.2.2.2.2.2.! 2.2.! 2.! 2.2.2.! 1.! 2.! 2.! 2.! ! ! 2.2.! ! ! i 2.i ! ! :.! 2.i ! i 2.i 2.i ! ! i 2.i i ! i 1.! i ! i ! ! 1.i i i i i i ! i 1.i i i ",
"3.~ ~ 3.3.~ 5.3.5.3.3.3.5.3.5.5.4.5.5.5.5.5.5.4.5.4.5.5.7.5.4.7.4.7.5.7.7.5.5.5.7.5.7.5.5.7.5.7.5.7.7.7.7.7.7.7.7.7.7.5.7.7.7.7.7.7.0.7.7.5.7.0.7.7.7.7.7.7.7.0.7.7.7.7.7.7.7.7.7.7.7.7.7.7.7.7.7.7.7.7.7.7.7.7.7.7.7.p.w.2 H.$X.X`.H.P 1 < G C G C v z z V z v v x V B k v z v v z c z x x c z v k v < + e f.$.f.$.f.f.| f.| f.r.r.r.r.f.f.r.| f.r.| r.s.r.r.s.r.r.f.r.f.r.r.r.r.r.| f.r.s.f.r.s.r.r.r.r.s.r.s.s.r.s.r.k.r.s.s.r.s.s.w.r.r.s.s.r.s.r.r.r.r.s.r.s.r.s.k.s.s.s.w.s.k.s.s.s.r.s.s.t.k.k.r.s.t.s.r.k.s.k.s.s.s.s.s.s.t.s.k.k.s.k.k.k.k.k.k.k.k.k.s.s.k.k.k.s.k.k.s.k.s.k.k.k.k.k.k.k.k.k.k.x.k.x.k.k.l.k.k.k.k.k.x.a.x.k.x.x.x.k.i.l.k.x.l.i.x.x.k.x.x.k.x.x.k.k.l.x.k.x.x.k.l.k.k.x.eXAX9Xk.x.k.k.k.k.k.k.k.1XDXeXk.k.s.k.s.k.s.k.s.4.y.k.s.y.k.s.4.k.y.k.s.k.y.k.k.s.k.t.w.s.w.y.k.w.k.w.y.s.t.r $ c v v B v V V v V v v v v c 2 ! q.2.4.w.q.2.4.2.3.2.2.2.2.2.2.2.2.2.2.2.q.2.2.2.2.2.2.2.! 2.! ! 2.2.2.1.2.! 2.! ! 2.! i i 2.! ! 2.2.2.! 2.! ! ! 2.! ! i 2.i 2.1.! 2.i ! 2.i 2.! ! 2.i i 2.i ! ! 2.i 2.! i 2.i i ! ! i ",
"3.3.3.3.3.5.5.3.3.3.5.5.5.5.3.5.5.5.5.5.5.5.7.5.5.5.5.7.5.5.5.7.5.7.5.5.7.5.5.7.7.5.7.7.0.5.7.5.7.5.5.7.5.7.7.7.7.7.7.7.7.7.7.7.7.7.7.7.7.7.7.7.7.7.7.7.7.7.0.7.7.7.7.7.7.7.7.7.7.7.7.7.7.7.7.7.7.7.7.7.7.7.7.7.7.7.7.6.t v $X.X'.`.G.v * v K C C C C C V v v V v v z x v v x x k v z c v v k c z x j O 8 r.$.f.f.| f.r.| f.f.| s.$.$.s.| f.| s.r.f.f.s.s.s.s.| f.f.r.r.| r.s.r.s.r.r.r.f.r.f.s.r.s.s.r.s.r.r.r.r.s.r.s.s.s.r.s.s.r.s.r.r.r.s.| s.| s.r.r.s.s.r.r.r.k.r.t.s.r.s.s.r.t.t.s.t.s.t.k.y.k.s.s.k.s.k.k.t.y.s.k.t.k.s.k.k.k.k.s.k.k.k.t.k.k.s.k.s.k.k.s.k.k.k.k.k.k.k.k.k.k.k.k.k.k.k.x.k.k.k.k.k.k.k.k.l.k.x.x.k.k.l.x.k.l.k.k.x.k.x.k.x.x.x.k.x.k.x.x.k.x.x.x.l.k.x.k.k.l.p.x.x.k.x.x.1XZXdXx.k.k.k.x.x.k.k.k.x.dXdXk.k.4.k.k.k.k.k.k.k.k.s.k.s.k.k.k.s.s.w.s.y.s.w.4.s.s.k.k.w.k.k.s.y.w.k.t.w.y.w.2 : x V V b V v v v v v v V v q 7 2.w.3.3.q.4.q.2.4.2.4.4.2.2.2.2.2.2.2.2.2.2.2.2.2.2.2.2.2.2.! 2.2.! ! ! 2.2.2.2.2.! ! 2.2.! 2.! ! i 2.2.i 2.] ! ! 1.2.2.2.i i ! ! 2.2.! :.! i ! i i ! i i ! i ! ! ! i i ! i i i ! ! i ",
"~ ~ 3.3.3.3.3.5.~ 5.3.5.3.3.5.5.5.5.5.5.4.5.5.5.5.4.7.5.7.5.7.5.7.5.7.7.4.7.0.5.5.7.7.5.5.0.7.5.7.7.7.7.7.7.7.5.7.7.7.7.7.7.7.7.7.7.7.7.7.7.0.7.7.0.7.0.0.7.7.7.7.7.7.7.7.7.7.7.7.7.7.7.7.7.7.7.7.7.7.7.0.7.7.7.7.7.p.q.1 `.$X'.'.G.P < d G C C C C C v C v z v z v v x v z v z V z c v z c v z v j + 2  .f.r.f.| f.r.$.f.r.$.f.| f.r.| f.r.f.r.f.r.f.r.r.r.$.f.r.r.r.f.f.r.r.f.f.| f.r.r.r.| r.u.r.s.s.| s.s.s.r.s.s.s.r.s.w.s.s.s.t.s.r.s.r.s.r.s.r.s.s.s.r.s.k.s.r.k.k.s.s.s.s.k.k.x.x.n.n.x.x.x.x.n.x.b.x.x.x.n.x.n.x.n.x.x.y.n.x.x.x.x.x.x.x.k.x.x.k.x.k.k.k.x.k.k.x.k.k.x.k.k.k.k.k.k.k.x.k.k.k.k.x.k.l.x.k.x.k.l.x.l.k.x.k.k.l.x.x.x.x.x.l.l.x.k.x.x.x.x.k.x.x.l.x.k.x.k.x.l.x.z.x.x.k.x.x.l.fXSXx.x.x.x.k.x.x.k.k.k.eXZX1Xk.x.k.k.k.k.k.k.k.4.k.k.k.4.k.y.k.k.k.4.k.s.k.s.y.4.t.y.s.s.w.4.w.s.t.4.k.r.w.[ % 2 v V A v V v b A v v A v v < r 4.q.q.4.q.2.3.2.2.2.2.2.4.2.2.2.2.2.2.q.2.q.2.2.2.2.2.2.2.2.2.2.2.2.2.2.2.! ! 2.2.:.! 2.2.! :.2.! 2.2.i 2.2.2.! ! ! 2.i 2.2.! ! ! i ! ! ! ! ! 2.i 2.2.i 2.! ! 1.i ! ! 1.! ! i 2.i :.",
"5.3.3.3.3.5.3.5.3.5.5.5.5.3.5.5.5.5.5.5.5.5.4.5.5.5.7.5.5.7.4.5.5.5.4.0.7.7.7.7.7.5.7.5.5.7.7.7.5.7.7.7.7.7.7.7.7.7.7.7.7.7.0.7.7.7.7.7.0.7.7.0.7.7.0.0.7.7.0.7.7.0.7.7.0.0.7.7.7.7.7.7.7.7.7.0.7.7.7.0.7.7.7.0.7.7.p.n v $X$X'.`.G.v : V Z Z C C C v C z v z v v z x v v v z v V k x z x z v v l & $ { $.s.f.s.f.f.$.r.s.| f.| | f.| | f.r.$.r.s.f.| f.| s.| | f.r.r.f.f.r.f.r.r.f.r.s.r.r.f.r.| r.s.r.s.r.s.r.r.s.s.s.r.s.s.s.r.s.s.s.r.r.s.r.r.r.s.s.r.s.s.s.s.s.s.s.s.s.s.s.s.k.k.k.k.x.x.k.x.x.k.y.x.x.x.x.x.x.x.z.x.eXx.n.1Xn.1Xn.1Xn.1Xn.1Xn.x.eXz.1Xn.x.x.z.n.z.z.z.z.z.1Xn.z.z.eXn.1Xz.n.z.z.z.x.x.x.x.l.x.x.l.x.x.x.x.k.x.l.k.x.k.x.l.k.x.x.l.z.x.x.x.x.k.k.x.l.k.l.x.l.x.x.x.l.x.x.x.x.x.eXGX1Xx.x.x.x.x.x.x.k.k.1XZX1Xk.k.k.k.k.k.k.k.k.k.k.k.k.k.y.k.y.4.k.k.k.4.k.k.t.s.4.w.s.w.y.k.s.s.4.t.k.s.w.s.i 3 q V C A v V v v A v v A v v : i 2.w.4.w.3.4.2.4.2.4.q.w.2.q.3.2.q.2.2.2.2.2.2.2.2.2.q.2.2.2.q.2.2.q.2.2.2.2.2.! 2.! q.2.i q.2.! ! ! :.! ! ] ! ! 2.q.i 2.q.! q.! :.2.2.! 2.2.! ! ! ! ! ! ! i 2.i i ! ! ! ! ! ! ! ! ",
"3.3.~ 5.5.3.5.3.5.3.3.5.5.5.4.5.5.5.5.5.5.5.5.5.7.5.4.7.7.5.0.5.0.7.7.5.5.5.7.5.7.7.7.7.7.7.5.7.7.7.5.7.7.7.7.7.7.7.7.7.7.7.7.7.7.0.7.7.7.7.7.7.7.0.0.7.0.7.7.0.0.7.0.0.7.9.7.0.0.0.7.0.7.7.0.7.7.0.7.0.0.7.0.7.0.6.[ < `.'.'.`.`.J , j G Z C C z C C v C v V v v V B z z x v x z v v v v C k k > @ [ f.f.f.$.r.f.r.f.s.f.f.f.f.f.f.f.f.f.f.| f.s.s.s.r.f.s.s.f.r.r.f.r.r.f.r.s.f.| f.| s.f.r.r.r.s.r.s.s.s.r.f.s.s.r.s.s.s.s.s.r.s.r.s.s.s.s.s.f.s.r.s.s.s.s.r.s.s.s.s.s.s.s.s.s.s.k.s.s.s.s.s.s.k.k.k.s.k.k.k.s.y.s.k.k.k.s.y.k.s.k.k.k.s.k.k.k.k.k.k.l.k.k.k.k.k.k.k.k.k.x.x.x.x.x.x.x.x.x.z.x.z.z.n.eXeXeXn.n.eXeXn.n.eXeXeXn.n.n.eX1XtXeXn.eXtXn.eXeXn.eXeXtXeXtXeXeXtXeXeXtXeXtXeXtXeXn.eXeXeXfXSXfXeXn.1Xn.z.z.1Xx.z.n.ZXfXx.x.x.x.x.k.n.x.y.x.x.x.x.k.x.x.x.x.y.y.k.x.y.y.k.k.y.k.k.k.s.w.y.y.y.s.w.s.y.s.w.r @ l v v V A v v v v A v A v b 2 ! w.2.2.4.w.w.q.q.q.2.4.q.2.q.2.4.3.w.q.q.2.2.2.2.2.q.q.2.q.2.2.2.2.2.2.q.2.2.q.2.2.2.2.! 2.2.2.q.2.2.2.2.2.2.2.2.2.q.! i q.! ! ! i ] 2.! :.! 2.] :.! i q.q.i q.2.! :.:.i ! i :.! ",
"~ 3.3.3.3.3.3.5.5.5.5.4.5.5.5.5.5.5.5.5.4.7.7.5.5.5.7.5.7.5.7.7.7.5.5.0.0.7.7.7.7.5.7.7.7.7.7.7.7.7.7.7.7.7.7.7.0.7.7.0.7.7.0.7.0.7.7.0.7.7.0.7.7.7.7.0.0.0.0.0.7.0.0.7.7.0.7.7.0.7.7.7.9.0.0.7.0.0.7.7.0.7.7.0.7.u.b v $X'.'.`.G.v ; C G G C C C v C v C v v v v V v v v x v z v v z v z c v , X m f.f.f.f.f.f.f.$.r.f.f.r.f.| f.| $.f.| f.| s.f.r.f.r.| s.r.f.f.r.r.f.r.s.f.r.r.r.r.f.f.r.f.r.f.r.s.s.s.r.s.s.s.s.s.s.s.r.s.s.s.s.s.s.s.s.r.s.f.r.s.s.s.s.s.s.s.s.k.s.s.s.s.k.s.s.s.s.k.s.f.s.s.k.k.k.s.s.s.s.s.s.s.k.s.l.s.k.k.k.s.s.k.k.k.k.k.k.k.k.k.k.k.l.k.x.k.x.k.x.k.l.k.x.x.x.k.x.k.x.x.x.x.x.x.x.x.x.x.a.x.z.l.z.z.z.z.1Xn.n.z.tXeXtXeXeXtXeXeXuXeXeXeXeXeXuXtXeXeXtXeXeXfXeXeXeXeXfXuXeXfXSXSXfXeXfXeXuXeXuXeXuXeXZXZXeXeXuXeXeXeXeXeXeXeXeXeXeXeXeXeXeX1XeXeXn.y.eXn.@Xy.eX1Xn.1Xk.z.y.x.x.x.y.k.y.k.y.w.2 , v v v v v A A v A b A v G j 7 2.q.4.w.2.w.w.3.2.w.w.3.w.4.w.2.q.2.2.4.q.4.4.2.q.3.q.2.2.2.q.2.2.q.q.2.2.2.2.2.q.q.2.2.q.2.2.:.2.q.q.2.2.2.2.[ 2.:.q.2.! q.! q.q.2.! :.2.! q.! ! ! q.2.i q.q.i ! 2.! q.2.i q.i ",
"5.3.3.5.5.5.3.5.3.5.5.5.4.5.5.5.5.5.4.5.5.5.7.5.7.5.7.5.5.7.7.5.5.0.7.0.5.7.7.7.7.0.0.7.7.7.7.7.7.0.7.7.0.7.0.7.7.0.7.7.0.7.0.7.7.0.0.7.0.7.7.0.0.0.7.7.0.9.7.7.7.0.7.7.7.0.0.0.0.7.0.0.7.0.0.7.7.0.0.0.0.7.0.7.p.q.1 `.$X'.].`.J > j H C C C C C C v z z v V z v z v z V B v x v z V k v v s + n f.f.f.f.f.s.f.f.f.s.f.f.f.f.f.f.s.r.r.f.r.f.s.r.f.f.s.f.f.s.s.f.s.f.s.r.f.s.f.s.s.r.f.r.s.s.s.s.s.f.r.s.s.f.r.r.f.s.s.s.s.s.s.s.s.s.s.s.r.f.s.s.s.s.t.s.s.s.s.s.k.s.s.s.s.s.s.k.s.s.s.s.k.k.s.k.k.s.s.k.s.f.s.s.s.l.s.k.s.k.s.s.k.l.k.k.k.k.l.l.k.k.k.k.k.l.k.l.x.k.x.x.x.x.l.x.x.x.x.k.x.l.a.x.x.l.x.x.x.x.x.x.x.x.z.x.x.x.l.l.x.z.l.x.x.l.k.x.z.z.z.z.z.n.4XiXn.n.eXiXeXeXtXeXuXtXeXfXuXuXeXeXeXuXZXSXjXeXeXeXeXeXeXeXeXeXdXIXeXeXeXeXeXeXeXeXeXeXeXeXeXeXeXeXeXeXeXeX1XeXeXeXeXeXeXeX@Xb.eXeX1XeX@XeX1X@Xn.@XeX@Xq.: s A v v A v v v v v A A A v 1 u 4.w.2.w.4.q.4.q.4.2.4.w.2.2.2.4.w.w.2.2.q.2.2.2.q.4.q.w.2.2.w.q.2.2.q.q.2.q.q.2.2.2.q.2.2.2.2.2.q.2.2.2.q.2.q.! ! q.i 2.2.q.! q.2.q.! ! 2.! q.q.! :.! 2.q.i q.! ] 2.i i q.i 2.",
"3.5.3.3.~ 3.5.5.5.5.5.5.5.5.5.5.5.5.4.5.5.5.7.5.7.5.7.7.5.6.7.6.0.7.5.0.7.7.0.0.7.7.0.7.7.0.7.7.7.0.7.7.0.0.0.7.7.0.7.7.7.7.7.7.0.7.0.7.7.0.0.7.7.0.7.0.0.7.7.0.7.9.0.0.0.0.7.7.7.0.0.0.7.0.0.0.0.7.0.0.0.7.0.0.p.b v $X$X'.H.G.k , C K G G C C C C v C V v v z v v v B V z v v x v v x B j + 8 | f.f.f.f.f.f.f.f.f.f.f.f.u.r.f.f.f.f.f.f.f.f.r.s.f.f.s.f.| f.r.s.f.r.s.s.f.s.s.s.s.f.r.s.f.t.s.f.s.s.s.s.s.f.s.s.f.t.k.s.s.s.s.s.s.s.f.s.s.s.f.f.s.s.s.s.s.f.s.s.s.s.s.k.s.s.s.s.s.s.k.s.k.k.s.k.s.s.k.k.f.f.s.k.k.k.s.k.k.f.l.k.k.k.l.l.k.l.k.k.l.k.l.l.k.k.l.l.k.l.x.l.x.x.k.x.k.l.x.k.l.z.x.x.x.x.x.x.l.x.x.z.x.l.l.z.l.x.x.z.l.z.x.z.z.x.l.z.x.x.x.x.x.x.x.x.z.x.z.z.z.z.z.z.z.z.n.n.n.1Xn.eXtXeXjXIXfXeXuXuXeXeXeXfXeXeXfXSXfXeXeXeXeXeXeXeXeXeXuXeXeXeXeXeXeX1XeXn.eX@XeXeXeXb.1XeX@XeXeXeX@XeX@Xy.@Xn.@Xx.eX@X@Xn $ k V v A v v A v A v v v G v < N 4.s.w.4.w.w.w.4.w.w.2.4.3.q.q.4.q.q.w.2.2.w.2.4.q.q.2.w.2.q.q.q.q.2.q.2.q.2.q.2.2.w.q.2.q.2.q.2.2.q.q.q.2.2.q.2.2.q.q.q.2.q.2.2.2.! 2.! q.! q.2.2.! [ 2.! ! ! q.2.! i q.2.q.",
"3.3.5.5.5.5.5.3.3.5.6.5.5.5.5.5.5.7.5.7.7.5.7.7.5.5.7.4.7.7.6.7.7.7.5.0.7.7.7.4.4.0.7.7.7.7.7.7.0.7.0.7.7.7.0.7.7.7.0.7.7.0.7.7.7.7.7.0.0.7.0.0.7.0.0.0.0.0.0.0.7.0.7.0.0.0.0.0.9.0.0.7.0.0.0.7.0.0.0.0.0.0.0.0.q.< H..X'.`.H.P , l G C z C v z v z C v z C v V B z z V B v v z v z z B k & 7 r.f.d.f.f.f.f.f.f.s.f.f.s.f.f.f.f.f.s.r.f.f.r.f.f.f.s.s.s.s.f.f.s.f.r.s.f.f.s.s.s.f.s.s.f.f.s.s.f.s.s.f.s.s.s.f.s.s.s.s.s.s.k.f.s.s.k.s.s.s.s.s.s.t.f.s.f.s.s.s.k.s.s.s.k.f.k.s.k.s.s.s.k.l.k.k.l.k.k.l.k.x.k.l.k.f.s.l.k.l.k.l.k.l.l.l.k.k.l.k.l.l.k.l.k.x.l.x.k.k.l.x.l.x.x.l.x.l.x.l.x.z.l.x.x.x.z.l.l.z.l.x.a.l.z.x.x.l.x.z.z.x.z.x.x.x.z.z.z.l.z.z.z.z.z.z.z.x.x.z.z.x.x.x.z.z.l.z.x.z.z.z.x.l.x.z.1XIXfXz.z.eXeXuXeXuXeXeXfXSXZXeXeXeXeXuXeXeXtXeXeXeXeXeXeXeXeXeXeXeXeXeXeXeX1X1XeX1Xn.eXy.eXeXx.eXeXeX@XeXeXy.b.@Xy.q : V A v A A v A v A G v v A j q y.@Xy.y.y.@Xy.y.y.w.y.w.w.w.w.3.w.4.q.4.w.w.q.q.4.q.4.2.w.q.q.4.2.q.2.q.4.q.w.q.q.q.q.q.q.2.2.q.q.2.q.2.q.q.2.q.q.2.q.! q.2.q.2.q.q.2.:.2.2.[ 2.q.2.2.2.2.2.q.! q.2.q.q.i i ",
"3.5.5.3.5.3.5.3.5.5.5.5.5.5.6.4.5.7.7.5.4.5.7.5.7.7.7.6.7.7.7.7.5.0.0.0.7.7.0.7.7.0.0.7.7.0.0.0.0.0.7.7.0.7.0.7.7.0.7.0.0.0.0.0.7.0.0.7.0.7.0.7.0.0.7.0.0.0.7.0.7.0.0.0.0.0.0.0.0.9.0.0.0.0.0.0.7.0.0.0.0.0.0.7.u v '.$X'.`.G.l < C G C C C G C v C C v v v z v V v v v z v v z v x v v : % | f.f.f.f.d.f.f.f.f.f.f.f.f.f.f.f.f.$.s.f.s.r.f.f.s.s.s.f.f.f.s.s.s.f.s.s.f.s.s.s.f.s.f.s.s.s.s.s.s.s.s.s.s.s.s.s.s.f.s.s.f.k.k.s.k.k.s.s.s.k.s.s.s.k.k.k.f.f.k.k.s.f.k.k.k.f.k.s.k.s.f.k.k.k.k.k.k.x.k.l.k.k.k.k.k.l.l.k.l.k.k.k.l.l.k.k.l.l.l.l.s.l.l.x.l.l.x.l.l.l.l.l.k.x.l.x.l.x.x.x.z.x.x.z.x.z.x.z.x.z.l.z.x.l.x.x.x.z.z.z.x.z.z.z.z.z.z.x.z.z.x.z.z.z.z.z.z.z.z.x.z.x.z.x.z.x.z.z.x.z.x.x.a.z.z.z.n.SXAXz.z.x.l.n.n.eXeXuXeXAXIXfXeXuXeXeXfXeXeXeXeXeXeXeXeXeXeXeXeXeX1XeXeXeXeXeXeXeX1XeX@Xx.eXeX1XeXeXeXeX@XeXeX@X1Xe.3 1 v v v A v V A v C A v G A 1 n y.@Xy.@X@Xy.@X@Xy.x.@Xy.y.y.y.k.y.t.y.w.w.w.w.w.w.q.w.2.4.q.2.w.4.4.2.q.q.2.w.q.q.q.2.q.q.q.2.q.q.2.q.q.2.q.2.2.q.q.q.2.q.2.q.q.2.q.2.2.q.q.2.2.] :.! 2.2.q.! :.! 2.:.2.2.",
"3.3.3.5.3.5.5.5.4.5.5.5.5.6.5.5.5.7.5.7.7.7.5.7.5.6.7.7.7.7.6.0.0.7.0.5.0.7.7.7.7.7.0.7.7.0.7.0.7.7.7.0.7.0.7.7.7.0.0.7.0.7.0.7.7.0.0.0.0.0.7.0.0.7.0.0.0.0.0.0.9.0.0.0.0.0.0.0.0.0.0.0.0.0.9.0.0.0.0.0.0.0.7.3.1 `.$X'.`.`.J : c K F K C C C v C C v z C V V v v z V v v V v V B v z < $ [ f.f.f.f.f.f.f.j.f.f.f.f.f.f.f.f.f.r.f.s.f.f.f.f.f.f.f.f.s.f.s.f.f.f.f.s.f.s.s.f.s.s.f.s.s.f.s.s.f.f.f.s.f.k.s.k.s.s.s.s.s.k.k.f.s.k.l.s.s.s.l.s.s.s.f.s.k.k.k.k.f.s.k.k.k.k.k.k.l.k.l.k.k.l.l.k.l.k.k.l.k.l.l.l.k.l.x.k.l.l.k.l.k.l.s.l.l.k.l.k.k.l.k.l.l.k.k.x.l.l.x.x.l.x.l.l.l.x.a.z.l.l.x.z.l.l.l.z.x.z.l.z.z.l.z.x.z.z.z.l.x.l.z.x.x.z.x.z.x.z.z.x.z.x.a.z.z.z.x.x.z.z.z.z.z.z.z.z.z.z.x.x.n.z.z.x.x.z.FXIX1Xz.z.z.x.x.z.z.n.eXfXIXfXuXeXfXeXeXeXeXvXeXfXeXeXeXeXeXeXeXeXeXeXeX1XeXeXeXeXeXeXeXeX@Xb.@XeX@Xn.@XeXeX@Xn.@XeXN 3 b G v A A V A M A v A C A v 2 I @X@X@Xn.eXy.@X@X@Xy.@X@X@X@Xy.y.y.y.y.y.y.y.y.w.w.y.y.w.w.w.w.q.w.2.w.q.4.2.q.q.q.q.w.2.w.2.w.2.q.q.q.q.q.q.q.q.2.2.q.q.q.2.q.q.2.q.q.q.2.q.q.2.q.2.q.] q.q.2.q.2.! 2.] ",
"5.5.5.5.3.3.5.5.5.6.5.5.6.5.5.5.5.7.7.7.7.6.7.6.5.6.6.7.6.7.7.6.7.0.0.0.4.0.0.7.0.0.0.0.0.0.0.0.0.0.0.0.0.0.0.0.7.0.0.7.7.7.0.0.0.0.0.0.0.0.0.0.0.0.0.0.0.0.0.0.0.0.0.0.0.0.0.0.0.0.0.0.0.0.0.0.0.0.0.0.p.0.p.u v $X.X].`.G.j < G G C Z F C C C C v v C v C z V z v v V z z v v v V j @ y f.h.l.h.f.f.f.f.f.f.f.f.f.f.f.f.f.f.f.f.f.f.f.s.f.f.f.f.f.k.f.f.k.k.s.s.f.f.s.s.f.k.f.f.f.s.s.k.f.s.s.s.s.s.k.s.f.k.k.f.f.k.f.s.s.;Xf.f.k.s.s.k.f.k.k.f.f.s.l.k.f.k.k.k.l.f.x.l.k.k.l.k.k.l.l.k.l.l.x.x.l.k.l.l.l.l.k.l.x.l.k.l.k.l.l.l.l.l.l.l.k.a.l.l.k.k.l.l.x.x.l.l.l.x.x.c.x.x.x.l.z.x.l.z.x.x.z.z.x.z.x.z.z.l.l.z.z.z.z.z.z.z.z.z.x.a.z.z.z.z.l.z.l.z.z.z.z.z.z.z.z.z.z.z.z.z.z.z.z.z.z.z.z.z.z.z.z.x.z.fXPXeXz.x.z.x.n.x.x.z.x.iXZXfXeXuXeXeXuXeXuXeXeXeXeXuXeXeXeXeXeXeXeXeXeXeXeXeXeXeXeXb.1XeXeXb.1Xb.1XeX1XeXeX@XeX@XeXy.q 3 v V v v G v v A G v A G A b 1 y.@X1X@Xy.x.@X@XeXy.@X@X@Xy.y.@X@Xy.y.@Xy.@Xy.@Xy.@Xy.@Xy.y.y.t.t.y.w.w.w.w.q.q.q.2.q.q.q.q.q.3.q.q.q.q.q.q.w.q.q.q.q.q.q.q.q.q.q.q.2.q.q.q.2.q.q.2.q.q.q.q.q.2.q.2.[ 2.",
"4.4.p.4.p.4.p.4.p.6.p.6.6.4.0.p.4.0.0.4.0.4.0.0.0.0.0.0.0.0.0.0.0.0.0.0.0.0.0.0.p.0.0.0.0.0.0.0.0.0.0.0.0.0.0.N.0.7.0.0.7.0.0.7.0.0.0.0.0.0.0.7.0.0.0.0.0.0.0.0.0.0.0.0.0.0.0.0.0.0.0.0.0.0.0.0.0.0.0.0.7.p.! 1 `.$X.X'.H.G : v G F G C C M C v C z v C C v v v v C v C v V B v B k + r f.f.f.f.l.f.f.f.f.f.l.f.k.f.f.f.l.f.f.k.l.f.f.f.f.s.f.k.f.k.f.f.f.f.f.f.f.s.f.s.f.k.f.s.k.s.s.f.s.k.f.k.s.l.k.f.k.k.s.f.k.k.s.k.k.s.k.k.s.k.l.l.s.f.k.k.k.k.l.s.k.k.k.l.l.f.k.k.k.l.k.l.l.k.k.l.l.k.k.x.x.k.l.l.l.l.k.k.l.k.l.k.l.l.k.l.l.k.k.x.l.z.l.x.l.l.l.l.l.l.l.l.l.z.l.z.x.z.z.x.l.l.x.z.l.z.z.l.z.z.z.z.z.z.z.z.z.z.l.z.z.c.z.z.z.z.z.z.z.z.z.z.z.z.z.z.z.z.z.z.z.z.M.z.a.z.z.z.z.z.z.z.z.z.z.z.z.z.z.z.1XIXkXz.z.x.x.a.x.z.z.z.z.dXSXz.z.eXn.eXfXeXfXuXfXfXeXeXeXeXeXeXeXeXeXeXeXeXeXeXeXeXeXeXeXeXeXeXeX1X1XeX@XeX@XeXeX@XeXy.: < v A A C v G v A v A v A v 1 n y.@Xb.1X@X@X@Xy.@X@Xx.y.@X@Xy.y.@X@Xy.@Xy.@Xy.@Xy.y.@X@Xy.y.@Xy.@X@Xy.y.oXy.y.y.y.y.w.w.w.w.2.4.q.w.q.w.q.q.4.q.q.q.w.4.q.w.q.q.q.q.q.q.2.q.q.q.q.2.q.q.q.q.q.q.q.2.2.",
"x.p.n.x.n.n.b.n.p.n.n.n.p.n.N.b.n.M.N.b.n.M.M.n.n.N.n.M.n.M.m.N.b.M.M.M.m.M.M.M.m.N.m.N.M.M.M.N.M.M.b.N.N.M.N.N.N.N.N.N.N.a.0.0.0.a.a.N.0.0.0.0.0.0.0.0.0.0.N.0.0.0.0.0.0.0.0.0.0.0.0.0.0.0.0.0.0.0.0.0.0.p.u b $X$X.X'.G.j s G F G F C C z C C C C C z v z v z V v v v z C V z x : 2 r.f.j.f.l.f.f.f.j.f.l.f.l.f.f.j.l.f.f.f.f.l.f.f.f.f.f.k.f.k.f.k.f.k.f.f.f.s.s.f.k.s.l.s.k.s.f.f.k.f.f.s.f.f.s.f.s.f.f.f.s.k.f.s.f.f.k.f.l.k.f.k.f.f.s.f.l.l.s.k.k.k.l.k.k.k.k.l.l.l.l.l.k.k.l.l.k.l.l.k.l.k.l.l.k.k.l.l.l.l.l.k.l.l.x.x.x.x.l.x.z.l.l.z.l.z.l.l.l.x.z.l.l.l.l.x.l.z.l.z.l.z.z.z.l.z.z.l.z.z.z.z.z.z.z.z.z.z.z.z.z.z.z.z.z.z.z.z.z.z.z.z.z.z.z.z.z.z.z.z.z.z.z.z.z.z.z.z.n.z.M.z.z.z.z.z.z.z.z.z.z.4XGXSX1Xz.z.z.z.z.x.z.z.z.eXJX1Xx.x.z.z.n.eXeXeXuXeXeXfXtXeXeXuXeXeXvXeXeXeXeXeXeXeXeXeXeXeXeXeXeXeXeXeX1XeXeXeXeXeXeX@Xe.3 c v G v A v A A G A G A A v ; N @X@X@X@Xn.@X1X@X@X@XeX@X@X@X@X@Xn.@Xx.@Xy.@Xy.y.@Xy.y.@X@Xy.@Xy.@Xy.@Xy.@Xy.y.y.y.oXy.y.t.y.y.w.w.q.w.q.q.q.q.4.q.w.q.q.q.q.4.2.q.q.w.2.q.q.q.q.4.q.q.q.4.q.q.2.q.q.",
"n.b.x.n.p.n.z.n.n.n.x.n.n.n.n.n.n.M.M.M.m.n.n.n.n.M.b.M.M.m.m.m.N.m.m.m.m.m.M.M.m.m.m.m.m.m.m.b.m.m.m.m.m.m.m.m.N.m.b.m.M.m.M.m.m.N.M.m.N.M.M.M.M.N.M.M.N.N.m.m.N.N.N.N.N.p.N.N.a.0.N.N.0.0.0.0.0.0.0.0.0.2.r `.$X'.'.`.G : C F C G C C C C C v v v C v C C v C V z V z v v V v 1 $ [ d.f.f.l.d.l.f.f.d.l.d.h.l.f.l.f.f.f.f.f.l.f.l.f.f.l.f.f.f.l.f.f.l.f.k.k.l.f.f.l.f.k.f.f.f.l.f.s.f.k.f.k.f.l.f.k.f.k.f.s.s.f.s.f.k.l.s.k.k.k.s.l.k.l.k.k.k.s.l.l.f.l.f.l.l.l.k.k.l.k.k.l.l.l.k.l.l.k.l.l.l.l.l.l.l.k.l.l.l.l.l.l.l.l.x.l.l.l.l.l.l.l.l.l.x.l.l.l.l.l.z.z.l.x.z.z.z.l.z.l.z.l.z.l.z.z.z.z.z.z.z.z.z.z.z.z.z.z.z.z.z.z.z.M.z.z.z.z.z.z.c.z.z.z.z.z.z.z.M.z.z.z.z.z.z.z.z.z.z.z.z.z.z.z.z.z.z.z.z.z.n.z.ZXSX4Xz.z.z.z.M.x.n.z.z.eXGXfXz.x.z.x.x.x.x.x.n.eXn.eXeXeXeXeXeXfXeXeXeXeXeXeXeXeXeXeXeXeXeX1X1XeXeXeXeX1Xb.eX@XeXn.eXy.t = v v A C G v v G v A A A G c < e.1X@Xn.@X@X@X@Xb.x.@Xy.n.@XeXy.@X@Xy.@X@X@X@X@Xy.@X@Xy.@X@Xy.@Xy.@X@Xy.y.@Xy.@Xy.@Xy.@X@Xy.y.y.oXy.y.y.w.y.w.w.w.q.q.w.4.q.q.w.2.w.q.q.w.w.w.q.q.q.q.q.q.q.q.q.q.q.",
"x.x.b.x.M.n.n.p.b.n.n.n.n.n.n.n.n.M.m.M.m.m.n.m.m.n.m.M.n.M.b.M.m.m.m.N.m.b.M.m.m.m.m.m.m.m.m.m.m.m.m.m.m.m.m.m.m.m.m.m.m.m.m.m.m.m.m.m.m.m.m.m.m.m.m.m.m.m.m.m.m.sXm.m.m.m.m.m.m.m.m.m.N.m.m.N.N.N.a.a.k.p b XX'.].`.G.1 j G G G C C z G v C C C z C z v C C v v C C v v z v j @ W f.l.f.d.l.d.d.f.d.l.l.f.f.f.d.l.d.l.l.d.l.f.f.l.d.l.l.f.f.l.f.f.l.f.l.f.k.f.k.f.f.f.f.f.f.s.l.f.s.s.l.f.f.k.s.f.s.f.k.f.f.f.f.k.f.s.l.s.l.s.l.f.l.f.k.l.k.f.l.l.l.k.l.l.l.k.k.l.l.s.k.f.l.l.l.l.l.l.l.l.l.l.l.l.l.k.l.l.l.l.l.x.l.l.l.x.l.l.l.l.z.l.z.x.x.l.l.l.l.z.z.l.l.z.l.c.z.l.z.x.z.x.l.z.z.z.z.z.z.z.x.a.z.z.z.n.z.z.z.z.z.z.z.z.z.z.z.z.z.z.z.z.z.z.z.z.z.z.z.M.z.z.z.z.z.M.M.z.z.z.z.z.z.n.z.z.z.c.z.z.z.a.z.jXIXfXz.z.z.z.x.x.z.a.x.z.AXZXx.a.x.n.x.z.x.z.x.x.x.x.n.x.x.M.n.z.eXz.n.n.eXeXeXeXeXeXeXeXeXeXeXeXeXeXeXeXeXeXeX&X@XeXeXy.2 2 v G C v G v G A G v M A A < b @XeX@X@XeX@X@X@X@X@X@X1X@Xy.@X@Xy.y.@Xy.y.x.@X@X@X@X@Xx.@X@X@Xy.y.y.@X@Xy.@X@Xy.@Xy.@Xy.@Xy.@X@Xy.y.y.@Xy.y.y.y.t.t.y.w.w.w.w.q.w.q.q.q.q.4.q.w.q.q.w.q.q.q.q.q.q.",
"x.b.x.n.n.p.n.x.n.n.p.n.n.n.n.n.n.n.M.b.n.M.m.n.m.m.n.m.m.m.m.m.m.m.m.m.m.m.M.m.m.m.m.m.m.m.m.m.m.m.m.m.m.m.m.m.m.m.m.m.M.m.m.m.m.m.m.m.m.m.m.m.m.m.m.m.m.m.m.m.m.m.m.m.m.m.m.m.m.m.m.m.m.m.m.sXm.N.m.tXy.r .X.X.X'.H.G : C G G C G G C C C C v C v v C C v C v C v z V V C k = 5 f.-Xf.f.l.d.f.l.d.j.f.f.d.l.d.f.f.l.f.f.l.l.f.l.f.f.f.f.l.f.f.f.l.f.k.f.s.f.f.f.l.f.s.l.f.f.k.f.f.f.l.f.f.k.f.f.l.l.f.f.k.k.f.k.f.l.f.s.l.s.l.k.l.k.f.l.k.k.f.k.k.k.l.k.l.l.f.l.l.l.l.l.l.l.x.l.k.k.l.k.l.k.k.l.x.l.l.l.l.l.k.k.l.l.l.l.z.l.l.l.z.l.l.z.c.l.z.z.l.l.x.l.l.z.l.z.z.l.z.l.c.z.z.z.z.c.z.z.z.z.z.z.z.z.z.z.z.z.z.z.z.z.z.M.z.z.z.z.z.z.z.c.z.n.c.z.c.z.z.z.c.z.n.z.z.c.z.z.z.M.z.z.n.z.z.M.z.z.z.z.M.z.n.z.iXPXFXz.z.z.z.z.M.n.x.z.z.fXHXn.z.z.x.z.x.x.z.x.z.M.p.p.x.x.x.x.l.x.x.x.x.x.x.x.x.x.n.x.x.n.n.eX@XeXeXeXeXeXeXeXeXeXeXeXeXe.3 j v A v A A v A G A A A G V : M y.eXeXy.b.@X1X1X@Xn.@Xy.@XeXy.eX@XeXeX@X@X@Xy.x.y.@Xy.@Xx.@X@X@X@X@Xx.@Xy.@X@Xy.@Xy.@Xy.@X@Xy.y.y.@Xy.oX@Xy.oXy.y.y.@Xy.y.y.w.y.y.w.w.q.w.q.q.w.w.q.q.w.w.q.w.q.",
"a.x.z.n.n.b.M.n.x.n.n.n.n.n.n.n.n.n.M.m.n.m.n.n.n.m.M.n.m.n.n.m.m.m.m.m.m.m.m.m.m.m.m.m.m.m.m.m.m.m.m.m.m.m.m.m.m.m.m.m.m.m.m.m.m.m.m.m.m.m.m.m.m.m.m.m.m.m.m.m.m.m.sXm.m.m.m.m.m.m.m.m.m.m.m.m.m.m.m.eXN A $X.X'.`.G.1 j G F F G C C C C z M z C C z v C v C z v z v C C v , % r.l.l.-Xd.l.h.l.l.d.f.d.d.l.l.f.l.f.f.l.l.f.f.j.l.f.l.f.f.l.f.l.f.f.l.f.f.f.f.l.f.f.f.l.l.f.l.f.f.k.l.f.s.l.f.k.s.f.k.k.l.l.f.k.f.f.k.k.f.l.l.l.l.l.l.l.f.f.l.l.l.l.k.l.l.l.f.k.k.l.f.l.l.f.l.l.l.l.l.l.l.l.l.l.l.l.l.l.l.l.l.l.l.l.l.z.l.l.l.z.l.x.l.l.l.z.k.l.l.l.z.l.l.z.z.l.z.z.z.l.z.z.l.z.l.z.z.z.z.z.c.z.z.z.z.z.c.n.z.z.z.c.z.z.z.z.z.M.z.z.z.n.n.4Xz.z.n.z.z.z.n.z.z.z.n.z.z.z.z.z.z.z.4Xz.z.n.z.z.M.z.z.z.z.z.z.z.GXHXz.z.z.M.z.z.x.z.z.z.fXIXeXx.z.z.n.x.a.x.z.x.x.x.x.z.x.x.z.x.x.x.x.x.x.k.x.x.p.x.y.x.x.k.k.x.y.y.x.x.n.x.y.eXn.eXeXeX1XM 3 v C G M A C A v A G G G A l < e.@X1X@X@XeXx.@XeXy.@XeX1Xb.1X@Xy.@Xy.@XeXy.@X@X1X@X@X@X@X@X@Xx.@Xy.y.@Xy.@Xy.@X@X@Xy.@Xy.@Xy.@X@X@X@Xy.y.@X@Xy.y.@X@Xy.y.y.oXy.y.y.y.y.y.y.q.w.4.q.q.q.q.w.q.q.",
"n.b.p.n.n.x.n.z.n.n.n.n.n.n.n.n.m.n.n.M.M.n.m.m.m.M.m.m.m.m.m.m.m.m.m.m.m.m.m.m.m.m.m.m.m.m.m.m.m.m.m.m.m.m.m.m.m.m.m.m.m.m.m.m.m.m.m.sXm.m.m.m.m.m.m.m.m.m.m.sXm.m.m.m.m.m.m.m.m.sXm.m.m.m.m.sXm.m.sXb.q `.#X.X'.`.v , Z G G G C C C C C C C C v C v C z v C v v C v z C j 3 q.M.tXM.M.M.M.z.z.z.z.z.l.l.l.d.l.j.f.d.l.f.l.f.f.f.f.f.-Xl.f.f.f.l.l.f.l.l.f.f.f.l.f.f.l.f.f.l.f.f.l.s.l.f.f.l.l.f.l.f.l.f.k.f.l.l.f.l.f.f.l.s.l.f.k.f.k.k.l.k.l.f.l.f.l.l.s.l.l.l.f.l.k.l.l.l.k.l.k.l.l.l.l.l.l.l.l.l.l.l.l.l.l.l.l.z.l.l.l.z.l.x.c.x.l.z.x.z.x.c.z.l.l.l.z.l.z.l.l.l.l.z.z.x.c.z.z.z.z.2Xz.z.z.z.z.z.c.z.z.z.c.z.z.z.M.c.n.z.z.c.n.z.c.z.z.z.z.z.z.4XM.z.z.c.iXz.4Xz.n.c.z.n.c.c.n.z.c.z.z.z.z.z.n.z.z.n.z.ZXHXiXz.z.z.z.z.z.n.z.z.4XPXfXz.z.z.x.z.x.n.z.z.z.x.n.x.x.z.x.x.z.x.x.x.x.k.n.x.x.x.x.x.x.x.x.x.p.n.y.x.k.k.x.x.y.x.k.k.x.y.7 : C C A A A A G A A A G G G l q y.@XeXeX@XeXeX@XeX@XeX@X@X1X1XeX@XeX@XeX@XeXy.@Xy.eX@Xb.@X@X@X@X1X@X@X1Xy.@X1Xy.@X1X@Xy.@X@X@Xy.y.@X@X@X@Xy.@Xy.@Xy.@X@X@Xy.@Xy.@X@Xy.y.@Xy.y.@Xy.y.w.w.4.w.w.",
"x.b.p.n.n.x.n.n.n.n.n.n.M.M.m.n.b.m.m.M.m.b.m.m.m.m.m.m.m.m.m.m.m.m.m.m.m.m.m.m.m.m.m.m.m.m.m.m.m.m.m.m.m.m.m.m.m.m.m.m.m.m.m.m.m.m.m.m.m.m.m.m.m.m.m.m.m.m.m.m.m.m.m.sXm.m.m.m.m.m.m.m.m.sXm.m.tXm.eXN v $X#X].`.P < k G G K C G C C C C C v C C v C v v C v z C z v v j @ i n.M.m.M.m.M.M.m.n.m.m.n.M.M.M.M.n.n.n.z.z.x.z.z.z.l.l.l.l.l.l.l.k.l.f.f.l.f.f.l.f.k.f.f.f.l.f.f.l.f.k.f.l.k.f.l.f.f.l.l.k.f.f.f.s.f.l.k.f.l.f.l.k.f.l.f.l.f.k.l.f.l.f.l.l.l.k.f.l.l.f.l.f.l.l.l.k.l.l.l.l.l.l.l.l.l.l.l.l.z.l.l.l.z.l.l.z.l.l.z.l.l.z.z.z.l.z.l.z.l.z.l.z.l.l.2Xz.l.z.z.2Xz.z.l.z.z.4Xz.z.z.z.z.z.z.c.z.z.z.n.z.z.z.z.n.z.z.n.z.z.4XM.z.z.z.c.4XM.z.M.4Xz.z.z.c.n.z.4Xz.z.z.z.iXz.z.c.z.z.M.z.z.M.z.c.z.z.z.z.fXPXfXz.z.z.n.z.z.z.z.z.4XFXGXz.z.z.z.z.z.z.x.z.z.z.x.z.x.p.x.n.x.M.p.x.x.x.x.x.x.x.x.n.x.x.x.x.x.k.n.y.p.k.k.x.x.x.y.p.y.x.q.3 d G G C G v A G A G A G D A 2 A @XeXeXeX@Xb.1X@XeX@XeX@XeX@X@Xy.eX@XeXy.@XeX@Xy.eX@XeX@X@X@XeXy.1X@Xy.@Xx.@Xy.@X@X@Xy.1X@X@Xn.y.@X@X@X@Xy.@Xy.@X@Xy.@Xy.y.@Xy.@X@Xy.@X@Xy.@Xy.@X@XoX@Xy.y.y.",
"M.n.n.n.n.n.n.n.n.n.n.n.M.M.b.m.M.m.M.M.m.M.m.m.m.m.m.m.m.m.m.m.m.m.m.m.m.m.N.m.m.m.m.m.N.m.m.m.m.m.m.m.m.m.m.m.m.m.m.m.m.m.m.m.m.m.m.m.m.m.m.m.m.m.m.m.m.m.m.m.m.sXm.m.m.m.m.sXm.m.sXm.m.m.m.m.tXtXy.r `.$X.X`.`.v < G F G F G C C C F C C C C C C C z C v C C V C C v ; r n.m.m.M.M.m.m.m.m.m.n.m.m.b.M.m.n.m.m.n.m.n.tXn.n.n.tXn.eXn.n.z.4Xn.M.eXn.z.z.z.z.z.z.z.z.z.z.z.l.l.l.l.l.l.l.f.l.f.l.f.f.k.l.l.l.k.f.f.l.l.s.l.f.x.l.l.l.l.l.l.l.l.l.l.k.l.l.l.l.l.f.l.l.f.l.l.l.l.l.l.l.l.l.l.l.l.l.l.l.l.l.l.z.l.z.l.l.l.l.z.l.z.z.l.z.l.2Xl.z.z.z.l.l.z.z.z.l.z.l.2Xl.z.z.z.z.2Xz.z.z.z.z.c.z.z.4Xz.z.4Xz.c.z.z.z.4Xz.z.4Xc.M.4Xz.z.z.4Xz.z.z.z.c.z.z.n.M.n.z.z.z.M.M.z.c.M.z.z.z.n.z.iXz.z.z.4Xn.z.iXz.z.M.iXPXFXc.z.z.c.z.z.z.z.z.z.kXHXeXz.z.z.z.z.z.z.z.z.x.z.z.z.n.x.x.x.x.x.z.x.n.x.x.x.x.x.4.x.x.p.x.x.x.k.x.x.n.x.x.x.4.x.x.k.p.k.u = l v A A G A v G G A G D G b > I 1X@XeXeX@X1XeXeX@Xy.eX+Xb.eX1X@XeXeX@X1X@X@XeX1X@Xy.@XeXy.eX@X@X@XeX@XeX@X@XeXeXy.1X@X@Xy.@X@Xy.@Xy.eX@X@Xb.@X@Xy.@X@X1X@X@Xy.@X@Xy.y.@Xy.@Xy.@X@Xy.y.XXy.",
"x.n.n.x.p.n.N.n.n.n.n.n.n.m.M.M.M.m.M.m.m.M.m.m.m.m.m.m.m.m.m.m.m.m.m.m.m.m.m.m.m.m.m.m.m.m.m.m.m.m.m.m.m.m.m.m.m.m.m.m.m.m.m.m.m.m.m.m.m.m.m.m.m.m.m.m.m.sXm.m.m.m.m.m.m.m.m.m.m.sXm.m.m.m.m.sXtXeXN v $X$X.X'.P , k J G G C C C C C M C z v C v z C C C z v C v C C < 3 4.m.M.m.m.m.m.m.m.M.m.n.m.m.M.m.m.M.M.m.n.n.m.tXn.m.n.n.n.M.n.n.tXtXn.n.n.tXtXn.n.tXn.eXn.n.m.n.n.eXn.n.eXeXz.n.n.n.eXeXz.z.z.n.z.n.x.z.z.z.l.l.z.x.x.l.l.l.l.l.l.f.l.f.l.f.l.l.l.k.f.l.l.l.l.l.l.l.l.l.l.l.l.l.l.z.l.l.l.l.l.l.l.l.l.l.z.2Xl.l.l.z.2Xc.z.l.z.z.l.z.z.l.z.2Xz.z.l.c.z.z.z.2Xz.z.z.z.z.z.z.c.z.4Xz.z.z.z.z.z.M.z.z.z.z.c.M.z.c.z.z.M.z.z.z.n.z.iXz.z.z.iXz.M.c.4Xz.z.4Xz.z.c.iXz.z.c.z.z.n.z.c.z.rXc.n.M.c.z.z.z.z.4XHXGXiXM.z.M.z.M.z.M.z.z.eXIXiXz.z.n.z.z.z.z.z.z.z.z.z.z.z.z.x.n.x.z.x.x.x.n.x.x.z.x.x.x.x.x.x.x.x.k.x.x.y.x.x.x.x.x.x.k.x.k.t.2 , G C G C G v G C Z Z G G G j 2 e.eX@XeX@XeXeX@X@X@XeXeX@XeX@Xb.@XeX@Xb.eXeX@XeXy.@XeXeX@X@X@Xb.1XeX@X@X@Xy.@XeX@X@X@X@X1X@XeXeX@Xy.@X@Xx.1X@X1X@Xy.1Xb.@X@Xx.y.@X@X@X@X@X@Xy.y.b.@X@X@X@X",
"p.n.M.b.n.n.b.n.n.n.n.n.m.n.m.M.m.M.m.M.M.m.m.m.m.m.m.m.N.m.m.m.m.m.m.m.m.m.m.m.m.m.m.m.m.m.m.m.m.m.m.m.m.m.m.m.m.m.m.m.m.m.m.m.m.m.m.m.m.m.m.m.m.m.m.sXm.m.m.m.m.m.sXm.m.m.m.m.m.m.m.m.sXm.sXm.m.y.r `.$X.X'.H.c < G G G F G F G C C v C C C z v C v C C v C C C z k 3 2.m.m.m.m.M.m.M.M.m.M.m.m.m.M.m.m.M.m.m.m.m.n.m.n.m.n.n.tXtXm.m.tXn.tXn.tXn.n.n.n.n.tXn.n.tXn.n.tXn.n.n.m.n.m.n.eXn.n.n.tXn.m.n.n.eXn.eXn.eXn.tXn.eXn.eXn.eXn.z.n.eXn.n.eXz.tXz.z.1Xn.z.z.z.l.1Xl.z.z.l.l.z.l.k.l.l.l.z.2Xl.l.c.l.l.l.l.z.l.l.l.z.l.z.z.z.z.l.l.l.z.z.2X2Xz.l.z.z.z.z.l.l.l.z.z.z.z.4Xz.z.4Xz.z.z.z.4Xz.z.z.z.z.z.rXiXc.z.4Xn.4Xz.z.z.z.4XM.c.z.M.z.4Xz.z.n.z.4XM.z.M.z.c.M.z.z.z.n.iXz.rXz.z.M.n.z.z.z.z.z.n.iXz.M.n.FXHXiXz.z.z.z.4Xz.z.z.z.iXHXjXz.z.z.z.z.M.z.z.x.M.x.n.z.x.z.z.x.z.z.x.x.n.p.n.x.x.n.x.x.x.n.x.x.x.x.x.x.x.x.p.k.x.x.x.x.x.k.x.q.3 1 G A C G G G C G G G G G G j q oXeX1XeX@XeXeXeXeX@XeXeX@XeX9XeX@XeX1X@X@XeX@XeX1X1X@X&XeX@X1X@X@X1X@Xb.@XeX@X@Xb.1X1X@X@Xy.1X@X@XeX@X@X@X@Xy.1X@X@X@X@X@X@X@X1Xx.@Xy.@X@X@X@X@X@Xy.@X@X",
"n.M.x.M.n.n.n.M.n.M.n.n.M.M.m.M.m.M.M.m.m.N.m.m.m.m.m.m.m.m.m.m.m.m.m.m.m.m.m.m.m.m.m.m.m.m.m.m.m.m.m.m.m.m.m.m.m.m.m.m.m.m.m.m.m.m.m.m.m.m.m.m.m.m.m.m.m.m.sXm.m.m.m.m.m.sXm.m.m.m.m.m.m.tXtXtXtXI v $X$X.X'.P : v J G G C C C z M F F C C z C C C v C C C v v V z = r n.m.m.m.m.M.m.m.m.m.m.M.m.m.m.m.n.M.M.m.m.n.m.m.tXn.m.tXm.tXn.m.tXn.n.tXn.tXtXn.tXn.n.n.n.tXn.eXtXn.n.n.n.tXtXn.eXn.tXn.n.n.n.n.m.n.tXtXtXm.n.n.n.tXn.tXn.eXn.m.eXm.tXtXn.tXeXm.n.tXtXm.n.eXn.eXtXtXtXeXeXn.tXtXn.eXeXn.eXn.tXz.eXz.z.tXz.z.z.z.4Xz.z.iXz.1Xl.l.l.z.z.z.z.z.z.l.z.4Xz.z.l.l.z.z.z.z.z.c.z.z.z.z.4Xz.z.l.4Xz.z.4Xz.z.4XM.z.z.z.c.z.M.c.z.z.4Xz.M.z.z.z.M.z.4Xz.M.M.4Xn.4Xn.4Xz.n.c.n.M.4Xz.4Xc.M.c.z.z.n.z.4Xz.c.n.c.z.jXPXjXM.z.z.z.z.z.z.z.z.n.FXFXn.z.z.M.z.z.M.z.z.M.z.z.z.z.z.z.z.z.x.M.z.x.z.x.z.x.x.n.p.n.k.x.x.p.p.x.x.x.x.x.p.x.x.p.x.b.k.k.k.i @ v A G C G C G G A G G H G G < v @XeXeXeXeXeXeXeX1X@XeX@XeXeX@XeXeX@XeXeX@XeXeX@X@XeXb.@X1X&Xb.1X@X@X@XeX@X@X1XeX@X@X@XeXy.@XeX@X1X@X@X1X@X@XeX1X@X@XeX1X@X@X@X@XeXy.@X@X@X@X@X@Xy.@X@X",
"n.b.n.n.n.n.n.n.n.M.m.n.m.m.m.m.M.m.m.M.m.m.m.m.m.m.m.m.m.m.m.m.m.m.m.m.m.m.m.m.m.m.m.m.m.m.m.m.m.m.m.m.m.m.m.m.m.m.m.m.m.m.m.m.m.m.m.m.m.m.m.m.sXm.m.m.m.sXm.m.sXm.m.sXm.m.m.m.m.m.m.sXm.m.tXm.y.r `.$X.X].`.j 1 G G S G F G C C C C C C v M C M F C z C v C z v < % y.m.m.M.m.m.M.m.m.M.m.m.m.M.m.m.M.m.m.m.m.m.m.n.m.m.m.n.m.tXn.tXn.n.tXtXn.n.n.n.tXn.tXn.tXtXn.tXn.n.n.tXtXn.n.m.M.m.n.n.n.n.tXn.tXn.eXn.n.n.eXn.tXn.n.n.n.m.tXn.tXm.n.n.eXtXn.eXtXeXtXeXn.m.tXtXtXtXeXtXtXtXtXeXtXtXtXtXtXtXuXeXtXtXuXuXeXuXuXuXtXtXeXtXtXtXtXtXtXtXtXtXeXtXuXtXeXtXeXeXtXtXtXtXeXiXeX4XtXM.eX4Xn.n.z.4Xn.n.z.z.z.z.z.z.z.n.4Xz.n.4Xz.iXz.c.n.4Xz.n.c.rXz.z.M.iXc.c.z.z.z.M.z.z.iXz.4Xz.z.M.z.n.z.n.4XrXz.n.c.M.z.z.n.z.iXPXFXz.z.M.z.n.c.M.z.z.z.kXHX4Xz.z.z.z.z.z.z.z.x.n.z.z.z.z.z.z.z.x.x.z.z.n.z.z.x.x.x.x.x.n.x.x.n.n.x.k.n.x.x.n.x.x.x.k.x.n.x.x.4.2 ; C A G C G C G D G Z G J G V : I eXeXeX@XeX@XeXeXeXeXeXeX@XeX@X@XeXeX@XeX+Xb.eXeXeX@XeX1XeX@XeXeXeXeXb.eXeX@X@X@XeXeX@XeXeX@X@Xb.eX@X@Xb.@X@Xx.@XeX@X@Xy.b.@X@X@XeX@X1X@X@Xx.@X@X@X@X",
"p.n.n.p.n.n.n.m.M.M.n.n.b.m.m.m.m.m.m.m.m.m.m.m.m.m.m.m.m.m.m.m.m.m.m.m.m.m.m.m.m.m.m.m.m.m.m.m.m.m.m.m.m.m.m.m.m.m.m.m.m.m.m.m.m.m.m.m.m.m.m.m.m.m.m.m.m.m.m.m.m.m.m.m.m.m.m.m.m.sXm.m.m.sXtXeXN b %X$X'.'.J - V J G F K C F C C C C C C C C v C v v C z C C C l @ q.m.m.m.M.m.M.m.m.m.M.m.m.M.m.m.m.m.m.m.m.m.m.m.m.m.m.n.tXtXn.n.tXtXtXn.tXtXtXm.m.n.m.n.n.tXn.m.n.n.n.n.n.n.n.n.n.eXn.n.m.n.tXn.eXn.n.n.tXn.m.n.tXn.n.eXtXn.n.tXn.eXtXeXtXn.eXtXn.tXtXn.n.tXn.tXtXn.n.tXeXm.tXeXeXtXeXm.m.tXtXtXtXtXtXeXtXtXuXeXuXeXeXuXtXeXuXuXuXtXuXuXuXuXuXuXuXuXuXuXuXfXuXuXfXsXuXuXuXuXjXuXjXuXjXuXjXtXuXiXuXtXiXtXiXtXM.iXiXM.z.n.z.n.z.M.z.M.z.z.c.z.z.z.z.z.4Xn.z.n.4Xz.4Xc.M.4Xz.4X4Xz.iXz.z.n.z.M.4Xn.n.4Xz.rXz.iXHXHX4Xn.4Xz.z.z.c.z.z.z.hXHXiXz.z.M.1XtXiXeXM.n.4Xz.n.z.M.z.z.z.M.z.z.z.p.x.z.z.x.x.x.n.k.x.n.x.x.x.x.k.z.x.x.x.x.x.x.x.x.x.x.x.q.3 j A Z G G Z Z G G G G G I J v < e.eXeX@XeXeX@XeXeXeX@XeXeXeXeXeXeX@XeXeXeX1XeX@XeX@XeX@X@XeX@X@XeX@X@X@XeXeXeX@XeX@X1Xb.@XeX@XeX1X@XeX@XeX@XeX@Xy.@X@XeXeX@XeX@X@X@X@X@X@Xb.eX@X@Xn.",
"b.n.n.n.n.M.n.M.M.b.m.m.M.M.m.m.n.M.m.M.m.m.m.m.m.m.m.m.m.m.m.m.m.m.m.m.N.m.m.m.m.m.m.m.m.m.m.m.m.m.m.m.m.m.m.m.m.m.m.m.m.m.m.m.m.m.m.m.N.m.m.m.m.m.m.m.m.m.m.m.m.m.m.m.m.m.m.m.m.m.m.m.m.m.tXx.q `.%X$X'.`.l j G H G G C G C C C C C v C C C z C C C C V V C v = r n.m.m.m.m.m.M.m.M.m.m.m.m.m.m.M.m.m.m.M.m.m.M.n.m.m.m.tXm.n.tXm.tXn.n.tXm.n.n.tXn.tXn.n.n.tXeXtXtXtXn.tXtXn.tXtXtXn.tXn.n.tXeXm.m.n.tXn.n.m.n.m.n.eXtXn.n.tXeXtXn.m.n.tXn.n.m.n.tXn.m.n.eXtXn.n.tXM.eXtXn.tXtXtXm.n.m.tXeXtXeXtXeXtXtXtXtXtXtXtXtXtXtXuXtXtXeXtXtXtXtXeXuXuXeXuXuXuXuXuXuXtXuXuXuXuXuXuXuXfXpXjXuXuXjXuXuXpXuXuXaXlXuXuXuXjXjXuXjXuXjXuXuXuXuXiXtXiXtXiXtXtXrXn.rXM.M.z.4Xz.z.M.z.M.c.n.z.M.c.M.c.M.z.iXc.z.z.n.c.z.M.z.4XM.FXPXiXz.c.n.4Xn.n.z.rXtXeXPXfXuXuXjXuXuXuXjXuXuXuXuXeXiXtXn.eXn.n.z.n.x.n.z.n.x.z.n.x.x.n.x.k.n.p.n.x.x.x.x.x.x.x.x.a.x.x.x.x.x.k.u @ v G Z G G Z G G L G G J J K l l @XeXeXeX&XeXeXeX@XeXeXeX@X@XeXeXeX@X@XeXeXeX@XeXeXeXeXeX@XeXeX@XeXeX1XeX@XeXeX@XeX1X@XeX@XeX@X1XeX@XeX@XeXy.eX@XeXeX@X@X1X@X1X@Xb.eX@X@X@X@X@X@X@X",
"M.M.p.n.n.M.M.M.M.b.N.M.m.M.M.M.m.M.m.m.N.m.m.N.m.m.m.m.m.m.N.m.m.m.m.m.m.m.m.m.N.m.m.m.m.m.m.m.N.m.m.m.m.N.m.m.N.m.m.m.m.m.N.m.m.m.m.m.m.m.m.m.m.m.m.m.m.m.m.m.m.m.m.m.m.m.m.m.m.m.m.m.m.tXtX,.v %X%X'.'.J > C J G F G G F K C C C v C z C C v C C C C v C C < 2 M.m.m.m.m.m.m.m.m.m.m.m.m.m.m.m.m.m.m.m.m.m.m.m.m.m.m.m.m.m.m.m.tXm.tXtXn.tXm.tXn.m.n.tXn.m.n.tXtXn.n.m.n.tXn.tXtXn.tXn.n.n.tXn.m.m.n.tXn.m.n.tXn.m.tXn.n.n.m.M.m.m.m.n.m.tXn.n.m.tXn.tXn.tXn.n.n.m.tXn.tXm.tXtXtXn.tXtXtXeXtXtXtXm.eXtXn.m.tXtXtXtXtXtXeXm.tXtXtXtXtXeXuXtXeXtXuXuXuXtXuXtXtXuXuXuXuXuXuXuXuXuXvXuXuXuXuXuXjXjXuXjXpXpXjXlXpXjXpXpXjXpXlXpXjXlXlXlXaXlXlXuXlXpXjXuXuXuXuXtXuXtXtXiXtXm.iXiXn.iXM.z.M.c.4Xn.z.z.z.M.z.z.c.z.z.kXLXkXn.z.tXeXtXeXuXuXjXlXHXFXjXjXuXuXjXuXuXjXjXuXjXjXjXjXuXjXfXfXuXuXeXuXeXeXeXn.n.z.n.z.z.z.x.z.z.x.x.z.x.x.z.n.k.x.x.x.x.x.x.x.t.q > C K Z G G H G G G L G J I G 1 I eXeXeXeXeXeX&XeX&XeX1XeXeXeXeXeXeXeXeXeXeXeX@XeX@XeXeXeXeX&X@XeXeX&X@XeX@XeX@XeX@XeX@X@XeXb.9X1Xb.&X1X@XeX@X@XeX@X@X&XeX@X@XeX@XeX@X@XeX@XeX@X@X",
"n.M.n.M.n.b.M.M.m.M.m.m.m.M.m.M.m.M.m.m.b.m.m.m.N.m.m.m.m.N.m.m.N.m.m.m.m.m.m.m.m.m.m.m.m.m.m.m.m.m.m.m.m.m.m.m.m.m.m.N.m.m.m.m.m.m.m.m.m.m.m.m.m.m.m.m.m.m.m.sXm.m.m.m.m.m.m.m.m.m.m.m.m.m.y.l H.*X$X'.`.j j J S G G F C C C C F M C C M F C C C z v C z C j @ q.m.m.m.m.m.m.m.m.m.m.m.m.m.m.m.m.m.m.m.m.m.m.m.m.m.m.m.n.m.m.m.m.n.tXn.m.tXm.n.m.tXn.tXn.tXn.tXn.m.n.tXn.tXn.tXn.n.n.m.tXtXn.m.n.m.n.n.n.n.n.m.n.m.n.n.m.n.n.n.m.n.n.n.m.n.n.n.m.n.n.n.n.m.m.n.m.tXn.n.n.tXtXn.n.n.tXm.n.tXm.m.eXm.m.tXtXtXtXtXeXtXuXn.tXtXtXtXtXtXtXtXtXtXtXuXuXuXtXeXuXuXuXuXiXtXtXuXtXuXuXuXuXuXuXuXuXtXuXuXuXuXpXuXjXpXlXpXpXjXjXpXlXuXuXlXjXpXjXuXaXjXlXlXlXpXlXlXlXlXlXlXjXlXuXlXjXuXuXlXjXuXuXuXuXuXtXiXtXeXrXtXiXtXn.iXjXPXGXuXuXpXlXjXlXjXlXjXlXJXJXjXjXjXjXjXjXjXiXjXjXjXjXjXjXjXjXjXjXjXjXjXuXjXiXuXuXfXuXfXeXfXeXtXeXeXn.n.n.z.n.z.n.x.x.x.n.x.x.x.z.x.q.= d A G Z G Z G H J G G L J J A < oXfXeXeXeXeXvXeXeXeXeXeXeXeX&XeXeX@X@XeXeXeXeXeXeXeXeX&XeXeXeX1XeXeXeXeXeXeX@XeXeXeXeXeXeX@X@XeXeX@X@XeXeXeXeX@XeXb.eX@XeX@XeX@X&Xb.@XeX@Xb.eX@X",
"p.n.M.M.N.b.M.M.M.M.M.M.N.m.N.m.b.m.m.m.m.m.m.m.m.m.m.m.m.m.m.m.m.m.m.m.m.m.m.m.m.m.m.m.m.m.m.m.m.m.m.m.m.m.m.m.m.m.m.m.m.m.m.m.m.m.m.m.m.m.m.m.m.m.sXm.m.m.m.m.m.m.m.sXsXm.sXm.m.m.m.m.tXeXN c %X%X].'.G > C J G G G F C C C C F C C C C C C C M C C C C z 3 p m.tXm.sXsXm.m.m.m.m.m.m.m.m.m.m.m.m.m.m.m.m.m.m.tXm.m.tXtXtXm.tXtXm.tXtXtXn.m.tXtXm.n.m.n.m.tXm.n.tXm.n.m.n.m.n.n.m.m.n.n.m.n.n.m.n.m.m.m.n.n.m.n.n.m.n.m.n.n.m.n.m.m.n.tXn.tXn.m.n.m.n.m.n.n.n.m.n.tXn.m.m.tXm.tXm.tXn.n.tXtXm.m.tXtXtXtXeXtXtXm.tXtXtXeXtXtXtXtXeXtXtXtXtXtXuXtXuXuXtXuXtXtXuXtXtXuXuXtXuXuXtXuXuXuXuXuXuXsXjXuXuXpXpXuXlXuXuXpXpXpXjXpXjXpXuXpXuXjXlXpXlXpXlXlXlXpXlXlXlXpXpXjXuXpXlXaXjXpXlXlXlXlXjXjXaXlXlXlXlXlXlXuXuXjXaXlXPXHXlXlXjXlXpXlXjXjXuXjXcXKXlXjXlXjXjXjXjXjXjXjXjXjXjXjXjXuXuXuXfXjXjXfXjXfXjXfXfXjXfXjXfXjXfXuXeXjXfXfXfXeXeXeXeXeXn.1Xn.n.n.z.eXeXM @ v G G G Z G G J G L G J L P q b 1XeXeX9XeXeXeXeXeXdXeXeXeX&XeXdXeXeXeXeX&X9XeXeXeXeXeXeXeX&XvXeX@X&XeXeX@XeXeXeX&XeXeXeXeXeXeXeXeX@XeX@X@XeXeXeX@X1XeX@XeXeX@XeX1XeX@X&X1X@XeX",
"n.n.b.N.M.M.M.M.m.N.b.m.b.m.m.m.N.m.m.N.m.m.N.m.m.m.m.m.m.m.m.m.m.m.m.m.m.m.m.m.m.m.m.m.m.m.m.m.m.m.m.m.m.m.m.m.m.m.m.m.m.m.m.m.m.m.m.m.m.m.m.m.m.m.m.m.m.m.m.sXm.sXm.m.m.m.m.m.sXsXm.sXtXeXr G.*X$X'.].1 l J G G F G G G G C C C C C C C C v z C z C v v < 2 x.m.sXsXm.sXsXtXtXm.m.m.m.m.m.m.m.m.m.tXtXm.sXm.m.tXtXtXtXtXtXuXtXtXtXtXtXtXm.m.tXn.tXtXm.tXtXtXn.m.m.n.n.n.tXtXm.n.tXn.tXm.n.m.m.n.m.tXn.m.n.m.tXn.tXm.n.m.tXtXn.m.n.n.tXm.n.m.m.n.n.tXm.m.tXm.tXm.tXm.m.n.tXn.tXtXtXn.tXtXm.tXtXm.tXtXtXm.m.m.eXtXtXtXm.m.tXtXtXtXtXtXtXtXtXtXtXtXtXtXuXtXuXuXuXtXuXtXtXuXuXuXuXuXuXuXuXuXuXuXuXuXuXuXuXpXuXpXpXjXpXpXuXuXpXpXlXpXaXaXuXjXaXuXlXpXlXlXlXpXjXlXlXaXlXlXpXlXaXlXaXlXaXlXaXlXlXpXlXpXlXpXlXlXlXlXlXlXHXPXcXlXlXjXuXlXpXlXlXjXcXPXcXuXjXjXaXuXuXjXjXjXuXjXjXjXjXfXjXuXjXfXuXjXjXuXjXuXjXjXuXfXuXfXuXfXuXfXeXeXuXuXfXuXeXuXfXuXuXeXeXuXeXfX@X1 : Z G H G G H G G G P J L P Z < ,.fXeXeXeXeXfXeXeXeXeXeXeXvXeXeXeXeXeXeXeXeXeXeX&XeXeXeXeXeXeXeXeXeXeXeXvX&XeXeXeX@XeX@XeX@XeX@XeXeXeXeXeXeX@XeXeXeX@XeXeX@XeX@XeX@XeXeX1XeX@X",
"n.N.M.M.M.M.M.b.m.m.N.m.m.m.m.m.m.m.m.m.m.m.m.m.m.m.m.m.m.m.m.m.m.m.m.m.sXm.m.m.m.m.m.m.m.sXm.m.m.m.sXm.m.m.sXm.m.m.sXm.m.m.m.m.m.m.m.m.m.m.m.m.m.m.m.m.m.m.m.m.m.sXm.sXm.sXm.m.sXm.sXsXtX,.c %X%X.X'.G , G H H G G F C K C C C C C z C C C C C C C z C k & w.sXsXsXsXsXsXsXuXsXsXsXtXsXm.m.sXsXtXsXsXsXsXtXtXsXtXtXtXtXuXtXuXuXtXuXtXtXm.m.tXtXm.m.m.tXtXn.tXtXn.tXn.tXn.tXn.tXtXtXm.tXn.m.tXn.tXm.n.tXtXtXtXn.n.tXtXtXn.tXtXn.tXn.tXn.tXm.n.tXtXeXm.m.tXn.tXm.tXn.n.m.tXm.m.m.n.tXtXm.tXtXm.tXtXtXtXtXtXtXtXtXm.tXtXtXm.tXtXm.tXtXtXtXtXm.tXtXuXtXtXuXuXtXuXtXtXuXtXtXuXuXtXuXuXuXuXuXuXsXtXsXuXuXuXpXuXjXpXpXpXpXuXpXuXvXpXpXlXuXpXpXpXlXpXlXaXlXpXlXpXaXaXvXlXlXpXlXlXaXlXaXaXlXlXzXaXlXpXpXaXlXlXlXlXlXlXlXlXJXLXJXlXpXlXlXjXlXjXlXjXcXHXcXuXlXjXlXlXjXjXjXjXjXlXjXjXjXjXuXjXjXjXuXjXjXuXjXuXjXfXuXuXfXuXfXjXfXuXuXfXuXuXfXfXjXuXfXfXjXfXfXeXuXfXuXe.& d G G G G G H J J G K P P P c 1 @XfXfXeXeXfXeXfXeXeXeXeXeXeXeXeXeXeXeXeXeXeXeXeXeXeXeXeXeXeXeXeX9XeXeXeX&XeXeXeXeX&XeXeXeXeXeX@X&XeXeXeX&XeXeXeXeX@XeX9XeXeXeX@X@XeXeX@X@XeX",
"n.b.M.n.M.n.M.N.m.m.m.m.m.m.m.m.m.m.m.m.m.m.m.m.m.sXm.sXsXsXaXsXm.m.sXm.sXaXsXm.m.m.aXm.sXm.sXm.m.m.sXaXsXm.sXsXsXsXsXm.m.m.sXsXsXm.m.sXm.m.m.m.m.sXm.sXsXm.sXm.sXm.m.sXm.sXsXsXm.sXsXtXeXr H.*X$X'.`.< l J H G G F G C C C C C C F M C M F z C C C C v & p uXaXaXsXsXpXpXpXsXsXsXsXsXsXm.m.sXsXtXsXsXsXuXsXtXm.tXtXtXtXsXtXtXtXtXtXtXtXtXtXtXn.tXtXn.m.m.tXtXm.tXtXtXm.tXm.tXm.tXn.tXtXtXm.m.tXeXn.tXtXtXn.tXm.tXm.n.tXtXtXtXtXeXtXtXtXn.tXtXtXtXtXm.tXtXtXtXtXtXtXtXtXtXtXtXeXtXtXtXtXtXtXeXtXtXtXtXtXtXtXtXtXtXtXtXtXtXtXtXtXtXtXtXtXtXuXtXtXuXuXuXuXpXtXuXtXtXtXuXuXuXpXpXuXuXpXuXuXuXpXuXuXpXpXpXuXpXpXpXpXpXlXlXpXpXuXpXpXpXpXlXpXpXaXpXpXlXpXlXpXlXaXzXaXlXaXpXpXlXlXlXlXlXlXlXlXlXlXlXlXaXlXlXlXlXlXlXlXlXcXKXJXlXlXlXlXlXlXjXlXaXlXHXJXjXjXlXjXjXlXlXjXlXjXjXlXlXjXlXjXjXjXjXjXjXjXjXjXfXjXjXjXjXjXjXjXjXiXfXjXvXfXfXfXjXeXfXjXfXeXfXuXfXfXfXeXeXM @ v G D H G H G G L H I P L J 1 I eXeXfXfXeXeXvXfXeXfXeXfXfXeXfXfXeXdXeXeXeXeXeXfXeXeX&XeXeXeXfXeXeXeXeXeXeXeXeXeXeXeXeX9XeXeXeXeXeX@XeXeXeX@XeXeXeXb.&XeX@XeXeXeX&XeXeXeX&X",
"n.M.n.M.m.n.m.M.N.m.m.m.m.m.m.m.m.m.m.m.m.m.m.m.m.m.m.m.m.sXsXsXsXsXsXsXsXm.sXsXm.sXsXsXsXm.sXsXsXsXm.aXsXsXsXsXaXaXsXsXaXsXaXsXsXsXsXsXaXm.m.m.m.sXaXsXsXm.sXsXsXm.sXm.aXsXsXsXaXm.aXsX,.c $X%X$X].Z , G J H G G G C C C C F F C C C C C C v C C C z < 2 x.aXaXaXaXaXaXsXpXpXsXsXpXsXsXsXsXaXsXtXsXsXuXsXtXtXtXsXm.tXuXuXtXsXtXtXtXm.tXtXtXtXm.m.m.m.m.n.tXm.tXtXtXm.tXtXn.tXm.tXtXeXtXeXm.tXn.m.m.n.tXtXtXtXeXtXtXtXtXtXtXtXtXm.tXtXtXtXtXtXtXtXtXtXuXtXuXuXuXuXtXuXeXuXtXuXuXtXeXuXuXtXtXuXuXuXtXtXuXuXtXuXtXtXtXtXtXtXtXtXuXtXtXtXuXvXtXtXuXuXuXuXuXuXuXuXuXuXuXuXuXpXuXpXpXpXuXuXpXuXpXpXpXpXlXlXpXuXlXlXpXpXaXlXpXpXaXpXpXpXlXaXlXlXpXlXaXaXlXlXaXpXlXaXlXzXlXlXzXlXlXlXlXlXlXzXlXzXlXlXlXlXlXlXxXcXlXzXlXlXcXKXKXlXlXlXlXlXjXlXzXlXlXJXHXlXlXlXjXlXlXjXlXlXjXjXlXjXcXjXjXlXjXjXjXjXjXjXjXlXfXjXjXjXjXjXuXjXfXfXjXuXfXfXuXuXfXfXfXfXfXfXfXuXfXuXfXfX@X; 2 G G H G G J J G J P G P P v 1 e.fXeXeXfXfXeXfXeXeXfXeXeXfXeXeXeXeXvXfXeXdXeXdXeXeXeXeXeXeXeXeXfXeXeXeXfXdXeXeXeX9X9XeXeXeXeXeXeXeXeXvX@XeXeXeXeXeXeXeXeXeXeXeXeX&XvXeXeX",
"M.n.n.n.m.m.m.m.m.m.m.m.m.m.m.m.m.m.m.m.m.m.m.m.m.sXsXsXm.sXm.sXsXsXm.aXsXsXsXm.sXsXm.sXsXsXm.aXsXsXsXaXaXsXaXsXsXaXsXaXaXsXaXsXaXsXaXaXsXaXaXaXaXaXsXaXaXm.aXaXaXsXaXsXsXsXaXm.sXaXsXtXr P *X$X'.G.s l J J S G F K C K F C M C C C C C C C C C C C k * q.pXaXaXpXpXaXsXpXsXsXsXpXpXsXsXsXsXsXsXsXsXvXsXpXuXuXsXtXtXuXpXpXtXtXtXm.tXtXtXtXtXtXtXm.tXm.tXtXuXtXtXtXtXtXtXm.m.tXvXuXtXtXuXtXtXtXtXtXm.tXtXtXtXtXm.eXuXuXuXsXeXuXtXtXtXtXtXtXeXtXuXuXuXuXeXuXuXuXuXuXuXuXuXuXuXuXuXuXuXpXuXjXuXuXuXuXjXuXtXtXuXuXuXtXtXtXpXtXuXtXuXsXtXuXsXtXsXuXtXuXuXpXuXuXpXuXuXuXlXpXpXuXpXuXlXpXpXpXpXpXpXpXlXlXpXpXlXpXpXlXpXlXpXpXaXpXlXpXlXpXlXlXlXpXaXlXlXlXlXlXlXaXlXlXlXlXlXlXlXzXlXzXzXlXzXlXlXlXlXzXlXcXzXlXlXxXlXcXlXlXzXKXKXcXlXlXlXzXlXlXlXlXlXJXKXlXjXlXlXjXlXjXlXjXcXlXjXlXjXlXjXjXjXjXjXjXjXuXjXjXpXjXjXjXjXjXfXjXjXjXjXjXjXjXuXfXjXuXfXjXuXfXuXfXfXfXjXfXeXe.3 c G G J J G G L J J L P P L j v @XfXvXeXeXfXeXfXeXfXfXfXeXeXvXdXeXfXeXeXfXeXeXeXfXeXvXdXeXfXeXeXeXdXeXeXeXeXvX9XvXeXeXeXeXfXeX9XfXeX9XeXeXeXeX&XeX&XeXeXeX&XeXeXeX@XeXeX",
"n.n.m.m.n.tXm.m.m.m.m.m.m.sXm.m.m.m.m.sXm.m.m.sXm.m.sXsXsXsXsXsXaXm.m.sXsXaXsXaXaXm.sXaXaXsXsXaXaXsXaXaXaXaXaXaXaXaXaXaXaXsXsXsXaXaXaXm.aXaXaXaXaXaXsXaXaXm.aXaXaXaXaXaXaXaXaXaXpXpXtXe.l %X%X.X].A 2 G J G S K F G C G C C C G C C C C C C C C C z = r tXsXaXaXaXaXaXsXpXaXpXsXpXpXsXsXpXsXpXsXpXpXuXaXuXpXsXuXuXsXpXpXpXtXtXtXtXtXtXtXtXtXtXm.m.m.tXm.sXsXtXtXtXtXtXtXm.tXtXtXuXuXuXuXuXtXtXtXtXtXtXtXtXuXuXtXuXuXuXuXeXuXtXuXtXuXtXtXtXtXtXuXuXuXuXuXuXuXuXuXuXuXpXuXuXuXuXuXuXuXuXlXuXpXpXuXuXuXuXuXtXuXpXuXtXtXtXpXtXtXpXuXuXuXsXtXsXuXpXuXtXpXpXuXpXpXpXpXaXpXvXaXpXpXlXpXaXlXvXaXlXlXaXlXlXpXlXlXlXaXlXlXzXaXlXlXaXaXlXlXzXaXlXlXlXlXlXzXlXzXzXlXzXlXlXlXzXlXzXcXzXcXzXlXcXzXzXzXzXlXlXcXzXzXzXcXzXcXzXzXcXzXJXLXxXxXlXlXlXlXcXlXlXlXcXPXcXlXlXlXlXlXlXcXjXlXjXcXlXjXlXjXlXjXlXlXjXjXjXlXjXjXjXjXjXjXjXjXjXjXjXjXjXjXjXuXjXjXjXiXjXfXfXuXfXfXfXuXuXfXeXb 3 A H G G L G J G J J P P P G < ,.fXeXfXeXfXuXfXeXfXfXuXeXeXfXeXfXeXfXeXfXeXfXeXeXeXeXfXeXeXfXeXeXfXeXeXfXeXfXeXeXeXeXfXeXeXeXeXeXeXeXeXfXeXeXeXeXeXdXeXeXeXeX&XeXeX&XeX",
"n.m.m.m.m.m.m.m.m.m.tXm.m.m.tXm.m.m.m.m.m.sXsXm.m.sXm.sXsXm.sXsXm.sXaXsXaXsXaXaXaXaXaXaXaXaXaXaXaXaXaXsXaXaXaXaXaXaXaXaXaXaXaXaXaXaXsXaXsXaXaXaXaXaXsXaXaXaXaXaXzXaXaXaXaXzXaXzXzXjXeXb A.*X$X'.H.1 k J J G H F Z Z F G C C C z F M C C C C C F v j ; x.aXaXaXaXaXaXaXaXaXsXaXaXpXaXhXsXpXsXpXsXpXsXsXpXsXuXsXuXpXpXpXpXpXuXtXtXtXtXsXsXtXtXtXm.tXm.tXtXtXtXtXtXtXtXtXtXtXtXuXtXtXuXuXuXuXtXuXtXtXtXtXtXuXuXuXuXtXuXuXuXpXuXuXuXuXtXuXuXuXuXvXtXtXtXuXuXuXpXuXuXuXuXpXuXpXuXuXtXuXpXuXuXpXjXpXpXlXuXpXpXuXuXuXpXpXuXtXuXpXtXpXsXpXsXuXuXsXtXpXpXpXpXpXpXpXlXlXpXaXlXaXlXlXlXpXlXlXaXzXlXlXaXlXlXlXlXlXlXzXlXzXlXzXlXzXlXlXpXlXzXlXlXzXzXzXlXzXcXzXlXzXzXlXzXzXzXlXlXzXcXcXzXlXxXzXxXcXcXzXxXzXcXzXcXzXcXcXzXcXcXcXzXJXLXJXlXcXzXzXlXzXlXlXlXcXKXJXlXlXlXlXlXlXlXlXlXlXlXjXlXjXlXjXuXjXjXjXlXjXuXlXjXlXjXlXjXjXjXjXjXjXjXjXjXjXjXfXjXjXfXjXjXjXjXjXjXuXfXfXjXfX@X2 1 K H G G J J L L K P P P P c c +XfXfXfXjXfXeXfXfXfXeXfXfXfXfXfXeXeXuXfXfXeXfXjXvXeXfXfXeXeXfXfXeXfXfXeXfXeXeXfXfXeXeXfXfXeXfXeXfXeXdXeXeXeXfXdXeXeXeXeXeXeXvXeXeXeXeX",
"m.m.m.m.m.m.m.m.tXm.tXm.m.m.m.sXm.sXm.m.sXm.sXsXsXm.aXsXaXsXsXsXaXaXaXaXaXaXaXaXaXaXaXaXaXaXaXsXaXaXaXaXaXaXaXaXaXaXaXaXaXaXaXaXaXaXaXaXaXaXaXzXaXaXaXaXaXzXaXzXaXzXzXzXzXzXzXzXaXjXe.q $X%X$X].G < G J K H G G C G C C F F C G C z C C M C C M k & q.pXaXaXaXaXaXaXaXaXaXaXaXaXpXpXpXuXuXsXaXaXpXpXaXpXpXaXpXsXsXpXsXuXpXuXtXuXtXtXtXm.tXm.m.tXm.m.tXm.tXuXuXuXtXtXtXtXtXuXtXuXuXtXuXpXuXtXuXuXtXtXtXuXuXuXsXvXuXuXtXtXuXuXuXtXuXuXuXuXuXuXuXuXtXuXtXuXuXjXuXpXvXuXuXuXtXuXtXuXuXlXuXpXuXlXlXuXpXlXlXuXuXsXuXuXpXsXpXpXsXjXuXpXpXsXuXsXpXuXuXpXlXpXpXpXpXaXaXpXlXpXlXpXpXlXlXaXaXzXlXaXaXaXaXlXlXzXzXlXzXzXxXzXlXlXzXzXlXaXzXlXlXzXlXxXlXzXzXzXzXzXcXzXzXlXzXzXxXzXxXzXlXxXzXcXcXzXzXzXcXcXzXlXlXzXzXzXcXxXcXzXcXcXxXLXJXzXzXcXlXlXcXcXzXlXzXHXJXzXlXzXlXlXlXlXjXlXlXlXlXlXcXlXjXlXjXjXjXjXlXjXlXjXjXjXjXjXjXlXjXuXjXjXjXfXjXjXuXjXjXjXuXfXjXfXfXjXjXfXuXfXuXfXe.3 l H J G K H J P L L L L P L < G eXfXfXeXjXeXuXeXfXfXeXfXeXvXeXfXjXeXeXfXeXeXeXfXfXfXeXfXeXvXeXfXfXeXfXeXuXfXeXfXfXeXeXfXfXeXeXfXeXvXfXeXfXeXeXeXfXeXeXeXeXeX9XeXeXeX",
"m.m.m.m.m.m.m.tXtXm.m.m.m.m.tXsXm.sXsXsXaXsXaXsXaXsXsXaXaXaXaXaXaXaXaXaXaXaXaXaXaXaXaXaXaXaXaXaXaXaXaXaXaXaXaXzXaXzXzXaXaXzXaXaXaXzXaXaXaXaXzXaXaXaXaXaXzXaXzXaXaXzXaXzXzXaXaXzXaXeXb J *X$X'.`.< l J J J G F G G F C C C M C z C C C C z F C z , r tXpXaXaXaXaXaXaXaXaXaXaXaXzXaXaXaXpXpXpXsXaXaXpXaXpXpXaXaXsXtXuXpXsXuXsXsXsXpXpXtXtXtXtXm.m.m.m.tXtXsXpXpXuXtXtXm.m.uXuXtXuXuXuXtXuXuXuXuXuXtXuXtXtXtXuXtXuXuXuXuXuXuXuXuXpXtXuXpXuXuXuXuXuXpXuXuXuXuXvXpXjXuXpXuXuXuXpXuXuXuXuXuXpXpXpXuXvXuXpXpXuXuXpXpXpXvXsXpXuXpXpXpXpXvXpXpXuXpXsXtXpXpXpXpXlXpXlXaXaXlXaXaXpXlXaXaXaXaXlXaXlXaXlXaXlXaXlXzXaXlXzXzXvXzXzXzXlXzXzXlXzXzXzXlXzXzXzXzXzXcXzXzXcXzXcXzXzXzXxXcXxXxXlXxXxXzXzXcXcXxXzXzXzXcXxXcXcXxXzXcXxXxXcXxXLXJXzXzXzXcXzXzXlXzXzXzXJXHXcXlXcXcXlXlXlXcXlXlXlXlXjXlXlXlXlXjXaXaXjXjXlXjXlXjXlXlXjXjXjXjXjXjXjXjXuXjXjXjXjXjXjXjXjXjXuXuXjXjXjXjXfXjXfXeXn % A J J H J L G L L P P P G.v q oXfXvXfXjXfXfXfXuXfXjXjXfXfXfXvXfXfXfXfXjXfXfXfXfXeXfXfXfXjXeXfXvXeXfXfXeXfXeXfXeXvXfXeXeXfXfXeXfXeXeXfXeXeXfXeXeXfXfXfXeXdXfXeXfXfX",
"m.vXtXn.m.tXm.tXsXm.m.tXsXsXsXpXsXsXsXaXsXaXsXaXaXsXsXaXaXaXsXsXaXaXaXaXaXaXaXaXaXzXaXaXaXzXaXaXaXaXaXaXzXzXzXaXzXzXzXzXzXzXaXzXzXaXzXzXzXaXaXaXaXaXzXaXzXzXzXzXzXzXaXzXzXzXzXzXlXe.q #X*X].'.A < G J J K S F C C C F C C G z C F C C z z C z k 3 y.aXpXaXaXaXaXaXaXaXaXaXaXzXaXpXpXaXkXaXaXaXaXpXaXpXaXpXaXaXpXpXpXsXsXpXtXtXsXsXsXtXsXsXm.sXm.tXm.sXsXsXtXtXsXtXtXtXtXtXuXtXtXuXuXtXuXuXuXsXuXtXuXuXtXtXuXtXuXtXuXuXpXpXtXuXuXtXuXuXuXuXpXuXpXsXuXuXuXpXuXpXpXpXuXpXuXpXuXuXpXpXpXpXuXpXlXpXpXuXpXpXpXuXpXuXpXuXsXsXuXpXuXlXpXlXpXlXpXpXpXpXpXpXpXpXpXlXpXlXaXpXpXpXaXaXaXzXzXaXlXaXlXzXzXlXzXlXzXlXzXzXlXzXzXcXzXcXzXzXzXzXlXzXzXlXlXxXzXzXxXzXcXxXzXzXcXcXxXzXzXxXzXzXzXxXxXxXcXzXxXxXxXzXxXxXzXxXcXxXzXxXcXzXxXxXKXKXcXxXzXcXlXlXcXcXcXlXJXKXzXzXlXlXlXlXlXlXlXlXlXlXlXlXlXlXjXlXjXpXjXlXjXlXjXjXlXjXlXlXjXjXjXaXjXjXuXjXjXjXjXjXjXuXjXjXjXjXjXjXjXfXjXuXfXfXy.2 1 G J J K G L P L P L P P P j v 1XfXjXeXjXfXfXjXfXfXfXuXfXfXuXfXfXjXeXfXjXuXfXfXfXeXjXfXeXfXfXfXeXeXfXfXeXfXeXfXfXfXeXfXeXfXeXfXeXfXfXeXfXeXfXfXeXeXeXfXeXvXeXfXeX",
"m.n.tXtXm.tXtXtXtXsXpXpXaXpXpXpXsXaXsXsXaXaXaXaXaXaXaXaXaXsXaXaXaXaXaXaXzXaXaXzXzXaXaXaXzXaXzXzXzXaXaXzXaXaXzXzXzXzXaXzXzXzXzXaXzXaXaXaXaXzXaXaXaXzXaXzXaXzXzXaXzXzXaXzXzXzXzXaXeXl J %X%X'.`.s c P J G S G G G G K C K C C G C M z C C C C C = N pXaXaXaXaXzXaXaXaXaXaXaXaXaXzXaXaXaXaXpXaXaXaXpXaXpXaXlXpXaXpXpXaXpXsXpXsXsXsXtXtXsXtXtXm.m.sXtXm.tXtXtXtXpXtXtXtXtXtXtXtXtXpXuXpXpXuXpXuXuXuXuXtXtXuXtXtXuXsXuXtXuXuXtXuXuXsXtXuXtXuXuXuXuXuXpXuXuXuXpXuXpXpXuXlXpXuXtXpXpXuXuXpXpXpXpXpXpXpXuXpXuXpXpXpXpXuXpXuXpXpXpXpXpXlXpXaXpXpXpXpXpXpXpXpXpXpXaXlXaXvXaXlXpXlXaXzXzXaXlXlXlXaXzXzXzXzXlXzXzXzXzXzXzXzXzXzXzXzXzXlXzXzXzXlXzXxXxXzXzXzXxXxXxXcXxXxXxXzXxXxXcXxXcXxXxXxXzXxXxXxXcXxXzXxXxXcXxXxXxXcXxXzXcXxXcXKXKXcXzXzXzXxXzXlXlXzXlXzXLXxXzXzXcXzXcXcXcXlXlXcXcXlXcXlXlXlXlXlXlXjXlXlXlXlXlXjXlXjXjXjXjXlXjXjXjXjXjXjXjXjXjXuXjXjXjXjXjXjXjXjXjXuXjXjXjXfX,.: c J K J L G L K L P P G.P J < e.fXjXjXfXjXuXfXjXjXfXjXfXfXfXeXjXfXjXfXfXfXfXfXjXfXfXjXeXfXfXfXjXfXuXfXfXfXfXfXvXfXeXfXuXfXfXfXeXfXeXfXeXfXeXfXfXfXfXeXfXfXeXeXfX",
"tXtXtXtXtXtXtXsXsXsXpXpXpXpXsXsXaXsXaXsXaXaXsXaXaXaXaXaXaXaXsXaXaXaXaXzXaXzXaXaXaXzXaXzXzXaXaXzXaXzXzXzXzXaXzXzXzXaXzXaXaXzXaXzXzXzXzXzXzXzXaXzXaXaXzXzXzXaXzXaXzXzXzXzXzXzXlXcXe.j $X%X$X`.A < H J J H H G F G F C C z G C z G C C C C C C j 2 n.aXaXaXaXaXaXaXzXaXaXaXaXaXaXaXaXzXlXhXsXaXaXaXaXaXaXaXaXpXpXpXpXpXaXpXpXtXsXtXsXtXsXsXsXsXsXtXtXm.sXtXuXsXsXtXtXpXpXtXtXsXtXuXuXuXuXuXuXpXpXsXuXuXtXuXuXuXuXuXpXtXuXuXuXtXuXuXuXsXuXuXuXpXsXuXuXuXpXuXuXuXpXuXuXpXpXpXtXpXpXpXpXuXpXuXpXpXpXpXpXpXpXuXuXpXpXsXpXuXpXsXpXpXpXpXaXaXpXpXpXpXpXpXlXaXlXaXaXaXaXaXaXaXzXaXzXvXzXlXaXlXzXzXvXzXzXzXzXlXzXxXzXzXzXzXzXxXzXzXxXzXcXxXzXzXzXxXzXzXzXxXxXcXxXxXxXcXxXzXcXxXxXcXxXzXxXcXlXcXxXxXxXxXzXxXxXcXxXxXxXxXxXxXxXxXzXKXLXxXxXzXcXzXlXxXzXcXxXzXKXJXcXlXzXlXlXzXcXzXlXlXlXcXlXlXlXjXlXlXlXlXjXlXjXjXlXuXjXjXlXuXlXlXlXjXjXuXlXjXjXaXjXaXjXjXuXjXjXjXjXuXjXjXjXjXjXjXeXe : A J J G L J P P L P G.G.P v b @XfXjXjXfXuXfXfXfXfXfXfXfXjXjXfXjXfXfXfXjXeXjXfXuXjXfXfXfXfXfXfXfXfXfXuXfXfXeXfXfXfXfXfXfXeXfXuXfXfXeXfXfXfXfXeXfXvXfXfXeXfXeXfX",
"tXtXtXuXtXtXtXsXsXuXpXsXpXpXsXpXsXsXaXaXsXaXaXaXsXaXaXaXaXaXaXaXaXaXaXaXaXzXzXaXaXaXaXaXzXaXaXzXzXzXaXzXzXzXzXzXzXzXzXzXzXzXzXaXzXzXaXaXzXaXzXzXzXzXzXzXzXzXaXzXzXzXzXzXzXaXlXeXr J %X$X'.G.1 l J J K G G F G F C G C G z C C C G z C G v z * q.pXpXzXaXzXzXzXaXaXaXzXaXaXaXaXzXaXzXzXaXpXzXaXaXaXpXaXpXaXaXaXaXaXpXpXpXpXsXsXsXsXtXtXsXsXm.sXm.tXtXsXtXtXpXpXsXtXsXuXtXpXpXtXsXpXuXpXuXsXtXsXpXuXuXsXtXsXpXuXsXuXsXpXuXsXuXtXpXuXuXpXpXuXpXpXtXpXpXpXpXpXpXuXpXpXpXpXpXuXpXuXuXpXpXpXpXpXsXsXpXpXpXpXpXpXpXsXuXuXsXsXsXuXpXpXpXpXpXzXaXpXaXpXpXpXpXpXpXpXlXaXpXpXaXlXlXpXzXzXaXlXaXaXzXzXzXzXzXzXzXzXzXcXzXzXcXxXcXzXxXcXzXzXxXxXzXlXxXxXzXzXzXzXzXzXzXzXxXxXzXxXxXxXxXxXcXxXzXxXxXxXxXxXxXxXxXzXxXcXxXxXxXxXcXxXzXzXHXLXxXxXzXcXxXxXlXxXzXcXzXHXHXzXcXlXzXlXcXlXlXlXcXlXlXlXlXlXlXlXlXjXlXlXlXlXlXlXlXlXlXjXlXlXjXjXlXjXlXjXlXjXjXjXjXjXjXjXjXuXjXjXjXjXjXjXjXjXjXjXy.2 j G G P J G L J P P A.P H.P 1 I fXjXfXjXfXjXuXfXuXjXjXfXuXfXjXfXjXjXfXfXjXjXfXfXfXfXjXfXuXfXvXfXjXfXfXfXjXfXfXuXfXjXfXfXfXfXfXfXvXfXjXfXfXfXfXeXeXfXfXfXfXjXfX",
"tXtXtXtXuXtXtXsXuXvXpXpXpXpXsXpXsXaXaXaXsXaXaXaXaXaXaXaXaXaXaXaXaXaXaXzXaXaXzXaXaXaXzXzXaXzXaXzXzXzXzXzXzXzXzXzXzXzXxXzXzXzXzXzXaXzXzXaXzXzXzXzXzXzXzXzXzXzXzXzXzXzXzXzXzXzXaXy.j .X$X.X].A < G J J J G G G C G G C C C C C G z C z G C C q q eXaXaXaXaXaXzXzXaXaXzXaXaXaXaXaXaXzXzXaXzXaXhXaXaXaXaXaXaXaXzXaXaXaXpXaXaXpXsXpXsXpXsXsXpXsXtXsXtXtXtXtXsXtXsXpXpXpXsXtXsXuXsXsXpXuXtXtXuXsXuXvXpXpXuXpXsXsXpXsXtXuXuXsXpXsXsXpXuXsXuXuXvXsXpXsXpXuXsXuXuXpXpXpXpXpXlXpXpXpXpXpXpXpXpXpXpXsXpXpXpXpXpXpXpXpXsXpXsXpXpXsXsXpXpXpXpXvXaXaXaXaXaXpXaXaXaXaXaXaXaXaXaXlXlXzXaXaXvXzXaXzXaXaXaXzXzXzXxXzXzXxXzXzXzXzXzXzXxXxXzXxXxXzXzXxXzXxXzXxXzXzXzXzXxXxXzXzXxXxXxXxXxXxXxXxXxXxXxXxXxXxXxXxXzXxXzXxXxXxXxXxXzXxXxXzXcXzXJXLXxXxXzXlXcXxXzXzXcXzXzXJXKXzXzXzXzXcXzXlXlXzXcXlXzXlXlXlXlXlXlXlXlXaXlXlXlXaXlXlXjXlXlXuXlXlXlXjXjXjXlXaXjXjXjXjXlXaXjXjXuXjXjXjXjXjXjXjXjXjXeXN : v J K J L K L P L P P G.G.G < @XjXjXjXfXjXfXjXfXjXfXfXjXfXfXjXfXjXjXjXjXjXfXjXfXjXfXjXjXjXfXjXjXfXjXfXfXjXfXfXjXjXfXfXfXvXfXfXfXfXfXfXuXvXfXeXfXfXfXfXfXfXeX",
"uXtXuXsXsXsXtXtXsXsXsXsXpXaXaXaXsXaXaXaXaXaXaXaXaXzXaXzXzXzXaXaXaXaXaXaXaXzXzXaXzXaXaXaXzXaXaXzXaXaXzXzXzXzXzXzXxXzXzXzXzXzXzXaXzXzXzXzXaXzXaXzXaXaXzXzXaXzXzXzXzXzXzXzXzXzXeXb K %X$X'.`.1 v L J J G G G F G F C F F G G z G C C C z G z = w.aXaXaXaXaXzXaXzXaXaXaXaXaXzXaXzXaXaXzXzXaXaXaXaXzXaXzXlXaXaXaXaXaXaXaXaXaXaXpXpXsXsXpXsXsXpXsXsXsXsXsXuXsXsXsXvXsXpXsXtXtXtXsXpXpXuXsXuXsXpXsXsXpXuXpXpXtXpXsXsXsXpXsXvXsXtXsXtXuXpXsXpXpXpXsXpXpXpXpXpXpXpXpXpXpXpXpXpXsXpXpXpXpXpXpXpXsXsXpXaXaXpXpXsXsXpXpXsXsXpXpXpXsXpXsXpXpXaXaXaXaXpXaXpXpXaXaXaXaXaXaXaXaXaXaXaXaXlXzXzXzXaXzXzXzXzXzXzXzXzXzXzXzXzXzXzXzXzXzXcXzXzXzXzXzXzXxXxXzXzXzXzXzXzXzXzXzXzXxXzXzXzXxXxXxXxXxXxXzXzXzXxXxXxXzXxXzXxXxXxXxXxXxXzXxXxXxXzXxXLXJXxXxXzXzXlXxXzXxXcXzXJXKXxXzXzXcXzXlXlXzXlXzXcXlXlXlXzXlXlXzXlXlXlXlXlXlXjXlXlXaXlXjXlXjXjXjXlXaXjXlXjXlXlXuXlXjXjXjXlXjXlXjXlXjXlXjXjXjXjXjX1Xq < J J P J L L L P P P P G.P l v eXjXjXuXlXfXjXjXjXuXjXjXjXjXcXjXfXfXfXfXjXjXfXjXfXjXjXfXfXjXjXfXjXfXvXfXfXjXjXfXfXfXfXuXfXfXjXjXjXfXfXfXfXfXjXfXfXjXfXjXjXfX",
"tXuXuXtXtXtXsXpXpXpXpXpXpXaXaXaXsXaXaXaXsXsXaXaXaXaXaXaXaXaXaXaXaXaXaXzXaXzXzXaXzXaXaXzXzXaXzXzXzXzXzXaXaXzXzXzXzXzXzXzXzXzXzXzXzXzXzXzXzXaXzXzXzXzXzXzXzXzXzXzXzXzXzXzXlXjXe.q .X$X.X`.v < J J K J G F F G C K G C K C G C F C C C C F < r tXaXaXaXaXzXaXaXzXaXaXaXaXzXaXzXzXaXaXaXaXaXaXaXaXaXaXaXaXaXaXaXaXaXaXpXpXpXsXsXpXpXpXpXpXsXaXpXsXsXpXpXpXsXsXsXsXpXpXsXsXtXsXpXpXpXsXpXpXpXpXpXpXpXsXpXpXtXuXpXvXsXpXpXpXuXuXsXsXpXpXsXsXpXpXsXpXpXpXpXpXsXpXpXpXpXpXpXpXuXpXpXpXpXsXpXpXpXvXsXsXsXpXpXsXsXsXpXaXaXpXpXpXsXsXaXaXpXaXaXaXaXpXpXaXzXaXzXaXaXzXaXaXaXzXlXaXaXaXzXaXzXzXaXzXzXzXzXzXzXxXzXzXzXxXzXzXxXxXzXzXzXzXxXxXcXxXzXzXxXxXzXzXzXzXxXzXxXxXxXxXxXxXxXxXxXzXxXxXzXzXxXxXxXxXxXxXxXxXxXxXcXzXxXzXzXxXxXxXxXLXJXxXzXxXxXzXxXzXcXxXcXxXHXxXlXzXlXzXlXzXlXlXlXzXlXzXlXlXlXlXzXlXlXlXlXlXlXlXlXlXlXlXlXlXlXlXaXlXjXlXlXjXlXaXlXaXjXlXlXjXjXjXlXjXlXjXlXjXlXjXlXjX,.3 v J J J J P L L P G.P P `.J 1 e.fXjXfXlXjXjXjXjXjXjXfXjXjXfXjXfXcXjXjXjXfXcXvXfXjXjXfXjXfXjXfXfXjXfXjXjXfXjXjXfXjXjXjXjXfXfXjXfXjXjXfXfXfXfXfXfXuXfXfXfXfX",
"n.tXuXuXsXpXsXpXpXpXpXpXaXaXpXaXaXaXaXaXaXaXaXaXaXaXaXzXaXaXaXaXaXzXaXaXaXaXzXaXaXaXaXaXaXaXzXzXzXzXzXzXzXzXzXzXzXzXxXzXzXzXzXzXaXzXzXzXzXzXzXzXzXzXzXzXaXzXzXzXzXaXzXzXzXeXb G %X.X'.`.1 x P G J H K F G Z C G C C z C z z G C F C G l % y.zXpXaXaXaXzXaXzXaXaXaXaXaXaXzXaXzXzXzXzXaXzXzXaXaXaXaXaXzXaXaXaXaXaXaXaXaXaXaXaXaXaXpXpXsXpXaXaXpXaXaXpXpXpXpXpXsXpXpXsXpXpXpXsXpXpXpXpXpXpXpXpXuXpXsXpXpXpXsXtXsXpXpXpXuXsXpXpXsXtXsXpXpXpXpXpXpXpXpXpXpXsXpXpXaXpXpXpXsXpXpXpXpXpXpXpXaXpXsXaXaXsXsXpXaXpXpXaXaXsXaXsXaXsXpXpXaXaXlXaXaXaXzXaXaXaXaXaXaXzXvXaXzXaXaXaXaXzXaXaXzXaXzXzXaXzXxXzXzXzXzXzXzXzXzXxXzXxXzXxXzXxXxXxXzXxXzXxXxXzXzXxXzXxXzXxXzXxXzXxXxXxXxXxXxXxXxXxXxXxXxXxXxXxXzXxXxXxXxXxXxXxXxXxXxXxXxXzXxXxXKXKXzXzXxXzXlXxXxXzXxXzXxXxXxXzXzXzXcXzXlXzXxXzXzXlXlXlXlXzXlXlXzXlXlXzXlXlXlXlXlXlXlXlXlXlXlXlXlXaXlXlXlXlXjXjXjXlXlXjXlXlXjXlXjXlXjXlXlXjXlXjXjXeXr 2 H K P J J P P P P G.G.G.H.C b 1XjXjXjXjXjXjXjXjXjXjXjXjXjXjXjXjXfXjXfXcXjXfXcXfXjXjXfXjXjXjXjXjXcXfXjXjXjXfXjXfXjXfXjXfXjXfXjXfXfXjXjXjXjXjXfXfXfXfXvXfX",
"y.sXsXsXsXpXpXpXpXpXaXsXpXaXaXaXaXaXaXaXaXaXaXaXaXaXzXzXaXaXaXaXzXaXaXaXaXaXzXaXzXaXaXaXaXaXzXzXzXzXzXzXzXaXzXzXzXzXlXtXzXzXzXzXzXzXzXzXzXzXzXzXzXzXzXzXzXzXzXzXzXzXzXzXlXe.< ].$X]..XA a K J J K H G F C G F F C C K z G C F G G C C 1 i aXzXaXaXaXaXzXaXzXaXzXzXaXaXaXzXaXzXaXzXaXzXaXaXaXaXaXpXaXaXaXzXaXsXaXaXzXaXaXaXaXaXpXaXpXsXpXaXpXpXsXpXpXpXpXsXsXsXsXsXpXpXpXpXsXpXpXpXpXpXpXpXpXpXpXpXaXpXpXpXsXpXpXpXpXpXsXsXpXsXtXsXpXpXpXpXpXpXpXsXsXpXsXpXpXpXaXaXpXpXpXsXpXpXpXpXaXaXpXpXsXsXpXaXaXpXaXvXaXaXaXaXaXaXaXaXaXaXpXaXlXaXaXaXaXzXaXzXaXaXzXzXaXaXaXzXaXzXzXzXaXzXaXzXzXzXzXzXxXzXzXxXzXzXzXxXzXzXzXzXxXzXxXxXxXzXxXxXxXxXxXxXzXxXzXzXxXxXzXxXxXxXzXzXxXxXxXxXxXzXxXxXxXxXxXxXxXxXxXxXxXxXxXxXxXxXzXzXzXxXxXHXKXxXxXlXzXzXxXxXzXxXzXzXcXzXzXcXzXzXlXzXzXcXzXzXlXlXzXzXlXzXzXlXcXcXlXlXlXzXlXlXlXcXzXlXlXlXlXjXlXlXlXlXlXjXlXlXlXlXjXlXjXlXlXlXjXlXjXlXlXlXjXjXjXe.2 k P J P P J L P P G.P `.`.P b I jXjXjXjXjXjXjXjXjXjXjXjXjXjXjXcXcXjXcXfXjXjXfXjXfXjXjXcXjXfXjXjXfXcXjXjXjXfXjXjXjXfXjXfXfXFXjXjXjXfXvXjXfXfXfXjXjXfXfXjX",
"y.sXpXpXpXsXpXaXpXpXaXaXsXaXaXaXaXaXaXaXsXaXaXaXzXaXzXaXaXaXzXzXaXaXzXaXzXzXzXzXaXaXaXzXzXzXzXzXzXaXzXzXzXzXzXzXzXzXeXN aXzXzXzXzXzXzXzXzXzXzXzXxXzXzXzXzXzXzXzXzXzXzXzXeXb G %X.X'.P 1 z J J J S G F G G G C G K F C G C C C z C F z 2 y.aXaXaXaXsXaXaXaXaXaXzXaXaXaXaXaXzXaXaXzXaXaXaXaXzXaXaXaXzXzXaXaXaXaXsXaXpXaXaXaXaXaXaXpXaXaXpXaXsXpXaXpXpXpXpXpXsXsXsXpXpXpXaXpXsXaXpXpXpXaXaXpXpXpXaXpXpXsXuXpXpXpXsXaXpXsXsXsXsXpXpXsXaXpXpXsXsXpXpXpXpXpXpXpXsXsXpXsXaXpXsXpXpXpXsXpXpXpXpXpXaXpXsXaXpXsXaXaXaXaXaXaXaXaXaXaXaXaXaXaXzXaXzXzXaXaXaXpXaXaXaXaXzXzXzXzXzXaXaXzXaXzXzXzXzXaXzXzXzXzXxXzXxXzXxXzXxXxXzXxXzXxXxXxXzXxXxXzXxXzXxXxXxXzXzXxXzXzXxXxXxXxXxXxXxXxXxXxXxXxXxXxXxXxXxXxXxXxXxXxXxXxXxXxXxXzXxXxXxXzXxXJXLXxXxXxXzXxXxXxXcXcXzXzXzXcXzXzXxXxXlXlXlXzXzXzXlXxXlXzXxXlXzXzXzXzXzXzXlXzXlXlXlXlXlXlXlXlXlXzXlXlXlXlXlXlXlXlXjXlXlXlXlXlXjXlXjXlXlXlXjXlXlXcXjXeXn : G J K J L P L G.P P G.H.P G 1 @XjXcXjXjXjXcXjXcXjXjXjXjXjXjXfXjXjXjXjXcXfXcXjXcXjXjXfXjXFXjXjXjXjXjXfXjXjXjXfXjXjXfXcXjXfXjXfXfXcXfXfXjXjXjXfXjXfXcXfX",
"w.tXpXpXaXpXpXaXaXsXsXsXsXsXaXaXaXaXaXaXaXaXaXzXaXaXaXaXaXzXzXzXzXaXaXzXzXzXaXzXzXzXaXzXzXzXzXzXzXzXzXzXzXzXzXzXzXzXy.i aXzXzXzXxXzXzXzXzXxXzXxXxXzXzXzXxXzXxXzXzXzXzXzXXX1 '.$X]..XC < J J J K J G K G F F C F C F z C C C G z Z C 8 p uXpXaXaXaXaXaXaXaXaXaXzXzXaXaXaXzXzXaXzXzXaXaXaXaXzXaXaXaXzXaXaXaXaXaXaXpXpXaXaXzXaXaXaXaXaXpXsXsXsXaXzXaXaXpXaXpXsXsXpXsXsXpXpXpXsXpXpXpXpXpXaXaXpXpXpXpXaXpXpXaXpXpXpXpXpXeXw.y.n.sXsXpXpXpXpXpXsXsXsXpXpXsXpXaXsXsXsXaXpXpXsXpXaXpXsXsXaXaXpXsXsXsXaXaXpXsXaXaXaXaXaXpXpXaXaXaXsXpXaXaXaXzXaXaXzXaXzXaXaXaXaXaXaXaXzXaXzXzXzXzXzXaXzXaXzXzXzXzXzXzXzXxXzXzXxXzXxXxXzXzXxXxXzXxXxXxXxXxXxXzXzXzXxXzXxXzXxXxXxXxXxXxXxXxXxXxXxXxXxXxXxXxXxXxXxXJXxXxXzXxXxXxXxXxXxXxXxXxXxXxXxXxXLXxXxXzXxXxXxXxXxXxXzXzXzXxXzXxXcXzXzXzXlXzXzXzXlXxXzXlXzXxXlXlXlXlXlXzXlXlXlXzXlXzXlXlXzXzXzXlXlXlXlXlXlXlXlXlXlXlXlXjXlXlXlXlXlXlXjXjXcXlXjXlXcXlXy.: j J J P J P P P G.G.P H.`.H.v b fXjXcXjXjXjXjXjXkXcXjXcXjXjXcXcXfXcXjXjXjXcXjXjXcXfXcXjXfXjXjXcXfXcXjXcXfXjXjXfXjXjXjXjXcXjXjXcXjXcXfXfXcXjXjXjXfXfXFX",
"w.sXsXpXsXpXpXpXaXpXsXsXaXaXaXaXaXaXaXaXaXaXaXaXzXaXzXzXzXzXaXaXaXzXaXzXzXzXzXzXzXzXzXaXzXaXzXzXzXzXzXzXxXzXzXzXzXlXq.! tXxXzXzXzXxXzXxXxXzXxXxXzXzXzXzXzXxXxXxXzXxXzXfXb C $X#X`.`.< V P K J J G H G F G G C K C C G C G F C G F v 1 y.zXzXzXaXaXaXzXaXaXaXaXaXaXaXaXzXaXaXzXaXaXzXzXaXhXaXaXaXaXaXzXaXaXaXaXaXaXaXaXaXpXaXaXaXaXsXsXaXaXpXaXaXaXaXaXaXpXpXpXaXsXpXsXpXpXaXpXaXpXpXaXaXaXpXaXaXpXpXpXpXpXaXsXsXpXeXu 7 2 2 q.tXpXpXpXaXpXpXsXsXsXsXsXsXpXpXaXaXaXsXaXsXpXpXaXpXsXaXaXaXsXaXsXaXpXaXaXaXaXaXaXaXaXpXaXaXaXaXaXaXaXzXaXzXaXaXzXaXzXzXaXaXaXzXaXzXaXzXzXzXzXaXzXzXzXzXzXzXxXzXzXzXzXzXzXzXzXxXzXxXzXxXzXxXxXxXxXzXzXxXxXxXxXxXxXzXxXxXxXxXxXxXxXxXxXxXxXxXxXxXxXxXxXxXxXxXxXxXxXxXxXxXxXxXxXxXxXxXxXxXxXxXxXLXJXxXxXxXxXxXxXxXzXzXxXzXlXxXzXzXxXxXxXxXxXlXzXzXlXzXzXlXlXzXlXzXzXzXlXzXlXzXlXzXlXlXzXlXkXzXlXlXzXlXlXlXlXlXlXlXzXlXlXlXlXlXlXlXcXlXlXlXlXlXlXlXlXfXN = G P J P L P P P P `.P H.H.P j e.jXjXcXcXjXcXcXjXjXjXjXcXjXlXjXcXjXcXcXcXfXjXcXfXcXjXcXcXjXcXjXcXfXjXjXcXjXe.@XcXfXcXfXcXjXFXcXfXjXcXfXcXfXjXjXjXjXvX",
"y.sXsXpXpXpXpXpXaXaXsXaXaXaXaXaXzXzXaXaXaXaXaXaXaXzXaXaXzXaXzXaXaXzXzXzXzXzXzXaXzXzXxXzXzXzXzXzXxXzXzXxXzXzXzXxXxXeXw.! tXzXxXzXxXxXxXxXzXxXxXzXzXxXzXzXxXzXxXzXxXzXzX@X1 '.$X$X].C < J P J J J H G F G F G F C C C C G G F C G z q u pXzXzXaXzXaXzXzXzXaXaXaXaXaXzXzXaXaXzXaXaXaXzXaXaXaXaXaXaXaXaXaXaXsXaXsXaXaXaXaXaXaXaXaXaXaXaXaXaXaXaXaXaXaXaXaXaXaXaXsXaXpXsXsXpXaXaXaXaXpXaXaXaXaXaXaXaXaXpXpXzXaXaXpXsXpXN t s.f.[ 8 ] m.pXpXsXsXsXsXsXsXsXsXpXpXpXaXsXaXsXaXsXpXaXsXpXsXaXaXaXaXsXaXaXaXaXaXaXaXaXaXzXaXaXaXzXaXaXaXaXaXaXaXzXaXzXzXaXzXaXaXaXzXaXzXaXaXzXzXzXzXzXaXzXzXzXzXzXzXzXzXzXxXxXzXxXxXzXzXxXxXxXxXzXxXzXxXxXxXxXxXxXxXxXxXxXxXxXxXxXxXxXxXxXxXxXxXxXxXxXxXxXxXxXxXxXxXxXxXxXxXxXxXxXxXxXxXxXxXxXxXxXxXKXJXzXxXxXxXzXxXxXzXxXzXzXzXzXzXxXxXzXzXxXxXzXzXzXzXzXzXzXzXlXlXzXzXzXzXzXzXzXcXzXlXzXzXlXzXlXlXlXzXlXzXzXlXlXlXzXlXlXlXlXlXlXlXlXcXlXlXlXlXlXjXcXlXlX1Xq 1 J P J P P P P G.P G.G.`.`.G r 1XcXlXcXcXjXjXcXcXjXcXlXcXjXjXcXjXjXcXjXjXjXcXcXjXcXcXfXcXjXcXjXjXcXFXjXeXr e.jXjXjXcXjXfXcXcXcXfXcXfXcXjXFXjXjXfXcX",
"y.sXpXpXpXpXaXaXaXaXaXaXaXaXaXaXzXaXaXaXaXaXaXzXaXzXzXaXzXzXzXzXzXzXaXzXzXzXzXzXzXzXzXzXzXxXxXzXzXxXzXxXxXzXzXzXxXy.w.! eXxXxXzXxXzXxXzXxXzXzXxXxXzXxXxXxXxXxXzXzXxXjXM v %X'.'.G.1 v A.J K J G H G G F F G G C G F G z z G C C v q y.zXzXzXpXzXaXaXaXaXzXaXzXaXaXaXaXaXaXaXzXzXaXaXaXaXaXaXaXaXaXzXaXaXsXaXaXpXaXaXaXaXaXaXaXaXaXaXaXaXaXaXaXaXaXzXaXzXaXaXaXaXpXaXpXpXaXaXaXsXaXaXaXlXlXaXaXaXzXpXaXpXaXaXaXaXeXe s.4Xj.,Xr.r y.pXpXpXaXaXsXsXsXsXsXsXaXaXaXaXsXaXsXaXaXaXaXsXaXsXaXaXaXaXaXaXaXaXaXaXzXaXzXaXzXaXaXaXaXzXaXaXzXzXzXaXzXaXzXaXaXzXzXzXaXaXzXzXzXzXzXzXzXzXzXzXzXzXxXxXzXxXzXzXzXxXzXxXxXxXxXxXxXzXxXxXxXxXxXxXxXxXxXxXxXxXxXxXxXxXxXxXxXxXJXxXxXxXxXxXxXxXxXxXJXxXxXxXxXxXxXxXxXxXxXxXxXxXxXzXxXxXxXxXxXKXJXzXxXxXxXxXzXxXxXxXxXxXxXxXxXzXxXxXxXzXzXzXzXzXzXzXzXcXzXzXzXzXzXzXzXlXzXzXzXlXxXlXzXzXlXxXlXzXlXlXlXlXlXlXlXlXzXlXlXzXlXcXlXzXlXlXlXlXt.eXlXlXcXlXlX,.: C J P J P P A.P G.G.`.,.G.G.b I jXjXlXcXjXcXlXlXkXjXcXkXcXcXcXcXcXjXcXcXjXcXjXcXjXjXcXcXjXcXcXjXcXjXcX@XM e.cXjXlXjXcXcXcXcXfXcXcXcXjXcXfXfXcXcXjX",
"4.pXpXpXaXaXpXpXaXaXaXaXaXaXzXaXaXzXaXaXaXzXaXzXzXaXzXzXzXzXzXzXzXzXzXzXzXzXzXzXzXzXzXzXzXzXxXxXxXxXzXzXxXxXzXxXzXy.>.! iXzXzXzXzXxXxXxXxXxXxXxXzXzXzXxXxXzXxXxXxXzX@X1 '.%X.X'.v < J J J J J G G G G G G G F C z G C C C C G C d u lXzXzXx.y.aXzXaXzXaXaXaXaXaXaXaXaXaXaXzXaXzXaXaXaXaXaXsXaXzXaXaXaXaXaXaXaXaXaXaXaXzXzXaXaXaXaXsXaXaXaXaXaXsXaXpXaXaXaXaXsXsXaXaXaXaXpXaXaXaXaXaXaXaXaXaXaXlXzXpXaXaXlXaXaXlXw.N z.c.2Xc.j.[ i uXaXaXaXaXaXsXsXsXsXaXaXsXaXaXaXpXaXaXaXaXaXsXaXaXaXaXaXsXaXaXaXaXaXzXaXaXaXzXaXaXaXzXzXzXaXzXzXaXzXaXzXaXaXzXzXzXaXzXzXzXzXzXzXzXzXzXzXzXzXxXzXzXzXxXxXxXxXxXxXxXxXxXxXxXxXxXxXxXxXxXxXxXxXxXxXxXxXxXxXxXxXxXxXxXxXxXxXxXJXxXJXxXJXxXxXxXxXxXxXxXJXxXxXxXJXxXxXxXxXxXxXxXxXxXxXxXxXxXzXKXKXzXxXxXxXxXxXxXxXxXxXzXzXxXzXxXzXxXzXzXzXzXzXzXzXzXcXzXzXzXzXzXzXzXzXzXzXzXzXzXlXzXzXlXzXlXzXzXlXlXzXzXlXlXlXzXzXlXlXlXcXzXlXlXcXlXzX1Xp y.cXlXzXlXzXeXr , J P P J P P P P G.G.H.H.`.P j y.cXcXcXlXcXcXlXlXcXlXlXcXcXjXcXcXcXcXjXcXcXjXcXjXjXcXjXlXjXjXcXcXjXcXe.N } jXjXcXFXcXjXfXcXcXfXcXcXcXcXfXcXjXjXfX",
"x.sXsXsXaXaXaXaXaXaXaXaXzXzXaXzXzXaXaXzXaXaXzXzXzXzXzXzXaXaXzXzXzXzXzXxXxXzXzXxXzXxXzXxXxXzXzXzXzXxXxXxXzXzXxXzXlXe.v.N fXzXzXxXzXzXxXxXxXxXxXzXzXzXxXxXxXxXxXzXxXlXI v %X$X].H.1 v P P J K H G G C F F F C C G K C G F C C Z v 2 y.zXaXzXe.q.zXaXzXaXzXaXaXaXaXaXaXaXaXaXaXaXaXzXaXaXaXaXaXaXaXzXaXaXaXaXaXpXpXaXaXaXaXaXaXaXaXaXaXaXaXaXaXsXaXaXaXaXaXaXsXsXsXaXaXaXaXaXaXaXzXaXaXlXaXaXaXaXaXaXzXaXaXaXaXaXuXN w.c.4X4X4Xj.l.e x.aXaXlXaXaXpXsXaXsXaXaXaXaXaXaXaXaXaXaXaXaXaXaXaXaXaXaXaXaXaXaXaXzXaXaXzXzXzXzXzXaXzXzXaXzXaXzXzXaXzXzXaXzXzXzXzXaXaXzXaXzXzXzXzXzXzXzXzXzXzXxXxXxXxXxXxXxXxXxXxXxXxXxXxXxXxXzXxXxXxXxXxXxXxXxXxXxXxXxXxXxXxXxXxXxXJXxXxXxXxXxXxXxXxXxXxXxXJXxXxXxXxXxXxXxXxXxXxXzXxXxXxXxXxXxXxXxXxXxXxXKXxXxXxXxXcXeXvXxXxXxXxXxXzXxXzXzXxXxXzXzXzXzXzXzXzXlXxXzXlXzXzXzXzXzXkXzXzXlXzXcXzXzXlXzXlXzXlXxXlXlXzXlXzXlXzXcXlXzXlXzXlXcXzXlXzXjXt.[ e.zXcXcXlXcXcXy.= c P J P L G.G.G.P G.H.H.`.`.A b eXcXlXcXjXcXlXcXcXcXlXcXlXcXlXlXcXcXcXcXcXcXcXcXcXcXcXcXcXcXcXfXcXlXN q.} cXcXcXjXcXcXcXcXcXFXvXvXFXcXcXcXFXcXcX",
"n.sXsXsXsXpXaXaXsXaXaXaXzXaXzXaXzXaXzXaXaXaXzXzXzXaXzXlXzXaXzXzXzXzXzXzXzXzXzXcXxXzXcXzXzXzXzXxXzXcXxXzXzXxXxXzXlXq.p.! eXxXzXcXzXxXxXcXxXxXzXxXcXxXzXzXxXzXxXxXxX1X1 J.*X.X'.v < P P C.J J F J G F G G C F F G z G C C G C Z j n uXzXaXzXq.e.aXzXzXzXaXpXpXlXpXaXaXaXaXpXpXaXzXaXaXzXzXpXpXpXaXzXsXpXaXzXaXaXaXaXzXaXaXlXzXaXaXaXaXaXsXpXaXaXaXaXzXaXaXaXaXsXaXaXaXzXaXzXaXaXaXaXlXaXaXaXaXaXzXzXaXzXaXaXaXaXuXe f.4Xc.c.4Xc.2X] [ aXzXzXaXaXaXaXaXsXaXsXaXaXaXaXaXaXaXaXaXaXzXaXzXaXaXaXaXaXzXaXzXzXaXaXzXaXaXaXzXaXzXaXaXzXzXzXzXaXzXzXaXaXzXaXzXaXzXaXzXzXzXzXzXx.y.zXzXzXzXzXxXxXzXzXzXxXxXxXxXxXxXxXxXxXxXxXxXxXxXxXxXxXxXxXxXxXJXxXxXxXxXxXJXxXxXxXxXxXxXxXxXxXxXxXxXxXxXxXxXxXxXxXxXxXxXxXxXxXxXxXxXzXxXxXxXxXxXxXJXKXxXxXzXxXzX$X{.vXxXeXjXlXzXxXxXxXxXzXzXxXlXzXzXzXzXzXzXzXzXzXzXzXlXzXzXzXzXzXxXzXeX1XzXzXxXlXzXzXzXzXzXlXzXcXlXxXzXzXlXzXlXlXlXzXcXuXN t.w.cXlXlXcXlXcXjXM > H L P P G.P G.`.G.`.,.G.`.`.j e.zXcXcXcXcXlXcXcXcXcXlXlXcXcXcXcXlXcXcXcXcXlXcXcXcXcXcXcXlXcXcXcXfXN >.q.cXcXjXcXcXcXcXjXcXcXcXFXjXcXcXcXcXcXcX",
"eXsXpXuXpXaXaXaXaXaXsXaXaXzXaXzXzXzXzXaXzXzXzXzXzXzXzXcXzXzXzXzXzXlXhXzXhXhXhXhXhXaXhXhXhXhXhXkXhXhXhXhXaXhXhXaXiXw.a.! 8XhXhXkXgXhXqXfXhXhXhXyXhXqXqXhXhXqXkXqXhXI j %X%X.XG.1 v A.J K K J K G G F G F C K C C C F F C F C V 2 y.zXaXlXpXn q.aXaXzXaXpXtXeXeXn.n.eXy.n.eXz.n.y.n.y.x.n.eXx.x.eXeXn.1Xn.z.1Xz.n.iXuXuXiXuXiXhXsXhXaXyXsXtXhXaXpXaXaXaXhXaXpXsXhXaXaXhXaXaXlXsXiXuXaXaXlXhXaXlXpXaXpXuXuXhXpXaX1Xu z.c.4X4Xc.c.2Xr.y tXaXaXaXaXaXaXaXaXaXaXsXaXaXaXaXaXaXaXzXaXaXzXzXzXzXzXaXaXaXzXzXaXaXzXaXzXaXaXaXzXaXzXaXaXzXzXzXzXzXzXzXzXzXzXzXzXzXzXzXaXzXxXeXe N aXxXzXxXzXzXzXxXxXxXxXxXxXxXxXxXxXxXxXxXxXxXxXJXxXxXJXxXxXxXxXxXxXxXxXJXxXxXxXxXxXJXxXxXxXxXxXxXxXxXxXxXxXxXxXxXxXxXxXxXxXxXxXxXxXxXxXxXxXxXxXxXxXxXKXxXxXxXzXzX&X{.].vXVXdXcXxXxXzXxXzXxXzXzXzXzXzXzXzXzXzXzXzXzXzXzXzXzXlXzXxXzXzXjXn :.lXzXzXzXzXlXlXlXzXzXlXzXzXzXlXzXzXlXcXzXzXzXzXeXN t.t.xXzXcXzXzXzXxX1X2 j L P J P P P P G.G.H.`.`.`.J j @XlXcXzXcXcXlXlXcXcXcXcXcXcXcXxXcXcXcXcXcXcXcXcXcXxXxXcXcXcXcXcX1X} e.I lXcXcXcXcXcXcXFXcXcXcXcXcXfXcXFXcXfXcX",
"m.uXaXuXuXaXaXaXaXaXaXaXaXzXlXaXzXzXhXhXaXiXhXiXuXhXhX8X8X1Xz.k.OX .} [ ] N m m N m N m m m m m n n m N m m m N n ! a.! b m m n m n n m m n n n n m n m n n m n b : L *X.X.Xv < J P J J K H F H G G F G K F F C F F G G G C q @ n n n n n % q N t b n [ N p r r 7 8 8 r 8 8 r 8 r r r 2 2 7 2 % % % % 2 7 2 7 8 8 8 e e n m m N [ { | r.f.f.h.6X8X6X3X3X3X6X2X2X8X8X7X8X6X8X8X8X6X8X8X7X0X8X8X8X8X8X8X8X8X8X8Xt.n z.4Xc.4Xc.q.f.d.e x.hXhXtXtXuXaXaXpXaXaXaXaXaXaXaXaXaXaXaXzXaXzXaXaXzXzXaXpXaXzXzXaXaXzXzXaXaXzXzXzXzXaXzXzXzXzXzXzXzXzXzXzXzXzXzXzXzXzXzXzXzXzXq.w.[ pXzXzXxXzXxXzXxXxXxXxXxXxXxXxXxXxXxXxXxXxXxXxXxXxXxXxXxXxXxXxXxXxXxXxXxXxXxXxXxXxXxXxXxXxXxXxXxXxXxXxXxXxXxXJXxXxXxXxXxXxXxXzXzXxXxXxXxXxXxXxXxXzXxXKXxXxXxXxXxXvX*X[.@X&XmXdXxXxXxXxXzXzXzXzXzXzXzXzXzXzXlXzXzXzXzXzXzXzXzXzXzXzXzXy.y [ lXzXzXzXzXlXzXzXzXlXxXxXzXzXlXcXzXzXzXzXlXzXcXy.q.y.t.zXcXzXcXcXzXcXlXI : A L P A.P G.G.P G.`.G.`.`.`.v N jXcXcXcXxXxXcXcXzXcXcXxXlXcXcXcXcXxXcXcXcXcXcXcXcXvXcXcXcXcXxXoXw.t.e.lXcXcXcXcXcXcXcXcXcXcXcXcXcXcXcXcXcXcX",
"m.sXuX .@XuXtXeX1X4X1Xt.f.t. .} q.[ N m m m t n t n n e 8 8 8 1 8 8 8 8 n n m b m y n m m n m n m N m N m N m N e ~ a.u n N m m m n m m m m N m n n U m m m n n 2 < .X$X].G.1 v A.P J J J G H G F G G C G F K C G C C F C v = r t m m m t : 7 n n 8 e m N .. .| r.f.d.d.f.d.d.d.d.d.-X-X-X;Xf.r.t. .| r.[ ' N ' m h n 8 8 8 8 7 2 % @ $ % 2 7 9 m ' '  . . .$.#.#.d.<X,X-X<X,X,X,X,X,X:X,X<X,X,X2X<X<X6X2X<X2X{ m 4Xc.c.4Xr.] t.c.y } 4X8X3X4X8XyXiX8X4X5XiXiXiXiXsXyXaXzXzXaXaXaXaXzXaXzXzXzXzXaXzXzXzXzXzXzXzXzXzXzXaXzXzXzXzXzXzXzXzXzXzXzXaXzXzXzXzXzXzXzXxXfXN y.N pXzXzXxXxXxXxXxXxXxXxXxXzXxXxXxXxXxXxXxXxXxXxXxXxXxXxXxXxXxXxXJXxXxXxXxXxXxXJXxXxXxXxXJXxXJXxXxXxXJXxXxXxXxXxXxXJXxXxXxXxXxXzXxXzXxXxXxXxXxXxXxXxXxXKXxXxXzXxXxXvXmX|.{.mXVXmXvXxXxXzXzXzXzXxXxXzXzXzXzXzXzXzXzXzXzXlXzXzXzXzXzXzXlX] [ y.zXzXlXzXzXzXxXzXzXzXzXlXzXzXcXzXlXjXkXkXkXhXkXr.y.t.e.lXkXcXzXzXcXzXxXuX1 d P P P P G.P G.G.G.H.`.`.'.G.q y.lXzXzXzXkXxXzXcXcXcXcXxXcXcXxXcXcXcXcXcXcXcXcXxXcXcXcXcXcXcXy.t.t.[ cXlXcXcXFXcXcXcXcXcXcXcXcXcXcXcXcXcXFX",
"{ [ ] m ..b 8 8 8 8 2 7 7 8 8 8 8 t h m h m m m m ' ' ' }  . . .;X;X=X=X<X<X<X<X<X<X<X,X<X<X6X6X0X8X8XhX7XqXyXqXt.6.a.! 1X6X6X1X0X0X6X6X0X6X6X6X6X6X1X6X1X0X0XwXb J $X.X'.v < P P J J J K G H G Z G F G C F F C C G G C Z d 9 -X,X,X:X<Xf.m ..,Xd.d.-X6X<X:X=X:X:X-X^.d.=X%.=X%.:X%.:X:X,X,X,X:X:X,X,X,X,X<X-X:X:X<X=X-X=X=X#.d.#. .[ ' ' m h 8 8 8 8 8 4 2 4 8 7 8 t n 9 h t t 9 n h m t m t ' ' ' '  . . .| m ] c.4Xc.c.q.s.{ c.[ m >X,Xh.,X,X6X2X6X2X2X4X2X2X3X8X8X8XiXyXiXiXyXiXiXjXjXaXhXaXlXlXaXlXzXlXzXzXzXzXzXzXzXzXzXxXzXxXzXzXxXzXvX,.aXxXzXzXzXxXxXxXeX,.x.N uXxXzXxXxXzXxXxXxXxXxXxXxXxXxXxXxXxXxXxXxXxXxXxXxXxXxXxXxXxXxXJXxXxXxXxXxXxXxXxXxXxXxXxXxXxXxXxXxXxXxXJXxXxXxXxXxXxXxXxXxXxXxXzXxXxXxXxXxXxXxXxXxXxXJXxXxXzXxXxXzX&XmX{.|.VXVX[.vXaXzXxXxXzXzXzXzXzXzXzXzXxXzXzXzXzXzXzXzXzXzXzXzXtX[ r.y.zXzXxXzXzXzXzXzXzXlXlXlXlXkXgXqX0X0X0X0X0X0X6X} l.f.} qXqXqXqXqXqXhXqXgX} = A P P A.A.G.G.G.`.`.`.`.`.'.G b eXcXzXcXxXxXcXxXcXzXcXcXcXxXcXxXcXcXxXcXcXcXxXcXxXcXcXcXxXcXe.y.t.q.cXcXcXcXcXcXcXcXcXcXcXxXcXxXcXcXcXcXcX",
"8 m t h R.' ' .... . . . .d.;X;X~.=X=X=X:X=X<X<X<X6X<X,X<X<X6X6X<X<X<X<X-X<X<X<X<X<X-X<X<X,X,X-X6X6X6X6X2X6X6X8Xt.p.a.W ;X<X<X6X6X<X<X6X1X<X6X6XwX6X<X<X6X6X<X} 1 '.XX.X`.< C C.P J J K H S G F G F G F C G G C F C F F v >  .,X<X:X=X,X{ ] [ =Xn ..<X-X,X=X=X:X=X^.d.=X%.~.%.=X#.h.#.=X,X:X:X,X:Xd.:X,X:X<X=X=X=X-X-X=X=X<X=X:X-X,X,X,X<X:Xd.:Xd.d.$.$.$. .{ ....' ' m m m m m n m t 9 2 9 h n h 8 8 8 8 4 8 $ ] 3X2Xc.l.} @Xq.4X| 4 h t t t m y ' ' ' .. . .$.f.=X-X-X6X6X6X8X6X8X6X7X0X8X8X8X8XqX8X8XyXhXiXyXaXzXlXlXzXzXzXzXzXzXzXzXxXzXe.M uXzXxXzXzXzXzXzXy.w.M.] eXxXxXzXxXxXxXxXxXxXxXxXxXxXxXxXxXxXxXxXxXxXxXxXJXxXxXxXxXxXxXxXxXxXxXxXxXJXxXxXxXxXxXxXxXxXxXxXxXxXxXxXxXxXxXxXxXxXxXxXxXxXxXxXxXzXxXzXzXxXzXxXxXxXJXJXxXxXzXxXxXfXmXmX%XmXVXVX@XvXxXzXxXzXzXxXzXzXzXxXzXzXzXzXzXzXzXzXzXzXxXzXzXy.q.y.t.eXeX1X1Xy.e.w.:.N N N N n n m n n b h n m n b n c.w.8 m m h m n b m b m b $ < J A.P P G.G.P G.G.`.G.`.'.`.b e.cXxXxXxXxXzXcXxXxXcXcXxXcXxXcXxXxXcXcXzXcXcXxXxXxXxXcXxXxXe.s.k.} zXcXcXcXxXcXxXxXcXcXxXJXcXcXcXcXcXJXcX",
"f.#.^.=XR...#.=X=X,X:X=Xd.>Xd.h.:X-X<X,X>X<X<X-X<X<X<X<X=X,X<X<X<X-X,X<X<X<X<X<X<X<X-X<X-X<X<X<X6X,X<X<X,X<X<X6X{ p.a.! ;X<X<X| W.<X<X1X<X6XwX<X<X6X<X<X6X<X<Xb A $X.X].v 1 P P J C.J J K G H G G G F G F G C C G C Z G j 8 =X:X:X-X:X-X..[ { | t  .,X=X=X:X^.=X~.=X=X~.d.:X~.#.#.~.#.^.#.=X:X:Xd.#.^.=Xd.:X=X=X=X~.=X=X=X=X~.=X=X:X=X:Xh.:X:Xd.:X=X%.=X=X=X^.#.$.d.:X:X,X:X~.=X:X=X:X| ' f.-X-X=X=X=Xd.$. .| t | 3Xc.l.y.,.>.,.2Xf.4 9 m 9 m 9 9 e 8 7 8 7 4 2 7 7 8 8 9 9 t m } ' {  . .W.=X;X-X<X6X6X6X8XqXqXgXqXgXgXyXhXhXkXzXkXxXxXzXpX,.].eXzXzXxXzXzXxXzXe.f.4X] tXzXzXzXxXxXxXzXxXxXxXxXxXxXJXxXxXxXxXxXxXxXxXxXxXxXxXxXxXxXxXxXxXxXxXxXxXxXxXxXxXxXxXxXxXxXxXxXxXxXxXxXxXxXxXxXxXxXxXxXxXxXzXxXxXzXzXxXxXzXzXxXxXxXxXxXxXzXxXxXzXfXmXVX|.|.BXVXmX@XvXlXkXhXhXkXkXgXhXhXkXhXyXqX8XqX1X1X1Xt.e.q.N r e.e.8 8 2 2 4 2 8 8 e e r b n h m h h n m m n n h h u 4X[ h n m h b m b m h b m n @ v A.A.P G.,.G.P P `.`.`.`.`.P r q.e.e.e.@X1X1XfXfXjXxXcXcXxXxXxXxXxXxXxXcXxXcXJXxXxXcXcXzXe.k.t.[ cXcXcXfXcXcXcXxXcXcXJXcXxXcXJXcXcXcXcX",
"=Xd.#.=XR... .=Xd.d.#.d.d.d.h.d.-X<X=X,X-X=X<X>X=X-X=X:X,X:X,X,X<X-X<X,X-X=X=X,X<X-X<X-X<X,X<X,X<X>X<X<X<X,X<X,X~ 7.p.! ;X6X{ u [ <X<X<X<X6X,X<X<X<X1X<X6XwX .1 '.$X'.`.< v A.P J K K J F H G F F G G C G F F G G C Z v 2 ..d.:X<X<X:X:X..{ [ ..[  .:X=X:Xd.d.d.~.~.~.#.#.#.#.:X~.#.#.=X^.d.d.=Xd.~.d.d.^.~.#.#.d.#.~.=X~.~.=Xd.:X=Xh.d.d.d.#.h.d.d.:X#.#.h.d. .2 m h.=X=Xd.=X:X,X=X=X ...d.:X<X,X-X-X<X:X<X-Xm f.c.4Xl.y.>.y.,.k.-X9 { :Xh.#.h.:X:X#.#.f.$.| |  .....[ ' m h n 8 8 8 8 4 2 7 8 8 b h m ' [ '  .r.f.f.;X;X6X6X7XqXgXgXgXhX1X[.XXe.uXzXzXxXzXzXzXq.z.c.] eXxXzXzXxXxXzXxXxXxXxXxXxXxXxXxXxXxXxXxXxXxXxXxXxXxXxXxXxXxXxXxXxXxXxXxXxXxXxXxXxXxXxXxXxXxXxXxXzXzXxXxXzXxXxXxXxXxXxXxXzXzXxXzXxXxXzXzXzXxXzXxXxXzXxXJXzXkXhXgXfXqXvXVXVXMXVXVXVXmX*X0X8X6X6X;X;XOX| } ..m n h 8 8 8 2 2 2 1 8 7 r y.w.m }  .t.OX;XOXt.6X6X6X0X6X0X0X0X0X0X6X6X0X0X0X<X} 4Xr.;X0X0X0X0X0X0X0X0X0X0X0Xb , K P G.P G.P `.G.`.P `.`.`.'.A 1 e % % 2 2 7 j r r M N N e.y.@X@XeXfXfXfX+X+XfXcXxXxXxXxX@Xl.@Xe.cXxXy.e.jXxXcXxXJXxXcXcXxXcXxXJXcXxXcX",
"=X=Xd.d.d.} ..+.d.#.d.d.u.$.h.h.=X:Xd.:Xj.d.h.h.d.h.h.:X=X:X:X,X-X,X-X:X:X,X=X-X=X<X,X<X<X,X=X:X=X:X2X,X,X<X,X>X~ p.a.W f.d.! 6.] -X<X<X-X<X<X-XwX,X6X<X<X;Xn V $X.X'.C q A.P L K J J K J G F G G G F C F G G F F K F q 8 #.d.:X=X,X=X=X' | { [ { ..=X=X:Xd.^.d.#.~.#.~.:X~.d.^.#.^.#.#.~.#.=Xd.d.~.~.d.#.#.#.~.d.W.d.d.~.d.~.d.#.=X#.=X=X:Xd.d.=X#.d.#.#.:X#.t t t d.:X=Xd.=X:X-X:Xd.{ { d.:X:X=X<X=X=X:X,Xd.9 f.2X4X>Xy.>.@X,.t.l.m ..h.:Xh.h.:X:Xh.h.:Xh.h.:X,X,X,X,X,X:X-X:X=X~.d.r. . . .[ ' ' m m n 8 8 8 8 2 7 8 8 r t n m ' } } t.XX[.%Xe.1XiXuXlXkXzXeXe.c.5X] eXxXxXzXzXxXzXxXxXxXxXxXxXxXxXxXxXxXxXxXxXxXxXxXxXxXxXxXxXxXxXxXxXxXxXxXxXxXxXxXxXxXxXxXzXxXxXxXxXxXxXzXxXzXzXzXxXxXxXzXzXxXxXxXzXzXkXhXgXgXqXqXhXqXqXkXqXqX0X0X0X0X9XmXmX*XbX[.].].V m h 8 8 8 4 2 2 8 8 8 h m m ....W. .;X:X<X;X' c.t.;XqX0X0Xf.;X;Xr.t.;X0X0X0X0X0XqX0XqX0X0X0X0XqX6Xt.3X[ 1X;XwXqX0X0X0XqX0X0XqX0XOX; c P G.P G.G.G.`.G.`.`.`.`.'.`.c } ;XOX;XT. .} [ m n b 8 j 8 1 1 8 r r b E.wXY.OXeXfXcXxXfX4Xs.} cXjX] e.cXcXxXxXcXJXxXxXcXxXcXxXcXJXxX",
"d.#.d.d.d...K...#.#.$.$.$.$.$.$.#.#.d.d.$.%.d.d.%.d.d.:X:X=X=X=X:X:X=X:X-X:X:X,X;X=X| $.=X,X,X=X:X>X,Xh.=X,X>Xd.! a.a.! | f.~ a.! ;X,X,X=X<X<X-X-X<X=X<X<XoX1 H.$X'.`.1 C P J L J J H H H G G F F G G F C Z F Z C C A : ..!.#.=X~.=X=X#.' | ' ' { ..~.~.h.=X~.#.~.#.~.=X#.#.#.#.~.#.#.#.#.~.#.~.~.#.~.#.#.#.#.=X~.d.;X#.~.W.#.#.#.d.~.d.=X=X:X=X#.=X=X#.d.%. .8 f.t  .=X:Xd.h.=X:X=Xd.| | d.=X=X=X=X<X:X=X=Xf.e f.2Xc.j.e.>.XX<.y.3X' ' %.#.d.d.d.%.%.d.d.h.h.:X=X| h.,X,X,X,X,X:X-X:X,X,X<X<X<X<X,X:X:X=X=X=X=Xd.#.| $.} ..' m m t 8 8 8 r q 8 r r e n m N } ] N r.t.u e.uXjXjXzXzXzXzXxXxXxXxXxXxXxXxXxXxXxXxXxXxXxXxXxXxXxXxXxXxXxXxXzXxXzXxXxXxXxXxXxXxXxXxXzXxXxXzXzXxXxXzXzXzXxXzXxXzXzXhXhXkXgXgXhX7X0XqXqX0XqXqX0X6X6XwX;XR. ...m m b 1 d 1 2 2 1 8 8 h m m .. . .W.OX;X;X<X6X6X0X6X0X6X6X6X6X0X;X[ 2Xr.-X6X6X6Xr.f.f.r.t.r.6X0X6X0X0X0X0X0X0X0X0X0XqX;Xr.8X .;Xt.$.qX0X0XqX0X0X0X0X0X0XN : G G.G.P P G.P `.G.`.`.`.`..XL b +XqXqXqX0XqXqXqXqXwXwX6X;XOXoX} } I U F.).UXR.U p n } y.y.t.N cXeXe.e.cXxXcXcXxXxXxXxXxXJXxXxXxXcXxX",
"$.$.d.$.#.$...P.$.$.o.d.$.$.o.$.o.%.$.d.$.d.d.h.d.d.{ '  .:X:Xd.h.d.d.,X:X=X:X=X=X=X#.| d.,Xd.h.d.d.,Xh.:X,X:Xd.~ 9.a.W  ...3.a.{ f.=Xd.=X:X=X:X=X<X=X:X=Xm x $X.X'.v q P C.P J J J J G K F G F C G G F G F Z C Z S d 8 ..+.@.@.~.=X~.$.' $.y [ | ' @.d.~.d.~.~.~.#.#.d.#.#.#.~.=X~.^.#.Q.#.#.~.#.W.#.~.#.=X#.~.d.W.#.#.#.#.;X#.~.#.d.~.#.=X#.#.d.d.#.d.~.+.m ' 4Xy { ~.d.=Xd.=X:X-X$.{ | f.=X#.=X=X=X=X=X=Xf.9 f.3Xc.2Xe.v.b.<.t.2X' ' ^.d.d.h.#.h.h.d.:X%.%.h.$.t $.:X=X,X,X:X:X,X=X:X:X-X<X:X,X:X,X<X,X<X,X,X,X,X<X<X<X<X<X<X,X<X,X-X=X=Xd.| |  ...[ ' m m n e r r 7 2 e b t N N [ e.y.y.@X1XeXuXlXaXzXzXzXzXxXxXxXxXzXxXxXxXxXxXxXxXxXzXzXxXxXzXxXxXzXzXzXzXzXxXxXzXzXzXzXzXkXlXhXgX7XqX0X0X0X0XqXqX0X0X0X6X;XT...m b h 8 8 4 2 a 1 8 n m ' .. .OX~.;X;X<X6X6X6X0X6X6X0X6X6X6X6X6X6X6X<X6X6X6X6X<X6XOX{ c.{ <X0X6X6Xf.f.r.f.r.s.<X6X0X6X6X0X0X0X0X0X0X0XqXOXt.7X .;Xf.r.0X0X0X0X0X0X0X0X0X0X;X2 d L L P G.G.G.P `.`.`.`.`.].`.b N 0X0X0X0XqX0X0XqXqXqX0XqXqX0XqXqXqXqXqXOXE.UXUXZ.h r 8 7 2 2 n n N y y.fXjXcXxXxXJXJXxXJXxXJXxXJXxX",
"d.$.$.d.$.$...R.$.$.$.$.o.#.$.$.#.h.$.d.d.%.d.h.h.' 5 9 5 { h.#.d.-X:X:X=X:X:X=X,X-X:X:X,Xd.h.h.h.h.#.d.:X:X,Xf.! i.i.~ { W 7.9.~ $.=X#.#.#.=X:X=X:X=X=X .f G.#X.XH.< V A.P J C.K J G J S G H G F G F G C G F Z Z V : U R...$.@.~.~.~...' #.9 ' | ' $.~.#.~.~.#.#.~.^.d.~.^.#.h.d.@.#.~.#.~.=Xd.~.#.~.#.~.#.#.~.#.~.#.;XW.~.~.W.#.~.W.#.~.d.~.#.~.#.~.+.#. .8 f.c.N ..d.~.d.d.:X=X=X .f.| d.d.=X:X=X=X=X=X=X$.e d.c.4X3Xe.y.].K s.g...m #.#.#.^.%.#.%.:Xd.h.h.h...[ { d.:X,X=X:X-X:X:X=X:X<X,X-X-X:X=X=X,X,X=X:X,X:X,X,X,X,X,X<X<X<X<X,X<X<X<X<X6X<X2X6X:X<X,X,Xh.>X-X-Xf.r.|  .{ ' N m y y t e r n n n N N :.e.y.y.x.@XeXuXpXaXaXzXzXxXzXzXxXxXxXxXzXzXzXzXzXzXzXzXzXzXzXzXhXhX7XqX7X0X0X0X0X0X0X6X;XW.} ' m 8 8 2 8 8 m m ..E.} ..P.E.).E.E.;X6X6X6X6X6X0X6X6X6X6X6X6X6X6X6X6X6X<X<X6X<X6X6X<X6X6X6X<X .| 3X[ -X0X6X6Xt.[ ;Xf.f.f.;X6X6X6X6X0X6X6X6X0X6X0X0X .f.7X} ;Xr.t.6X0X0X0X0X0X0X6X0X0XqX} * S P G.P G.G.`.`.G.`.`.`.`..XG.b W.qX0XqX0XqXqX0XqX0XqXqX0XqX0XqXqXqXqXqXwX%XE.UX_.OXOXoX .N n r 8 2 : q e M :.e.y.1XeXjXlXxXcXxXxX",
"f.$.d.$.$.$...R...#.$.$.o.%.$.$.$.%.$.d.d.d.o.%.$.9 5.9.W u u.h.d.h.h.h.d.h.h.h.d.d.o.h.d.$.h.%.h.h.%.%.h.h.h.d.~ i.a.~ ' [ 0.9.~ $.h.h.o.%.d.h.d.d.d.d.m j $X.X].v 1 P C.P P J J J J G H G G F F C G G F G G C G j 8 +.E.E.R.@.~.~.~... .h.' [ h. .~.#.=X~.^.~.~.^.#.d.~.#.~.#.~.~.~.d.~.#.^.#.~.~.~././.~.W.!.~.$. . . .W.W.~.~.~.W.;X$.~.~.f.~.~.W.~.;X' m f.f.] [ =X~.=X=X=X=X=X .$.| h.d.d.~.d.#.d.~.d.$.e f.3Xc.3Xt.,.v.,.t.<X{ m %.^.#.=X#.%.^.h.%.:X=X#.] $.{ h.:X-X:X:X,X:X:X=X=X:X<X-X:X=X:X:X<X-X:X<X:X,X:X,X<X,X<X<X,X<X<X<X,X,X,X,X3X<X,X<X,X,X,X,X<X3X<X<X3X<X,X,X,X,X,X3X,X<X,X,X;Xf.=Xd. .{ [ } [ ' ' m m y m m N ] ] } e.t.y.1XeXeXuXuXpXlXzXzXzXkXhXhXqX0X0X0X6X<XwX=X .} ..m m h 8 2 8 8 h '  .W.;X6X<X6X0XqX<X6X(.W.E.E.).R.R.;X<X<X6X6X6X6X6X6X6X6X<X6X6X6X6X6X<X6X6X<X6X6X6X<X6X6X .| 2X[ ;X6X6X6Xf.{ ;X<X;Xl.-X6X<X6X6X0X6X6X6X0X0X0X0X-X2X8X .f.f.t.-X0X0X0X0X0X6X0X6X0X0XwX8 a P P G.P P `.G.`.`.`.`.`.'.'.H n wXqXqX0X9X0X0XqX0XqXqXqXqXqXqXqXqXqXqXqXqXwX(.wXUXUX(.wXqXqXqXqX+XoX X} m n 8 1 8 8 b b N e.@X@X",
"%.$.$.$.$.$.&...E.o.$.$.$.$.o.%.$.d.#.u.#.%.#.h.{ u 0.9.9.u { %.h.d.d.d.d.d.d.d.d.h.d.#.d.$.u.%.d.h.o.h.d.d.d.%.{ i.j._ W ~ 9.9.{ %.#.o.#.d.$.%.#.#.#. .8 P $X.X`.1 V G.P J J K J K G J F G F G Z G G F G C F G C : 8 '  .E.E.K.$.~.~. .#.%.' ..,Xd.~.~.~.~.~.~.~.#.#.~.#.~.#.=X~.#.#.~.#.~.#.#.$.+. ... . .+. ..... ... .W.~.~.$.W.$.#.;XW.#.W.=XW.~.$.$.n { r.[ ] ..~.~.#.d.d.=X#.| | | >Xd.#.#.=X:X=X#.=X$.9 d.c.3X2Xf.:.].:.f.2X$.m @.$.~.#.~.%.h.#.d.h.:Xf.{ d.[ :X=Xf.=X-X=X:X-X,X,X-X=X<X<X-X=X=X:X:X-X:X,X,X<X<X<X,X<X<X6X<X3X<X;XOX6X<X<X,X,X<X,X:X<X,X,X,X,X,X:X,X,X,X,X,X<X,X<X3X<X<X6X6X3X<X6X6X<X<X<X<X<X,X>Xh.:Xd.$.f.$. .{ [ [ [ ' [ [ } [ t.e.t.k.f.;X;X;X ...m m 8 8 8 8 8 8 h h ' .. .;X<X6X6X0X6X6X6X6X6X6X0X6X6X6X6X<XW.R.R.E.R.R.(.6X6X6X6X6X6X6X6X6X6X6X6X<X<X6X<X<X6X<X6X<X6X6X<X' s.3X[ ;X6X6X6X;Xr.;X0X6X4X;X6X1X6X6X6XwX6X6X0X0X6X0X0X6X7Xe.s.l.f.;X0X0X0X0X0X0X0X0XwX0XqX .$ C G.P G.G.P `.G.G.`.`.`.'.'.'.b } 0XqX0X0XqXqXqXqX0X;XqXqXqXqXqXqXqXqXqXqXqX0X(.).UXUXwX(.UXUXqXqXqXqXqXqX9X9X1XOXoX} N M r 2 8 ",
"d.$.o.d.%.%.#...E...$.o.$.$.$.$.$.%.$.$.h.d.$.%.' W 9.9.0.~ 9 #.d.d.d.%.d.h.%.$.d.h.d.h.%.%.%.%.%.%.%.o.o.h.%.$.{ i.i.i.W ~ i.o.$.d.$.%.%.$.$.o.o.h.#.' j #X.X].C < P P C.P J J J G J G F G G G G F G F F G F G d 0 ' h W.W.R.)...W.~.+.#.#. .W.#.~.~.~.~.~.^.~.~.#.~.#.#.~.~.#.#.+.#.#.#.+.+.+.+. .+..... .+... .!.!.!.~.$.$.;XW.W.~.~.~.#.#.+.~.=X#.#. .r t.e.{ [ ' ~.#.d.~.#.d.d. .| | h.=Xd.=X=X=X=X~.~.r.b d.3X,X3Xc.N ,.N 2X3X| 9 +.m $.~.~.#.=X=Xh.=X:Xd...f.[ :X..m $.,X=X:X:X:X:X-X:X<X<X=Xd.f.-X-X=X<X,X,X<X,X;X~.f.d.;X$.#.f.XX|.+X2X,X,X,X,X<X<X<X,X:X,X,X,X,X,X,X,X,X,X,X,X,X3X,X,X2X,X3X<X<X<X,X,X,X<X<X<X2X<X,X3X<X<X<X<X3X,X,X<X<X,X,X-Xd.d.r. .' h 4 % % % 4 8 8 m '  . .~.;X<X<X<X<X<X6X6X6X6X6X6X6X6X6X6X6X0X0X6X6X6X0X6X6X;XR.E.E.R.R.W.<X<X6X6X6X6X0X6X6X6X6X<X6X<X<X6X6X6X<X6X6X<X[ t.3X[ <X0X6X6Xf.l.t.0X6X1X<X6X6X6X6X6X0X0X6X6X0X7X0X0X8X8XOXr.l.k.;X0X0X6X0X0X6X0X0X0X6X0X6Xb < P P G.P `.P `.`.`.`.`.'.]..XP 8 ;XqX0X0XqX0X0XqXwXOX6XqXqXqXqXqXqXqXqX0XqXqXqXwXR.UX_.UXUXwXwXqXqXqXZXAXqXqXqXFXqXCXqXfX1X1X+X",
"d.$.$.$.#.o.#.&.R.E.$.$.@.o.o.$.o.#.o.%.o.$.%.o.W ~ 9.a.a.6.t $.h.$.%.o.%.o.d.%.%.$.%.o.o.%.%.o.o.%.%.%.o.%.%.O.$.i.j.O.{ u.u.d.u.$.$.%.u.$.d.$.#.#. .b J $X.XG.1 C A.P P J J J G J G F J S G F G F G G G F C G 2 ....h  .~...E.).} $.+.#.@.!.Q.+.~.~.W. .$. .$.+.~.~.!.+.~.+.+.W.~.~.~.!.~.#.+.!.!.!.Q./.Q.W.!.!.W.!.!.~.W.W.W.#.#.;X~.#.d.#.;Xd.W.#.;X..n q.y.q.[ ..~.~.#.d.;Xd.d.| $. .f.~.~.#.=X=X#.=X=X$.9 d.j.2Xj.2Xf.n r.2X2X .' ..9 $.~.~.#.#.d.d.=Xh.$.{ f...| [ |  .-X=X:X=X<X-X,X-X:X=X=X=X=X:X:X-X,X,X<X-X=Xf.f.#.f.t.#.f.;X*XMX{.f.,X<X,X<X:X,X,X,X,X:X,X:X,X:X:X:Xd.%.#.%.,X,X,X,X,X<X<X,X,X,X3X,X,X<Xg.,X<X,X,X,X,X2X3X<X,X,Xh.h.f. ...' m t 8 7 4 8 9 ' .. .^.,X<X<X<X<X0X6X6X<X<X<X6X6X<X<X<X<X<X<X6X6X<X6X6X0XqX6X6X6X6X6X6X6X6X;XR.R.E.R.R.~.<X6X6X0X6X6X6X6X6X6X<X6X<X6X(.6X<X6X6X6X[ f.3X[ ;X6X6X6X;X2X;X6X<X6X6X6X6XwX6X6X6X6X6X0X6X0X0X0X0X<X#.t.c.f.OX0X0X0X0X0X0XwX0X0X0X0X0XOX: v G.P G.P `.G.G.`.`.`.'.'.'..XG U 0XqX0XqXqXqXqXf.l.6XqX0XqXqXqX0XqXUXqXqXqXqXqX0X(.*X_.UXUXUX(.UXqXqXqXqXqXqXqXqXqXqXqXqXqXFX",
"o.d.o.$.$.$.$.$...E...@.@.o.$.@.#.$.%.$.o.%.%.$.W 5.0.0.2.2.i ] %.%.o.%.$.%.%.%.o.%.o.%.%.%.%.$.o.%.o.$.%.$.%.$.%.%.o.%.%.o.d.$.%.%.o.%.$.%.%.%.$.$.[ f '.$X].G < P P P P J J K K H K J G G F G G Z F F Z Z D j 8 +.*.' ..^.~...E.E.R.W.$.W. . . ... ... .$. .W.+.+.W.+.+.W.!.+.!.Q.$.+.$. .+.....+. . .+. . .$.W.$.W. .W.~.~.#.~.d.=X~.~.~.#.d.#.=X~.~.m ] e.>.} [ ' ~.~.#.#.=X=X:X .d. .=X#.d.=X#.=X#.#.~. .9 d.j.2X3Xc.,Xf.j.2X3X$.9 ' ' $.~.#.~.+.~.%.=X:X| $.f.[ ..f.|  .:X,X-X,X,X-X:X<X:X=X=X=X,X,X-X<X=X,X3X,X,X<X,X<X<X<X<X<X6XVX|.|.bX:X<X,X,X,X<X,X:X,X,X,X:X,Xh.h.=X#.#.$.| { h.j.,X<X,X,X,X,X,X,X,X,X,X,X,X,Xj.<X,X,X=X .{ ' 9 8 8 2 4 4 8 9 m '  .f.=X:X,X<X<X,X,X,X,X,X<X<X<X<X6X6X6X<X6X<X=Xm [ <X<X<X6X<X<X<X0X0X6X6X6X6X0X6X6X0X0X6Xt.} UX).R...R.6XqX6X6X6X6X<X6X<X6X<X6X6X<X<X6X<X6X' f.8X[ ;X6X6X6X6X6X6X6X6X6XwX6X6X6X6X6X<X0X6X6X0X0X6X0XqXf.t.t.4Xl.t.0X0X0X6X0X0X0X0X6X0X0X0X6Xm > J G.G.`.P `.G.`.`.`.`.]..X.XH.b OX0XqXqX0XqXqXOXf.1X0XqX0XqXqXqXqXqXqXqXqXqXqXqXqXqXwX(.wXUXUX_.wXwXqXqXFXqXqXqXqXqXqXqXqXZX",
"$.$.$.$.$.$.&.$...E.E.&.o.@.$.o.$.o.$.$.%.$.#.$.9 8.9.6.p 1.i t $.$.%.d.%.$.%.%.o.%.@.o.o.&.o.$.#.%.o.%.O.%.o.%.o.%.o.%.$.%.h.%.%.$.$.%.$.%.o.d.%.o.b A %X.X'.1 v G.C.L P J J J J S G F G F F G F G C G G Z S % ..+...' ' $.!.+...E.E...~.+.W.+.+.+.!.Q.W.!.Q.Q.+.+.!.W.$.+.!.!.!... .$. .+. .+.+. . .+. .+.W. . .W.$.~.W.~.~.~.;XW.W.$.W.f.=XW.~.#.~.#.t r.} K r.[ ..#.#.~.#.d.d.d. .$.$.=X=X#.#.=X#.=X#.=X .e d.c.2X2X,X,X3X3X3X2X| y ' '  .~.~.#.#.d.=X~.=Xd.d.f.'  .j.[ =X:X=X:X:X-X:X=X-X=X$.#.:X:X<X,X,X,X<X<X<X<X<X-X,X<X,X<X,X>X@XVXVX|.OX,X:X,X:X<X,X,X:X,X,X:X:X:Xh.j.h.j.>Xh.' f.,X:X,X<X,X,X,X,X<X,X,X<X,X:X=X$. .' 9 8 8 4 8 m m ..{ $.#.=X:X,X,X,X,X<X,X,X,X,X<X,X,X<X,X,X<X,X<X<X<X6X6X<X6X..m t ~.<X6X6X<X6X6X0X0X6X6X6X6X6X0X0X;XW.' U )._._.).E.E.} W.6X6X<X<X6X<X6X<X0X^.6X<XwX<X6X6X[ f.8X{ ;X6X<X0X6X6X6X<X6XwX6X6X6X6X6X6X6X6X6X0X6X0X0X0X0X;Xt.r.3Xl.r.0X0X0X0X0X0XwX0X0X0X0X9X0X;X: c A.P G.G.G.`.`.`.`.`.'.`..X.XG m 6XqX0X0XqXqXt.y.@XqXqXqXqXqXqX0XqXqXqXqXqXqXqXqXqXqXwX*XE.UXUXUXUX_.wXwXwXqXqXqXqXqXqXqXqX",
"U *.{ &.&.$.$.$.$.R.E.&.$.o.@.o.$.$.$.%.o.%.$.$.u 8.0.3.p :.:.r &.%.%.%.o.%.$.o.%.%.o.$.$.o.%.$.O.%.%.O.o.$.o.%.%.h.%.%.%.%.%.d.%.o.d.o.o.$.$.d.$...1 J.$X'.G 1 P P P P J K J K H F S G G F G G G Z F S Z H b 8 $.$. ...K.$.W.!.@.K.).K.+.W.W.W.!.!.!.!.!.~.+.+.$.W.!.!.W.!.W.W.W. .W.~.W.!.!.!.!.~.~.~.!.W.W.+.W.!.W.W.~.W.~.~.$.#. .+.;X~.#.~.d.W.#. .t f.l.{ l.' ..=X~.| #.~.~.d.d.d.~.~.d.=X~.d.d.~.=X^.+.e d.c.j.,X2Xj.3X2Xj.3X| t ' [ $.~.~.#.#.^.^.d.=X:X:Xd.' | h.[ =X:X:X=X<X-X=X<X=Xd.;X=X,X=X=X<X,X<X,X<X<X<X,X<X<X<X6X2X2X@X*XVXNXNX*Xl.>X<X>X,X:X,X,Xh.h.h.h.h.:X,Xh.,X,Xh.h.h.,X,X,X,X,X:X=Xd.#.$...' m 9 8 4 2 8 m '  .d.=X:X:X,X,X<X:X<X,X<X<X,X,X<X,X<X<X,X,X,X,X<X<X,X,X,X,X<X<X<X<X<X<Xm f.{ [ <X6X6X6X6X<X6X6X6X6X0X6X<XW.T.R.R.E.)._.(.(.I.P.R.).P.R.~.<X6X6X6X<X6X0X<X6X6X<X<X6X<X' -X6Xt.r.0X6X6X6X6X6X6X6X6X6X6X6X6XwX6X6X6X0X6X6X0X0X0XqX-Xt.t.7X2X| 6X6X0X6X6X0X6X0X6X0X0X6X0X0X} : K P P P `.`.G.`.`.`.`.`..X.XY.b T.qX0XqXqX0Xt.1Xy.0XqXqX0X0XqXqXqXqXqXUXqXqXqXqXqXqXqXqXqXwXE.(.(.UXUX_.(.wXUXqX9XqXqXqXqX",
"E.E.E.R...' ..Q ...._...$.o.$.$.%.o.$.o.$.$.o.o.u 9.0.4.p 1.1.u { h.o.$.%.o.%.O.o.o.@.o.X.@.%.X.%.$.$.%.%.o.%.o.%.o.%.%.$.i.%.%.h.%.$.%.%.o.%.d.$.n v $X$X`.< C P G.L L P J J J K J G H G G G F F G G Z G G : ..!. .$. .*.W.W.!.@.&.K.)...W.!.~.!.W.!.W.W.W.$.~.W.W.!.~.W.!.~.~.!.Q.!.W.~.!.!.!.W.#.W.~.!.!.!.W.!.!.W.~.W.f. .W. .~.~.;X#.#.;X$.;Xd.#...n 2X3Xc.4X] ' ~.~.;X=XW.d.~.~.~.~.=X~.#.d.=X~.=X~.=X .9 d.,X3X2X,X3Xj.3X2X3X$.m .... .~.#.~.#.#.=Xd.h.=Xd.#.#.d.>X{ #.=X<X:X=X<X-X<X-X<X-Xd.f.;X;X<X:X<X,X<X,X<X,X,X,X,X>X<X<X&XmX|.|.NXMX%X-X:X,X,X=X:X:Xh.:Xh.:X%.:Xg.h.,Xh.h.%.h.$. .{ ..m t 8 5 % 4 4 8 9 m '  . .:X,X<X,X<X<X,X,X,X,X,X,X<X,X,X<X:X<X,X,X,X,X,X<X,X,X<X,X,X<X<X<X<X<X<X<X6X#.m 2Xf.m ,X6X<X6X6X6X6X0X<X=X| ..E.E._.UX_.).R.} ..OX6X6XR.F.).).R.R.wX6X<X6X<X6X6X<X<X6X6X6X6X} f.7X;X .0X6X6X6X6X6X6X6X6X6X6X6X6X6X<X0X6X6X6X0X0X0X7XqX;X-X>X7X8Xe.6X0X0X0X0X0X0X0X0X0X0X0X0XqX;X1 j C.`.P G.P `.G.`.`.`.`..X.X.XL m wXqXqX0X0Xe.4Xf.0XqXqXUXqXqXqXqXqXqXqXqXqXqXqXqXqXqXqXCXqXqXUXUX(.*XUXUX(.wXwXwXUXqXqXqX",
"..K.R.E.E.E.E.E.E.E.).E.&.@.%.o.$.$.@.O.o.$.#. .T 9.9.4.p 1.1.i ' %.%.%.$.O.@.%.$.O.@.X.o.%.%.$.o.%.%.%.o.O.$.%.o.%.%.%.o.%.$.%.%.o.o.%.%.%.$.%. .< H.$X.XG < P C.P C.P L J J F S H J G G G F G F G G Z J j 8 +.@.{ d.#.' !.!.!.@.@...E.E...Q.Q.~.!.W.W.~.!.+.+.$.+.+.~.~.W.!.!.!.!.W.+.#.+.+.#.!.~.~.~.~.W.W.+.+.W. . . . .d.W.W.f.~.#.W.$.~.d.#.#.=Xm ' 3X,X3X2X[ ' ~.=X#.W.d.~.~.~.t.+.=X;X#.=X=X#.~.=X~. .9 f.2X2X2X2X3Xj.2X2X2X$.' ' '  .~.=X~.#.=X=X^.d.:X=X:X=X:X:X=Xd.-X-X:X,X<X-X=Xd.| | d.=X<X,X<X,X<X,X<X,X<X<X,X,X<X,X,X;X*XmXMXNX|.MX|.OX,X-X,X,X:X:Xh.-X=X~.$. . ...' t 9 8 8 5 4 5 7 9 t ' .. .$.d.h.:X,X,X,X:X,X<X,X<X:X<X,X,X,X,X,X,X<X<X,X,X,X<X<X<X:X:X<X<X<X<X<X<X6X<X<X<X<X<X<X<X<X .' 2Xl.N f.<X,X<X^.;XR. .} } E.(._._._._.E. .W.;X6X6X6X6X6X(.K.E._.).F.R.wX6X6X<XwX6X6X6X<X6X6X .-X8X;X .6X6X6X6X6X6X6X6X6X6X6X6X6X6X6X6X6X6X6X0X0X0X0X0X6X7X6X7X8Xt.<X0X0X0X0X0X0X6X0X0X0X0X0X0X0X} * A G.G.`.G.`.`.`.`.].`..X`.].XXb  .qXqX0X0X} 4X@X0XqXqXqXqXqXqXqXqXqXqXqXqXqXqXqXqXqXqXqXqXqXqXqXqXwXOX(.(.wXwX(.(.E.(.wX",
"@.&.$.&.*.....K.E.E.K.).&.$.$.$.o.%.$.$.%.$.$.&.u 9.0.5.p 1.>.1.T %.o.o.@.%.o.$.@.%.o.$.$.o.o.#.@.o.o.$.%.%.%.O.%.O.O.%.%.%.i.%.%.%.$.%.%.o.%.o.m c $X$X`.1 v G.P P P J J K J K K G F G F G G F G G F G G 2 ../.@.$.h.#.' W.!.!.@.Q.@.R.).K.+.Q.W.W.~.!.!.!.+.+.W.W.+.W.!.W.~.W.!.~.~.W.~.!.~.W.!.!. .W. . . . ... .W.$.~.W.~.~.=X~.#.#.=X#.;X~.~.d.+.m { 3X,Xc.3X] ..~.#.~.#.~.~.~.~.~.#.~.$.~.~.d.d.~.~.~.$.e d.2X3X2X,X3X,X3X3X3X{ ' $.' ..~.^.d.=Xd.d.d.%.=Xd.:X:Xd.d.:X:X:X:X:X=X:X=X=Xd.=X<X:X<X,X<X<X|  .,X<X3X<X,X<X,X,X<X<X<X&X|.MXVXVXVXNX*X=Xd.d.$...' ' 9 9 8 4 4 4 7 5 9 t ' ..| $.$.%.h.h.:X,Xh.,Xj.:X,X,X,X,X,X,X,X,X,X<X:X,X<X:X,X:X<X,X<X:X<X<X<X6X6X<X<X<X<X6X6X<X<X6X6X6X<X<X6XwX<X6X..| z.[ y '  .U U P.P.R.E._._._._.).E.R.W.;X6X6X0X6X6X6X6X<X<X<XR.P._.UXE.} $.wX<X<X<X<X<X<X6X6X<X6X8X6X} 6X6X6X6X6X6X6X6X0X6X6XwX6X6X6XwX6X6X6X6X0X0X0XqX7X7X7X7X7X;X;X0X6XwX6XwX6X0X0X0X6XwX0X0X0X0Xr 1 P G.P `.P P `.H..X.X`..X.X.XG n wXqXqX0Xe.iXx.0XqX0XqXqXqXqXqXqXqXqXqXqXqXqXqXqXqXqXqXqXUXqXqXqXwX} OXwXOX(.%X*XUX*XE.",
"$.%.$.$.O.$.@.@.&.$...E.E.&.$.o.%.$.%.$.$.$.o.&.W 9.7.5.p 1.v.N 9 $.O.$.X.X.$.o.O.$.&.o.&.&.$.&.X.o.$.$.o.%.%.%.%.%.O.%.%.%.O.%.o.%.$.%.%.%.$.o.1 H.%X#XG 1 L A.G.P P J J K H H F H G G G G G S S F G H j 0 W.Q.@.#.:X#.' W.!.!.Q.+.!. .R.)...+.!.!.!.!.W.!.~.~.!.!.+.+.W.!.!.!.~.!.~.~.+. . . . ... . .+.$.W.~.!.~.~.#.~.~.f.W.~.W.#.#.~.~.#.d.=X#.#.9 $.3X3Xc.3X] ..%.~.~.#.#.~.~.~.#.~.~.#.#.d.=X;X#.~.=X .9 d.c.j.3X3Xj.j.,X3X3X .' ^.$...d.=Xd.=X#.d.:X:X#.d.:Xd.d.-X:X-X:X:X=X-X,X:X=X-X:X=X:X,X-X=X' m m $.,X,X,X<X3X<X<X<X=XW.T.mX|.{.[.[.].b 9 8 7 4 2 8 8 9 m ' '  .$.$.d.h.h.,Xg.,Xh.:Xg.h.,Xg.,X:X,X,Xh.h.,X:X:X:X-X,X,X,X<X:X,X<X:X:X<X<X:X<X<X<X<X<X<X6X<X<X<X:X:X<X:X;X:X=XW.W. .....} U e | r.:.n U E.)._._._.)._.).E.P.}  ./.0X0X6X6X6X6X6X6X<X6X6X6X6X<X(.K.E.UX_.E...;X<X<X6X6X6X6X6X6X7X6X8X .<X6X6X<X6X6XwX6XwX6X6X6X6X6X6X6X6X6X0X6X0X0X0X0X0X0X7X6X7Xf.1X7X0X0X0X0X6X0X0X0X6X0X0X0X0X0X X: C G.P G.G.`.`.`.`.`.`.`..X.X.Xb  .0XqX0X .yX;X0XqXqX0XqX0X0XqXqX9XqXqXqXqXUXqXqXqXqXqXqXqXqXqXqX} [ N 9XqXqXwXwXOXOXwX",
"$.o.o.$.@.$.&.$.$.$.&.E.E.&.$.$.%.o.o.$.o.%.$...W 9.9.7.i 1.>.! 9 $.%.%.%.$.O.@.@.X.$.&.o.&.o.&.&.$.o.$.o.g.%.O.%.g.h.%.O.%.%.%.h.g.%.O.o.%.#.m l $X$X].j v G.P P J J L J J K H J G F J F H F G G Z Z G : ..Q.Q.@.@.Q.!...Q.!.Q.!.+.!.!...).E...~.!.!.!.!.!.!.+.!.W.+.W.+.+.!.W.W.~.!.~.+.+.+.Q.!.!.Q.~.~.~.~.W.W.W.W.;XW.~.W.#.~.=XOX~.#.~.#.;X#.=X#.b r.3X2X,X3X[ ' =X~.#.W.=Xd.W.~.d.W.#.#.;X~.~.~.d.=X=X~.t d.,X3X,X,X3X3X3X3Xj. .' ~.=X#.#.:X~.#.:X:X=Xd.=X:X=X=X:X=X:X=X>X=X=X,X=X=Xd.=X:X,X,X:X-X .{ c.f...,X,X,X,X,Xd.$. .R.E., q l q 2 1 q 9 m ' .. .| #.d.=X:X,X:X:X^.d.f.h.h.h.h.:X:X:X,Xh.h.h.,Xh.:X,X,X:Xd.f.d.#.#.$.$.d.<X<X<X:X<X<X:X<X<X<X:X<X<X<X:X=X;X ...U h h ' U h U U U R.R.R.E.E.m f.t.,.p U ).E.R.} ..K.K.}  .d.wX0X6X6X0X0X6X<X6X6X6X6X6X6X6X6X<X<X^.U E.UXUX(.I. .<X6X6X<X6X6X6X3X6X6XOX;X6X6X6X6X6X6X6X6X6X6X6X6X6XwX6X0X6X6X6X0X0X0X0X0XqX0X7X7X;X6X0X0X6X6X0X0X1X0X6X0X0X0X0X0X0X0Xn , P G.P `.G.`.`.`.`..X.X.X]..XP b wXqX;X} iXf.wXqXqXqXqXqXqXqXqXUX*XqXqXqXqXqXqXqXCXqXqXqXqXqXT.] 7X} oXqXqXqX0XqX0XwX",
"@.X.$.$.$.&.$.%.@.o.&...)...o.$.&.&.$.$.%.$.%.' ~ 9.0.9.i 1.>.3.9 o.%.o.@.O.o.$.X.o.&.o.o.o.%.$.o.%.%.o.$.o.%.O.%.%.d.o.$.%.O.%.%.%.o.%.h.$.o.1 P *X'.G.< K P P P J P J J J F H G H G J H K F G H Z G j 0 @.Q.@.@.@.Q.+...Q.Q.Q.W.Q.Q.W.+...).K.Q.Q.!.!.!.+.!.+.!.!.!.!.+.+.W.W.W.~.!.!.+.+.+.+.~.!.~.+.~.~.#.W.~.~.~.~.#.+.#.~.#.~.W.;X#.;X#.#.#.#.#.h $.3X>X2X,X{ ..#.#.~.~.#.W.W.~.#.#.~.=Xd.#.~.#.#.d.~.~.e f.c.3X2X3X3X3X,X3X,X{ ..#.#.~.=Xd.#.#.=X=Xd.d.h.=X:X:X=X:X=X=X:X:X=X;X#.d.=X=X,X<X6X<X#.| 4Xc.l.' ..' m m 8 8 8 A _.P.9 ' }  . .f.=X,X,X:Xh.:X:X:Xd.h.:X:Xh.h.h.y.].OXh.h.h.:X:Xh.,X,X:X:X:X:Xh.$.|  . . . . .$.t.W.;X<X:X<X:X:X=X<X<X<X;X<X,X| ..m h 8 $ h R.).).).E.).).).(.E.).E.R.P.m j.e.:.M e U ....~.;X6X6X<X6X6X<X6X<X6X6X6X6X6X<X6X6X<X6X6X6X6X6X6X<XwXR.R._.UXUX_.E.<X6X6X<X6X6X7X8X6X,X;X6X6X6X6X6X6X6X6X6X6X0X6X6X6X6X6X6X6X0X6X0X0X0XqX0X0XqX7X2X1X0X0X0X0X0XwX6X0X0X0X0X0X0X0X0X0X;X: v G.P H.J.,.`.`.`.`.`.`.XX'.].v } 6X[ [ iX;X;XqXqXqXqXqXqXqX0X&XmX9XqXqXqXqXqXqXqXqXqXqXqX0X} -XyX1X} qXqXqXqX9XqXqX",
"$.$.o.%.o.%.$.o.o.$.@...)...$.&.h W.$.$.o.$.O.W ~ 9.0.0.! =.1.5.t $.X.@.$.$.&.&.&.&.Q ....*.W *.W W 9 9 9 9 t 9 9 9 9 9 9 9 9 9 9 9 9 9 9 9 7 < $X%X'.l l G.G.C.A.P J K J K K J S K F F G F S G Z S G @ ' Q.@.@./.Q.!.+.Q.Q.Q.Q.Q.W.Q.Q.W...E.)...Q.!.W.W.+.+.Q.!.~.W.!.!.+.+.$.!.!.!.!.+.+.#.W.!.W.W.~.W.#.W.+.~.!.~.W.;XW.#.~.~.d.$.#.~.~.#.+.~.d.#.9 r.c.j.3X3X{ ' ^.#.~.#.+.~.d.;XW.~.~.#.~.$.~.;X#.#.=X .9 d.3X2X3X3Xj.j.2X3Xj.' ..#.#.d.~.#.~.~.=X=X:X:X=Xd.d.=X#.d.d.d.f.t.$.~.-X=X<X=Xd.~. ...} 2XM.5X3X' 8 8 n m '  ...E.).' ~.:X<X<X,X-X,X:X,X:X=Xd.h.:X:Xd.#.%.:X:X#.bX|.$Xf.h.,X:X,X:X,X:X:X:X,X:X:X#.$.~.=X:X,X<X<X,X<X:X<X<X<X<X<X:X:X<X<X=X .m U P.).E.h ' n R.P.U U h U U h m U ' ' ' ..t l.y.,.:.e =X<X<X<X6X6X6X<X<X6X6X6X6X<X6X<X6X6X6X6X<X6X6X6X6X<X6X<X<X6X:XR.E._._.UX_...;X<X6X6X6X0X0X6X6XOX<X6X6X6X6X6X6X6X6X0X6X6X6X6X6X6X6X0X6X0X0X0X0X0X7XqX7X7X0X6XqX0X0X6X0X0X0X6XwX0X0X0X0X0X0X0XqXU : J G.G.G.H.H.`.`..X`..X.X].XXP b f.t.[ iXl.} ;XqXqXqXqXwXqX9X&XVX*XwXqXqXqXqXqXqXqXqXqXqXwX} 7XrX1X[ 0XqXqXqXqXqXqX",
"$.o.@.o.o.@.o.@.o.%.@...).E.$...E._.@.o.$.%.o.W _ 9.9.0.3.p 5.8.5 9 9 0 0 0 4 5 4 4 4 4 4 4 4 4 0 9 9 9 9 9 9 t 9 t 9 t u 9 u t u t u 9 t 9 @ A %X*XG.< J G.A.P C.P J J J H J G H G H G G F G F S D f # % h 9 h *.h ' m K.*...........W.W.W...E.K.Q.Q.@.Q.!.Q.Q.+.+.!.!.!.W.!.!.!.!.Q.Q.W.+.W.+.W.W.~.W.+.+.#.~.~.W.#.W.#.~.~.~.#.~.~.~.=X#.#.+.#.=X+.m  .3X,X,X,X| ' ~.=X~.#.~.~.d.#.+.~.#.~.#.;X#.~.~.~.~. .e d.3X3X3X2X3Xj.3X3Xc.....@.#.#.#.~.~.=X=X=X:X:X:X:X:X:Xd.=X=X$.t.~. . ...m m h 8 8 1 7 [ iXc.c.3X{  .:X<X6X<X=XR._.D. .:X,X,X=X<X:X=X:X,X:Xd.h.:Xd.:X:Xd.#.:X:X$.bXMX|. X%.h.:X:X:X:X:X,X,X,X:X<X,X-X<X,X:X:X,X:X,X<X<X<X:X<X<X<X<X:X<XW.m U E._._.(.U ' c.' m .. . .~.=X=X:X=X<X<X:X<X-Xm h.1X:.:.b =X<X<X<X<X<X<X6X6X<X0X6X<X6X<X6X6X6X6X<X6X6X6X<X6X6X6X6X<X<X6X6X .K._.UXUX_.R. .6X0X6X6X6X7X0X<X6X6X6X6XwX6X6X6X6X6X6X6X0X6X6X6X6X0X0X6X6X0X0X0X0X0X0XqXqX0X0X0X0X0X0X6X0X6X0X0X0X0X0XqX0X0X0X<X1 j G.`.`.H.H.`.`.`.`.'..X]..X.XA m t.t.1X>Xs.f.qXqXqXqXwX1X6XmXVXmXOXqXqXqXqXqXUXqXqXqX0X;X} yXiXeXI 1XUXqXqXqXqXqX",
"o.%.O.$.%.o.@.O.$.@.O.&.).).&.&.)._.).*.*.' W 0 ~ 9.0.0.7.3.7.9.9 9 9 m *.W T ' Q ..*.&.&.o.&.o.o.$.o.%.u.i.d.g.j.u.g.j.j.g.f.j.u.g.d.i.d.[ 1 .X*X$Xv j P G.P P P J P J J K H K J F K F H G H G S A 4 % 9 ' t h h 9 8 8 1 8 0 : 0 , 0 > 0 : 0 h h 8 9 h 9 m ' ....+. .+.!.!.!.!.!.+... .+.!.+.!.$.+.+.#.W.+.+.~.#.#.+.~.W.#.~.#.~.~.#.;X#.+.~.~.=X~.~.' { 3Xj.3Xj.f.' =X=X#.~.#.+.~.#.#.#.~.@.#.~.~.~.#.=X#.$.t f.c.,Xj.3X,X3X,X,X,X{  .^.h.=X~.+.d.#.$.$. ...[ ' ' m n e 9 h 8 8 2 8 8 9 h ' '  .$. .r.y.e.l.3X . .<X<X<X6X .).).' <X<X:X<X,X<X<X<X:X-X:Xd.h.=Xh.d.h.=X:Xd.h.oX|.|.MXmXoXh.<X,X:X,X,X:X,X:X:X:X:X:X:X:X<X<X:X<X:X:X<X:X:X<X:X:X=X:X..U E._._.(.U h 8 r.f.{ ..<X:X,X<X<X<X<X:X:X<X:X<X=Xm j.4Xq.M e =X<X<X<X<X<X<X<X6X<X0X^.6X<X6X<X<X<X6X6X<X6X6X6X6X<X6X<X<X6X6X6X6X .)._.UXUXUXE. .6X6X6X6X6X0X6X6X<X6X6X6X6X6X6X6X0X0X6X6X6X6X0X6X0X6X0X6X0X0X7X0X0XqX0XqX0X0X0X6X0X0X6X0X0X0X0X0X0X0X0X0X0X0X0X} : K P P H.P `.`.`.`.`..X.X.X.X`.j | l.l.s.1XOXqXqXqXqX*X+X;XmXBXmX*XwXqXqXqXqXqXqXqXqXqXOXt.gX8Xb.N wXqXqXqXqXqXqX",
"@.$.O.@.O.$.%.%.$.$.@.&.E.K.h *.E.).K.0 , 0 9 4 _ 9.7.9.0.9.0.9.Y _ X.o.O.o.$.O.$.o.$.o.g.o.j.u.i.u.j.j.i.f.i.u.j.f.j.j.c.j.j.j.g.j.j.j.f.e A %X*X'.< G P A.P P P J J J J F J G G K G S S F K F G j 8 ' [ ,X,X,X,Xd.d.$.$.$. . . .......' ' ' ' ' m 9 9 7 $ $ $ # $ % 4 9 9 h h ..K.h K.....Q.Q.Q.Q.Q.Q.@.@.@.@.#.@.#.$.!.~.~.@.~.~.#.d.#.#. ... .+.=X' { ,X2X,Xg.d.' d.#.#.+.#.@.#.#.~.~.~.@./.!.Q.~.Q.#.#. .9 h.3X3X,X3Xg.3X,Xj.j...' ' ' ' h 9 h 8 8 8 8 4 8 8 t t t h ' ' ' ..| #.=X=X:X:X<X:X,X .| y.>.@X3X{ { :X<X<X=X.._.U  .<X<X,X<X:X:X<X<X=X:X:Xd.%.:Xh.d.:X:X#.d.=X$X|.|.|.|.[.l.,X:Xh.#.d.d.d.$.d.:X:X:X,X:X,X,X:X:X:X:X,X:X,X,X:X:X:X .E._._.).U m ..m q.,.t.{ | ,X:X<X:X:X<X:X:X<X:X<X:X:Xm h.5Xt.] y d.<X<X<X<X<X<X<X<X<X<X6X6X<X<X<X<X<X<X6X6X6X6X6X6X6X6X6X6X6X6X6X<X<X~.(._.UXUXUX_.(.<X6X6X0X6X6X6X6X6X6X6X,Xr.<X0X6X6X6X6X0X6X6X0X6X0X0X6X0X6X0X0X0XqX0X0XqX0X0X0X0X0X0X0X0X0X0X0X0X0X0X0X0XqXqX6Xh d P G.H.`.P `.`.`.]..X.X.X.X.XG m 4Xt.[ l.;XqXqXqXwXmXVXe.VXVXVXmXy.0XqXqXqXqXqXqXqXqXOX{ 7XyXeX,.;XqXqXqXqXqXqX",
"O.%.%.O.$.%.o.&.&.W 9 8 4 4 0 h )._.).*.&.@.o.9 ` 7.9.0.9.7.9.9.u 8.d.i.d.u.i.d.u.g.u.i.u.j.u.j.l.u.j.u.i.j.j.i.j.i.j.i.i.c.c.i.j.j.j.j.w.< `.%X%XA j P G.P A.J J P P K K J S K F J G H G S H G Z 2 ..' ..j.,Xj.>X>X:Xd.=X=X:X=X=X=X:X^.^.:X:X:X~.^.:X=Xd.#. .........m h 8 8 9 8 h K.).).h h ..Q.Q.Q.Q.@.@.@.@.@./.+.@.~./.^.#.%.^.~.^.~.#. ...' *.' h ' 3Xj.,X,Xh.' +.~.^.~.~.#.@.@.$.$. .....' ' ' ' ' h h 8 d.g.,Xc.,X,X,Xg.,Xh.' 2 8 8 9 t h ' ' ' ....$.#.~.^.#.:X:Xh.^.^.:X:X:X,X:X=X:X,X:X:X' f.XX>.,.4X| ..<X:X<X$.E.E...:X<X:X:X:X<X-X=X:X=X:X:X:X^.d.^.=Xd.h.:Xh.#.{.|.|.|.|.|.t.:X:Xh.h.#.#.d.h.:X:Xd.:X:X:X:X:Xh.:X:X:X:X:X:X:X:X:X#.(._._.(.U ..d.#.m y.,.N [  .,X,X:X:X<X:X<X<X:X:X<X<X^.m j.5Xc.j.m #.<X,X<X<X<X<X<X<X<X6X<X<X6X6X<X<X6X6X<X<X6X6X6X6X6X<X6X6X<X6X6X6X<X6X;XUX_._.UXUX_.wX0X6X6X6X6X6X6X6X6X<X| w.r.6X0XwX6X6X6X6X0X6X0X6X0X0X0X0X0X0X0X0X0XqX0X7X0X0X0X0X0X0X0X0X0X0X0X0X0X0X0X0X0X0XT.: Z H.G.H.`.`.`.`.`.`..X.X]..X`.r t.k.t.l.6XqXqXqX&XVXBXbXbXVXVXmXXXOXqXqXqXqXqXqXqXqXwXw.hXgXb.I t.qXqXUXqXqXqX",
"$.&.&.' W 9 0 5 4 9 9 T { &.$...)._.E.$.%.g.$.y 9.9.0.9.7.9.9._ 9 u.i.j.i.j.j.u.g.i.d.d.j.u.g.i.i.j.u.c.j.i.l.l.j.i.z.j.j.c.c.c.c.j.c.i.n v $X*X'.j v G.C.P P L J J J J J K H J G J F K S G G H d 8 %.....3X2X,Xj.:X-X,X,X=X=X=X:Xd.=X#.~.=X=Xd.:X=X=X=X:X=X=X:X:X>X=X=X=X=X/.+.|  .' h K.).E.K.h ..h ..............' ....+.$.@././.%.^.^.@.%.^.#. ...' ' ,X,Xg.j.j.' 9 9 ' ' m 9 h h 9 8 8 8 8 h 9 9 h 9 h h 4 d.j.3Xh.,Xh.,X:X:Xh... .Q.Q.@.#./././.~./.~.~.=X=X:Xh.h.#.:Xh.%.:X:Xh.:X:X:X:X:X:Xh.' d.:.,.,.2X| [ <X<X:X} ).D ^.<X,X:X:X:X<X:X:X:X:X:X:X#.^.%.h.d.%.:Xh.h.$.[.|.|.|.|.|.oX>X,X:Xh.:X:Xd.h.:X#.| $.d.h.:Xh.:X:Xh.:Xh.:X:X:X>Xd.E._._.(...$.:X:X..] l.y.} [ { :X:X<X<X:X<X,X:X<X<X:X,X:Xm j.4X3X4X' #.<X<X<X<X<X<X<X<X<X<X<X6X<X6X<X<X6X6X6X6X6X<X6X6X6X6X6X6X6X6X6X<X6X6X6X6X_.UX_._.UX_.0X6X6X6X0X6X<X6X6Xf.f.3Xr.<X0X0X0X6X6X6X6X0X0X0X6X6X0X0X0X0XqX7XqX0X0XqX0X0X0X0X0X6X0X0X0X0X0X0XqX0XqX0XqX0X0Xm , P G.G.`.`.`.`.'.'.'..X.X.X.XG m t.k.6XqXqXqXqX+XNXBXVXbXVXVXmXmXe.9XqXqXqXqXqXqXqX;X} yXyXeXI +XqXqXqXqXqXqX",
"0 8 5 0 9 9 ' { o.$.d.i.g.h.o.+.).).E.$.g.c.u.W 9.9.9.0.9.7.9._ 9 u.j.u.f.j.u.j.i.f.u.i.j.j.u.j.l.i.j.i.u.j.i.j.l.c.c.i.c.c.j.l.c.c.c.t.1 `.*X*XJ < P G.P A.P L C.K J K J G H F H G J F H G G v 2 &.%.' { 2X2Xj.,X-X-X>Xj.>X,X,X>X=X~.~.=X~.=X=Xd.d.:X:Xd.:Xd.d.d.d.,Xd.-Xd.,X=X:X=X~. ...h K.).K.h 2 0 4 % $ $ $ $ $ # $ 4 8 8 9 m ' .. .$.$.~.%.%.%.$.' g.,X,X,X:X' ' ....' ' ' ..' ....+.+.+.!.Q.~.Q.#./. .9 d.,X,X,Xg.h.g.,X:Xj.' $./.!.#.~.#.@.%.~.~.#.Q.#./.#.#./.%.#.#.^.h.:Xh.h.:X:X:Xh.h.d.' h.e.,.:.>X| ..,X:X~.K.E...:X<X:X,X<X:X:X:X:X:X:X:Xh.h.h.:Xd.^.^.#.^.h.l.|.{.|.|.|.|.[.d.h.d.h.h.h.h.$.$.| #.#.#.:Xh.:Xh.:X:Xh.:Xh.:X=Xh.E._.UX_.R.=X:Xh.d.y $.l.,.N ] ' :X:X<X:X<X:X<X<X:X:X,X<X#.' 2Xc.5Xc.m | <X,X:X,X:X,X,X<X<X<X6X<X<X<X<X6X^. .d.=X2X6X6X6X6X6X6X6X6X6X6X6X6X6X6X6X6X_.UX_.UXUX_.6X<X6X6X6X0X6X0Xr.z.4Xf.-X0X6X6X6X0X0X6X0X6X6X0X0X0X0X0X0X0X0X0XqX0X0X0X0X0X0X0X0X0X0X0X0X0X0X0X0X0X0X0X0XqXOX2 v G.G.G.`.H.`.`.'.].`..XXX].'.c { 8XqXqXqXqXqX+XVXBXVXmXVXVXVXmX*X@XqXqXqXqXqXqXqXOXr.yXyXiX[ ;XdXqXqXqXqXqX",
"{ { u.u.j.j.c.j.c.j.j.j.g.g.i. .)._.E. .c.c.u.W 9.9.9.0.9.0.9.~ u i.i.l.i.j.i.i.l.i.i.i.u.l.i.j.l.i.i.i.j.i.i.j.i.c.j.l.c.i.i w.c.c.c.m c $X%X].j z ].A.P P L J J J K J J K K F G F J G G F H d 8 h.:X..{ c.,X,Xj.,X2X>X,X2X-X-X-X=X=X=X=X~.~.=X=X,X=Xh.-Xd.=X=X=Xd.-Xd.d.d.>X-X:Xd.=X=Xd.$.' R.).).K.K. .@.|  .| | ..' ..| ..' m 9 8 8 4 8 8 9 9 ' ' ' 9 d.g.,X,X,X| ..:X^.^.^.^.^.%.Q.^.%.%.%./.#.@.%./.^...9 h.,Xh.j.,X,Xh.h.,Xh.' $.~.~.#.~.@.~.#././.#.~.~./.#./.#.~.~.%.^.:Xh.%.^.:X%.h.^.%.#.' h.t.M } >X$.[ ,X:X .R.K.R.,X:Xh.:X:X:X:X,X:X:X:Xh.h.%.h.h.^.%.%.^.d.:XOX|.|.|.|.|.|.|.t.@X*Xd.h.:X^.%.#.%.h.:Xh.h.h.h.h.:Xh.h.:X:X:Xh.W.(._._.E.d.:X:X:X$.m h.k.y.,.' m :X:X:X<X:X<X:X,X,X<X:X<X$.[ 3X5Xc.3X' $.,Xg.,X,Xg.,X,X3X<X<X<X<X3X<X<X$.E.E.R.U U m U ............} ..[ ..' ..} ' ).E.P.P.P.K...} } ' ..[ ..'  .1Xn.w.}  .W.;X6X;X<X<X6X6X6X0X0X6X0X0X0XqX0XqXqX0XqXqX0XqX0X0XqX0XqX0X0X0XqX0X0XqXqX0X0X0XqX' : P `.,.`.`.`.`.'.'.'.XX.X.X.XP n 0XqXqXqXqXfX&XVXBXVXVXVXVXVXMXmXe.qXqXqXqXqXqXqX;Xt.rXyXrXe.;XqXqXqXqXqXqX",
"c.g.c.j.j.j.j.c.j.j.j.c.{ y u.E.)._.E...c.c.w.W 9.9.7.9.0.9.9.~ t i.j.i.i.j.j.g.j.j.j.j.j.i.l.i.i.j.j.l.i.j.l.i.i.i.i.c.c.t.].,.i.c.s.8 G.%X$XP < J P A.G.P J P P J J J H H J H K J F G K J V : { :X:X*.{ 3X3X2X2X2X2X2X2X>X>X>X-Xd.d.=X=Xd.=X=Xh.h.h.,X>X=X#.=X=X=X-Xh.>X:X=Xd.=Xd.~.d.=Xh.:X ...K.).E...$.,X=X>Xh.h.>Xj.,Xj.,X>X>Xj.f.$. .' ' t h 8 8 % $.,Xh.h.j.$.8 9 ' ' ......$.$.$.@.@.@.~.^./.%.#.~...y j.,X:X,X:Xg.h.h.,X#.m $.~.~./.#.~.#./.#././.%.~.#.~.%.%.#.Q./.#.%.^.^.%.%.h.%.%.h.%.' h.f.t.f.3X| ..:X:X..).U ~.:X:Xh.%.h.h.h.:X:X:Xh.h.%.:X^.%.%.#.:X%.%.%.%X|.|.|.|.|.|.|.XX[.|.OX%.%.h.h.h.h.h.%.^.h.:Xd.=X%.:Xh.h.h.=XW.)._._.(.$.:X:Xh.h. .[ ,Xl.,.q.[ ' <X<X:X:X,X:X<X:X:X:X<X<X|  .3X3X5X2X[ | 2X,Xd.f.$.| [ ..[ { ' m m ' m e R._._._.(...h k f 2 8 8 b ] } } } } } [ } U ' ' N U ' N N U N N N N m w.y.@X{ r b e b e 9 h h m m m m m ' ' ' m ' } ..} .. .} W.OX<X6X0X0X0XqXqXqX0X0XqXqXqXqXqXqXqXwX1 c H.H.G.`.G.`.`.'.'.]..X.X.X.Xv  .qXqXqXqXqXmXBXBXVXVXVXBXVXVXVX|.OXqXqXqXqXqXqXOXt.hXyXhX[ OXqXqXqXqXUXqX",
"g.j.j.i.i.l.i.i.c.i.c.a.y 7 9  .)._.E.u.c.c.w.W 9.9.9.9.9.0.9.~ t i.c.c.l.j.u.w.w.{ { { { { { ~ { ~ { { w.u.i.j.l.j.c.j.u.].{.<.u.c.[ c $X%X.Xc l P `.K P P P J J J K J H K H G G F K H G H j 8 %.:Xh.' { 3X3X2X3X3X3X,X>X>X-X>X2X-X,X=Xd.~.-Xd.-X>X>X,X=X=X=X~.=X^.=X,X,X>X:Xd.=X=X=Xd.=X-X>X>X/. .R.).).U $.~.=X:X>Xh.h.,X,X>Xj.,X3X,X2X2X3X2X,X,Xj.d.]  .,Xh.h.j.d.9 t e 8 8 7 4 7 8 8 9 9 h ' ' ..$.+.+...' ,X,X,Xh.:Xh.h.:X,X$.' @././.~.!.!.!.#.#././.Q.Q.^.@.@.%.%.@.%.%.%.%.^.%.^.%.%.^.h.%.' h.2X3X2Xj.{ ..^.^.U ).../.h.h.:X%.%.:Xh.h.h.%.%.^.^.^.%.h.^.%.%.^.%.%.XX|.|.|.|.|.|.|.{.[.|.OXh.:X:X%.%.h.%.:Xd.h.:Xh.h.d.d.h.:X#.E.)._._.).$.:X:Xh.:X%.' $.c.2X[ | | ' :X:X<X,X,X<X,X,X-Xd.f.| ' | 3X3Xc.c.' e m t t n e y N m N ] } [ } { t.t.;XoXT.(._._.UXUX_.(.).R.U U } t.OX1X7XgXgXgXqX7X8X7X8X7X8X7X0XqX8X7X1Xs.1Xb.f.f.8X1X1X;X@X;Xt.t.} }  .} } ..} ..} N N N N N m m n m m ' } } t.OX;X6X0X0XqX0XqXqXqXqXqX} > J G.G.`.`.`.`.`.`.'.]..X.X.XP n 1X;X;X1X;XnXBXBXBXBXBXBXVXVXVXVX#X6XqXqXqXqXqXwXt.iXyXyX} ;XqXqXqXqXqXqX",
"a.c.c.c.j.j.c.j.c.c.c.u.9 ~ 5 ' ).).E.u.c.c.3.W 9.9.9.9.9.9.9.~ 9 i.u.u.u.u.[ ! ~ ! ~ ! ! ~ ! [ [ ~ ! ~ { ] [ w.i.u.i.k.].{.|.{.q.l.j L %X%X`.< J G.A.A.P C.P J K J J J J F K J S H J G S C : { ^.h.h...{ 3X3X2X3X3Xc.,X>X>X>X>X>X2Xd.-X>X=X-Xd.j.2X>X=X=Xd.:Xd.d.d.-Xd.=Xd.=X=X#.=X=X=X=Xh.:X>X:X:X$.' R.)...;Xh.h.d.:X-Xc.h.,X,X2X>Xc.3X3X2X3Xc.3X{ [ | ' h.h.:X:X:X' f.j.j.d.f.$.|  .[ ] m m 8 8 7 4 4 9 $ y h.,Xg.h.:X:Xg.h.h.$.W  . .......' ..' ' h ' ..K.....$.#./.#.^./.^.%.%.^.%.h.%.:X%.%.' #.,X2X,Xh.&.{ ^. .E.E...^.h.^.%.%.^.%.^.%.%.:X^.%.%.%.^.%.^.%.%.h.^.h.%X|.|.|.|.|.|.|.|.|.|.bX#.%.h.%.:X:X%.d.^.h.h.%.:X^.:X~.E.E._.UX_.). .h.h.:X:X:X/.' d.c.3X2Xc.{ 8 ..[ [ [ ] m m n t y t n e | g.5X3X3X[ ] t.t.s.1X2X4X4XrX8XyXrXyXrX8X7XyXyXiX8X1Xt.OX_._.UX_.UX_.UX_.(.R.U h n } W.1X8XhXgX7XqXhXgXhX7X7X7X8X1Xx.@X@Xk.;XgXgXqXhXgXhXhXgXgXgXgXkXqXgXkXqXhXqXgXqXgXhXgX8XqX8X1X;XOXe.w.e.} } } } }  .OX;X;X6XqX1X8 j H.`.H.`.`.`.`..X]..X'..X.X.Xv } 0X9X1X@X*XBXVXVXBXBXBXVXBXNXNXnXoX0XqXqXqXqXwXt.yXyXyX} +XqXqXqXqXqXqX",
"a.j.j.c.i.c.i.l.i.c.c.~ u 0.W t )._.E.+.g.g.{ W 9.9.9.9.9.9.9.W i i.u.u.u.r.{ u.o.r.u.r.u.u.u.r.u.u.u.u.c.i.u.w.l.p.p.<.|.{.|.|.`.[ l '.%X$Xv l G.P G.L P P P J J K J K J J H F H H H G D d 9 h.h.h.h...{ c.| j.3X3Xc.,X>X>X>X>X>X>X-X>X,X-Xh.-X-Xh.,Xd.=Xd.d.:X=Xd.=X=X~.=Xd.#.=Xd.=X~.=X,Xd.>Xj.,Xj.d.h ).E. .-Xh.,X,Xh.>X,X>X3X,Xc.3X3Xc.c.3X3X>Xt 9 f.' :Xg.:Xg.,X$.f.c.2X2X3X2X3X3X3X3X2Xj.:Xd.f. .{ ' 8 ' g.:X:Xh.h.h.h.h.h. .8 K.K.K.K.E.E.E.E.E.K.).).K.....U K...@.@././.^.h.%.%.h.:X%.^.%.' $.,X3Xg.,X{  .:X..E.R.+.+.h.^.%.%.:X%.%.^.h.^.%.%.^.%.%.h.%./.%.^.^.%.W.|.|.|.|.|.|.|.|.|.|.|.OXh.h.h.:Xh.#.#.h.h.h.h.%.$.E.E.)._._.).E. .#.$.$. ...' m y h.3X3X3X,X[ 4 ' m [ [ { { t.t.f.-X2X4Xw.$.3X3X3X,X' w.} f.8XiX8XiX8X4X8X7X4XiX4XiX4X5XiXiXyX8XiX6X1X;XwXE.E.*X_._.UXUX_._.(.P.R.U N } U. .OX1XhXhXyXhXhXgX-Xl.n.eXs.s.hXgXgXhXhXgXkXhXgXgXgXgXgXgXhXkXhXkXgXhXhXgXkXkXgXkXkXkXkXkXhXkXkXhXhXyX8X8X1X1X1X@Xt.OX} 3 G `.G.`.H.`.`.'.'.`..X.XXX'.P n fXkXkXqXVXBXBXBXBXNXBXVXVXVXVXBX,. .OXOX;XwXT.t.yXyXyX{ ;XkXqXqXkXqXqX",
"j.c.c.a.c.j.c.i.j.c.c.u ~ 9.~ 9 ).).E...c.c.! ~ 9.9.9.9.9.9.9.Y [ j.c.c.i.j.u.i.l.i.j.u.u.i.i.u.i.l.j.u.k.j.i.j.i.k.y.|.|.|.|.|.[.j J %X$X`.1 C G.G.P P L J C.K L K J J K F K H K S G H V : { h.h.h.g.'  .| 7 f.3X3X3X2X>X>X-X-X-X>X>X>X>X>X>X>X-X-Xh.=X~.~.=X=X=X~.=X~.=X~.=X=X=X~.=X=X=X-X:Xj.,X>X>X,X .K.).U f.h.,Xj.j.2X2X3X3X3X3X3X3X3X3X3X3Xf.9 t u.m h.h.h.h.j.d.| 3X3X3X3X2Xc.3X2X2X3X2X3X3X2X2X,X3XW ..:X%.%.^.:X%.h.h.%.{ h )._.)._._._._.).)._.).).)._._._.).).E...W./.h.:X%.^.%.%.:Xh.:X&. .g.,X,X,X'  .~...).R.@.#.%.h.%.^.%.^.%.^.%.%.^.^.%.%.^.^.:X%.%.%.%.' XX|.|.|.|.|.|.|.|.|.|.|.{.;X:Xh.^. .E.~.#.$.$. ...m U P.....U h h h n 9 9 n 9 m 8 ' c.2X3X3Xj.[ [ 4X5XiX4XiX5X8X8X5XiX8X4X| f.2Xc.3Xj.t 8 n y 4X5XiX8X4XrXiX4XiX4X4X4X8XiXyX5X5XiX5XiX8XiX8X8Xt.} P.E.)._.UX_.UXUXUXUX_.).E.I.} m U [ e.t.wX8XOXl.4X5Xh.t.gXkXhXhXkXhXhXhXhXkXgXkXkXkXhXgXhXgXkXhXhXgXkXhXhXkXhXhXkXkXkXkXkXzXkXxXkXkXkXgXkXkXkXhXyXn 1 P `.H.`.`.`.`.'..X.X.X]..X.Xb oXkXkXqXmXBXBXNXBXBXBXBXVXVXmXBXbXoXfXqX6X1X Xt.yXyXyXN } OXwX;XwXwX1X",
"c.c.c.j.c.j.c.c.i.i.j.u 3.9.5.8 ).).E.{ c.c.~ ~ 9.9.9.9.9.9.9.u u.i.j.i.j.i.i.l.i.j.u.i.k.i.f.i.j.u.u.i.i.i.u.i.j.k.[.|.|.[.|.|.[.l #X%X'.J 1 G.,.G.A.C.P P J J J J J F J F J H F J H G 1 9 h.h.g.,X:X..{ [ 8 | 3Xc.2X3X2X-X>X-X-X>X>X>X>X>X>X>Xc.>X>X=X=Xd.=X=Xd.=Xd.~.=Xd.d.=X=X-Xd.=X=X:Xh.,X,Xj.,X>X#...).E. .>X2X3X3X3X3Xc.3X3X3X3X3X3X5X3X3X] ..m | ' #.h.h.,X,X2Xf.l.5X3X3X3X3X2X3X3X3X3X3X3Xc.h.| ..8 ..h.h.%.h.%.%.:X^.:X....)._._._.).).).).).).).).).).).).).).).).E.:Xh.:Xh.,X,Xh.:Xh.h.$.{ ,X,Xj.,X..$.$...).R.%.%.h.^.^.%.%.^.h.%.^.%.^.%.^.%.^.%.h.%.:X^...5 `.|.|.|.|.|.|.|.|.|.|.|.|.@X+.....)...h 9 8 8 8 9 t $ 9 m m ..[ { | r.d.d.,X,X,X' | 2X3X3X3X,X' r.5X4X4X4X5X8X5X4X7X5X8X5X[ f.j.2X3Xh.8 { 2X[ s.iX2Xt.k.4XiX5X4X4XiX5XyX4X5X8X8X4XiXiX8X8XyXhXyXiX4Xt.} R.R.R.).UX_._.UXUXUXUX_._.wXE.E.P...m ] l.5X5Xl.[ OX1X4X8XhXkXhXkXhXkXgXFXgXkXgXhXhXkXgXhXhXkXgXkXkXgXzXkXkXkXkXkXkXkXkXkXkXkXkXzXkXkXkXkXkX@X% G H.G.`.`.`.`..X'.]..X]..XXXP n qXkXfXBXBXBXBXVXBXBXVXBXBXVXVXVX.X0XkXqXkX;Xt.yXyXyX[ OX6X1XwX1X+X;X",
"c.i.c.j.c.a.i.c.z.c.u.e 9.9.9.8 E.).)...c.c.W ~ 9.` 9.9.9.9.5.Y u.c.i.l.i.l.i.l.i.u.i.k.i.u.j.u.u.u.j.l.u.j.j.l.j.k.|.|.|.|.{.{.z K *X$X'.l v G.G.A.P P L J P J J J K J H K J G H K G V :  .,X:X,X:X:X[ { ' t { 3X3X3X,X2X>Xh.>X>X-X>X-X-X>X-X>X>X>X>X>X-X-X-X-X-X=X=X-X>X=X=X-Xd.=X=X=X>X-Xj.>X,X,X,Xj.h.P.).). .3X3X3X3X3X3X3X3Xc.5Xc.3X3Xc.5Xj.m $.m o.m h.,Xg.,Xc.,Xj.c.3X3Xc.3X3X3X2X3X3X3X2Xf.[ m h U 8 ..^.h.h.^.%.^.%.%.%.' R.).).).).).).).).).).).).).).E.E.E.K.h a h m [ | f.d.j.c.c.3X3Xj...:Xh.h.h.{ $.$.R.).E.%.%.%.^.%.^.^.%.%.^.%.^.%.%.h.^.%.h.%.h.h.$.m ' ,.|.|.|.|.|.|.|.|.[.[.[.L.M 8 h E.E.m ..[  .| d.,X{ ' ' h.2Xc.2X3X2X5X5X4X3X5X3X' | 3X2X2Xc.j.y t.8X4X5X4XiX5XrX4X8X8XrX4X[ d.2X3X3Xf.t j.3X{ r.iXt.t.t.2X4X8X4X4X4X4XiXiX4XiX4XiX8X8XiXyX8XyXyXyXyXhX8X8X;X} I ..R.E.E.).wX_._.UX_.UXUX_.UX_.(.c.3X5X>X' K.U U U N } } } } t.e.T.OXt.OX1X1XqXhXhXkXgXkXkXgXkXkXkXkXkXhXkXkXkXkXhXkXkXkXkXkXkXkXkXkXkXN < P G.`.H.`.`.].`..X].$X'.'..Xb OXkXkXBXBXVXBXBXVXVXBXBXBXVXmXBXnXoXkXhXkX;Xt.yXyXyX[ wXkXqXqXkXqXqX",
"a.c.i.c.c.i.l.c.i.c.~ u 7.9.9.9 K._.)...a.a.W _ 9.9.9.` ` 9.` u i.i.c.i.u.j.i.i.i.i.j.u.u.i.s.i.u.j.u.i.i.i.j.i.i.l.y.[.{.|.:.I l ].%X$XP < P G.G.A.P J J J K C.J K J J J K H J H K J j 8 ^.,X,X,X,X:X..{ W ' ] 3Xc.3X2X>X>X>X-X-X2X-X-X-X-X>X2X>X>X>X2X2X-Xl.-X-X=X-X-Xh.-X=Xh.>X=X=Xh.l.,X>X>X2Xc.3X2Xj..._.). .c.c.3Xc.3X3X3X3Xc.3X3Xc.3X3X3Xd.m +.' [ [ h.,X,X,X,Xc.3X3X3Xc.3X3X2X3X3Xc.+.[ h h U E.).).d &.%.:X%.%.:X%.%.^./.' K.).).).).E.E.R.K.R...P.R.R.$.=Xd.j.f.r.{ ] t 9 7 7 8 8 t m ] [ { ' h.j.h.h.' j.#.).).W.,X:Xh.h.h.:X:X:Xh.h.%.%.^.%.h.%.%.^.:X%.%.' ..{ ' {.|.[.`.G.K C G N } [ ..U P.).)...s.2X2X2X2X3Xc.[ r.[ 2X2X2X4X2X2X3X4X5X8X5X4X] | 3X2X3X3X#.t l.4X5X4XiX4X4X4X5XrX5XrX4X] d.3X3X2Xf.' c.2X{ r.rXl.-X4XiX8X4X4X4X4X4XiX4X4X8X4XiX4X4XrXyXiXyXyXyX7X8XgXyXyXyXiX4X1XwXOXt.t.} } } } } R.R.(.wX(.l.c.5Xl.(.UX_.UX_.*XE.R.R.R.E.E.K.R.P.R.U U L U } N } }  .OXt. .OX1X6X9X8XfXiXkXkXkXkXkXxXkXkXkXkXkXkX1X1 x G.`.`.`.`.`.'.`..X]..XXX.XP N kXcXBXBXVXBXVX|.mXVXBXVXBXmXVXVX[.9XgXkX1Xt.yXyXiX} 6XkXqXqXqXkXkX",
"c.j.i.c.c.i.j.i.c.i.! ~ 9.7.5.u K._.)...c.a.u ~ 9.` 9.9.9.9._ W l.j.i.l.j.i.k.i.u.l.u.u.j.u.j.u.u.i.j.u.l.l.i.l.l.i.j.u.@X%Xx.N z $X$X].x l G.G.P P A.P P J K J J F J K G J F J G H G * W h.g.,Xg.3Xg.{ [ m } ' 3X3X3X3X2X-X>X>Xj.>X-X-X-X-X>X>X>X>X>X>X-X>X:X>X>X>X2Xh.-X-X-X>Xh.,X-X-X2X,X,Xc.3X3X3X3Xf.R.).)...3X3X3X3X3X3Xc.3X3X3X3X3X5Xc.3Xf.W ^.9 $.j.3Xj.g.,X,X3X,X3X3X3X3X2Xj.| ' m h U E.).).)._.).h +.:X%.^.%.%.^.%.%.#.9 K.R.K.h U ' ' {  .r.=Xj.c.j.2X2X2X3X2X3X2X3X2Xl.f.f.| [ m t t 8 8 9 h.h.h.%.9 t m U K...$.f.f.h.j.2Xj.j.,X,X3X3X,X3X,X:X:X%.%.:X$.m h. .' $.| e.{ | f.l.2X3X3Xl. .E._.). .l.4X2X4X2X2X2Xf.' f.[ 2X2X2X2X3X4X5X5X4X5X5X5X] $.,X3X3X3X$.y c.4Xc.4Xc.5X4X5XiX5XiX5Xl.m j.3X3X3Xf.] >X3X] t.4XiX4X8Xl.4X4X4X4XiX4X4X4XiX4X8X8XiX8XyX5X8XyX8XiXyX8XyXiXyXyXyXyXyXhXiXyXyXyX8X4X>X;Xt.t.} } U l.4X4X2XU R.E.R.E.E.(.wXUX_.UXUXUX_.UX_._.UX_._.(.R.R.R.R.).P.} U U K.K.U n N U } I.e.t.t.1X1X1XqXfXkXhX[ , P `.H.`.`.'.`..X.X.X'..X.X].b 1XkXfX%XmXNXVX&X@XVXBXBXBXVXVXVXVXOXkXqXwXt.yXyX8X] 9XkXqXkXqXqXqX",
"a.c.c.l.i.c.g.j.i.l.5 5.7.u ~ u U _.).} c.i.W 5.9.9.` 9.9.9.~ W j.l.j.i.j.k.j.u.j.u.u.j.u.j.u.i.i.l.i.l.i.u.i.j.i.j.j.i.c.l.s.r `.%X$XG.< G G.G.A.P C.P J P P J J J H K J H G K J J k 2 ' h.,X,X,X,X3X .' y } b c.2X3X2X2X>Xj.-X-X-Xd.,X-X>X>X>X>X,X>X>X>X>Xh.-X>X>X>X-Xl.>X>X-X-X>X>X2X>X,Xc.3X3X3X3X3X .E._.E. .7Xc.5X3X3X3X3X3X3X3X3X3X3X3X3X$.W %.' f.j.,Xc.3X3X3X,Xc.c.j.f.{ ' h h K.E.).).).).).).).R.8 +.^.%.%.^.^.%.%.h.#.9 '  .s.d.%.j.2X3X3X3X2X2X3X2X2Xc.2X2X2X2X2X2X,X2X>X2Xc.2X>X2Xl.h.#.{ #.h.h.h.m t t e 8 5 7 7 8 8 8 t m ' { r.d.c.c.5XrXc.c.h.:X:X' [ g.{ *.:Xj.2X3X5Xc.5Xc.5Xj...)._.). .-X2X2X2X2X2X2X2Xr.{ f.' 2X4X4X5X4Xc.4X5X8XrX4X5X] | 3X3X3X3X{ ] 5X4X4X4X4X4Xz.5XiXyX5X4Xf.' j.,Xc.3Xf.' 3X3X' t.iX4Xk.t.l.4X4X4X4X4X4X8X4X4X4X4Xl.1Xl.l.1X1Xl.4X8XyXiXiX8XiXiXyXiXiXiXyXyX8XiX8XiXyXiX8X8X8XiXt.l.5X5Xj.} t.oXe.t.t.} } I U U U R.R.E.).UX_.UXUXUXUXUXUXUXUXUX_.UXUXUXUX_.UX(.).).E.E.E.K.U K.U U K.m U n & c G.H.`.`.`.`.].]..X'..X'.$XG } kXkXfX%X].&XfXfX XXX+XVXVXVXBXBXbX1XqX1Xt.hXhX4X[ qXqXkXqXkXqXkX",
"j.i.c.i.l.j.i.a.c.{ u 5.5.5 ~ W h _.)...c.i.Y ` ` ` 9.` 9.9.W ! i.i.i.l.i.i.l.i.i.l.i.l.i.u.i.l.u.j.u.i.u.j.k.i.c.c.i.z.j.c.[ k $X$X'.G j G.G.,.C.P P J P J J J K J J H J K J J G G 1 y { ,X3Xj.g.c.,X{ t [ e.b d.3X3X3X3X>X2X-X>X>X>X>X-X>X>X>X>X>X>X>X>X>X>X>X-X>X-X>X,X>X>X>X2Xd.>X>X2X>X,X3X3X3X3Xc...)._.E.f.3X3X3X3Xc.3X3Xc.3X5Xc.3X3X3Xc.| ..%.m f.3X3X,X,X3X,Xj.#.[ m h U P.E.).)._.).).).).).).).R.h %.%.^.%.%.^.%.^.^.#.9 h.3Xc.3X,X3X2X2X2X3X2X2X2X2X2X2X2X2X2X2X,X2X2X2X2X>X,X2X>X2X2X>X:X .h.h.h.h...h.2Xj.d.f.s.r. .[ [ ' t t 8 7 8 8 y ] { r.f.c.c.h.' t.@X .[ 3X5X5X5Xc.5X3X5Xl.R._._.E.} l.2X2X2X2X2X2X2X4X{ | d.[ c.4X2Xl.f.s.4X5X5X5X7XrX] | 3Xj.,X3X[ [ 5X4Xl.t.| [ t.5X4XrX8X5Xw.[ 3X3X,Xc.| ' 3Xc.m k.5X4X4Xl.2Xl.1X4X4X4XiX4X4X4X4X4X4X4X>X1Xl.l.1X8XiX8X7X8X8XiX8X8X8XyX8XyXiXyXyX8XiX8X8XiXiX8X8X1X2X5X5Xz.k.hXhXgXhXkXhXhXkXhX8X1Xt.t.e.} } } K.D.E.R.(._._.UXUXUXUXUXUXUXUXUXUXUXSXUXUXUXUXUXUXUXUXUXwX*X(.U : G `.`.`.`.`.'..X.X]..XXX.XH.b qXxXkXkXfXhXkXkXoXe.;XCXmXbXmX&XdXqXkX1Xt.hXgX1X] fXqXhXqXkXkXgX",
"c.i.i.c.i.i.l.j.c.! W 0.~ w ! ~ 7 )._.K.%.i.u ` 9.9.` 9.` 9.W ~ c.i.l.i.j.i.u.j.j.u.l.u.j.u.i.u.j.u.l.i.j.j.j.i.i.c.i.j.i.k.8 G.%X$X`.d v G.G.P A.P P J P K J J J K K J J J F K J A 2 r.{ 2X2X3X3X3X3X{ 8 | ,X' $.3X2Xc.2X2X-X>X2X-X>X-X2X-X>X2X>X2X>X2X-X>X>X>X>X>X>X>X>X>Xl.>X>X>X>X>X>X>X,X3X3X3Xc.f.E.).)...d.3X3X3X3X3X3X3X3X3Xc.3X3Xc.5X3Xj.%.:X..| 3X3Xc.d.$.' h h K.K.).).).).).).).).).).).E.K...d m %.%.^.%.^.%.%.^.h.$.9 ,X3X3X2X3X3X2X2Xc.2X2X3X2X3X3X3X2X2X>X2X2X-Xl.2X>X2X2X2X2X>X2X2X,X .%.h.h.h...j.2X2X3X3X2X2X3X2X3X2X>Xj.f.f.r.[ ] u 8 8 8 8 u t N y.e. .] f.l.c.c.4Xc.5X2XE._._.)...l.3X2X4X3X2X2X2X3X2X| | d.] c.l.f.l.l.5Xc.4X5XrXrX5XN  .3X,Xj.3X[ [ l.f.r.r.r.r.l.c.rX4X5X5X] r.3X3X3X3X| ] 3Xl.' l.iX4X4X2X1Xl.4X4X4X1Xl.l.8X4XiX4X4XiX4X8XiX4X8XiX8X8XiX5XiX7XiX8X8XiXiX8XyX8XiXiX8X8X8XiX8X8XiX1Xl.5XrX2Xt.hXhXhXhXhXhXaXgXzXhXkXzXhXkXhXhXiX1X1Xs.t.e.[ ] N } P.P.R.R.wX(.wXUXUXUXUXUXUXUXUXUXUXUXUXUXUX_.UXU d H.H.`.`.`.`.`.'..X.X.XXX].G N ;X9XqXqXCXkXfXkXkXFXgXuX@X9X1X0XkXkX1Xt.hXhX1X[ hXqXkXkXkXqXkX",
"a.c.l.j.c.u.i.c.i.u ~ 5.i p ~ ~ h E._.K.g.O.9 9.` 9.9.` 9.` W 8.l.j.i.u.l.i.j.u.u.i.i.i.k.i.i.l.l.u.i.u.u.u.i.z.l.j.c.c.c.{ b #X%X].K 1 P G.P G.P L L J J C.J K J J J J K J J J J 1 y j.$.3X3X2X3X3X3Xr.8 $.,X{ { 3X3X2X2X,X2X2X>X>Xd.-X-X>X>X>Xj.d.d.2X>X>X>X>X-X>X>X>X>X>X>X>X,Xj.>X>X>X>X2X3X3X3Xl...).).E. .3X3Xc.3X3Xc.3X3X3X3X3X5X3X3Xc.3X3X,Xj.$.$.j.| ' h h K.E.).)._.).)._.).).).E.E.R.K.U ' ..$.t ' /.^.%.^.%.^.%.%.^. .W 2X3Xc.f.| 3X2X3X2X>Xh.>Xl.d.f.f.f.-X>X2X-X-X,X>X-X2X>X>X>X2X>X2Xj...%.h.h.h.{ h.,Xc.2X3X2X2X2X2X2X,X,X4X5X3X3X5X5Xc.c.l.s.{ ] e ..oXy.{ 8 7 8 8 e y m ] U K.R.E.R.t.f.c.2X2X4X2X2X4X4X4Xs.d.d.] c.2X5X5XiXc.4XrX5X7XrX4X] { 3X3X3X3X..[ l.l.l.4Xz.4X4XiX4X4XiXc.] f.,Xc.2X3X{ { 3Xj.m 4X8X5X4X5X5X4X4X4X4X4X4X4X4X4X4X8XiX5X4XiX5X4X8X4XiX4X8XiX8XiX4X8XiXiXiXyXiXiX8XiXiX8X2X1X1Xk.4X>Xs.5XiX4Xt.hXyXhXyXhXhXhXhXhXhXhXhXkXhXkXhXkXkXhXhXkXkXhXfX8X;Xt.} } } } } I I.} R.E.T.T.(.(.)._.(.wXUX_.UXUX).> H H.H.`.`.`.'.].'..X.X].$X`.B (.wXwXUX_.(.wXwXwX9XkXkXkXgXkXkXqXgX9Xt.hXhX4XN hXkXkXkXqXkXkX",
"c.c.c.c.l.j.l.i.p.9 5.3.1.p 2.5.8 ).).K.u.5.W 9.9.` ` 9.` ` Y 8.i.i.l.j.i.i.i.l.u.l.i.u.i.i.u.u.i.i.u.u.k.i.j.j.k.i.j.i.i.e P %X$X].c c `.G.G.P P P P J J J K J K J J F J K J J H 2 | 2Xc.c.3X3X3X3X3Xf.t d.,Xd.[ c.3Xj.2X,X>Xj.>X>X>X-X>X-X>X>X .t t { 2X>X>X-X>X>X,X>X>X-X>X-X-X-X>X>X>X>X2X2X3X2X .E._.).} j.3X3Xc.3Xc.3X3Xc.c.3X3X3X3X3X3X3X3X,X$.' h h U K.E.).)._.).).).).).E.R.K.h > m ..| f.d.2Xj.m ..:X%.^.%.^.^.%.h.^...' 3X3X>Xy 8 l.,X2X,Xj.j.l.l.f.f.f.r.| r.r.f.d.f.d.-X-X-X1X>X>X-X,Xd...h.:X:X%...j.2X2X2X3X2X2X2X2X2Xj.3X4X3X4Xc.4X3X3Xc.rX5X5X3X{ $.2X,X$.] s.r.{ [ ] i u 9 8 8 2 2 8 8 e t u m [ [ w.r.r.s.$.$.] l.4X4X5Xc.5XrXrXrXrXiX5X' { ,X3X3X,X[ { c.4X4X4X2X4X4X4X5X4X5Xl.m c.2X3X3X3X{ r.c.l.m 4X4XiX4XiX8X8X4XiX8X4X4XiX4X4X4XiXyX5XiX4X8XiXiXiX8XiX8XiX8X8X8X4X4X4X1X1Xk.-Xt.t.t.r.t.t.t.t.1X1Xs.iX8X4Xt.yXyXiXhXhXhXhXyXaXhXzXhXhXhXhXhXhXhXhXhXhXhXiXhXhXhXhXhXhXiXiX8X8XhXyXyXfX8X9X8X8X1X1X;XOXwXOXT. XR.1 1 G.`.`.`.`.'.'.'..X'..XXX'.C ).UXUXUXUX_.UXE.R.} } t.t.1X9XqXkXkX1Xt.hXgX4X} hXkXkXkXkXfX8X",
"u.j.i.u.u.u.i.j.3.6 5.1.=.i ! 5.8 E.).E.[ ~ W 9.` 9.` ` 9.` u 5.u.u.u.u.w.u.w.{ o.u.u.u.u.f.u.j.i.f.j.u.i.i.k.i.c.i.j.l.w.d $X%X'.H.< J P G.G.P C.P L L P J L J J J K J J J G P j t j.2X2X3X3X3X3X3X3Xj.t :Xj.j.[ d.3X3X2X>X,X$.{ =X>X,X>X2Xh.[ 7 y m 8 f.>X>X>X>X>X>X-X>X>X-X>X>X>X>X>X2X>X3X2X3X ...).).R.| 3X3X3X5X3X3X3X3X5X3X3X3X3X3X3Xc.d...m h U K.).).)._._.).).).).E.P.U U ..' 0 8 [ ,X,X>X>X,Xf.9 $.%.^.%.^.%.%.^.%.h.' [ 3X3Xf.8 8 d.h.-Xl.f.f.d.,X2X2X,X2X-X-X=Xr.| [ | f.-Xl.h.-X-X>Xj.f.' h.h.h.h.[ h.2X2X2X3X2X3X2X2X2X2X2X2Xc.2X3X3Xc.4X5X5Xc.c.c.' d.2Xj.$.{ 5XrXc.5Xc.3X4Xz.c.l.f.f.| [ [ [ n u t 8 8 r 7 7 7 8 2 e y ] [ [ t.t.t.l.>X2Xc.[  .3Xg.2X3X] { 4X4X4X4X4X2Xz.4XiX4XrXt.[ 3X3X3X3Xc.| f.3Xf.y z.4X5X4X5XiXyX4X8X4XiX4X8XiX4X8XrX8XiXiX4X4X8X8X4X4X1Xs.s.t.t.w.} e.[ | t.t.t.1Xl.l.1X4XiXiX8XiX4Xt.7XiX4Xt.yXyXiXyXhXhXhXgXhXhXhXhXhXhXjXhXhXhXyXhXhXkXhXhXhXhXhXhXhXfXgXhXkXhXhXhXgXhXhXkXkXkXgXkXkXFXqXgXhXfXt.2 A `.G.`.`.'.`.'.].]..X$X'.A.D._.UXUXUXUXUXUX*XE.K.U b U n U N T.} t.yXhX1X} qX1X+XW. XI.T.",
"[ { { ] ~ i.j.u.! ~ 5.i 1.p ~ 7.0 ).).).' W ~ 9.9.` ` 9.9.~ W i.u.u.{ [ { ! W ! ] { o.u.u.u.u.j.i.i.j.u.u.i.l.i.i.j.l.j.y J *X$X'.v j P G.G.P P P J J P P J J J K J G J F J J J 2 { 2X2X3Xc.3X3X3X3X3Xr.y j.,X,Xf.f.2X3X2X,X=X9 8 | >X>X2X>X[ 8 ..h.>X' m -X>X>X>X>X-X>X>X>X-X>X2X>X2X,X>X,Xc.3Xf.} ).).E. .c.3X3X3Xc.3X3Xc.3X3X2X3X3Xj. ...h k U E.).)._._.).).).).E.K.U U '  .$.d.>X] ] [ ' >X>X-X-X>X| 9 %.^.%.^.%.^.^.%.%.:X' ..3X5X{ 9 t f.l.j.d.f.f.f.f.f.f.f.f.$.| |  .r.f.-Xf.f.>X-X-X-X-X2X$.' h.h.h.h.{ h.2X2X2X3X3X2X2X2X2X2X2X2X2X2X2X4X2X4X3Xc.5X5Xj.' :X3X,X$.[ 5X5X5Xc.5Xc.5X5X5X3X5X4X5X4Xc.4Xc.2Xl.l.l.s.r.r.t.[ [ ] y t t e 8 8 8 r 8 r t 7 { ,X3X,Xg.m 8 y n t u n t u m y y n r { 5X3X3X5X4X{ l.3Xj.8 y N i N ! ] [ [ [ q.[ [ [ } [ } q.[ [ [ N [ ] N N ] ] } { t.t.f.1X2X4X4XiX8X8X8X4X4X8X8X4XeX8X8X8Xt.4X8XiXt.iXhXyXhXhXhXhXhXyXhXhXaXhXhXaXhXhXhXkXhXhXhXhXhXiXhXhXhXyX8XiXjXhXhXhXhXkXhXzXhXkXkXhXkXkXkXkXkXkXkXkX[ < G.`.`.`.`.'.].'..X.X.X$X'.j } E.E.(.UX_.UXUXUXUXUXUX_.UXwXE.R.J.t.hXhXt.} _.wX_.).UXUXUX",
"{ u.w.u.u.l.j.u.5 5.5.p =.p ! 9.9 K.).).' 9 / 9.` 9.9.` ` ~ W i.l.i.u.u.o.{ u.u.s.o.w.u.j.u.u.u.u.l.u.u.j.u.l.j.l.i.i.u.r '.%X.X].< C `.G.P P C.P L C.K K J J K J J J J J K P v 7 f.2X2X3X3X3X3X3X3X3X| ' 3X,X3X2Xj.3X2X2X,X' m ..[ :X>X>Xf.e ..j.h.,Xd.8 { 2X>X-X>X>X>X>X-X,Xh.>X>X2X>X,X2X3Xj.' ).).)...f.3X2Xj.c.5X3X5X3X3Xj.r...' V h K.E.).).).).).).).).E...U U ..f.f.,X,X-X>Xf.9 $.| y :X-Xh.>X2X' m %.%.%.%.^.%.%.:X^.%.W | 3Xc.' ' y d.2X2X3X2X2X2Xc.d.f.f.f.r.f.f.-X-X-X-X-X=X>X>X-X-X-X-X.. .:Xj.h.h.[ f.2X2X3Xc.3X2X2X2X2X3X2Xc.4X4X3X2Xc.5X5X5Xc.5Xf.' ,X,Xj. .] c.c.5Xc.5X5X4Xc.5X5Xc.c.3X4X5X4X2X3X4X3X4Xc.5X4Xc.4X4Xc.4X4X2Xz.z.l.s.t.r.{ [ t | ,X3X3X,X9 n n y y n y m n u n m y 8 s.3X5Xc.5Xc.r.l.3Xf.t m ] m N ] ] [ [ [ } [ } q.w.[ } | w.e.t.r.t.t.k.-X4X8X8XiX8XiXiX8XiX8X8X8XiXiX8X8XiX4X4XiX8X8X8X8Xy.2XyX8Xt.8XyXiXyXiXhXhXhXhXhXhXhXhXhXhXhXiXyXiXhXhXhXhXiXhXfXhXiXeXfXhXyXhXkXhXhXhXhXkXhXhXhXhXkXhXkXkXxXkXkXxX1X8 v `.`.`.`.'.'.'.]..X]..X$XK b wX+XwXT.OXE.T.(.R.E.(.wXwX(.UXUX).OXzXkXt.P.UXUXUX*XwXwXE.",
"c.a.j.i.u.l.c.u.u 5.5.i 1.p 5.9.9 U ).)...5 _ 9.9.` ` 9.9.W ~ u.i.u.j.u.u.g.u.u.u.u.u.u.w.u.u.i.u.j.u.j.i.l.i.i.u.c.j.y C %X$X].L 1 G.G.G.C.P A.P L K P J J K C.J J K J K J K < ' h.>X2X2X3X3X3X3Xc.3X{ { 3Xc.3X2X3X2X3X2Xh.9 $.{ ' >X>X,X{ y h.,Xh.d.h.{ m j.,X>X>X>X-X>X>X>X>X>X>X2X>X2X3Xh.U E.).).R.f.3Xl.j.2X3X,Xd. .[ ' m U K.K.E.)._.).).).).).E.K.U U [  .f.-X<X2X-X-X2Xd.2X .t h.$.m l.-X-X-X,Xm ..h.%.^.%.%.^.^.%.%.h.m $.5X-X9 ..t d.2X2X2X2X2X2X3X>X>X2X>X<X-X2X-X2X-X-X-X-X>X-X-X-X-Xf.' d.,Xh.,X:X..l.2X2X2X3X2X2X2X2X2X2X3X4X2X2X2Xc.2X3X4X3X4X5X| &.g.,X,X$.[ 5X5X5XiXc.4Xc.5Xc.5X5X3X4Xc.2X2Xc.4X2X2X2X2X4X4X2X4X2Xc.4X4X5X5X5X4X5X5XrXc.5X{  .3Xj.3Xd.t f.2X4X2X4X4Xz.4X4X4X5Xl.[ z.4X5XrX4X5Xs.l.4Xl.] l.4X4X4X4X4X4XiX5X4X4X5X4X4X4XrX4XiXiXiXiXyXiXiXyXiXiX8XiXiX5X8XiX8XiXiX8XiX4X4X8X8X4X8X8XiX4X8XiXk.1X8XyXt.8XhXiXyXhXhXyXsXhXhXhXhXhXhXhXhXhXhXhXhXuXgXyXhXhX8XgXhXhXhXhXhXkXhXhXhXkXkXhXkXhXkXhXhXzXkXkXkXkXkXkXkX} 1 G.`.`.'.`.`.'..X.X.X.X.X'.c 1XkXxXJXkXkXkXhXkXdX9X9X1X+X;X*XR.;XkXkXt.} OXOXT.OXOXOX1X",
"c.g.l.i.i.i.i.[ W 9.7.~ p p 5.0.T h ).).E.5 _ 9.` 9.` 9.5.Y 5.i.u.j.u.j.i.u.u.u.u.u.u.~ 5 { k.u.u.u.u.u.i.u.j.u.i.j.w.r '.%X.X].j c `.G.G.,.A.P L P C.J J J J J K J J J J J C 7 f.>X,X>X2X3X3X2X3X3Xc.| $.3X3X,X2X3X3Xc.3X$.m ,...' ,X,Xj.t | h.>X' t h.h.9 f.>X>X>X>X>X-X>X>Xc.,X>X2X3X,Xc.} E.).).E. .3X3Xf.f.| ' m h U K.E.E.).)._.)._.).).).E.K.U .. .#.h.>X2X>X>X-X>X2X>X>X>Xh.m ..,X$.t d.-X2X>Xf.t $.h.%.%.:X^.h.%.h.^.%.t f.3X$.9 $.y d.3X2X2X3X,X2X2X2X>X2X-X-X-X-X-X-X-X-X-X-X-X-X-X-X-X| [ :Xh.h.g.:X{ h.2X3X2X2X2X2X2X4X>Xc.2X2X2X3X2X4X2X4Xc.3Xc.5X{  .,X:Xj.$.] c.5Xz.{ r.c.5X3X4Xc.5X4Xc.3X4X2X4X2X2X4Xc.2X4Xc.4X2X3X4X4Xc.4X4XrX5X5X5X4XiXc.s.{ ,X,Xc.f.8 f.l.l.l.2Xl.4Xc.4X4XiXs.{ 5X3X5Xc.c.5Xl.c.5Xc.] s.4X4X4X5XiX8X4X4X4X4X8X4X4X4X4X4X4X4X4X5X8XiX5X8X8X5X8XyXiX8X4X4XiX4X8XiX8X1XiX4XiX4X4X4X4X8X4X8X1X;XiXyXt.1XyXyXiXiXyXyXgXhXhXyXiXhXhXhXhXhXiXyXhXyXfXiXhXiXhXyXiXhXhXhXhXhXhXhXhXhXhXhXhXhXkXkXkXhXkXkXkXxXkXkXkX1X1 C `.`.`.`.`.'..X].]..X.X.XH N kXkXkXxXkXxXJXkXxXkXkXkXkXkXkXfX1XkXkX;X9XkXkXkXkXhXgXkX",
"j.c.l.i.u.i.j.W ! 9.9.3.p u 7.9.m h E.).E.9 ` 9.` ` 9.` ` W 5.j.i.i.u.u.u.u.i.u.u.i.o.u u ~ u.i.u.i.k.i.u.i.l.j.i.j.! b %X$X'.`.1 P G.G.A.P C.P P P J K J J J J J J K J J J 1 y h.>X-X2X3X3X3Xc.3X3X2Xj.>X2X2X3X3X3X3X3X3X..n ].I ' j.2X$.e d.:X#.v v { :X' | 2X>X>X>X>X>X>X>X>X,X3Xc.3X2X .E.).).E. .r. ...m m ..R.).).).).).).).).).).E.R...' [ f.f.2X3X3X>X>X>X>X2Xl.,X>X>X-X-Xf.n $.,X| m d.>X>X,Xf.t h.:X%.^.%.%.:X%.%.^.%.9 h.5X..y $.m d.2X3X3X>X2X2X2X2X-X2X>X-X-X-X-X-X-X-X-X-X-X-X-X-X>X' $.,X,X,Xh.,X[ >X2X3X3X2X2X3X2X2X>Xs.l.-X2X4X3X2X2X2X2X4Xc.5X'  .,Xh.g. .' c.3Xr.] ' { c.c.4X5X5X3X4X2X4X2X2X4Xz.2X2X2X2X2X4X4X4Xc.4Xc.4Xc.4XrX5X5X4X4X3Xl.{ 3X3X3Xf.9 >X4Xl.z.>X4X2X4X2Xc.4Xw.r.rXc.5Xz.rXc.c.l.5X5X[ ] rX4X4XiX4X4X4X4X4X4X4X4X4X4X4X4XiX4X8XrXiXiX8X8X8XrX8XyXyX8XiX8X8X8X8XiX4X4X4X8X4X1XiX4X4X1X4XiX1Xk.8XyXl.t.yX8XyXyXhXhXhXhXiXhXhXhXhXhXhXhXhXhXiXyXhXhXiXhXhXiXhXhXhXhXhXhXhXhXkXhXhXhXhXkXhXkXkXkXkXkXkXkXkXkXkXkX} d G.`.`.`.`.'.`..X]..X].$X].b @XkXkXxXkXkXkXkXkXkXkXkXkXkXkXkXkXkXkX;X1XkXkXkXkXkXkXkX",
"i.i.j.i.j.u.u.e ~ 0.9.5.u 5.7.9.W h K.).E.9 9.` ` 9.` 9._ 9 9.i.l.j.l.i.j.u.s.u.u.u.W W Q ! j.j.j.u.u.u.u.j.i.j.l.u.e G.%X$X'.C j G.`.P G.P P P L J J C.J K K J J J J J J Z 2 r.>X-X-X>X,X2X2X3X3X2X2X2X3X2X3X2Xj.3X3X3Xj.' J ]...' ,X2X{ ' h.j.$.M K ] j.] | 3X3X2X2X>X>X>X>X>X2Xc.3Xj. .E.).).E.h U U K.K.E.).).).).).).).).).).E.R.K.'  .f.c.3X5X3X3X2X2X2X,X>X>X>Xh.>X>X>X-X-X$.9 d.h.| m j.>X>X>X| t h.%.:X^.h.^.%.:Xh.h.$.m j.3X' ..#.9 j.j.2X2X2X,X2X2X>X-X-X-X-X-X-X-X-X-X-X=X-Xf.-X-X-Xd.[ f.>Xj.j.,X>X[ j.5Xc.3X2X2X2X2X2X2X2Xf.f.f.f.l.z.2X4X2Xj.4X2X9 { :X,X,X$.' 5Xc.] d.d.] l.5X3Xc.c.4X3X4Xl.4X4X3X2X2X4X4Xz.2X2X2X4X2X4X4X4X5X4X5X4X5X4X4X4Xj.[ ,Xj.3Xf.8 l.3X4X2X4Xl.l.4X4X4Xx.N l.rX5X5XrXrX5X3Xl.rXc.k.e s.4X4X4X4X4X4X4X4X4X4X4X4X4X4X8X4X4X8X8X7XyX5XiXiX8XrX8X8XyXiXiX8XiXiX8X8XiXiX8X8X4X4XiX8XiX4X8X4Xt.8XyX1Xt.gXfX8XiXyXiXhXyXhXyXhXiXyXhXiXhXhXhXhXiXhXiXhXiXiXiXhXhXhXhXhXhXhXhXhXhXhXkXhXhXkXhXhXkXhXkXxXkXxXkXkXkX1X7 G `.J.`.`.].`..X.X.X.X.XXXL N hXFXkXJXkXxXkXkXJXxXkXkXkXkXxXkXkXxXe.@XkXkXkXkXkXkXkX",
"i.k.u.j.j.u.' 8 9.0.9.7.0.9.9.0.W ' ..E.R.9 9.` 9.` 9.` ~ W i.i.j.j.j.i.u.u.f.u.u.| W u.~ { j.i.k.i.j.u.u.i.k.j.i.{ r $X%X$X`.1 C G.G.P P A.C.P J P P J P J J J K J K J J q t d.h.-X-X>X2Xc.2X2X2X2X>X>X2X3X2X3X3X3X3X3Xj.m P  X..' ,X2X' ..:X,X} <.[.b d...{ 3X2X3X2X3X,X2X>Xj.h.d.| U R.).).).).E.).).).).).).).).).).).).E.K...} r.f.,X3X3X3Xc.3X3X3X2X,X,Xc.>X>X>X,X>X>X-X-X>X[ m d.$.{ m >X>X>Xj. .y h.h.%.h.%.^.h.h.h.h.$.y 2X2X9 $.$.u f.2X2X2X2X>X2X2X-Xl.-X=X=X=X-X-X-X-X-X;X-X-X-X-X>X| ] ,X,X,X,X,Xj. .2X5X3X2X2X2X2X2X2X>X2X2X>Xl.f.f.f.f.f.l.l.2Xh.8 $.,X,X:X{ y c.u...h.| ..{ 4X5X5X4X4Xz.c.2X4X2X2X2X1X2X2X4X4X2X4Xl.4X2Xc.4X4X5X5X4X4Xc.5X4Xf.' c.3X3Xf.8 l.4X4Xz.4X2Xk.4X4X4X{ r.c.rX5XM.5XrX5X5Xz.4X5Xc.[ ] x.5X4X4X4X4X4X4X4X4X4X4X4XiX4X5X8XiX4XyXiX4XiX8X8XiXiX8XyX5X8XiX8X8XiX4X4X8X4X8X4X8X4X4X4X8X8X8Xt.iXyX8Xt.iX8X8XhXhXiXyXhXiXhXyXhXhXhXhXhXhXiXiXhXhXiXiXiXhXhXhXhXhXhXhXkXhXhXhXhXhXkXhXhXhXkXhXzXkXkXkXkXkXkXxXkXkXN d G.J.`.`.`.'.'.`.XX.X.X$X'.c 1XxXkXxXkXkXJXkXkXkXkXxXkXkXkXkXxXkX;X1XkXkXkXkXkXkXgX",
"i.j.u.u. ...U t 7.9.0.9.9.0.9.0.! { $.K...R 9.9.` 9.` 9.~ ! i.c.i.i.l.i.i.j.i.u.u.~ W i.! { i.l.i.j.u.j.l.i.i.u.u.u J *X$X.XG 1 ,.`.G.G.G.P P P P P J J J L K J J J J J Z 2 { ,X>X>X-X-X>X>X2X2X,X>X2X>Xj.2X3X2Xc.2X2X3Xf.m #.=X$.' >X>Xt  .h.=Xe.z ].M $...{ 3X3Xj.d.r.f.|  .[ ' K.P.R.).).).).).).).).).).).).).).).E.R.U ..T.f.c.3X3Xc.3X3X3X3X3X3X3X2Xj.>X>X>X>X>X>X>X-X>X>Xd.' ' f.| ' ' h.>X>X,X[ ' h.:X%.h.h.h.h.%.h.^.&.' 3Xf.h $.#.t h.3X,X>X>X>X>X>X-X=X>X-X;X=Xf.;X=X-X-X-X-X-X-X2Xr.] d.j.,X2X>X2X>Xr.c.3X5X2X2X2X2X2X>Xl.2X>X>X2X2X2X>X2Xd.f.2Xc.f.8 d.h.j.,X$.t 3Xs.| h.' $.W f.2X3Xc.2X4X2X2X2X2X2X2Xl.2X2Xl.2X2X>X4X2X2X2X4X2X4X4X4X4X4Xc.5Xf.! ,X5X3Xj.t f.4X4X4X4X4Xl.z.4X4Xr.l.4Xc.rX5X5Xc.5X5Xc.c.iXrXc.l.k.4XiX4X5X4X4X4XiX4X4XiX4X4XiX4XiX4X4XiX4X5X4X8XiX7X8XiXiXyXyX5XiXiX4X8XiXiX4X4X8X4X4X4X8X8XiX1Xl.8X8X4Xe.8XiX8XiXiXhXyXyXhXyXhXhXyXyXaXhXhXhXyXiXiXhXhXhXhXkXiXhXhXhXhXhXhXjXhXhXhXhXhXkXgXkXkXhXkXkXkXkXkXkXkXkXkX1X7 G `.`.`.'.`.`.].'..X].$X].D N kXkXkXkXkXkXxXkXkXJXkXkXkXkXkXkXkXeX8XJXkXkXkXkXkXkX",
"u.u.{ ..E._.K.W 9.0.0.9.0.9.0.9.W ~ j.[ h Q 9.` 9.` 9.9.R ~ j.i.l.i.j.i.l.u.i.u.u.W / i.W { j.i.j.i.u.i.i.j.c.i.u.b $X*X$X].j v H.G.C.P P G.A.J J J J J P J K J J J J K k 8 f.>X-X>X-X-X>X>X2X>X>X>X>X>X>X2X2X3X2X3X2X3X .' h.h.$.y -Xf.t #.d.} K ,.].z |  .' | ..h h h U ..R.E.).).).).).).).).).).).).).).).).K.R.U ' ..f.j.2X3Xc.3X3X3X3X3Xc.3X3Xc.3X,X>X>X>X,X-X-X>X>X,Xh.-X=Xm ..} e.9 ' -X>X>X>Xm { :Xh.:Xh.h.:X=X#.^.^...' 5X| T %.#.t f.2X,Xf.f.d.-X-X,X-X-X-X=X;X=X=X=X-X-X;X-X-X-Xf.' f.,X,X2X,X2X3X3Xf.3X3Xc.4X>X2X2X2X>X-X>Xl.1X>X2X2X2X2X2X2X2X2X| 9 h.,X,X,X$.t c.h.d.j.| h. .] -X2X2X2X2X2X2X2X>Xl.4X2X2X2Xl.2X2X1Xc.2Xl.z.4Xc.4Xc.4X4Xc.4Xl.r.' 3Xc.5Xc.y r.c.4X4X4X4X4X4X4X4Xz.4XrX4XM.c.rXM.rX5XM.c.rXrX5X5X4XiX4X4X8X4X8X4X4XiX8XiX4X4X8XiX8XiX8X5XiXiX8X8XiX4X8X8X8X>X1X1Xs.k.t.s.1Xt.t.t.iX8X4X4XeX8X8X1X4X8XiX4Xt.8X8X8XiXyXhXyXhXiXhXhXiXyXhXhXhXhXhXiXhXhXhXyXyXhXhXhXhXhXhXhXhXhXhXhXkXaXgXhXkXhXkXkXkXhXzXkXkXkXzXkXkXkXkXN j H.H.`.`.'.].`..X.X]..XXX.Xb OXkXxXkXxXkXkXkXxXkXkXkXJXkXxXkXkXkXiXkXkXkXkXkXkXhX",
"..R.)._._._.h ~ 9.9.9.0.9.0.0.9.~ ~ c.u.9 ~ 9.` ` 9.` 9.W _ a.i.l.c.i.k.j.i.l.i.u.W O.9.~ 3.u.j.i.k.l.i.i.l.i.c.] v *X%X.XP < P `.G.`.P P P P J J P L K K J J J K J J G 2 [ >X-X-X-X>X-Xd.,X2X2X>X>X-X>X,Xc.,X3X2X3X3X2X' $.^.%.@.m c.$.9 :Xt.].L.,.].M  .$.h K.K.K.).).).).).).).).).).).).).).).).).).E.E.U h ' } f.h.-X2X3X2X,X3X3X3X3X3X3X3X3X3X3X,Xc.,X2X2X2Xj.-X>X-X-X-X>X=Xt  .N ,.n [ 2X>X>Xd.9 $.:Xj.:Xh.h.$.9 y $.h.' { 3X[ ' :X%.t $.h.l.f. .[  .f.-X=X-X-X;X=X;Xf.;X=X=Xf.=X;X-Xr.r.h.l.2X>X2X2X2Xc.f.c.5X4Xc.2X2X-X>X>X-X-X>X-X-X>X2X2X2X>X>X2X4X[ ' ,Xg.:Xg.#.9 >Xg.,X,X:Xj.,X' | 4X2X2X2X2X2X4Xl.>X>X4X>X2X1X2X2X2X2X2X4X2X2X4X4X4X2X4X4X4Xf.t [ 4X5X5X5X[ { c.4X4Xc.c.4X4X4X5X4X4Xc.5X5XiXrX4XrX5XrXrXc.rXn.M.rXrX5X5XiX5XiX5XiXiX8XiX4X4XiX4XrX5X4XiX4X8X4X>Xl.1Xt.t.s.y.t.f.k.x.;Xl.t.k.;X1X4X4XeX4X4X4X8X8X8XiX8X8Xt.8XiXiX8XhXyXhXiXyXhXiXhXhXhXhXhXiXhXhXiXhXiX8XfXhXhXhXhXhXjXhXhXhXjXhXhXkXhXhXkXkXkXkXkXkXkXkXkXkXkXxXkXkXkX@X1 I H.`.`.`.`..X`..X.X.X.XXXJ N kXxXkXkXkXJXkXkXkXFXkXkXkXkXkXkXkXkXkXkXkXkXkXkXkX",
")._._._._.E.h _ 0.9.9.9.9.0.9.0.~ ! j.i.u _ 9.9.9.` 9.` W 5.a.j.i.i.z.i.i.i.l.u.w.W i.u.y u.j.i.l.j.i.l.i.j.i.u.8 J.*X$X'.v c H.G.`.C.G.G.C.P P P P K J L K L C.C.J L b 4 f.,X-Xl.-X>X-X-X-X>X>X>X>X>X2X,X2X2X2X3X3X3Xc.' $.%./.$.9 f.' ' :X$.K [.].].I $.$...).)._._._._.).).).).).).).).).).E.E.R.U U ' } r.d.:X<X2X2X,X2X2X2Xc.,X3X3X3X3X3X3X3X3X2X,X2X>X>X2X>X-X>X-X-X-Xl.,Xf.9 $.[ ,.n ..3X>X,Xr.t h.:Xh.h.h.#.9 t ' ..%.' { 5XW ..:X#.t d.f.| f.|  .[ f.-X-X-X;X=X;X-X=X;X=X;X;X=X=X-Xh.2X2X>X>X>X2X>X2X3Xl.3X5X3X2X2X2X-X1Xl.>X>X>X>X-X2X2X2X2X2X2X2Xc.' $.2Xj.3Xj.d.t f.,X:X,X:X,X,Xd.r.2X2X>X1X2X2X2Xl.2X2Xl.2X2X2X2X2X2X4X2X2X4X2X2X2X2X2X4Xc.4Xr.[ c.c.5X5Xc.t.] 4XrX4X4X4X4X5X4X4Xc.4Xc.rX5Xc.rXrXc.rXrX5XrXM.rX5X5XiX4X4XiXrXiXiX5XyXrX5XyXiX5X5XiXiX4X8XiX8X8X1X4X4X4X8XyXyXyXyX8XiXiX8XiXiX8XiXiX4XiX1X4X8X8XiXiX7XiX8X1X8X8XiXhXhXyXhXhXhXyXiXhXhXyXhXyXhXhXhXhXiXiXhXhXhXhXhXyXhXhXhXhXhXhXhXhXhXhXkXhXhXkXhXkXkXkXkXkXkXxXkXkXxXkXkXn j H.`.`.`.'.`..X.X].'..X.X.Xb OXkXxXkXkXkXkXkXkXkXkXkXkXJXxXkXJXFXxXkXkXkXkXkXkX",
"_._._.)._.E.8 8.9.0.0.9.9.9.9.9.3.! c.i.u ` 9.9.9.9.9.9.W 7.i.j.j.j.i.j.l.i.i.j.o.W i._ W u.i.l.i.j.c.i.l.j.c.{ b %X*X$X`.s G H.G.G.P P P P P J J J C.J J J J K K P J < y j.>X-X,X>X>X-X-X>Xh.>X-X>X,X-X>X2X,Xc.2X3Xc.h.' $.$...' h h 8 ..:Xf.K <.].y.N $.$.U ).).).).).).).).).).).E.E.R.U P.' .. .| f.>X>X>X-X,X-X,Xj.2X2X>X2X,X2X2X,Xc.3X3X3X2X3Xc.2X2X,X2X2X-X>X-X>X>X>X2X,X| h ^...m m [ 2X>X,X{ m g.h.h.h.h.{ t d.{ &.^.' { 3X'  .%.%.t f.,X=Xr.f.| f.f.=Xf.-X=X=Xf.=X=X=X;Xf.=X=X;X-X-X-X>X-X>X2X>X>X2X2Xc.3X2Xc.4X2X2X>X-X>X>X>X-Xd.f.s.;Xs.f.>X2X3Xl.m ,Xj.,X,X2X:Xt f.3Xg.,Xg.,Xh.>Xj.2X2X2Xl.2X,Xl.1X>X4X4X2X4X>Xc.1X2Xl.4X2X4X2X4Xz.4X2X4X4Xl.[ s.5Xc.5XrXc.l.{ l.c.4XrX4XrX4X4X5X4X4Xl.4XrXiXrXrXiXc.x.l.l.5XrXc.iX5XiX5X4X8X7X4X8XyXyXiXyXyXyXyXyX7XiXyX5XiX4XiXiX8XrXiXyXyXyXyX8X8X8X8XiX8X8X4X8X8X4X8X4X4XiX8X8XiX8X8XiXiXiXyXhXiXyXhXhXhXhXyXhXhXaXhXgXhXiXhXyXhXhXhXhXhXhXjXyXyXhXhXhXhXhXkXhXhXhXkXhXzXhXkXkXkXkXzXkXkXkXkXkXkXkXxX;X2 L `.J.'.`.]..X`.XX.X.X.X.XP n kXkXkXJXkXxXJXkXkXkXkXxXkXkXkXkXkXkXFXkXxXkXkXkX",
").).).).R.h u 7.9.0.0.9.9.9.9.9.~ ! g.i.Y 9.9.9.9.9.9.9.W u.c.j.i.j.j.i.i.l.l.i.{ ~ i.O.W j.i.j.j.a.c.i.l.i.j.t P *X%X'.G j P `.`.G.`.P P C.L P P J C.K P J K J J J v 2 | 2X2X-X-X>X>X-X>X-X>X-X>X>X,X,X>X2X2X3X3X,X-XW.h ..K.R.E.).E.h $.,Xh.N ,.].e.' ~.W.K.).).).).).).).E.R.R...'  .| f.f.j.,X2X2X,X>X>X>X>X-X>X>X>X2X>X2X,X2Xc.,X2X2X3X3X3X3X3X>X2X2X,Xj.2X>X>X-X>X>X>X>X>X .m %.%.$.' [ ,Xj.,X' [ ,X:Xh.:X%.9 { :X....h.'  .2Xy $.:X^.9 | 2X,Xc.,X>X>X-X-X-X-X;X=X=Xf.=X;X=X=X;X=X;X-X-X-X-X-X>X>Xj.>X>X2X2X2X2X2X2X2X>X>X2X>X>X>X1Xr.r.f.f.f.f.f.-X2Xr.{ 3X,Xj.,X,X,X' { 3Xj.,Xj.:X,X>X>X2Xl.2X2X>X>X>X1Xl.c.2X4X2X2X2X2Xl.2X2X2X4X4X2X4Xc.2X4X4Xl.f.c.5Xc.5X5X5Xc.z.l.c.c.4X4Xl.l.>Xl.l.s.l.4X4X5XrXrXrX4Xz.l.l.4XrX4XiXiX5X5XiX4X8X5XyXiXyXiX7XiXrXyXyXyXiXyXyXiXiXrXyX8XyXyXyXyXyXiXiXiX8X8X8XiX7XiX4X1XiX4X4X4X8X8X8XiX8X8XyXyXiXhXyXyXhXhXyXhXhXhXiXhXkXhXhXyXhXhXhXiXhXhXhXhXhXhXhXhXhXhXhXhXhXhXkXhXhXkXgXkXkXhXkXkXkXkXhXkXkXkXkXxXkXkXhXn c H.`.`.].`.'.`..X].XX'.$X'.b OXkXkXkXxXkXkXkXkXkXkXkXkXdX8XfXqXfXqXkXfXfXqXhX",
"E.K.h 8 8 5 W 9.0.9.9.0.9.9.9.9.8.W a.u.W 9.9.9.9.9.9.9.~ u.i.j.c.l.i.l.j.i.i.j.o.W i.i.i u.c.i.l.c.j.c.j.c.u.r $X*X$X'.j v `.G.P G.P P P J P P J P J P J J C.J J J 1 y h.>X>X,X-X-X-X-X-X-X>X-X>X>X>X,X-Xd.f.W. .R.R.E.E.).)._.)._.E.h #.j.h.$.N } N { ^...h ).).).E.R.K.K... .f.j.2X2X2X2X2Xc.2X2X2X>X-X2X>X-X-X2X>X>X>X>X>X2X,X2X,X2X,Xc.3X2X2X2X2X2X2X2X,X>X-X>X,Xl.>X>X2X,X..' %.h.h.' [ ,X,X=Xt $.,X:Xg.:X$.t h.:X[ ' %.' { c.t $.%.h.' ..,X2X>X>X>X>X-X-X-X-X-X=X=X;X=X=X;X=Xf.=X-X-X>X-X-X-X-X>X1X>X2X>X>X2X2Xl.2X>X>X>X-X-X-X>X-X-X-X<X-X2X2X-Xl.2X[ f.3X2X3X,X3X3X[ ] 3X,X:X,X,X3X2X2X2X2X>X>X>X2X4X>X2X>X>X4X1Xc.c.1X1X2X4Xc.c.4X4X2X4X2X4Xz.4X4X4X3Xc.rX5X5X5X5Xl.5X4X4X4X4Xl.1X>Xl.8X4X4X8XiX5X8X4X5X8XyXrX5XrX4XrX8XrXiX5X8XrX4XiXrXyX7XiXyXyXyXyXyXyXyXyXyXyXiX7XrX8XyXiXiXyXyXyX7XyXiXiX8XiX8X8XiX4X8XiXiX4XiXiX8XiX8XyXyXyXiXyXhXyXhXhXhXhXhXhXhXhXhXhXhXhXhXhXkXhXhXhXhXhXhXkXhXhXhXgXhXhXkXkXkXhXkXkXkXkXkXhXkXxXkXkXxXkXxXkXkXkXkXlXt.2 P `.`.`.`.'.].'.'..X$X'.$XI n 1X1X@XOXe.e.} I m n n r r 8 r 8 r 1 8 8 8 1 8 ",
", h ! u.j.W ~ 9.9.0.9.9.9.9.9.9.8.y a.w.W 0.9.9.9.9.9.9.~ ] i.j.i.l.j.i.l.i.l.i.u.W i.O.W w.i.c.i.c.j.i.j.i.! A *X%X$XP < P G.`.`.P P C.G.P C.J J P J J J P J P P Z % { 2X2Xl.,X>X-X-X>X>X-X=X:Xd.f. .' m U U K.).)._._._._._._.)._.E.h #.j.:X:X .' { h.:X' U E.R.K... .f.d.-X6X3X2X2X3X3X3X2X,Xc.,X,X2X>X,X-X2X>X>X>X>X,Xc.>X>X2X>X>X,X3X2X3X3X2X3X,Xj.>X2X>X>X>Xl.OXf.,X>X>X>X' ' ^.h.h.' { ,Xh.$.t d.,Xg.h.h.' ' @. .' ..%.' { j.y #.:Xh...y >X>X>X>X-X-X-X-X-X-X=Xf.=X=X;X=X=X;X=X=X=X-X-Xl.-X-X2X-X>X>X>X2X2X2X>X2X2X>X2X1X=Xf.f.f.r.f.| =X>X2X2X>X2X2Xr.2X3X3Xc.2X3X3Xo.m 3X3X2X,Xj.2X,X2X>Xc.2X2X2X2X1X2X>X1Xc.2X2X2X>X4X2X4Xl.4X2X4X4X4X4X2X2X2X4Xc.c.5XrXrXc.M.c.5X5X5X5X4XiX7XrXrX8XiX5X5X5X5X4X8XiX8X5X5XiX5XiX7XiXiXiX4X5XiX5X5XiX8XiX8XiXrXrXyXyXyXyXiXyXyXyXyXyXyXiX8XyXyXyXyXyXiXiXyXyXiXiX8X8XiX8XiX8X8X4X8XiX8XhXiXiXiXyXhXhXhXyXhXyXhXiXhXhXhXhXaXhXyXfX8X8X1X1X1X1X8XiX1X8X1XiX8X1XfXeX8X8X8XiX8XeX8XiX8X1X@X1X;X@X@X;X@Xe.t.t.} } e.I 2 c H.`.`.`.`..X`.`..X'.$X#X'., $ $ : % $ : : % : 2 1 1 1 1 1 < 2 2 2 2 1 2 2 ",
"o.g.j.c.j.u 5.0.9.9.9.9.0.9.9.9.8.W i.3.~ 9.9.9.9.9.9.9.{ h t { j.i.i.l.i.j.u.j.o.! i.i.~ y [ W w.j.c.i.c.k.e .XbX$X'.c c `.`.G.`.C.G.A.P J P J P J L J J K K J J j 8 f.2X>Xh.j.,X>X-X-Xf.W.R...U U K.E.E.).)._._.)._.).).).).).).).E.h h.:Xg.,X,X:X:X:X/.' U ....;X;X6X>X2X>X2X,Xc.,X2X2X,X>X2X,X2X>X>X>X2X>X-X-X>X>X>X>X,X2X>X>X>X>Xc.3X2X2Xj.3X,X3X2X>X>X-X-X-X{.|.XXf.>X>X>X' &.h.h.h.' { ,X2X| m h.,Xj.h.h.9  . .' W ..:X*...j.y #.%.:X$.t f.2X>X>X2X-X>X>X-X=X-X;X;Xf.;X=Xf.;X-X;X;Xd.-X-X-X2X-X>X2X>X>X>X>X2X4X2X>X>X2Xd.=X;Xr.f.f.| t.| t.f.t.-X2Xj.l.3X3X3X3X3X3X3Xl.y c.3Xc.2X3X,X3X2X2X1X2X>X2X2Xl.>X>X2X2X2X2X4X2Xl.2X2X4X4X2X4Xz.2X2Xz.4X4X2X3X4X5X4X5XrX5XrXrXc.5X8XrX5XrXrX8XrX5XiX4X4XiXiX5X5X5X8XiX5XiX8XrXrX4X7X5XiX5XiX8X5XyX4XiX7XyXiXyXyXyXyXyXyXyXyXyXyXyXyXyXyXrXyXyXyXyXyXyXyXyXiXyXiX8XyXyXyXyXiXiXyXyX8XhXhXhXhX1X8X1X1Xy.e.q.e.} } N } N m b j 8 2 2 % : 2 2 2 7 1 8 q 1 8 r d 8 d 8 8 1 1 2 2 2 2 : : % $ : $ = $ @ @ @ $ @ $ = : L `.`.`.`.`..X.X].'.]..X.XG = b n A N I I } } T.T. X X X X XoXOXT. X XoX X",
"u.j.c.c.u.u 5.9.0.0.9.9.9.9.9.9.9.W u.! _ 9.9.9.9.9.a.9.o.U 8 % u { g.j.c.j.i.i.u.w.i.i.u.[ ! ! { j.i.c.j.{ b *X*X$X`.q K `.H.`.P G.P P P P P P J K C.J J P J L G % { 2X:X:X=Xd.|  ...U U U K.K.E.).)._.).).).).).).).).).E.E.E.E.R.K.8 h.h.g.:Xh.:X,Xh.%.9 $.c.c.2X2X2Xc.>X>X2X,X2X2X3X2X2X,X2X3X>X>X>X>X>X-X-X-X-X>X>X>X2X>X>X>X>X>X,X2Xc.>X>X>X>X2X>X>X>X>X>Xy.{.|.|.XXl.j.j.m &.^.^.^.t  .,X-X{ ' ,Xh.j.h.$.9 #.} N ' &.^.' [ j.m #.h.:Xh.9 | ,X>X>X-X-X-X>X-X-X;X-X=Xd.;Xf.-X=X-X=X;X=X-Xf.-X>X-X-X>X>X>X2X,Xl.2Xc.2X-X-X1X;X-X-Xf.>X-X>Xl.f.f.s.f.>X4Xc.3X3X3X5X3X5X5Xc.[ j.5X3X2Xz.2X2X2X>X>X2X-X2X2X>X>Xl.1X2X2X4X4X2X2X2X2X4X2X2X2X4X2X4X4X4X2X4Xc.4Xc.c.5X5X5XrX5X5X4XiX5XrX8X8XrX5X5X4X4X4X5X8X5XrX8X4X8X5XiXrXrX8XrX5XiX8XiXrX4X5XiXrX8XrXyXyXyXyXyXyXyXyXyXhXhXhXyXgXyXhXiXyXhXhX8XhXiX8X1X1X8X1X1Xt.OXt.t.e.[ } N n n b n b 8 1 1 % : @ @ @ # @ @ @ & $ @ * : : : % < 2 : < 2 1 8 1 1 1 1 8 1 1 2 < 2 1 8 8 j 8 h r b j b n b m U m N U I I N 2 c `.`.`.'.`.`..X.X.X.XXX$X'.b I OXOXoX XOXOXOXOXOXOXoXoXXXOXOXOX%XOXXXOXOX",
"j.j.i.c.5.u 7.9.9.9.9.9.9.9.9.9.9.i u.W 9.9.9.a.9.a.9.a.p.7 8 0 d h y ~ u.i.l.i.u.j.j.i.i.i.g.j.i.c.i.c.j.t P *X%X'.C j G.`.G.G.P G.A.P C.J L L J P J P J L K A.k 2 | | ..U U U U K.R.E.).).).)._.).).).).).).R.E.E.E.R.R.E.W.W.W.;X..h h.,X,X,Xh.j.g.,X#.h j.3X2X3X,X,X,X2X2X>X2X2X2X2X,X2X2X,X2X2X,Xc.>X>X2X>X>X>X-X>X>X>X>X>X>X>X>X2X,X,X>X>X>X>X>X>X>X>X>X-X%X|.|.|.{.e.-X=Xt $.^.:X^.m  .-X,X[ { ,X,X,X,X&.m %...' m  .h...' >X' h.%.%.h.' m >X>X>X>X>X>X-X-X-X=X=X-X;X;X=X;X=X;Xf.-X;X-X;X-X>X-X-X1X2X-X2X2X2X-X1X>X>X>Xf.-X-X-X1X-X-X-X1X-X-X>X>X2X2X4X3X5X5Xc.5Xc.3Xc.r.s.5X4Xc.2X2X4X2X1X2X2X2X2X>X2X2X2X2X2X2Xl.2X4X2Xz.4X2X2X4Xz.4Xc.2Xc.2Xz.4X4X3X4XrX5XiXrX4XrXrXrX7XrX8XrX5X5XiXiXiX5XiX5X5XiX5XiXiXrX4X8X8XiXrX8XiX5XrX8XyX7XiX8XiXyXyXyXyXyXyX7X8X8X1X6X1Xk.@Xs.t.t.} } } N m n b n b r 1 1 2 2 2 : % : $ 3 3 @ & & $ : , 1 1 8 j 8 h b A m m U I N I } } T.} T.T.}  X} }  XT.e.T. X Xe. XT.}  X X X X XT.oX X X X X X XoXT. X X XXX Xe.oX XU : P J.`.`..X].`..X]..X'.'.$XG b e. XoX XOX XOX%XOXOXoXoXOXOXOXOXOXoXoXoXoX",
"j.c.c.c.2.W 9.0.0.9.9.9.9.9.9.9.9.! w.8.9.a.i.9.a.i.a.i.5.5 ~ ~ h E.R.h 9 W | u.j.i.i.j.i.c.c.i.i.c.c.j.{ e %X*X$X`.d G `.G.`.G.C.`.A.P P P C.J J P J P J L J K > > U U K.E.).).)._._.).).).).E.E.R.K.E.} .. .| f.=X=X-X2X2X2X3X3X3X$.y g.:Xg.h.h.:X:X:X$.m h.3X3X,X2X3X,Xj.2X2X>X>X2X2X3Xj.-Xf.f.s.| | | | |  .| | |  .r.$.f.d.>X>X2X2X2X>X>X>X>Xd.-X>X>Xj.-X-X[.|.{.|.|.[.;Xd.t @.^.h.%.9 | ,X-X{ { ,X,X:X,X| t ^.$.$.y $.g.$.t j.d.:X:X%.h.d.t ' j.>X>X>X>X-X-X-X-X;Xf.;X=X-X-X-X-Xd.-X=X=X-X;X-X>X>Xd.2X2X2X2X2X-X>X>X>X-X-X-X-X>X-X>X-X-X>X>X>X1X2X2X2X2X3Xc.5X5Xc.5Xc.5Xc.r.c.5Xc.3X2Xc.>Xc.2X>Xl.l.>X2X2X2X2X2X2X2X2X2X2X2X2X2X2X4X2X2X4X4X4Xc.4X2X4X4Xc.4XrXrX5X5XiX4XiXiX5XiX7XiX5X5X5X5X8X4X5X5X5XrX5X5X5X5XyXrX4XyX5X8X7XyXyXiX8X7X4X2Xl.s.t.w.[ N n r 8 4 8 2 2 % : $ = 3 $ % 3 = : : : : 2 1 8 8 b b b A n U U I U U I I I.I.} Y.T.T.T.} T.T. XT. XT.OXT. X X XT. X X X X X X X X X XoXoX XOXXX X XT. X X X XT.T.oXoXT.oXT. XoX X X XoXoX X XoX} 2 v `.`.`.'.`.`.'..X.X$X].$X`.j } oXXXOX X XOXOXOX XOXOXoXOX%XOXOXOX X XXX",
"a.i.c.c.~ 5.9.9.9.9.9.9.9.` 9.9.9.W ~ a.9.i.a.a.i.a.i.a.~ Y ` _ h )._.).E.K.m y ! u.u.j.l.j.i.j.c.c.c.i.y I nX%X#XL q H.`.`.G.P P K `.A.P P P P J J P J P J P C $ E.).).).).).).).E.).K.K.K.....R. .$.#.h.>X>X>X,X2X3X,X3X3X3Xc.3Xc. .' :X:X:X:Xh.%.h.:X&.m c.,X3Xc.l.h.f.d.f.f.f.r.|  .{ { [ { { .. .| | | { { [  .{ [  .[ [ ' [  .f.h.>X>X>X>X,X-X-X-X-X-X-X-XN y.t.,.|.{.-Xf.9 #.h.h.@.m | ;X>X .{ ,Xg.,X,X$.' %.h.^.t $.,Xd.9 f.c.j.h.,X,X,Xf.' f.-X>X>X>X-X-Xd.-X=X-X-X=X=Xf.;X-X;X-X-X-X-Xf.-X-X-X>X2X2X2X2X2X>X>X>X>X-X-X-X-X-Xl.-X>X-X-X>X-Xj.>X2X4X4Xc.3X3X5Xc.5X5X3X3X4Xc.5X4X3X4X4X2X2X2X2X1X2X2X1Xl.2X2Xl.1X2X2Xl.4X4X2X2Xz.4X2X4Xc.4X2X4X4X4Xc.4X4X5X4X5X8XrX5XrX5X5XrX5XrX8XrXiX5X5XrXrXiXyXiXyXyXrXiXrXiX8X4X4X1Xl.s.t.q.[ m t 8 2 2 : $ $ @ $ = : : 2 a 8 1 8 b n V n U U I U } } F.} P.I.U.I.I.R.Y.I.I.U.U.U.U.T.U.U.T.T.U.T.T.U.T.T.T.T.T. X X X X XT. XT. X X XT. XT.T.T. X XT. XT. X XT. X X X X X X X X XT.T.oXT. X X X X X X X X X X XXXU : G.J.`.`.`.'..X].]..X$X.X.XA b T.OX XOXOXXX X XOXoXOXXXOXT.OXXXOXOX XOX",
"c.j.i.c.! ~ 9.9.9.9.9.9.9.9.9.9.9.~ ~ i.a.i.i.a.g.a.a.i.9 ~ W _ 9 E._._._._.).).K.K.*.*.$.o.h.g.c.i.c.u.8 .X*X$X.Xc A `.`.H.G.`.`.P P G.P P L J P P J J J P J < h ).).).R.K.K.K.U ..}  . .f.>X>X,X>X2X2X3X2X,Xc.2X2X2X3X3X3X3X3X3X3X{ ' h.h.h.h.%.:X%.:X&.' 3X3X2X,Xj.l.f.f.f.f.f.f.f.f.d.j.>Xf.>Xd.d.-Xf.-X=Xf.f.f.f.d.f.f.f.$.| |  .r.f.>X>X>X-X-X=X-X-X=X=X-Xl.d.j.;Xt.t.,Xd.t $.%.:Xd.t  .-X,Xf.[ j.j.,X,X| 9 :X:X%.t #.h.j.' ' c.2X,Xj.,X3X2X-X .t.} -X>Xj.2X-X-X-X-X;X-X=X-X;Xd.-X-X;X-X;X-X-X-X-X-X2X2X2X2X2X>X2X-X-X-X-X-X-X-X-X>X1X-X-X>X-Xj.1X2X4X2Xc.4X3X3X4X5X5Xc.c.5XrX5Xc.3X4Xc.2Xz.2X2X2X2X2X2X>X>X2X2X2X2X2X2X4X2X2X4X4X2X4X4X4X5X4X4X4X4X5X4X5X4X4XrX5X5XyXrX5X5XyXrX7X7X8X7XrXrX4X2X>X2Xs.t.t.{ } ] m t t 8 2 % % $ @ @ & = : : , 8 c h A D K.U F.F.P.I.I.I.I.U.T.T.U.U.T.T.T.P.R.T.T.T.T.T.T.T.T.U.U.U.U.U.U.U.T.U.U.T.U.T.T.T.T.T.T.T.T.T.T.T.T.T. XT. XT. XT.T.T.T.U.T.T.T.T.T.T.T.T. X XT. XT. X X X X X X X XoX XT. X X XoX X XoXT. X X} 2 v .XH.`.`..X`.'.].XX.X.X$X`.r T.OXoX X XoX XOXOXoXoX XOXOXOXOXOXXXOX X",
"j.c.c.j.! ~ 9.9.9.9.9.9.9.9.9.9.9.~ ~ p.i.a.a.i.a.a.i.u.6 ~ w ! W U ).)._._.).).).).).E.E...9 K.{ {  .9 Z nX*X$XP s P `.`.G.P `.C.P P C.P L J P C.J P P J P C & h K.U ' .. .$.;X:Xj.=X,X<X2Xc.,Xc.>X3X,X2X,X>X,X,Xc.2X2X3Xc.3X3X3X3X' { h.h.%.h.h.h.:X%...' 3X3X,X2X2X,X,Xc.,X,X>X2X,Xj.2X,X2X2X2X2X2X-X,X>X>X>X,X-X-X>X-X>X-X-X>X>X>Xh.l.-X>X-X-Xd.-X-X=X-X-X-Xl.d.-X2X>X>X,Xd.m #.h.%.^.9 $.-X>X,X| d.3X,Xj.| ' :Xj.h.9 d.,X:Xd.9 f.3X3X3X2Xf.OX} e.+X} I @X6X2X>X-X2X-Xl.-X-X-X-X-X-X-X-X-X-X-X-X-X1X>X2X2X2X2X>X>X>X>X-Xl.1X-X-X-X-X-Xd.-X-X-X2X>X2X2X2X2X4Xc.4X5Xc.5Xc.5X5X5Xc.5X5X4Xc.3X4X4X4X2X2X2Xc.1X2X4X>X1X>X2X2X1X2X2X4X>Xk.t.r.{ N y 8 t [ r.z.4X4XrX5XiX5X4X4X4X1Xl.s.r.t.{ [ ] n e e 1 7 2 : $ $ $ @ @ $ : & : : 1 f k h V U D U F.D.F.P.P.F.P.D.I.I.P.P.P.I.P.I.I.I.I.U.U.I.U.U.Y.Y.T.T. XT. XT.T.T.T.T.T.T.U.U.U.U.U.U.U.T.U.T.T.T.T.T.T.U.T.U.R.T.U.T.T.T.T.T.U.I.I.U.U.U.U.T.T.T.T.T.T.T.T.T.T.T.T.T. XT.T.oX XT.T. XoXT.oX XT.oXT. X X XT.OXb < P J.`.`.`.'.'.'.'..XXX]..Xv U oX XoXoX XOX XT.OXT.OXOX XOXOXOXOX XoX",
"c.c.a.c.! ~ 9.9.9.9.9.9.9.9.9.9.9._ W a.g.a.c.i.a.g.a.W W 4.p i W h ).).).).).)._._._._.).).E.E.E.E.K.f '.*X%X'.v v `.`.H.G.`.G.P P A.P P P C.P P J P J J J j 7 E.d.h.2X3X3X2X2X3X,X2X2X2Xc.,X2X,X2X2Xc.c.2X>X>X,X,X>X2X,Xc.3X3X3X3X' ..,Xh.:X%.%.^.:X%...] c.c.2Xj.,X3X>X,X>X,X2X,X>X2X,Xc.>X2X2X2X-X>X>X>X>X>X-X>X-X>X>X>X2X-X>X-X>X-X,X-X>X-X-X-X=X-X-X-X=X-X-X-X-X-X>X2X2Xd.W %.:Xh.%.t | -X>X3Xj.,X,X,X,X$.' j.:Xh.9 f.,Xh.,X[ m  ... .} e.oX1XqXOXoXOX X X>X2X2X-X-X-X-X-X-X-X>X>X-X-X-X=X-X-X-X>X2X2X2X2X2X2X-X>X2X-X>X>X>X-X-X-Xl.-X-X-X-X1X2X2X2X2X4X2X4X3X5Xc.5X5Xc.3X5X5X5Xc.3X4X2X4X2X2X2X2X2X4X2X2X2X2X>X>X2X2Xf.r.[ m e 2 1 < 8 b b N b : = 2 e [ | w.] t t e 7 4 % % $ $ $ # $ @ @ : : : , 1 f h c c U A U Z.L U F.F.F.F.P.F.F.F.P.F.F.P.F.F.F.R.F.P.P.P.P.P.P.I.I.I.I.I.P.I.R.P.U.T.T. XT.T.T.T.T.T.T.T.U.T.T.T.T.T.T.T.U.U.U.T.T.T.T.T.T.T.T.T.T.U.U.U.T.T.T.U.U.U.U.U.T.U.U.U.U.T.U.T.T.U.T.T.T.T.T.T.T.T.T.T.T. XT. X XT.T.T. XT.T. XT.OXT. X} : A J.`.`.`.'.].'..X.X'.$X$XP q T.oX XoX X XoX X X XoX XoX XOXT.OXOXOX",
"i.c.c.c.W ~ 9.9.9.9.9.9.9.` ` 9.9.5.W a.a.a.c.c.i.a.i.W ~ 6.1.p ~ 8 U E.).).).).).).).)._._._._._._.K.V *X*X$X`.1 J `.`.`.P P G.`.P P A.C.L P P J P J P C.K : { 3Xj.3X3X3X3X3X2X2X2X3X2X2X,X2X3X2X2X3X,X,X,X2X2X2X>X2X2X3X,X3X3Xc.3X'  .h.h.h.^.:X%.%.:X..{ 3X3X3X2X,X2X2X>X2Xc.j.>X2X>X>X2X>X>X2X>X2X-X>X>X>X2X>X>X>X>X>X2X-X-X>X>X>X>X>X>X>X,X-X-X-X-X=X-X-X-X-X-X-X-X>X>X>Xj.m %.:Xh.^.m | >X>X2X3X3Xj.,Xj.| ' h.,Xh.m d.j.h.{ m e b I e.9XqXCX9X9Xe.OX9X&Xn I -X2X>X>X-X-X-X-X-X>X-X-X-X-X<X2X-X>X-X2X2X2X>X>X2X2X-X>X-X2X>X2X>Xl.-X-X-X-X-X,Xl.-X2X2X2X2X2X3Xc.5X5Xc.5X5X5Xc.c.5X5X5Xc.4X2X4X2Xz.4X2X>X2Xl.l.l.k.t.] b r r n e.%X&XdXZXIXHXPXPXHXCX&Xe.v 2 o $ @ @ $ * : > 1 1 d c k x U A U J D.U L D.F.P.P.P.D.F.D.F.P.I.F.F.F.F.F.F.D.F.P.F.F.P.P.F.P.F.P.P.P.P.P.P.P.P.P.P.P.I.P.P.P.P.I.I.T.U.U.U.U.U.U.T.T.U.U.T.T.T.T.T.T. XT.T.T.U.T.T.T.T.T.T.T.T.Y.Y.U.U.U.T.U.T.T.U.U.U.U.T.U.T.T.U.T.U.T.U.U.T.T.U.T.T.T.T.T. X XT. XT. X X XT. XT. XT. XT. X X Xb < G.`.`.].`.`.XX`..X$X'.]..Xc N  X XT. XoX XoX XoX XXX XoX XOX XXXT.",
"a.g.g.a.! ~ 9.9.9.9.9.9.9.` ` 9.9.8.W i.g.a.g.c.c.a.i.u _ 5.~ ! 8.9 ] m K.K.).).).).).).).).)._.).).k ].nX%X$XG k `.`.H.H.,.`.G.G.G.C.A.P L P L P J P P L c 2 j.3X2X2Xc.2X3X2X2X2Xc.,X2X2X>X2X2X>X>X2X,X>X>X2X2X2Xj.,X,X2X3X3Xc.,Xc.y | :X:X:Xh.h.:Xh.^...| 3X2X2X2X,Xc.,X2X2X,X,X2X2X2X2X,X,X>X2X2Xj.,Xj.-X>X>Xd.>X>X-X-X>X-X-X>X-X-X>X-X>X>X>X>X>X-X-X-X-X-X-X-X>X:X-X>X2X,X,X$.h.,X:X:XW  .-X>X2X3X,X,X3X,Xf.{ ,X,X:XW r.,X$.N  X+XqXqXqXZXqXqXdX9XOX+XwX+X} 8 n f.,X,X>X>X2Xl.>X-X>X-Xf.| r.r.f. .| {  .r.{  .r.l.>X>X>X2X2X>X1Xl.-X>X-X-X>X2X-Xl.2X2X2X2X2X2X4X4X3X3Xc.c.5XrX5X5X5X3Xc.4X2Xc.2X2X2X-Xt.| | t.} N `.XX&XSXGXHXPXHXKXKXKXKXLXLXLXLXLXLXLXKXcX&XG : # 1 D Z.Z.D.D.D.D.D.D.D.F.D.F.D.D.D.D.F.F.P.P.F.D.F.F.F.F.F.D.F.D.D.D.F.F.F.F.F.F.F.F.F.F.F.F.F.P.P.P.P.P.P.P.P.P.P.P.P.P.I.I.U.T.I.R.P.P.I.U.U.U.U.U.U.U.U.U.U.U.T.T.U.T.T.T.T.T.T.T.T.T.U.U.I.U.U.U.T.T.T.U.U.U.I.I.I.U.Y.U.T.T.T.U.U.U.U.T.T.T.T.T.T.T.T.T.T.T.T. X XT.T. XT. XT. X XT. X} : A `.`.`.`.`.'..X]..X.X'..XD b T. XOX XoXT.T.oX XoXOX X X X XOXOX X",
"c.j.c.c.! ~ 9.9.9.9.9.` ` 9.9.9.9.8.i p.a.c.c.a.a.g.u.u 5.u.8.8.9.u u.i.*.K.h K.K.E.).).).).).).).K.c *X*X$X'.j G ].`.H.H.`.C.P P P P P L P J P L L J C.J : ] 3X3X3X3X3X3X2X2X2X>X2X>X>X>X-X-X-X>X>X>X-X:X2X2X>X2X,X2X2X,X,X,X2X3X,Xy $.g.:Xg.h.h.h.h.%.{ $.j.3X2X3X2X>X2X,X>X2X2X,X,X2X,Xc.2X2X>X>X>X-X-X-X-X-X-X>X>X-X-X-X-X>X>X-X>X-X>X>X-X>X-X-X-X-X-X-X-X-Xh.-Xl.-X,X>Xj.,Xj.h.g.h.^.m  .>X,Xc.2X3Xj.2X,Xh.$.j.h.,X' ..j.} wXCXkXCXZXCXkXkXCXqX9X} 1X9X1X+X} b N >X>X2X>X>X>X2X2X2X2Xf.| f.f.r.r.| r. .{ t.r.f.-X>X>X-X>X-X>X>X>X,X2X-X-X>X-X2X2X>X-X2X2X2X3Xc.c.4X4X5X5X5XrXc.c.4X4X2Xl.f.t.{ [ N n r r G XX&XJXLXLXLXLXLXLXKXPXLXKXLXLXKXKXLXLXLXLXLXLXLXLXKXCXI $ > Z Z.D.Z.Z.D.Z.D.D.D.D.D.D.D.D.D.F.F.D.P.P.P.P.F.D.D.F.D.D.F.F.K.D.F.F.F.D.F.F.D.F.F.F.F.F.F.F.F.F.P.P.P.P.P.P.P.P.P.P.P.U.U.I.I.P.P.P.P.I.I.U.I.U.U.U.U.U.U.T.T.Y.T.U.T.T.T.Y.Y.T.T.U.U.T.U.U.I.U.T.T.U.U.U.I.U.I.U.U.U.U.U.U.T.Y.T.T.U.T.U.T.T.T.T.T.T. X X XT. XT.T.T. X X XT.T. X XT.b a H.`.`.'.`..X`..X.X].$X$X.Xj } oX XoX XOXoX XoXT. X XOXOX X X XoX",
"j.c.i.c.~ ~ 9.9.9.9.9.` 9.9.` 9.9.9.W 6.c.a.g.a.c.a.3.W 9.7.i.9.9.W ~ j.c.j.&.&.' h h K.K.K.E.K.K.h P *X%X$XP j H.`.].G.H.G.`.P G.P A.P P C.C.P L P P L v % f.3X3X2X3X3X2Xc.3X,X>X>X2X>Xh.>X,Xh.-X>X>X-Xl.d.>X>X>X2X2X,Xj.2X2X2X3Xj.m $.,X,X,X,X,Xh.h.h.$. .2X2X2X3X,X2X>X,Xc.>X2X2X,X,X2X2X,X,X>X,X>X-X-X-X-X-X-X-X-X-X-X=X-X-X-X-Xd.-X-X-X-X>X-X-X-X=X-X-X-X-X>X-X-X-X>X,X,X,X,Xj.:Xh.:X' [ ,X,X3Xj.,X,X,X>Xh.>X>X,Xj.{ ' | oXCXkXqXFXCXkXqXCXqX9X1X} +X} }  X X} d [ >X>X>X>X>X2X2X,X2X2X,X2X2X>X2X>X2X>X>X2X2X2X2X>X2X>X>X>X>X-X-X2X1Xl.-X>X-X>X2X2X2X2X2X2X2X3X4X3Xc.l.f.s.r.{ ] y e 8 2 $ $ : 1 b I XXDXHXLXLXLXLXLXLXLXLXLXLXLXLXKXLXLXLXKXLXLXKXLXLXLXKXKXLXLXKX&Xb & k Z.D.D.D.D.Z.D.D.D.D.D.D.D.D.D.D.D.F.P.P.P.P.F.D.F.D.D.D.D.F.D.F.F.F.F.F.D.F.F.F.F.F.D.D.F.F.F.F.P.P.F.P.P.F.F.P.P.P.I.I.P.P.I.P.P.F.P.P.I.I.I.I.I.I.U.I.I.U.U.U.U.T.T.U.U.T.T.T.Y.U.T.Y.Y.U.I.U.U.U.U.U.U.U.I.U.T.U.U.T.T.T.U.T.T.U.T.U.T.T.T.T. XT.T.T.T.T.T. XT.oXT. XT.T.T. XT. XI : G `.`.'.]..X`..X]..X].XX.XA b T. X X X X XoX X X XOX X X XOXOX X",
"r.u.c.c.~ R 9.9.9.9.9.9.9.` 9.9.9.9.W o.a.g.a.c.i.c.~ W 9.i.9.9.9._ y i.a.j.j.g.j.$.+...h h 9 h 8 , %X*X%X$Xv v `.`.H.`.`.G.A.P P G.A.P P P P P A.P J P , m 3X3Xc.3X,X3X2X2X3X,X2X2X>X>X-X-X-X>X>X>X>X=X,X,X-X-X>X2X>X>X>X>X,X2X2X-XW h.,Xg.,X,Xj.h.h.h.$.$.>X>X2X,Xc.,X2X>X,X>X>X>X2Xc.>X>Xj.2X-X-X-X>X-X-X-X-X-Xd.-X-X>X>X>X-X-X-X-X-X=X-X-X>X-Xd.-X-Xd.-X-Xd.>X-X-X2X2Xj.,Xc.,X2X,X:X:X..W -X2X,X2X3X2Xj.>X>X>X>X>X2Xd.y m 9XqXkXCXCXqXFXFXfX9X9X+XU  X} b 2 U } U b  .>X2X2X2X2X2X2X2X2X2X2X2X2X2X-X>X2X>X>X2X2X2X>X1X>X2Xl.>X>X-X-X>X,X-X2X>X>Xl.;Xf.t.r.| [ ] t e 7 2 % $ @ @ # O .   @ r G I XXDXKXPXLXLXLXLXLXLXLXLXLXLXLXLXLXLXLXLXLXLXLXKXLXLXKXKXLXLXKXLXKXLXLXHX} & , L Z.Z.Z.Z.Z.Z.Z.Z.D.D.D.D.D.D.D.D.F.D.D.F.F.D.D.D.D.D.D.D.D.D.F.F.F.F.D.D.R.D.F.F.D.F.D.D.F.F.P.F.F.F.F.F.F.F.P.P.P.I.P.P.P.P.F.P.F.F.P.I.I.I.P.I.I.I.I.I.I.I.I.U.I.U.U.U.Y.Y.T.U.T.U.U.U.I.I.U.U.U.U.Y.I.U.U.U.U.Y.U.T.T.U.U.U.U.U.T.T.T.T.T.T.T.T.T. XT.oXT. XT. XT. X X XT. X X Xr 1 H.`.`.`.`.'.]..X.X.X.X'. Xd } oXoX X XoX X X XoXT.oX X X XT.oX",
"# 5 ~ k.7.W 7.9.9.9.9.` 9.9.` 9.9.9.~ ~ a.c.a.j.i.a.{ 8.i.i.i.i.9._ u i.i.c.i.j.c.i.c.j.j.c.u.s.b L *X%X$X`.j P `.`.`.H.`.P G.`.G.C.G.P P A.P C.P J P C : r.3X3X3X2X2X,X2X,X2X2X>X2X>X>X-X-X-X-X>X:X>X-X-X>X>X-X>X>X>X>X,X2X>X2Xc.f.m h.j.,Xj.3X:Xh.h.h.#. .f.,X,Xc.2X>X>X>X>X>X,X2X>X2X>X>X>X>X2X-X-X-X-X=X-X-X-X;Xd.2X>X>X-X-X-X-X=X-X-X=X=X-Xd.-X-X-X-X-X>X,X>X>X-X>X,X3X,X3X,X3X,X:X:X .8 f.2X,X2X2X,X>X>X>X>X>X>X>X2X| [ 9XqXCXdXkXdXdXqX9X9XwX@XI } T.OXU : 2 U } e.;X-Xr. .| r.| } | f.,X2X>X>X2X>X2X2X2X2X2Xc.2X,X2X-X2X>Xl.=Xf.|  .[ ] ' t e 1 2 : @ @ + o o & & & - a d k s = = I +X%XOXCXLXLXLXLXLXLXLXLXLXLXLXLXLXLXLXLXLXLXLXLXLXLXLXLXLXKXLXKXKXKXLXLXKXKXLXLXKX&X2 > D Z.Z.Z.Z.Z.Z.Z.D.D.D.Z.D.D.D.D.D.D.D.D.D.D.D.D.D.D.Z.D.D.D.D.D.D.D.F.F.D.F.D.F.F.F.D.D.F.F.F.F.F.F.D.K.D.F.D.P.F.P.P.P.F.P.F.F.F.P.F.P.P.P.P.P.I.P.P.I.R.I.I.P.I.I.U.U.I.I.U.U.U.U.U.T.U.U.U.U.T.U.T.U.U.U.I.U.U.Y.U.U.U.U.U.U.T.U.T.U.T.U.T.T.T.T.T. XT. XT. XT. XT. XT. X XT.oX} * D `.`.'.`.`.].`..X.X.X'.$Xv b  X X X X XoXoXT.e. X X X X XoX X",
"r % # % W ~ 9.9.9.9.9.` 9.` 9.` 9.9.~ W g.i.i.c.c.i.u.i.i.i.i.i.a.9.u u.c.i.l.i.l.c.i.l.a.j.j.w.j %X*X%X$XK b `.`.`.`.H.G.`.P G.A.,.C.A.A.P P P P P P s r j.3X3X>X2X,Xc.j.2X>X,X,X-X,Xf.f.f.;Xf.f.f.f.-X-X>X-X>X>X,X>X>X2X>X2X,Xh.f.t ,X2X3X,X2X3X,X,Xg.=X{ $.l.2X,X2X>X>X>X2X2X2X>X>X,X2X>X>X>X>X>X-X-X-X-X-X-X-Xf.-X-X>X2X=X-X-X-X-X=X-X-X-X-X-X-X-X-X-X>X>X>X>X>X>X>X2Xj.,Xj.,Xj.,Xj.,Xd.' ' >Xj.>X>X>X>X,X>X>X>X>X>X2Xf.} 9XdXqXqXqXqX9X9X9X9X&X1X} } } OX XU a d I.oX} m ] e.oXoXoXe.} ' [ f.2X<X2X2X,X2X>X2Xf.f.f.r.{ ] m t 8 2 % : @ @ o o o & & * , a d k k F F D B.B.B.z a < ,.&X&X$XDXLXLXLXLXLXLXLXLXLXLXLXLXLXLXLXLXLXLXLXLXLXLXLXLXKXLXLXLXLXLXLXKXKXKXLXKXKXLXKXKX9X2 , Z.Z.Z.Z.Z.Z.D.Z.D.Z.D.Z.D.D.D.D.D.D.D.D.D.D.D.D.Z.Z.Z.D.D.D.D.D.D.D.D.D.D.D.D.F.D.F.F.F.P.F.F.F.F.D.Z.R.F.D.P.P.D.F.F.F.F.F.F.F.P.P.F.P.P.P.P.P.P.P.P.P.P.I.I.I.I.I.R.I.I.I.I.I.I.Y.Y.Y.U.T.T.U.T.U.T.U.I.I.U.Y.U.U.U.U.U.U.U.T.U.U.T.T.T.T.T.T.T.T. X XT.T.T. X X XT.T. X X XT. X8 d H.`.`.'.'.'..X.X].XX$X.X`.r }  X X X XT.e.oXoX . X X X X XoX",
"y y t 5 # $ 4 W ` 9.9.9.9.` ` 9.9.9.3.W a.j.i.i.j.j.i.i.i.a.i.i.i.i.W ~ i.k.i.c.i.l.i.j.u.j.i.n K *X*X$X.Xc G `.`.`.`.H.A.G.A.G.G.P P P P P P A.A.C.K * [ 3X2X2X,X>X>X>X>X-X-X-X-X;X-Xf.f.$.f.f.| f.| |  .| ;Xr.f.f.-X>X>X>X>X>X,X| ' ,Xj.3X2X,X,X,X,X:X,X{ | >X,X2X,X,X>X,X>X>X>X>X2Xj.>X>X,X>X2X>X,Xd.-X-X-X-X-X-X-X>X2X>X-X-X-X-X=X-X-X-X-X-X-X-X-X-X-X>X>X>X>X>X,X2X,X2X,X,Xg.3X,X,Xj.:Xd.| f.>X,X>X>X-Xd.-X2X>X-X>X2Xf.} 9X9XqX9X9X9XwX1X9X9X1X9X} I }  X XU.Z.j h } } n +X9XdXkX9X9X9X+Xn m f.s. .{ [ m n e 2 % : @ + + @ + & & > < f j k B F F F J B.B.B.C.C.C.S.C.B.x , 1 } dXdXXX9XLXLXLXLXLXLXLXLXLXLXLXLXLXLXLXLXLXLXLXLXLXLXLXLXLXLXLXLXLXKXLXLXKXLXLXKXKXKXKXLXKXKXPX&X: a U Z.D.Z.Z.Z.D.Z.Z.Z.D.D.D.D.Z.D.D.D.D.D.D.D.D.Z.D.D.D.D.D.D.F.D.D.D.D.D.D.D.F.D.D.F.P.F.F.F.F.D.D.F.F.D.F.F.F.F.F.F.F.F.F.F.F.P.F.F.P.P.P.P.P.F.P.P.P.P.P.I.I.I.I.I.I.P.I.I.I.P.I.I.U.T.T.T.T.T.T.T.T.U.I.Y.I.U.U.U.U.U.U.U.U.U.U.T.T.U.T.T.T.T.Y.T.T. X X XT.T. XT.T. X X X X XI > J `.`.`.'.'..X`.]..X$X.X'.v n  X X XoX X XT. X X X XoX X X X",
"y y y y t 5 $   5 _ 9.9.9.9.9.` 9.9.8.i i.c.i.l.a.a.i.i.i.g.i.a.i.i.! ~ i.j.c.i.i.j.c.i.l.i.r.d $X*X%X$XG.j `.`.`.`.`.H.].P `.P P G.P G.C.P A.P P A.c 2 f.>X2X,X>X>X-X-X-X-X-X=X=X=X=X=X=X;X=X;X-X>X-X=Xd.;X .~.| =X=X-X>X>X>X>X,X[ { 2X,X,X,Xj.h.,Xj.g.:X#.r.,X2X>Xl.2X>Xh.>X>X2X>X>X>X2X>X2X>X>X2X-X-X-X-X-X-X>X-X-X>X2X2X-X-Xd.-X-X=X-X-X-X=X-X-X-X-X-X-X2X>X2X>X,Xj.,X2X,Xj.,X,X,Xj.,X:X,X>X-X>X-X-X-X>X-X-X-X-X>Xj.,Xf.N 9X9X1X9X9X1X9X1X9X1XwX9X XN I  . XP.Z.Z.H U } U OX9XqX9XdX X;X9X+Xn : $ @ @ # O o & & - , s k k B F F S B.C.B.V.C.C.C.C.C.C.B.C.A.B.C.B.S c > q XXDXDX%X&XHXLXLXLXLXLXLXLXLXLXLXLXLXLXLXLXLXLXLXLXLXLXLXLXLXLXLXLXKXLXLXLXLXKXLXKXKXLXKXLXKXKXKXKXLXPX+X= a Z.Z.Z.Z.Z.D.Z.Z.Z.D.D.D.D.D.D.D.D.D.D.D.D.D.Z.Z.D.D.D.D.D.D.D.D.D.D.D.D.D.D.D.F.D.D.F.F.F.F.F.F.F.F.F.F.D.P.F.F.F.F.F.F.F.F.F.F.F.P.D.P.P.P.P.P.P.P.P.P.P.P.I.P.P.I.P.I.I.P.I.I.I.I.I.U.U.U.T.T.T.U.U.I.I.U.I.I.Y.U.U.U.U.U.U.U.U.U.T.T.T.T.T. X} T.T.T.T.T. XT. XT. XT. XT. XT.8 j `.`.`.`.`.]..X.X.X]..X$XG.j }  X XT.oX XoX X X XoX X X X X",
"u y y y y y u 7   5 9.9.` ` 9.9.9.9.9.W u.l.c.i.j.u.i.i.i.j.i.l.i.i.u.~ u.j.l.j.j.i.l.j.i.u.N A *X*X[.].v A .X`.`.`.`.G.`.G.P `.G.P G.A.P C.P P A.J < n ,X-X>X-X>X-X-X=X-X-X=Xd.=X=Xd.;Xd.OXt.~.W.t.|  . . .| t.#. .r.$.f.f.f.=X2X[ | >X>X,X>X>X,Xj.j.j.,Xf.f.-X>X-X-Xj.-X-X-X>X>X>X>X>X2X2X>X,X>X>Xh.2X-X-X-X2X>X-X>X>Xj.2X,X-X=X-X=X-X=X-X-X-X=X-X-X-Xh.2X2X,X>X>X>X>X>X2X2X3X3X,X,Xj.h.>X:X-X-X-X-X-X-X-X-X-X-Xh.2X>X,Xf.m 9X9X1X&X1X&X1XwX9XwX+X1XOXI } e.T.I.S.S.F.} I N } 1X9X9XqX+XoX9X9XoX8 > < s k z z F F J B.V.C.C.C.B.V.B.B.C.C.B.B.C.C.B.B.B.B.B.C.C.B.k - q XXSXHX&X%XZXLXLXLXLXLXLXLXLXLXLXLXLXLXLXLXLXLXLXLXLXLXLXLXLXLXLXLXLXLXLXLXKXLXLXLXLXLXLXKXKXLXLXKXKXKXLXHXHX+X: f Z.D.Z.D.Z.Z.D.Z.D.D.D.D.D.D.Z.D.Z.D.D.D.Z.Z.D.D.Z.Z.F.D.D.D.D.D.D.D.D.D.D.D.D.D.D.D.D.F.D.D.F.F.F.F.F.F.F.F.D.F.F.F.F.F.F.F.F.F.F.F.P.P.F.P.P.P.P.P.P.I.I.I.I.P.P.} I.P.P.I.I.I.I.I.I.U.U.U.T.T.T.U.I.I.U.I.I.U.Y.U.U.U.U.T.U.U.U.T.T.T.T.T.T.T.T.T.T.T.T.T.T. XT. X XT. XT. XU : A.'.`.].'.'.'..X.X.X.X$X.Xb n  XoX .oX X X X XoX . X X XoX",
"y y u y y y y y 5   Y 9.9.9.9.` 9.9.9.W u.i.i.l.j.i.l.i.i.c.j.i.i.g.u.w.u.u.j.u.k.j.i.i.i.r.b '.*X%X$XXXr P `.`.`.H.H.`.`.G.`.C.A.G.C.,.P P C.P P G *  .2X>X-X=Xf.-X-X-X=Xd.;X;X=X;X;X#.#.#.#. .W. . . . . . . .t. .t.f.d.f.d.-Xd.' $.j.>X,Xj.>X>X,X-X-X-X-Xf.-X-X=X;X;X;X-X-X-X-X>X>X>X,Xc.,Xc.>X>X>X>X>Xl.-X-X-X-X2X>X2X,X-X-X-X=X-X-X-X-X-X-X-Xd.-X>X-X-X>X>X>X>X,X2X,X2X2X2X,Xj.,X,X-X,Xd.-X-X-X=X-X-X-X-X>X>X2X-X2X,X| N 1X9XwX9X9X9X9X&X1X9X9X+X+X} I  . XI.Z.S.D.T.N } I 9X9XqX9XqX+X9XqXqXXXA C.V.V.C.C.C.B.C.B.V.B.B.C.B.B.B.B.A.B.B.B.B.B.B.A.B.B.B.B.B , < Y.SXKXdXXXdXPXLXLXLXLXLXLXLXLXLXLXLXLXLXLXLXLXLXLXLXLXLXLXLXLXLXLXLXLXLXLXLXLXLXLXLXLXKXKXLXLXLXKXKXKXKXKXKXKXHXHXXX& a D.Z.Z.D.Z.D.Z.Z.D.Z.D.D.D.Z.D.D.Z.D.D.Z.Z.Z.Z.D.D.D.D.D.D.D.Z.D.D.D.D.D.D.D.D.D.D.F.F.F.D.D.F.F.F.D.F.P.F.F.F.F.D.F.D.F.F.F.F.F.F.P.P.F.P.F.P.P.P.P.P.P.I.I.P.P.R.P.I.P.R.I.I.I.I.I.U.I.I.U.I.I.I.I.U.U.U.Y.U.U.U.U.T.U.U.U.T.T.U.T.T.T.Y.T.T.Y.T. XT.T.T.T.T.T.T.T. XT. X X} 1 V `.`.`.`.`.'.].'.]..X].$XG.j }  X X X XoX X X X X .oX X X",
"u y u y y y y y i 2 # ~ 9.9.9.9.9.9.0.W w.j.j.i.i.i.l.i.i.c.i.j.c.i.l.u.i.u.f.j.i.j.i.l.i.m V *X*X%XXXJ c '..X`.`.`.H.G.G.`.A.P `.C.P A.G.P P P G.j 8 ;X>X>X-X-X-X-X-X-X;Xd.;Xd.=Xd.;X#.;X~.;X~.;X#.;XOX;X~.;X;X=X=X-X>X-X2X-X>Xf.m d.,X-X-X>X=X=X;X=X-X=X-X-Xf.-X-X-X>X-X>Xj.,X>X>X>X>X>X,X>X2X>X>X>X>X>X>X-X>X2X-X>X2X,X2X>X=X=X-X-X>X>X>X-X-X-X-X-X>X2X2X>X>X>X>Xc.2X,Xc.,Xc.2X>X2X,X-X-X-X-X-X=X-X-X-X;X-X>X,X,X>X>X2Xt.U 9X1X&X1X9X1X9X9X9X9X1XwX+X} n T.T.U.D.S.D.U.U } } 9X9X9X9X9X9XoXqXdXqX} L C.V.V.V.C.C.B.B.B.B.B.B.B.B.B.B.B.B.V.V.B.B.B.C.A.C.F , > I ZXLXKX&X*XPXLXLXLXLXLXLXLXLXLXLXLXLXLXLXLXLXLXLXLXLXLXLXLXLXLXLXLXPXLXLXLXLXLXKXLXLXLXLXKXLXLXLXKXKXKXKXKXKXKXKXPXHXGXT.+ c Z.Z.Z.Z.D.D.Z.D.D.D.D.Z.D.Z.D.D.D.Z.Z.Z.D.Z.D.D.D.D.Z.Z.Z.Z.D.D.D.D.D.D.D.D.D.D.D.F.F.F.F.F.F.D.F.F.F.F.F.F.F.F.F.F.F.F.F.F.D.P.P.F.F.F.F.F.F.P.P.P.P.I.I.P.P.P.I.I.P.P.I.I.I.I.I.P.P.P.P.I.P.I.I.I.U.U.Y.U.U.Y.U.U.U.U.U.T.U.T.T.T.T.T.Y.T.T. XT.T.T. XT.T.T. XT.T.T. X XY.b 1 `.`.`.'.'.'.'.'..X.XXX.X.Xc N  X X Xe. XoX X X XT. X X X",
"y y y y y t y y y u $ 0 ` 9.9.` 9.9.9.~ [ i.j.u.k.i.u.i.i.u.l.i.i.j.i.i.u.j.i.i.c.i.j.i.s.b ].*X%X$X'.c K '.`.`.`.`.`.H.G.P `.P P P G.P P G.A.G.J ; m >X>X>X-X-X-X=X-X-X=X-Xd.;Xd.;X#.OX| ;X~.OX;X;X#.W.~.;XW.;X;X-X-X-X>X-X-Xh.[  .-Xf.;X=X-X-X-X-X-Xh.>X,X>X-X2X-X>X>X>X2X>X>X>X>X2X>X>X>X>X>X>X>X>X-X-X>X>X>X-X2X,Xc.3X2X>X-X=X-X>X>X-X>X>X:X2X>X-X>Xj.-X-X2X>X2X,X2X2X3X2X,X2X>X2Xh.-X-X,X,X-X-X-X=X=Xf. .{ [ m m e b > b 1XwX9XwX9X&X9X1XwXwX+X1X+XoXb N P.U.F.Z.F.I.} } N 1X9X1X9X9X9XOX+XkXdX&XI G.C.V.V.V.C.B.B.B.B.B.B.B.B.B.A.B.B.J B.B.B.B.C.F k - A &XPXLXSX%X&XKXLXLXLXLXLXLXLXLXLXLXLXLXLXLXLXLXLXLXLXLXLXLXLXLXLXLXLXLXLXLXLXLXLXLXLXLXLXLXLXLXKXKXKXKXKXKXKXKXKXKXPXHXHXPXGX} @ D D.Z.D.Z.D.D.Z.D.Z.D.Z.Z.D.Z.D.Z.D.D.Z.Z.Z.Z.Z.D.Z.Z.Z.Z.D.D.Z.Z.Z.D.Z.D.D.D.D.D.D.F.F.F.F.D.D.F.F.F.F.F.F.F.F.D.F.D.F.F.F.D.K.F.F.P.F.P.F.F.P.P.P.P.P.I.P.P.P.I.P.P.P.P.I.I.I.I.I.P.R.I.I.P.I.I.I.I.U.U.U.U.Y.U.T.U.U.U.U.T.T.T.U.T.T.T.T.T.T.T.T.T.T.T.T. XT. XT.T.T.T. XI * G `.`.`.`.].'..X.X.X].$X$XP 1 e. X X X X X X X XoXe. XoX",
"y W y y y y y y y u u $ 5 9.9.9.9.i.9._ W l.l.i.u.i.u.u.u.j.j.i.j.i.j.i.u.u.u.i.l.i.l.i.[ c %X*X$X$XP j `.`.]..X`.`.G.`.G.G.P `.G.P G.P A.P P G.C : t.,Xd.-X-X-X-X=X-X=X=X=X=X=X#.;X;X$.OX~.~.d.W.d.#.;XOX~.OX~.=X=X=X-X-X-X>Xd.| f.-X-X>X-X>X>X,X2X,X>X>X>X>X,X>X>X>X,X2X2X2X>X>X2X>X>X>X>X>X>X>X>X>X>X>X>X>X>Xc.>Xc.2X2X2X>X,X-X=X>X>X>X>X>X-X-X>Xh.>X>X2X>X>X,X3X2X2X3Xc.,X2X,X>X-X-Xf.t.| } } ] n r 2 * @ + O o o o & + v 9X1X1X9XwX9X9X1X9X+X9X+X+XOX} m 8 b D.D.P.T.}  X} +X9X9XwX9X9X1XOXCXqXCX} P C.B.B.V.C.B.C.B.B.B.B.B.B.B.A.V.B.V.V.V.V.V.V.s q *XPXLXLXDXXXDXLXLXLXLXLXLXLXLXLXLXLXLXLXLXLXLXLXLXLXLXLXLXLXLXLXLXLXLXLXLXLXLXLXLXLXLXLXLXLXKXKXKXLXKXLXLXKXKXKXKXKXKXKXHXHXKXHXAXb , D.Z.Z.Z.D.Z.Z.Z.D.D.Z.Z.Z.D.D.Z.Z.Z.Z.Z.Z.Z.Z.Z.Z.Z.Z.Z.Z.Z.Z.Z.Z.Z.Z.Z.Z.D.D.D.D.D.D.D.D.D.D.F.D.F.F.F.F.F.D.D.F.D.F.D.F.F.D.F.F.F.F.F.F.F.P.P.P.P.P.P.P.P.P.P.P.P.P.P.P.P.P.I.P.P.I.I.I.I.I.I.I.I.U.I.U.U.U.U.U.Y.U.U.U.U.T.T.U.T.T.T.Y.T.T. XT.T.T.T.T. XT.T.T. X XT. XT.r j J.`.'.`.`.`..X]..X.X.X.X.Xd I oX X .oX X X XoXoX X Xe.",
"u u y t y y u y y y y 5 $ ~ 9.9.9.9.a.9.y u.i.i.f.i.l.i.i.u.i.f.i.f.i.u.u.u.u.d.u.i.i.u.n A.*X%X$XXXv G .X.X`.`.`.`.`.G.`.`.G.C.G.G.P C.A.P G.P s b -X,X-X>X-X-X=Xf.;X-X-X=X=X;X;X#.;X#.#.#.OX#.;X#.OXW.#.d.d.d.=X;X-X=X-X>X>X-X>X>X,X>X>X-X>X>X2X,Xj.>X>X>X>X>X>X>X>X2X2X>X>X,X,Xj.2X,X>X2X>X2X2X2X>X>X>X>X>X,X>X2X2X3X3X,X,Xj.>X-X>X>X>X>X>X-X-X-X>X>X2X,X2X,X2Xj.l.h.d.f.| [ ' m e 8 2 : @ & O O X & & * , a d k z F F z N &X&X9X9X+X1X9X+XwX9X1X1X+XOXoXT.} h d h B }  X+X} OX0X9X1X9X1X9X XqXCXkX&XI A.C.V.B.B.B.B.B.B.B.B.B.B.B.B.B.B.A.B.V.V.F - K FXKXLXLXDX&XHXLXLXLXLXLXLXLXLXLXLXLXLXLXLXLXLXLXLXLXLXLXLXLXLXLXLXLXLXLXLXLXLXLXLXLXLXLXLXLXLXLXKXKXLXLXKXLXKXKXKXKXKXKXHXHXHXHXHXHX9X& x D.Z.Z.Z.Z.D.Z.Z.D.Z.Z.D.Z.D.Z.Z.Z.Z.Z.Z.Z.Z.Z.Z.Z.Z.Z.Z.Z.Z.Z.Z.Z.Z.Z.D.Z.D.Z.D.D.Z.D.D.D.D.D.D.D.D.D.D.D.D.D.F.F.F.F.F.F.F.D.F.F.F.P.F.F.F.P.P.P.P.P.P.P.P.P.F.P.} P.P.P.R.P.I.P.I.I.I.I.I.I.P.I.U.I.U.I.U.I.U.U.T.U.U.U.U.T.T.U.U.T.T.T.T.T.T.T.T.T.T.T. X X .T.T. XT. XU : P `.`.`.`..X`.XX.X]..X.X.XL r } T. X X X XT. X X X XT.",
"y y y y y t y t u u y u % 5 9.9.9.a.9.i.y u.i.j.i.u.u.u.u.l.f.i.u.l.j.u.u.u.i.u.u.j.i.r.b [.*X%X$XH.q `.'.`.`.`.`.G.`.`.P `.`.P G.P P P G.P G.J : } -X-X=X-X-X=X-X=Xd.;X;X=X;X=Xd.OX#.OXf.W.~.OXf.W.$.;Xd.;X~.;X=X=X;X-X-Xh.-X>X>X-X-X-X>X-X>X>X>X>X>X>X>X>X,Xj.>X>X>X2Xc.,X>X>X2X,X2X2X>X2X>X>X>X2X2X,X2X,X,Xc.2X2X3X,X2X>X-X>X>X>X>X,X>X>X>X,X>X>Xd.f.f.{ { ' m t 8 2 % = $ @ X o & & > > a d k z z F B.B.V.B.V.V.V.V.V.F n +X1X9X1X&X1X+X9X1X9X&XwX+X+XOXoX X} U b 8 } OX+X Xe.I I I e.wX9Xe.&XkXkXqX} H C.C.B.B.B.B.B.B.B.B.B.B.A.C.B.B.B.B.V.F s  XHXLXLXKX&X&XPXLXLXLXLXLXLXLXLXLXLXLXLXLXLXLXLXLXLXLXLXLXLXLXLXLXLXLXLXLXLXLXLXLXLXLXLXLXLXLXLXLXLXLXLXKXKXLXKXKXKXKXKXKXKXKXHXHXKXHXKXHXI * Z.Z.D.D.Z.D.D.Z.Z.Z.Z.Z.Z.D.Z.Z.Z.Z.Z.Z.Z.Z.Z.Z.Z.Z.Z.Z.Z.Z.Z.Z.Z.Z.Z.Z.Z.D.D.D.D.D.D.D.Z.D.D.D.D.D.D.D.D.F.D.F.D.D.D.D.D.F.D.F.F.F.F.P.P.P.P.P.P.P.P.F.P.P.P.P.P.R.P.P.P.P.P.I.I.R.P.I.I.P.I.I.I.U.I.U.U.U.U.U.U.U.U.U.U.T.T.U.Y.T.Y.T.T.T.T.T.T.T.T.T.T. XT.T.T.T. XT.T.U.2 v `.`.`.].]..X]..X'..X.X$X'.c I oXT. X X X X X X X .oX",
"t y y y u y y u y y u y r @ _ i.a.9.i.i.W w.i.f.u.j.j.u.i.u.i.i.u.i.u.j.u.u.u.u.l.i.l.m G *X*X%X$Xv A .X]..X.X`.`.`.P `.`.C.G.G.].A.].A.P G.G.v : r.>X-X-X-X=X-X-X-X-X=X=X=Xf.=Xd.#.;Xd.;X;X=XOXOX;XOX#.;Xd.;Xf.~.;Xf.-X>X>X-X>X>X-X-X2X-X>X-X,X2X2X>X>X>X>X>X>X>X2Xj.>X,X2X>X2X2X2X>X>X>X>X>X>X2X,X2X2X,Xc.2X2X2X,X2X>X>X>X-X>X>X>X2X,Xd.f.| [ ' e 8 2 $ @ @ O @ @ & - , g s k z z F B.B.B.B.B.V.V.V.V.B.B.V.B.V.V.V.V.F k A wX9X&XwX1XwX9X+XwX1XwX1X+X+XOXoX .T.R.oX XoXT.+XOXI A A A b N @X} OX9XdXqX1XA V.B.B.B.B.B.B.B.B.B.B.B.V.B.B.B.B.B.F , I KXLXLXKX&XdXPXKXLXLXLXLXLXLXLXLXLXLXLXLXLXLXLXLXLXLXLXLXLXLXPXLXLXLXLXLXLXLXLXLXLXLXLXLXLXLXLXLXLXKXLXKXLXLXKXLXKXLXLXKXKXKXKXHXHXHXHXHXHX9X: B D.D.Z.Z.Z.Z.D.D.Z.Z.Z.D.Z.Z.Z.Z.Z.Z.Z.Z.Z.Z.Z.Z.Z.Z.Z.Z.Z.Z.Z.Z.Z.Z.Z.D.Z.Z.Z.D.Z.D.D.D.Z.D.Z.D.D.D.D.D.F.D.D.D.F.D.F.D.D.F.F.F.F.F.F.F.P.P.F.P.P.P.F.F.P.P.P.P.P.P.P.P.P.P.P.P.P.I.I.I.I.I.P.I.I.I.U.U.U.U.U.U.U.I.U.U.T.T.U.U.T.Y.} T.Y.T.T.T. X XT.T.T. XT.T. XT.T.T. Xn < P `.`..X'.`.'.'.].XX.X.XXXG b }  X X X X .oX X X Xe.",
"y y u y u y t y y u y t u $ W a.i.i.9.a.! { j.u.u.u.j.u.u.u.u.u.i.u.u.u.u.u.u.u.u.i.u.b '.*X*X$X`.c P .X'.'.'.`.`.G.`.G.G.,.G.G.P G.,.G.P G.P d b >X>X>X-X-X-X=X-X=X-X-X=X=Xf.;X;X#.t.~.;X~.W.W.#.;Xd.f.d.;X#.;X;Xd.-X=X-X-X2X>X-X-Xh.-X-X>X-X-X>X>X>X>X>X>X>X>X>X2X>X,X>X>X>X2X>X2X>X>X,Xc.,X2X2X,X3X3X2X2X,X2X,X>X2X,X>X>X-Xf.r.| ] t 8 2 $ + O + = > g a d z z F F B.B.B.B.B.C.C.B.B.B.B.B.B.V.V.V.V.V.V.B.B.V.C.F d , V } +X+XwXwX9X+X9X9X+X&X1XwX+X+X+XOXOXoX XoXOXOX} OXOXP #X#X'.} } e. X} 9XqXdXqXI F B.B.B.B.B.B.B.B.B.B.B.B.B.B.B.C.B.s I IXLXKXLX&X&XLXLXLXLXLXLXLXLXLXLXLXLXLXLXLXLXLXLXLXLXLXLXLXLXLXLXLXLXLXLXLXLXLXLXLXLXLXLXLXLXLXLXLXLXLXLXLXKXKXLXLXKXLXLXKXKXKXKXJXHXHXHXHXHXKXI > K.D.D.Z.Z.Z.Z.Z.D.Z.Z.D.D.Z.Z.Z.Z.Z.Z.Z.Z.Z.Z.Z.S.Z.Z.Z.S.Z.Z.Z.Z.Z.Z.Z.Z.Z.Z.D.Z.Z.D.D.Z.Z.Z.D.D.D.Z.D.D.D.F.D.D.D.F.D.D.F.F.F.F.F.F.F.F.F.P.P.F.P.P.F.F.P.K.P.P.P.P.P.P.P.P.P.P.P.P.R.P.I.P.I.I.I.U.Y.I.I.U.U.I.U.U.U.Y.U.U.U.U.T.Y.T.T.T.T.T.T.T.T.T.T.T.T. XT.T.T.T. X} : S J.`.`.'.'.'..X]..XXX$X'.].d [  X X Xe. X XoXT.e. X",
"u y t y y y y y y y u y u 5 4 i.a.i.a.i.{ ! j.u.u.i.u.u.i.u.i.f.s.i.j.u.u.u.u.u.u.u.[ v $X*X%X$XG v .X.X].'.`.`.`.`.G.`.G.`.G.G.C.P G.A.G.P J ; } ,X-X-X-X-X-X-X-Xd.=X=X=X=X;Xd.#.;X;X;X#.OX;Xf.;X#.OX~.;Xd.;Xd.=X=X-X-X2X-Xd.-X>X-X-X-Xd.-X-Xh.>X,X>X>X>X>X>X-X>X>X2Xc.2X>X>X>X>X>X2X,X>X,X2X,X3X2X2X2Xc.,X>X,X>X>Xf.r.{ m 8 $ # + + + + * a d k F F V.V.V.C.C.B.V.V.B.B.B.B.B.B.B.B.B.B.B.B.B.V.V.V.V.V.V.V.V.V.k * 1 I +X+X+X9X+X+X1X+X1X9X1X+XwX+X1X1X+X+XOXoXOXOXOX+X} oX+XP '.'.'.} 9XOXT.} 9X9X9X9X Xs V.B.B.B.B.B.B.B.B.B.B.B.B.B.C.C.d G JXLXLXKX9X&XKXLXLXLXLXLXLXLXLXLXLXLXLXLXLXLXLXLXLXLXLXLXLXLXLXLXLXLXLXLXLXLXLXLXLXLXLXLXLXLXLXLXLXLXLXKXLXLXKXLXKXLXKXKXKXLXKXKXHXHXHXHXHXHXHXHXCX2 c D.D.Z.D.D.Z.D.D.D.Z.Z.Z.Z.C.Z.D.Z.Z.Z.Z.Z.Z.Z.Z.S.Z.Z.Z.Z.Z.Z.Z.Z.Z.Z.Z.Z.D.Z.Z.D.D.D.D.Z.D.D.Z.D.D.D.D.D.D.F.D.D.D.D.F.D.D.D.F.F.F.F.F.F.P.P.F.F.P.F.P.P.P.P.P.P.P.P.P.P.P.P.P.P.I.P.P.P.I.I.I.I.I.I.I.U.U.Y.I.U.U.I.U.U.U.U.T.U.T.T.U.Y.Y.T.T.T.T. XT.T.T.T.T.T.T.T.T.U.j d J.`.`.`.'.'.]..X.X]..X$X$XD b T.T. X X X X Xe.oXT.",
"y u y u u y u y t u u u u t % 8.g.a.i.a.u.W i.i.u.u.u.u.u.u.u.i.u.u.u.u.o.u.u.u.u.f.b P *X%X$X].b P $X'.'.'.`.`.].G.`.`.G.G.G.P G.G.G.G.G.G.v < f.>X>X-X-X-X=X-X-X;X;X=X;X=X;X=X;X~.=X~.;X$.;XW.;X#.~.=Xd.;Xd.;Xd.;X-X-X-X-X2X-X>X-X-X-X-X>X-X>X>X>X>X>X>X-X>X>X>X>X>X,X,X>X>X>X,X2X2X>X2X2X2X3X2X3Xc.h.f.| [ m t 7 $ O       + - s k z F V.V.V.C.C.C.C.B.B.B.B.B.B.B.B.B.B.B.B.B.B.B.B.B.B.B.B.V.V.V.V.V.V.V.F , 2 I XX9XwX1X1X1XwX+X9X+X1X+X+X+X1X+X+X+X+X+XOXOXOXOX1XwX} } +XG '.'.'.L +XOX} } 1X9XqXqX+Xc F B.B.B.B.B.B.B.B.B.B.B.C.B.A.z b ZXLXLXLXdX*XHXLXLXLXLXLXLXLXLXLXLXLXLXLXLXLXLXLXLXLXLXLXLXLXLXLXLXLXLXLXLXLXLXLXLXLXLXLXLXLXLXLXLXLXLXLXLXLXKXLXKXLXKXLXLXKXKXKXKXKXHXHXHXHXHXKXHXHXXX& D F.D.Z.Z.D.Z.Z.Z.Z.Z.Z.Z.Z.Z.Z.Z.Z.Z.Z.Z.Z.Z.Z.Z.Z.Z.Z.Z.Z.Z.Z.Z.Z.Z.Z.Z.Z.Z.Z.Z.D.Z.Z.Z.Z.Z.D.D.Z.D.D.D.D.D.D.D.D.D.D.K.D.D.F.D.F.F.F.F.F.F.F.F.F.F.P.F.F.P.P.P.P.P.P.P.P.P.P.P.I.P.P.I.I.I.I.I.I.I.I.I.I.U.I.I.U.U.U.U.U.U.T.U.T.T.U.U.T.T.T.T.T.U.T.T. X XT.T.T.T.T. XU 2 L `.`.`.`.`.'.]..X.X.X.X.X`.j }  X X X Xe. X XT. X",
"u y t y y t y y y t u u u u 2 W i.c.a.g.i.! w.j.u.j.u.u.u.d.u.u.u.u.u.u.u.u.u.u.u.{ l $X*X%X%XP v '.'..X].'.`.].G.`.`.G.`.P `.`.G.C.,.G.G.P < n -Xh.,Xf.-X-X=X=X=X-Xd.-X=X=Xd.d.;X;Xf.;Xd.;X;Xf.#.;Xd.;X;Xd.;X;Xd.=X-X-X-X>X>X-X-X-X-X-X-X-X>X>X>X>X>X>X>X-X-X>X>X>X>X2X2X>X>X>X,X3X2X2X>Xj.f.f.| ] t 2 # #     X o * a f k z V.V.V.V.C.V.C.V.V.V.V.C.C.B.B.B.B.B.B.B.B.B.B.B.B.B.B.B.B.B.B.B.B.V.V.V.V.V.V.V.k I  X0X9X9X9X9X+X+X+X1X+XwX+XwX+X9X+X+XwX+X;X+XOX;XOX+X+X+XoX} 9XL '.'..XD +XOXN I +X9X9X1X9XG k B.B.B.B.B.B.B.B.B.B.C.V.V.F 1 &XKXKXKXdX@XHXLXLXLXLXLXLXLXLXLXLXLXLXLXLXLXLXLXLXLXLXLXLXLXLXLXLXLXLXLXLXLXLXLXLXLXLXLXLXLXLXLXLXLXLXLXLXLXKXLXKXKXLXLXKXLXLXKXLXKXHXKXHXHXHXHXHXHXHXFXb f Z.Z.Z.Z.Z.Z.Z.Z.Z.Z.Z.Z.Z.Z.Z.Z.Z.Z.Z.Z.Z.Z.Z.Z.Z.Z.Z.Z.Z.Z.Z.Z.Z.Z.Z.Z.Z.D.Z.Z.D.Z.Z.D.D.D.D.D.Z.Z.D.D.D.D.D.D.D.D.D.D.D.F.F.D.D.F.F.P.P.P.F.P.F.F.F.F.P.P.F.P.P.P.P.P.P.P.P.P.P.P.P.I.I.I.I.I.I.I.U.Y.U.U.U.U.I.U.U.U.U.U.U.U.T.T.Y.U.T.Y.T.T.T.T.T.T.T.T.T.T.T. XT.T.} 1 b `.`.`..X].'.`..X.X.X.X.XXXA b t.T.T.t.T. XT.t.oX",
"t u u t u u y t u t u u 9 u 5 5 i.i.g.a.i.w.{ u.u.u.u.u.u.o.w.u.u.u.u.o.8.u.u.u.u.m A *X*X%X$Xv L .X]..X].'.'.`.`.`.G.`.G.`.G.G.`.A.G.G.G.K - } >X>X>X-X=X=X=X-X=X-X-X=X-X=X=X-X=X;X;Xd.;Xd.;Xf.;X#.f.;Xd.;Xd.=X=X-X-X-X,Xh.-X>X>X>X-X-X-X-X-X-X,X>X>Xl.,X>X>X,X,X>X>X,X>X,X>Xh.f.{ ] m 8 2 % $ .   X & - k z z F L.B.B.B.B.B.B.B.B.B.B.B.B.B.B.B.B.B.B.B.B.B.B.B.B.B.B.B.B.B.B.B.B.B.B.B.B.B.B.B.B.B.B.V.C.z } 9X9X9X9X9X9X9X+X+XwX+X1X+X+X+X1X+X+X+X+X1XOX+X;XOX+X1X+X+XOX} wXI H.'.'.J OX1Xm I OX9X9X9X9XU.s V.V.V.V.V.B.B.B.B.B.J V.V.s XXHXKXKXHXdXJXKXKXKXLXLXLXLXLXLXLXLXLXLXLXLXLXLXLXLXLXLXLXLXLXLXLXLXLXLXLXLXLXLXLXLXKXLXLXLXLXLXLXLXLXLXLXLXLXLXKXLXLXLXKXLXLXLXKXKXKXHXKXHXHXHXJXHXHXHXHX&X@ V D.Z.Z.Z.Z.Z.B.Z.Z.Z.Z.Z.Z.Z.Z.Z.Z.Z.Z.Z.Z.Z.Z.Z.Z.Z.Z.Z.Z.S.Z.Z.Z.Z.Z.Z.Z.Z.D.Z.Z.Z.Z.D.D.D.Z.D.D.D.D.D.D.D.D.Z.D.D.F.F.F.F.D.D.F.F.F.F.P.F.F.F.F.F.P.F.P.P.F.P.F.P.P.P.P.P.P.P.P.P.P.P.P.P.R.P.I.I.U.I.U.I.U.Y.U.U.U.U.U.U.U.T.U.T.U.Y.T.T.T.Y.T.T.T.Y.T.T.T.T.T.T. XT.b 1 G.`.`.'.`..X`..X.X.X]..X$X`.q }  XT.oX X X XT.oX",
"u y u t y u t y W u u u t u t $ w.i.i.j.j.u.~ u.u.o.{ u._ u.u.o.{ u.u.u.o.u.u.o.| r `.*X*X$X,.c '..X.X.X.X'.`.`.`.G.`.G.].A.P `.P `.G.,.`.k 1 f.-X>X>X-X-X-X-X-X-X=X-X-Xd.;X;Xd.;Xd.=X-Xd.;X;XW.d.;X~.;X;Xd.;Xd.;Xd.-X-X>X>Xl.,X>X-X-X-X-X=X-X>X,X,X,Xh.d.f.| [ [ { ] ' ' n 8 2 @       + = & > d B F V.V.V.C.V.V.V.B.B.B.B.B.B.B.B.B.B.B.B.B.B.B.B.B.B.B.B.B.B.B.B.B.B.B.B.B.B.B.B.B.B.B.B.B.B.B.B.B.C.V.C.k oX1XqX9XqX0X9X;X1X+X+X+X;X+XwXOX+X;X1XOX+X+X+XOXOXOXOXOXOX+XOXI +XI A.[.$XJ  X+XU } OXwX9X1X9X Xd F V.V.V.C.B.B.B.B.B.V.V.k G HXKXKXKXPXHXKXKXKXKXKXKXKXLXLXLXKXKXLXLXKXLXLXLXLXLXLXLXLXLXLXLXLXKXLXLXLXLXLXLXLXLXLXLXLXKXLXLXLXKXKXLXKXKXKXKXLXKXKXKXKXKXLXPXKXLXLXHXHXHXHXHXHXHXHXHXHXJXI : L Z.Z.Z.S.Z.Z.Z.Z.Z.Z.Z.Z.Z.Z.Z.Z.S.S.S.Z.Z.Z.Z.Z.Z.Z.Z.Z.Z.Z.Z.Z.Z.Z.Z.Z.Z.D.Z.Z.Z.Z.Z.D.D.Z.D.D.Z.D.D.D.D.D.D.D.D.D.D.D.D.F.D.D.F.F.F.F.F.P.F.F.F.F.F.P.P.U P.P.P.P.P.P.P.P.P.P.P.P.P.P.P.P.P.I.I.I.U.I.Y.U.U.U.U.U.U.U.U.U.U.U.U.T.U.U.T.T.T.T.Y.T.} T.T.T.T.T.T. XT.} : A `.`.`.].`..X].`..XXX.X.X$Xx n  X X . X Xe. Xt.",
"t t u W u u u u u t u 9 y u 9 $ y i.i.c.i.i.u.u.u.o.w.u.o.w.~ u.o.8.{ u.w.u._ u.[ v %X*X$X$XG G $X.XXX.X].'.'.`.`.`.G.`.A.`.P C.G.`.P C.G.< m >X-X>X>X-X-X-X=X-X-X-Xd.-X-X=X=X=Xd.;Xd.d.=X-X=X;X;X=X=X;X#.d.=X;X=X-X=X-X>X2X2X>X2X-X-X,X:X=Xd.f.| [ m e 7 : $ .         . . + * < k z F F V.V.V.B.C.C.B.V.V.V.V.B.B.B.B.B.B.B.B.B.B.B.B.B.B.B.B.B.B.B.B.B.B.B.B.B.B.B.B.B.B.B.B.B.B.B.B.B.B.B.B.B.B.V.V.V.V.d oX9X9X1X9X9X1X+X+X@X+X+XOXOX;X+XOXOX+X;X+XOXOXOXOXOXOXOXOXOX+X] +X} J [.'.P } +XN } oX@X1XwX9X+Xx F C.V.V.B.B.B.B.V.V.V.F l DXKXHXHXKXHXKXKXKXKXKXKXKXKXKXKXLXKXLXLXKXLXLXLXLXLXLXLXLXLXLXLXLXLXLXLXLXLXLXKXLXLXLXKXLXLXLXKXdXXXI &XKXKXKXKXKXLXLXKXLXKXHXHXHXKXKXLXLXHXHXJXHXJXHXHXHXHXHXDX1 c D.Z.Z.S.Z.Z.Z.Z.Z.Z.Z.Z.Z.Z.Z.K.B.S.B.Z.Z.Z.B.Z.Z.Z.Z.Z.Z.Z.Z.Z.Z.Z.Z.Z.Z.Z.Z.Z.Z.Z.Z.D.D.Z.Z.Z.D.D.D.D.D.D.D.D.D.D.F.D.F.D.F.F.F.F.F.F.F.F.F.P.F.F.P.F.P.P.P.P.P.P.P.F.P.P.P.P.P.P.P.P.P.P.I.I.U.I.U.I.U.U.I.U.U.U.I.U.U.U.U.U.U.T.U.T.Y.Y.T.T. XT.Y.T.T.T.T.T.T.T.T.T.h d H.J.`.`..X`..X.X]..X.X.X$XG.1 } T.T. XT. X XT.",
"t u u t u t t W u u u u t t u 5 4 l.i.i.j.i.f.u.u.u.u.o.u.o.8.{ w.o.8.u.o.u.w.u.n P *X*X$X`.b `..X].'.]..X'.].`.`.G.].G.`.G.G.`.`.A.G.`.J , | >X>X>X>X-X=X-X-X-X-X-X-X-X=X-X-X;X;Xd.=X;X;Xd.;Xd.=X=X=X=XOXd.;Xd.;X=X-X>X2X3X,X-Xd.f.{ ' m 8 2 = @ @ + + & - a k k k z k z F V.V.C.C.V.V.V.V.V.V.B.B.B.B.V.V.V.V.B.B.B.B.B.B.B.B.B.B.B.B.B.B.B.B.B.B.B.B.B.B.B.B.B.B.B.B.B.B.B.B.B.B.B.C.B.B.B.B.B.B.V.V.V.V.d oXwX1X9X9XwX+XOX+X+XOX+X+XOX+X;XOXOXOXOXOXOXOXOXOXOXoXt.OXOXOXI OXe.G .X'.P } +XI I } OX+X+X1X&XI z C.V.V.B.B.B.B.B.V.V.1 oXKXHXKXKXKXHXKXHXKXHXKXKXKXKXLXLXKXKXLXLXKXLXLXLXKXLXLXLXLXLXLXLXLXLXLXLXLXLXKXKXKXKXKXLXKXDX XM b I @XFXKXLXLXKXLXKXLXLXLXLXKXKXHXGXFX9XGXKXKXHXHXHXHXHXJXHXJXJXOX: D Z.Z.Z.Z.Z.Z.B.Z.B.Z.Z.Z.S.Z.S.Z.Z.Z.Z.Z.Z.Z.Z.S.Z.Z.Z.Z.S.Z.Z.Z.Z.Z.Z.Z.Z.D.Z.Z.D.Z.Z.Z.D.Z.D.Z.D.D.D.D.D.D.D.D.D.D.D.D.F.D.D.D.F.F.F.F.F.F.P.F.F.F.P.F.F.P.F.F.F.P.F.P.P.P.P.P.P.P.P.P.P.I.I.I.I.U.I.I.U.U.U.U.U.U.Y.U.U.U.T.Y.U.U.U.U.U.T.T.T.T.T.T.T. XT.T.T.T.T.T.I : P `.`.`.`.`.].`.XX'..X.X.X'.c N oXe.e.e. Xe. X",
"t u u t t u u t u u t u u e u 5 $ u.i.l.i.j.u.u.u.u.w.u.~ w._ u.u._ u.o.o.w.u.{ l .X*X%X[.,.v $X.X.X.X]..X`.`.`.`.G.`.`.`.G.`.G.G.`.G.H.v 8 f.,X>X,Xc.>X-X=X>Xl.>X>Xd.-X-X-X-X=X=X=X=X=Xd.=X=X-X=X=X-X=X=X=X=X=Xd.f.f.|  .] m 8 2 = @ + O & & - a d B F F B.B.B.V.V.C.C.V.V.V.V.B.B.B.B.V.V.C.V.B.B.B.B.B.B.B.B.B.B.B.B.B.B.B.B.B.B.B.B.B.C.B.B.B.B.B.B.B.C.B.B.B.B.B.B.B.B.B.B.B.B.B.B.B.B.B.B.B.B.B.B.B.B.d  X9X9X9XwX;XOXOX;XOX+XOXOXOXOXOXOXOXOXOXOXOXOXOXoXoXoXT.t.OXOX' oXe.A '.'.G.I 9XN N } ;XOX+X+X+X} z C.B.B.B.B.B.B.B.V.z A JXKXKXKXHXKXHXKXHXKXKXKXKXKXKXKXKXKXLXKXKXLXLXLXLXLXLXLXLXLXLXLXLXLXLXLXLXLXKXLXLXLXKXGX+XU b I &XFXLXLXLXLXLXLXKXLXKXLXKXLXKXLXKXKXKXHX@Xv e.dXHXHXHXHXHXHXJXHXJXGXn j Z.Z.Z.S.Z.S.Z.Z.Z.Z.Z.Z.Z.Z.Z.Z.Z.B.Z.Z.Z.Z.Z.Z.Z.Z.Z.Z.B.Z.Z.Z.Z.Z.Z.Z.Z.Z.Z.Z.Z.D.Z.D.Z.Z.D.Z.Z.D.D.D.D.D.D.D.D.D.D.D.D.F.F.F.D.F.F.D.F.P.F.F.F.F.P.P.F.P.P.F.P.P.F.P.F.P.P.P.P.P.P.P.P.P.I.I.I.I.I.U.U.U.U.U.U.U.U.U.U.T.U.T.T.U.T.T.Y.U.U.T.T.T.T.T.T.T.T.T.T.T.T.} 1 c H.`.`.`..X.X.X`.]..XXX].$XK b } T. X Xe. X X",
"u 9 u u y t W u u u u t 9 u u 9 $ ! i.j.i.u.i.u.o.u.o.~ u.o.u.o.{ u.{ 8.u._ u.N C %X*X%XXXv G.'..X'.XX.X`.'.].'.`.`.G.`.G.`.G.P G.G.G.G.< N >X>X>X>X,X>X>X-X-Xh.>X-X,X-X-X-X-X-X;X=X;X;X=X;X=X=X=X;X;X . .} ' h 8 8 : & @ o o & * , f d B F V.C.B.C.C.C.C.B.B.B.V.V.V.V.V.V.V.V.B.B.B.B.V.V.V.V.B.B.B.B.B.B.B.B.B.B.B.B.B.B.B.B.B.B.B.B.B.B.B.B.B.B.B.B.B.B.B.B.B.B.B.B.B.B.B.B.B.B.B.B.B.B.B.B.B.B.B.B.B.V.s e.1X1XwX@XOXOXOXOXOX;X+XOXOXOXOXOXOXoX .oXT.oX .oXT.OXT.oXoXOX}  Xe.A '.'.G.U OXI m T.T.OXOXOX+XY.B V.B.B.B.B.B.C.B.V.s &XKXHXHXHXHXHXKXHXHXHXKXHXKXKXHXKXKXKXKXLXLXLXLXLXLXKXLXKXLXLXLXLXLXLXLXLXKXLXKXLXKXdXe.b M XXZXKXLXLXLXLXLXLXLXLXLXKXLXKXLXKXLXKXKXLXLXKXPX9XI b I +XFXHXJXHXJXJXJXGX+X: S Z.Z.S.Z.Z.B.Z.B.Z.B.Z.Z.Z.Z.Z.Z.Z.Z.Z.Z.Z.Z.B.B.Z.Z.Z.Z.Z.Z.Z.Z.Z.Z.D.Z.D.Z.Z.Z.Z.D.Z.Z.D.D.D.D.D.D.D.D.D.D.D.F.D.F.D.D.D.D.F.D.F.F.F.F.F.P.F.P.P.F.F.F.F.P.F.F.P.P.P.P.P.F.P.P.P.F.P.P.P.P.I.I.I.I.I.I.I.U.U.U.U.U.U.U.U.T.U.U.Y.U.T.U.T.T.Y.Y.T.T.Y.T.T.T.T.T. XT.T.n < G.`.`.`.`.`.`..X.X.X'.$XXX].j I oX}  X X X X",
"9 u u u u u t t u u u u u u t 9 % ! i.i.k.u.u.u.u.u.o.u.w.u.w._ { 8.{ u.o.w.r.b G.*X*X%X`.v .X$X.XXX.X`.].`.`.`.`.`.G.].`.G.`.`.`.P G.K > r.2X2X>X>X2X>X-X-X-X,X>X-X>X-X-X-X-X-X-X=Xd.|  . .' m 9 8 2 = & o X X & & * - d k z F H B.C.A.C.B.C.C.C.B.B.C.C.B.B.B.V.V.V.V.V.V.V.V.B.B.B.B.B.C.C.B.B.B.B.B.C.B.B.B.B.B.B.B.B.B.B.B.B.B.B.B.B.B.B.B.B.B.B.B.B.B.B.B.B.B.B.B.B.B.B.B.B.B.B.C.B.B.B.B.B.B.B.B.B.V.d e.+X;XOXOXOXOXOXOXOXOXOXOXOXt.oXt.oXOXoX XOXoX .OXW. XoXT.T.OXI }  XA `.`.H.N +X} m  XoXoXOXOX+X Xk V.B.B.B.B.B.B.C.x n JXHXKXKXHXHXHXHXHXKXHXKXKXHXKXKXKXKXKXKXKXLXKXKXLXLXLXLXLXLXLXLXLXLXLXLXKXLXLXHX&XI b I 9XJXKXKXKXKXLXLXLXLXLXLXKXLXLXLXKXLXKXKXLXLXLXKXKXLXLXKXdXI b n &XJXJXJXJXGXJXFXb f Z.Z.S.S.S.B.Z.Z.Z.Z.Z.Z.Z.Z.Z.Z.Z.Z.Z.Z.Z.Z.Z.Z.Z.Z.Z.Z.Z.Z.S.Z.D.Z.Z.D.Z.Z.Z.Z.Z.Z.Z.Z.Z.Z.D.D.Z.D.D.D.D.D.D.D.D.D.D.F.D.D.D.F.D.F.F.D.F.F.F.F.F.F.P.F.P.P.F.P.P.P.F.F.P.P.P.F.P.P.F.P.P.P.I.P.I.I.I.I.U.U.U.U.U.U.U.U.T.U.U.U.T.T.U.T.U.U.T.T.T.Y.T.T.T.T.T.T.T. XT.} 2 A `.`.`.`.`.]..X.X.X'..X$X.XA b  X XT.e. X .",
"u 9 5 4 4 $ $ # # # % 5 u 9 t e % ~ j.u.i.u.j.u.u.u.u.u.o._ { u.u._ u.8.o.u.} c $X*X*X$Xv P .XXX$X]..X.X.X.X'.'.`.`.`.A.`.`.C.`.G.`.H.z 8 -X2X,X2X>X>X>X,X>X>X=X>X-X>X>X>Xf.f...' n 8 % 3 @ + o + & & , a d k x F L.V.V.V.C.C.C.B.B.B.B.B.B.V.C.C.B.B.B.B.C.C.B.V.V.V.V.V.V.V.V.B.B.B.B.B.V.B.B.B.B.B.B.B.B.B.B.B.B.B.B.B.B.B.B.B.B.B.B.B.B.B.B.B.B.B.B.B.B.B.B.B.B.B.B.B.C.B.B.B.B.B.B.B.B.B.B.B.B.B.B.C.C.j e.+XOX@XOXOXoXoXOXOXOXOXt.OXOXT.OXT.T.oX XT. X XT. XT.T.T.T. X} } e.v H.`.H.A ;X} b oXT.oXt.OXOX .z V.B.B.B.B.B.B.B.s *XKXHXHXHXHXKXHXHXKXHXHXHXKXHXKXHXKXKXKXKXKXKXLXKXLXLXKXLXLXLXLXLXLXLXKXLXKXIX+Xn M XXSXLXKXKXKXKXKXKXLXLXKXLXLXLXKXLXKXLXKXKXLXLXLXLXKXLXLXKXLXLXLXHXdXe.1 N 9XGXJXFXJXJX+X2 U S.Z.Z.S.Z.Z.Z.Z.Z.Z.Z.B.Z.B.B.Z.Z.B.Z.Z.Z.Z.Z.Z.Z.Z.Z.Z.Z.Z.Z.Z.Z.Z.Z.D.Z.Z.Z.D.Z.Z.Z.Z.Z.D.D.D.Z.D.D.D.D.D.D.D.D.D.D.D.D.F.D.F.F.F.D.F.D.F.F.F.F.F.F.F.F.F.F.P.F.P.P.F.P.F.P.P.P.P.P.P.P.I.I.P.I.I.I.U.I.U.U.U.U.I.U.U.U.U.U.T.U.T.U.Y.T.T.T.T.T. XT.T.T.T.T.T.T.T.U.b 1 H.H..X].`.`..X]..X$X]..X$XY.8 I  X .oXe.T.",
"$ # # @ % 2 8 e b b 7 % t 2 $ $ 8 s.j.i.u.j.i.u.u.u.o.u.u.o.u.u.u.{ 8.{ 8.o.N H *X%X%X`.v .X$X$X.X.X.X.X`..X`.`.`.`.`.`.`.G.`.G.`.G.P < ' ,X<X2X2X2X>X2X3X,X-X,X-Xt. .] n 8 = + . o & - a f k z B.F B.B.B.B.B.B.C.B.B.B.B.B.B.B.B.B.B.B.B.B.B.B.B.B.B.B.B.B.B.B.B.B.B.B.B.B.B.B.B.B.B.B.B.B.B.B.B.B.B.B.B.B.B.B.B.B.B.B.B.B.B.B.B.B.B.B.B.B.B.B.B.B.B.B.B.B.B.B.B.B.B.B.B.B.B.B.B.B.B.B.B.B.B.B.B.B.B.B.B.B.f  X1XOXOXOXOXoXt.OXOXoXoXoXoXoXT.oX XT.oXT.T.T.T.T.T.T.T.T.T.OX} }  XV G.J.H.A oXe.n  XT.T.T.oXOX Xk B.V.V.V.V.V.V.F A FXHXHXHXHXHXHXHXHXHXHXHXKXHXKXKXKXHXKXKXKXKXLXKXLXKXLXLXLXLXLXLXKXKXKXLXIX@Xn I +XHXKXKXKXKXKXKXKXHXLXLXLXLXLXKXKXKXLXKXLXLXLXLXKXKXLXKXKXKXLXKXLXKXJXJXJXdXI q e.GXJXFXJXFXj B S.S.K.B.Z.B.Z.Z.Z.Z.S.S.B.K.Z.Z.B.Z.Z.Z.B.Z.Z.Z.Z.Z.Z.Z.Z.S.Z.Z.Z.Z.Z.D.Z.Z.Z.Z.Z.D.Z.Z.D.D.Z.Z.D.D.D.Z.D.D.D.D.D.D.D.D.F.D.D.F.F.D.D.D.F.F.F.F.F.F.F.P.F.P.P.P.P.P.F.P.F.P.P.P.F.P.P.F.P.P.P.P.P.P.I.I.I.U.I.U.U.U.U.U.U.U.U.U.T.U.T.Y.U.T. XY.T.T.T.T.T.T.T.T. XT.T.} : L `.`.`.'.`.'.]..X'.XX].$X.Xv n e. X X XT.",
"4 u e.;X8XqXgXgX7X7X8X-X;X[ e e % 8 e.l.j.u.u.f.u.u.u.u.o.w.w._ o.u.u.u.u.w.c '.*X%X$XG K ].$X$X.X]..X]..X`.`.`.`.`.`.H.G.`.G.`.G.`.K < t.3X2X2X,X>X;Xf. .} N b 2 = + X o & > f k F L.V.V.V.V.V.C.C.B.B.B.B.B.B.B.B.B.B.B.B.B.B.B.B.B.B.B.B.B.B.B.B.B.B.B.B.B.B.B.B.B.B.B.B.B.B.B.B.B.B.B.B.B.B.B.B.B.B.B.B.B.B.B.B.B.B.B.B.B.B.B.B.B.B.B.B.B.B.B.C.B.B.B.B.B.B.B.B.B.B.B.B.B.B.B.B.B.B.B.B.B.B.B.B.B.B.B.B.d e.OXOXOXOXoX .oXOXT.t.e.oXe. XT. .T.T. .T.T.T.T.T.T.U.U.U.T.T.} }  Xb A.H.J.n e.e.b  XW.OXT.oXOX} x V.V.V.V.V.V.V.d OXHXHXHXHXHXHXHXJXHXHXJXHXHXHXHXHXHXKXKXKXHXKXKXKXKXLXLXLXKXLXLXLXKXKXHX+XA I dXHXPXKXPXKXKXKXKXHXKXKXLXLXLXKXLXLXKXLXKXLXKXLXLXLXLXLXKXLXLXLXKXLXKXKXHXJXJXJXJXoXq I FXJXGXJX} , S.Z.B.Z.Z.Z.Z.Z.B.S.S.S.Z.B.Z.Z.Z.Z.Z.Z.Z.Z.Z.Z.Z.Z.Z.Z.Z.Z.Z.D.Z.D.Z.Z.Z.Z.Z.Z.Z.Z.D.Z.Z.Z.D.Z.Z.D.D.Z.D.D.D.D.D.D.D.F.D.F.D.D.D.D.F.D.F.D.D.F.P.F.F.F.P.P.F.F.P.P.P.F.P.P.P.P.P.F.P.F.P.P.P.P.P.R.I.I.I.I.I.U.U.U.U.U.U.R.T.U.T.U.U.T.T.T.Y.T.T.T. XT.T.T.T.T.T.T.T.T.8 k `.`.`.'.`.`.'.'.]..X.X.XXXH.d }  X XoXe.",
"yXyXyXgXgXgXgXgXgXkXgXgXgXgX7XgX1Xm : n t.j.u.u.u.u.o.u.u.w.u.o.u.u.u.o.u.[ V *X*X$X.Xb `.#XXX]..X.X.X.X]..X].`.`.`.`.H.G.`.`.`.H.`.v 8 l.f.} I n b 1 > & o X X & , a k z B.V.B.V.V.V.B.V.V.V.V.B.B.B.B.B.B.B.B.B.B.B.B.B.B.B.B.B.B.B.B.B.B.B.B.B.B.B.B.B.B.B.B.B.B.B.B.B.B.B.B.B.B.B.B.B.B.B.B.B.B.B.B.B.B.B.B.B.B.B.B.B.B.B.B.B.B.B.B.B.B.B.B.C.B.B.B.B.B.B.B.B.B.B.B.B.B.B.B.B.B.B.B.B.B.B.B.B.B.B.B.B.B.d e.+XOXOXOX XoXT.T.oXoXT. XT.T.T.T.T.T.T.R.T.T.T.T.} U.R.} T.T.} } oXb L H.H.A  XT.m } T.T.oXT.oXT.B V.V.V.V.V.V.F c CXJXHXHXHXJXJXJXHXHXJXJXHXHXHXHXHXKXHXKXHXKXHXKXKXKXKXKXLXKXKXKXKXKXdXI I &XHXKXKXKXKXKXKXKXKXKXKXHXHXKXLXKXLXLXLXKXLXLXLXKXKXKXLXLXKXLXLXKXLXLXLXKXKXJXJXJXJXFXJX&Xb n dXJXJXdX1 B Z.Z.Z.Z.Z.Z.B.Z.S.S.S.Z.Z.B.Z.Z.Z.Z.Z.Z.Z.Z.Z.Z.Z.Z.Z.Z.Z.Z.D.D.D.Z.Z.Z.D.Z.Z.Z.Z.Z.D.Z.Z.K.Z.Z.D.D.D.D.D.D.D.D.D.D.D.D.D.D.D.D.F.F.D.D.D.F.P.P.F.F.P.F.F.F.P.F.P.F.F.F.P.P.P.P.K.P.P.P.P.I.P.P.P.I.I.I.I.I.I.I.U.U.U.U.U.U.U.U.U.T.Y.T.Y.U.T.T.T.T.T.T.T.T.T.T.T.T.T.A : G.`.`.`.'.].'..X.X.X.X$X$X.Xb A  X X X X",
"gXgXgXgXkXgXgXgXgXgXgXgXkXgXgXkXgX0Xt.8 % i o.i.u.u.u.u.u.u.o.u.o.u.w.u.r.b G.*X*X$XP G $XXX$X$X$XXX]..X.X`..X'.`.`.H.`.`.`.G.G.`.P , 2 9 : + X X O & & g f d z F V.V.V.V.V.B.B.V.V.V.V.V.V.V.V.B.B.B.B.B.B.B.B.B.B.B.B.C.B.B.B.B.B.B.B.B.B.B.B.B.B.B.B.B.B.B.B.B.B.B.B.B.B.B.B.B.B.B.B.B.B.B.B.B.B.B.B.B.B.B.B.C.B.B.B.B.B.B.B.B.B.B.B.B.B.B.B.B.B.B.B.B.B.B.B.B.B.B.B.B.C.B.B.B.B.B.B.B.B.B.B.B.B.B.B.B.B.d e.OXOX .OX XT.T.OXT.T.T.W.T.T.T.T.U.U.U.P.R.T.U.U.R.R.I.I.U.T.T.T. Xb L G.J.H } oXU P.T.T.T.t.OX} B V.V.V.V.V.C.k I HXHXHXJXJXJXHXJXJXJXJXJXHXJXHXHXKXHXKXKXHXKXKXHXKXKXKXKXKXKXKXLXKX@XI &XHXKXKXHXKXHXHXHXHXKXHXHXKXKXKXKXKXLXKXLXLXLXKXKXLXLXLXLXKXLXLXKXKXLXKXLXKXKXKXHXJXJXJXJXJXJXdXG r &XFXFXI a S.S.S.Z.Z.Z.Z.Z.B.Z.S.Z.B.Z.Z.B.Z.Z.Z.B.Z.B.Z.Z.S.Z.Z.Z.Z.Z.D.Z.D.Z.D.Z.Z.Z.Z.Z.Z.Z.Z.D.D.Z.D.Z.Z.D.Z.D.D.F.D.D.D.D.D.D.D.F.D.D.D.D.D.D.F.D.F.F.F.F.F.F.F.F.F.F.P.F.P.P.P.P.F.P.P.P.F.P.P.P.P.P.P.I.I.P.I.I.P.R.U.I.U.U.U.U.U.U.U.U.T.U.T.T.T.T.T.T.Y.Y.T.T. XT.T.T.R.} 2 v `.`.`.`.`.'.'.].'.]..X'.$XP 8 }  X X .",
"gXgXgXgXgXhXgXgXgXgXgXgXgXgXgXgXgXgXgX7X} 2 % ! u.u.u.u.u.u.u.o.u.o.u.u.w.v $X*X%X].G `.$X].$X].]..X.X.X]..X`.`.`.`.H.`.H.`.G.`.H.G O 3 = - < j k z L.B.B.B.B.B.V.V.V.V.B.B.B.B.B.B.B.B.V.V.V.V.B.B.B.B.B.B.B.B.B.B.B.B.B.B.B.B.B.B.B.B.B.B.B.B.C.B.B.B.B.B.B.B.B.B.B.B.B.B.B.B.B.B.B.B.B.B.B.B.B.B.B.B.B.B.B.B.B.B.B.B.B.B.B.B.B.B.B.C.B.B.B.B.B.B.B.B.B.B.B.B.B.B.B.B.B.B.B.B.B.B.B.B.B.B.B.B.B.B.B.B.B.B.d e.OXt.T.T. XT.T.T.T.T.T.T.T.T.T.T.R.P.I.} R.I.P.R.I.I.P.I.U.U.T.}  Xm H G.H.H } XXI } T.T.T. XOX} x B.V.V.V.V.V.s +XKXJXJXJXHXJXJXJXJXJXJXJXJXHXHXHXKXKXHXKXHXKXKXKXKXKXKXKXKXKXKXIXXX XSXKXKXHXKXHXKXHXKXKXHXKXHXKXKXHXKXKXLXLXKXKXKXKXLXKXLXLXKXLXLXLXKXLXLXKXLXLXKXLXKXHXJXJXFXFXJXFXJXfXe.q oXJX9X: D S.S.S.B.Z.Z.Z.Z.B.Z.Z.Z.B.S.Z.Z.Z.Z.Z.Z.S.Z.S.Z.Z.D.Z.Z.Z.D.Z.Z.Z.D.Z.Z.Z.Z.Z.Z.Z.Z.Z.D.Z.Z.Z.D.D.D.D.D.D.D.D.F.D.D.D.D.F.D.D.F.D.F.D.D.F.F.F.P.F.F.D.F.F.D.P.P.P.F.P.F.F.P.P.P.F.P.P.P.P.P.P.I.I.P.I.I.I.I.I.I.I.Y.U.I.U.U.I.U.U.T.T.U.T.T.T.T.T.T.T.T.T.T.T.T. XT.T.b 1 G.J.`.`.'..X]..X.X.X.X.XXX].c I } T.e.",
"gXgXgXgXgXgXgXgXgXgXgXgXgXgXgXgXgXgXgXgXgX8Xm $ y u.u.u.u.o.8.u.u.o.u.u.N K *X*X$X].v .X$XXX$X$X$X.X.X]..X]..X`.`.`.`.`.`.H.`.`.H.c > F F V.V.C.V.V.V.V.B.B.B.B.V.C.C.V.B.B.B.B.B.B.B.B.V.V.V.V.B.B.B.B.B.B.B.B.B.B.B.B.B.B.B.B.B.B.B.B.B.B.B.B.B.B.B.B.B.B.B.B.B.B.B.B.B.B.B.B.B.B.B.B.B.B.B.B.B.B.B.B.B.B.B.B.B.B.B.B.B.B.B.B.B.B.B.C.B.B.B.B.B.B.B.B.B.B.B.B.B.B.B.B.B.B.B.B.B.B.B.B.B.B.B.B.B.B.B.B.B.B.j e.OXOXoXT.T.T.T.U.T.U.T.U.R.T.I.R.P.} I.R.} P.P.} I.I.P.P.I.U.T.T.e.U S G.G.L } oX} U  XT.T. XoX} C V.V.B.V.V.z b ZXHXJXJXJXFXJXJXGXFXFXGXFXJXJXHXHXHXHXHXHXKXHXKXKXHXHXKXHXKXKXCX,.+XHXKXHXKXHXKXKXHXHXHXHXHXHXHXHXHXHXKXHXKXKXKXLXKXKXKXLXLXKXLXLXKXLXKXKXLXKXLXKXLXKXKXHXJXFXJXJXGXJXFXSXZX+Xb +XFXb c S.S.S.Z.B.Z.K.B.Z.Z.S.Z.Z.Z.Z.B.B.Z.Z.B.S.S.Z.Z.Z.Z.Z.D.Z.D.D.Z.Z.D.Z.Z.Z.D.D.Z.Z.D.D.Z.D.Z.D.Z.Z.D.Z.D.D.D.D.D.D.F.F.D.D.D.D.D.D.F.D.D.D.F.F.D.F.F.F.F.F.P.F.F.F.F.F.P.F.P.P.F.F.P.P.P.P.P.P.P.P.P.P.P.I.U.Y.I.I.I.I.U.I.U.U.I.U.U.U.T.Y.U.Y.T.U.T.U.T.T.T.T.T.T.T.T.} % D `.`.`.`.`.'..X].]..X.X.X$XK b T. X X",
"gXgXgXgXgXgXgXgXgXgXgXkXgXgXgXqXgXgXhXgXgXgXgX} $ t u.u.u.u.u.o.u.u.u.s.c '.*X$X$XK P $X$X$X.X$X.XXX'.'..X`..X`.`.`.`.`.`.`.H.G.G.1 k C.V.V.V.V.V.V.V.V.B.B.B.B.B.B.V.V.B.B.B.B.B.B.B.B.B.V.V.V.B.B.B.B.B.B.B.B.B.B.B.B.B.B.B.B.B.B.B.B.B.B.B.B.B.B.B.B.B.B.B.B.B.C.B.B.B.B.B.B.B.B.B.B.B.B.B.B.B.B.B.B.B.B.B.B.B.B.B.B.B.B.B.B.B.B.B.B.B.B.B.B.B.B.B.B.B.B.B.B.B.B.B.B.B.B.B.B.B.B.B.B.B.B.B.B.B.B.B.B.B.C.c } T.T.T.T.T.T.T.U.T.U.U.U.R.I.} R.R.P.P.P.P.P.R.P.I.F.S.S.P.U.U.} T.U D A.G.P }  X} } } U U n n 8 , > > : > - & I AXJXFXJXFXJXJXFXJXFXJXFXJXGXJXJXJXJXHXHXHXHXKXHXHXKXHXKXKXKXdX XDXKXHXKXHXKXHXKXKXJXHXHXHXHXHXKXHXHXHXHXHXKXKXLXKXKXKXLXKXKXKXLXLXKXKXLXLXKXLXLXKXLXKXKXHXGXJXGXFXJXJXFXFXFXFX+Xb &XoX2 S.S.S.S.S.S.B.S.B.Z.Z.Z.Z.Z.Z.S.Z.B.Z.Z.S.S.Z.Z.Z.Z.Z.Z.Z.D.D.Z.Z.D.Z.Z.Z.Z.Z.Z.Z.D.Z.Z.Z.Z.D.D.D.D.D.D.D.D.D.D.D.D.D.D.D.D.F.D.D.D.D.F.D.F.F.D.F.D.F.F.F.F.F.F.P.P.F.F.P.P.P.P.P.P.P.P.P.P.P.P.P.R.P.I.I.I.I.I.I.U.U.U.I.I.U.U.U.U.T.T.U.T.U.T.T.T.T.T.T.T.T.T. XT.T.T.j d `.`.`.'.'.'.'.]..XXX.X$X$X'.1 } } } ",
"gXgXgXgXgXgXkXgXgXgXgXgXgXgXgXkXgXgXgXgXgXgXgXgX .2 e { u.u.u.u.u.u.u.[ V %X*X$X.Xv XX$X].$X$X.X$X].$X'.]..X`.`.'.`.`.`.H.`.`.`.P : F C.V.V.V.V.V.V.V.V.B.B.B.B.B.B.B.B.B.B.B.B.B.B.B.B.B.V.V.V.B.B.B.B.B.B.B.B.B.B.B.B.B.B.B.B.B.B.B.B.B.B.B.B.B.B.B.B.B.B.B.B.B.B.B.B.B.B.B.B.B.B.B.B.B.B.B.B.B.B.B.B.B.B.B.B.B.B.B.B.B.B.B.B.B.B.B.B.B.B.B.B.B.B.B.B.B.B.B.B.B.B.B.B.B.B.B.B.B.B.B.B.B.B.B.B.B.B.B.B.B.C.V e.oXoXT.T. .T.R.} R.U.R.I.} I.P.P.P.P.P.R.P.P.P.P.I.A.V.C.S.D.P.Z.P } U V b b 8 8 , % $ @ # # O # @ $ @ $ @ # @ +XFXJXJXJXGXFXJXFXGXJXFXJXFXJXFXGXJXJXJXJXHXHXHXJXHXHXHXKXHXGX9XAXKXKXKXKXHXKXHXHXHXHXKXHXHXKXHXHXHXHXHXHXHXHXKXKXLXKXKXKXKXKXLXKXKXLXLXKXLXKXKXKXLXKXKXKXHXHXFXJXJXFXFXJXFXGXFXJXoXI dX8 k S.S.S.S.S.S.Z.Z.Z.S.Z.B.S.Z.B.S.K.B.Z.Z.Z.Z.Z.Z.Z.Z.Z.Z.Z.D.D.Z.Z.D.D.Z.D.Z.Z.Z.Z.D.D.D.Z.Z.D.D.Z.Z.D.D.D.D.D.D.F.D.D.D.F.D.D.D.F.D.F.F.D.D.D.F.D.D.F.F.F.P.F.F.F.P.P.F.F.F.P.P.F.F.P.P.P.P.P.P.P.P.P.I.I.I.I.I.U.U.I.U.U.U.I.U.U.U.U.T.Y.T.T.Y.T.T.T. XT.T.T.T.T.T.T.N : P `.`.`.`.].'.'.'.'.]..X.X].A b  X X",
"gXgXgXgXgXgXgXgXgXkXgXgXkXgXgXgXhXgXgXgXgXgXkXgXgX;X8 8 { u.{ ~ ] W y r G.%X%X$X,.G $X$XXX$X].$X.X.X.X]..X'.`..X`.`.`.`.H.`.`.`.B a B.B.B.B.B.B.B.B.B.B.B.B.B.B.B.B.B.B.B.V.B.V.B.B.B.B.B.B.B.B.B.B.B.B.B.B.B.B.B.B.B.B.B.B.B.B.B.B.B.B.B.B.B.B.B.B.B.B.B.B.B.B.B.B.B.B.B.B.B.B.B.B.B.B.B.B.B.B.B.B.B.B.B.B.B.B.B.B.B.B.B.B.B.B.B.B.B.B.B.B.B.B.B.B.B.B.B.B.B.B.B.B.B.B.B.B.B.B.B.B.B.B.B.B.B.B.C.B.B.B.V.V.c e.oXT.T.R.T.U.U.U.U.U.R.U.I.I.P.P.I.P.R.P.R.Z.B.B.F F B k f f > > * & + + X X o @ $ $ 4 8 h *...........W...h ..SXJXGXFXFXJXFXFXJXFXFXJXFXFXJXJXGXFXJXJXGXJXJXHXJXHXHXHXKXKXHXKXHXHXKXHXKXHXHXHXKXHXHXHXHXHXHXHXHXHXHXHXHXHXKXKXKXKXKXKXKXKXKXKXLXLXKXKXLXKXKXLXKXLXKXKXKXJXJXJXGXJXFXJXFXFXJXFXFXZXI 9Xe.< L S.Z.S.S.Z.Z.Z.K.S.B.Z.S.B.Z.B.Z.S.Z.Z.S.S.Z.Z.Z.Z.Z.Z.Z.Z.Z.D.D.Z.Z.Z.Z.Z.Z.D.Z.Z.D.Z.Z.Z.D.D.D.D.Z.D.D.D.D.D.D.F.D.D.D.D.D.D.D.D.F.D.D.F.F.D.F.D.F.F.F.F.F.F.F.F.F.F.F.F.P.P.F.P.P.P.F.P.P.P.P.P.P.I.I.I.I.I.I.I.I.I.U.I.U.U.U.U.U.Y.T.T.U.T.T.T.T.T.T.T.T.T.T.T. XU.1 c `.`.`.'.`.'.'.]..X.X.X$XXXH.d }  X",
"gXgXgXgXgXgXgXgXgXgXgXqXgXgXgXgXgXgXkXgXgXgXgXgXgXgX1X8 @ % % $ $ @ : c $X*X%X$XK H.$X$X$X$X$X$X.XXX.X.X]..X`.`.'.`.`.`.`.`.`.H.a x B.B.B.B.B.B.B.B.B.B.B.B.B.B.B.B.B.B.B.B.B.B.V.B.B.B.B.B.B.B.B.B.B.B.B.B.B.B.B.B.B.B.B.B.B.B.B.B.B.B.B.B.B.B.B.B.B.B.B.B.B.B.B.B.B.B.B.B.B.B.B.B.B.B.B.B.B.B.B.B.B.B.B.B.B.B.B.B.B.B.B.B.B.B.B.B.B.B.B.B.B.C.B.B.B.B.B.B.B.B.B.B.B.B.B.B.B.B.B.B.B.B.B.B.B.B.B.B.B.B.V.V.x e.oXT.T.T.T.U.I.R.I.I.I.I.U.U.P.P.P.} K.h k a * & + X . . X @ + $ $ 8 0 9 h *...&.+.+.Q.Q.Q.Q.Q.Q.Q.Q.Q.Q.Q.9 9XKXJXJXJXFXJXFXFXJXFXFXJXFXFXJXFXJXJXJXJXJXJXHXHXHXHXHXHXHXHXHXHXKXHXHXKXHXKXHXHXHXHXHXHXHXHXHXHXHXHXHXJXHXHXHXHXKXKXKXKXKXKXKXKXKXKXLXLXKXLXLXLXLXKXLXKXKXJXJXFXJXJXFXFXJXFXFXFXFXFXfXfXdXr B S.S.S.S.Z.Z.B.Z.S.Z.Z.B.Z.Z.Z.Z.S.S.Z.Z.Z.Z.Z.Z.Z.Z.Z.Z.Z.Z.Z.Z.Z.Z.D.D.Z.Z.Z.Z.Z.D.D.Z.D.Z.Z.D.Z.D.D.D.D.D.D.D.D.D.F.D.D.D.D.D.D.D.F.D.F.D.K.D.D.F.D.F.F.F.F.F.F.F.F.P.F.F.P.P.F.F.F.P.F.P.P.P.P.P.I.I.I.I.I.I.I.U.U.I.U.I.U.U.U.U.U.U.T.T.T.Y.Y.U.T.T.T.T.T.T.T.U.} U , P `.`.`.`.`.'.]..X]..X.X$XXXx n  X",
"gXgXgXgXgXgXgXgXgXgXgXkXgXgXgXgXgXgXgXgXgXgXgXgXgXgXkX8Xn   # % 2 8 r J %X%X$X'.G ].$X$X$X].$X$X.X.X].'..X.X`.`.].'.`.`.`.`.`.P 2 F C.B.B.B.B.B.B.B.B.B.B.B.B.B.B.B.B.B.V.B.B.B.B.B.B.B.B.B.B.B.B.C.B.B.B.B.B.B.B.B.B.B.B.B.B.B.B.B.B.B.B.B.B.B.B.B.B.B.B.B.B.B.B.B.B.B.B.B.B.B.B.B.B.B.B.B.B.B.C.B.B.B.B.B.B.B.B.B.B.B.B.B.B.B.B.B.B.B.B.B.B.B.B.B.B.B.B.B.B.B.B.B.B.B.B.B.B.B.B.B.C.V.B.B.B.B.B.B.B.B.V.V.B  XT.T.T.T.U.I.U.I.R.I.R.R.} U h h , - & . X X + $ 4 8 h h *.....&.W.Q.Q.Q././.Q.Q.Q.Q.Q.Q.Q.Q.Q.Q.Q.Q.Q.Q.&.U GXHXJXFXFXFXFXFXFXFXFXFXFXFXJXFXJXFXGXFXJXJXJXJXJXJXHXHXHXHXHXHXKXHXKXHXHXHXHXHXHXHXHXHXHXHXHXHXHXHXHXJXHXJXJXHXHXHXKXKXKXKXKXKXKXLXKXLXKXLXLXKXKXKXKXLXKXPXJXJXFXGXFXJXFXFXFXFXFXFXFXFXFXFXoX< L S.B.Z.B.B.B.S.S.S.S.S.S.Z.Z.B.S.S.B.Z.Z.Z.B.Z.Z.Z.Z.Z.Z.Z.Z.Z.D.Z.D.Z.Z.D.Z.Z.Z.Z.Z.Z.Z.D.Z.D.Z.D.D.F.F.D.D.D.D.D.D.D.D.D.D.D.D.D.F.D.D.F.D.F.D.F.D.F.F.F.F.F.F.F.P.F.F.P.F.P.P.P.P.P.K.P.P.P.P.P.I.I.I.I.I.P.I.I.I.U.U.U.U.T.U.U.Y.Y.U.T.U.T.T.U.T.Y.T.U.T.T.T.U.T.I 2 A `.`.`.'..X]..X'..X.X.X.X#XP 8 } ",
"gXgXgXgXgXkXgXgXgXgXgXgXgXgXgXgXgXgXgXgXqXkXgXgXgXgXgXgX0X} $ 4 8 e k '.%X$X$X].G $X$X$X$X$X$X].$X.XXX.X.X`..X.X`.'.`.'.`.`.`.v a B.B.B.C.B.B.B.B.B.B.B.B.B.B.B.B.B.B.B.B.V.B.B.B.B.B.B.B.B.B.B.B.B.B.B.B.B.B.B.B.B.B.B.B.B.B.B.B.B.B.B.B.B.B.B.B.B.B.B.B.B.B.B.B.B.B.B.B.B.B.B.B.B.B.B.B.B.B.B.B.B.B.B.B.B.C.B.B.B.B.B.B.B.B.B.B.B.B.B.B.B.B.B.B.B.B.B.B.B.B.B.B.B.B.B.B.B.B.B.B.B.B.V.B.B.B.B.B.B.B.B.V.V.z } OX .T.T.U.I.} U h h 2 4 + . . # $ $ 8 8 *.....Q.W.Q.Q.Q.Q.Q.Q.Q.Q.Q.Q.Q.Q.Q.Q.Q.Q.Q.Q.Q.Q.Q.Q.Q.Q.Q.Q.Q.'  XKXHXJXJXFXFXFXFXFXFXFXFXFXFXFXFXFXJXFXJXJXJXGXJXJXJXHXHXHXHXKXHXHXHXHXKXHXHXHXHXHXHXHXHXHXHXHXHXHXHXHXHXHXHXHXHXKXHXHXHXKXKXKXKXLXLXLXLXLXLXLXLXLXLXKXKXKXHXHXGXJXFXGXFXFXFXFXFXFXFXFXFXFXFXCXb k Z.Z.Z.Z.Z.S.S.S.S.S.S.S.S.B.K.S.S.Z.Z.Z.Z.Z.Z.Z.Z.Z.Z.Z.Z.Z.Z.Z.Z.Z.D.D.Z.Z.Z.D.Z.Z.Z.D.Z.D.D.D.D.D.D.D.D.D.D.D.D.D.D.D.D.F.F.D.D.D.D.F.F.F.D.F.D.D.F.D.F.D.F.P.F.F.F.F.F.P.F.F.P.F.P.P.P.P.P.P.P.P.P.I.I.I.I.I.I.I.U.U.U.U.U.U.U.U.T.T.U.T.U.U.U.T.T.Y.T.U.T.U.T.T.U.h a H.`.`.'.`.`.'.'.]..X'..X.X'.j N ",
"gXgXgXgXgXgXgXgXgXgXgXgXkXgXgXgXgXgXgXgXgXgXgXgXgXgXgXgXgXgX[ # 7 8 H %X$X$X#XL P %XXX$X$X].$X$X].].XX'.'.'.].].'.`.`.`.`.`.`.d x B.B.B.B.B.B.B.B.B.B.B.B.B.B.B.B.B.B.B.B.B.B.B.B.B.B.B.B.B.B.B.B.B.B.B.B.B.B.B.B.B.B.B.B.B.B.B.B.B.B.B.B.B.B.B.B.B.B.B.B.B.B.B.B.B.B.B.B.B.B.B.B.B.B.B.B.B.B.B.B.B.B.C.B.B.B.B.B.B.B.B.B.B.B.B.B.B.B.B.B.B.B.B.B.B.B.B.B.V.V.V.C.B.C.V.B.B.B.B.V.V.V.V.B.B.B.B.B.B.C.C.V.C.F B.} } U h 8 2 $ @ . # $ $ 2 0 h ....+.Q.Q.Q.Q.Q.Q.Q.Q.Q.Q.Q.Q.Q.Q.Q.Q.Q.Q.Q.Q.Q.Q.Q.Q.Q.Q.Q.Q.Q.Q.Q./.Q.+.h 9XKXHXJXFXFXFXFXcXFXFXFXFXFXFXFXFXFXFXGXFXJXJXGXJXJXGXJXHXHXHXHXJXHXHXHXHXHXHXHXHXJXHXHXHXHXHXHXHXHXHXHXHXJXJXHXHXKXKXHXHXGXFXCXCXDXDX&X&XdXCXcXCXGXKXKXKXKXJXJXGXFXGXJXFXFXFXFXFXFXFXcXZXFXZXFX+X1 D S.Z.B.S.Z.B.Z.Z.Z.Z.B.S.Z.Z.Z.Z.Z.Z.Z.Z.Z.Z.Z.Z.Z.Z.Z.Z.Z.Z.Z.Z.Z.Z.Z.Z.Z.Z.Z.Z.Z.Z.Z.Z.Z.D.Z.Z.D.D.D.F.D.D.D.D.D.D.D.D.D.D.D.D.D.F.F.F.D.F.D.F.F.F.F.F.F.F.F.F.F.F.F.F.F.P.F.P.P.P.P.P.P.P.P.P.P.P.P.I.I.I.I.I.I.U.U.I.I.U.U.T.U.U.Y.U.U.U.U.Y.Y.T.T.Y.U.T.U.U.T.T.I : G `.`.`.`.`.`.]..X.X].XX.X$XG r ",
"gXgXgXgXgXgXkXgXgXgXgXkXgXgXgXgXgXgXgXgXgXgXgXgXgXgXkXgXgXgX7XN @ 1 `.%X$X$XXXG XX$X$X$X$X$X].XX$X$X$X.X.X.X.X`.'.`.'.`.`.'.P : S B.B.B.B.B.B.B.B.B.B.B.B.B.B.B.B.B.B.B.B.B.B.V.B.B.B.B.B.B.B.B.B.B.B.B.B.B.B.B.B.B.B.B.B.B.B.B.B.B.B.B.B.B.B.B.B.B.B.B.B.B.B.B.B.B.B.B.B.B.B.B.B.B.B.B.B.B.B.B.B.B.B.B.B.B.B.B.B.B.B.B.B.B.B.B.B.B.B.B.B.B.B.B.B.B.B.B.V.V.V.V.B.V.V.V.B.B.B.B.V.V.V.V.B.V.B.B.B.B.F F z k s - & @ . # # @ * 8 h *.....Q.@.Q.Q.@.@.Q.Q.Q.Q.Q.Q.Q.Q.Q.Q.@.@.@.Q.Q.Q.Q.Q.Q./.Q./.Q.Q.Q.Q.Q.Q.Q.Q./.Q./.+.U GXHXJXFXFXFXFXFXZXFXZXcXFXFXZXFXFXJXFXFXJXFXGXJXJXJXJXJXJXJXHXHXHXHXHXHXHXHXJXHXJXJXHXJXJXHXJXHXHXHXHXGXZXdXdX&X@X@Xe.} I b b 2 1 r b 1 1 1 b b b b I +XDXHXHXJXJXJXFXFXFXJXFXFXFXZXcXFXZXFXcXFXdXb x S.Z.Z.S.S.S.Z.Z.Z.B.K.B.B.Z.B.Z.Z.Z.Z.Z.Z.Z.Z.Z.Z.Z.Z.Z.Z.Z.Z.Z.Z.Z.D.Z.D.Z.Z.Z.D.Z.Z.D.D.D.D.D.D.D.D.D.D.D.D.D.F.D.D.D.D.D.D.F.D.D.D.D.D.D.F.D.F.F.F.F.F.F.F.F.P.P.P.F.P.F.P.F.F.F.P.F.P.P.P.P.P.I.P.P.I.I.U.I.I.I.I.U.U.I.U.U.U.U.U.I.U.U.U.U.T.U.U.U.T.U.U.T.T.T.U.1 c `.`.`.`.'..X`.`..X.X'..X.X`.1 ",
"gXgXkXqXkXqXgXgXgXgXgXgXgXgXgXgXkXgXgXgXgXgXgXgXgXgXgXgXgXgXgX0Xr ; ].$X$X$X`.G $X$X$X$X$X$X].$X$X.X]..X.X].].'.'.].`.`.`.'.v s B.B.B.B.B.B.B.B.B.B.B.B.B.B.B.B.B.B.B.B.B.B.V.B.B.B.B.B.B.B.B.B.B.B.B.B.B.B.B.B.B.B.B.B.B.B.B.B.B.B.B.B.B.B.B.B.B.B.B.B.B.B.B.B.B.B.B.B.B.B.B.B.B.B.B.B.B.B.B.B.B.B.B.B.B.B.B.B.B.B.B.B.B.B.B.B.B.B.B.B.B.B.B.B.B.B.B.B.B.B.V.V.B.B.V.C.V.V.B.V.V.V.V.V.B.F z k f > & . .         . . # + $ > 8 8 h 8 9 h 0 9 8 0 9 h 9 0 9 9 9 9 9 0 h 9 h 0 h h 9 0 h ' h ......W.W.W.Q.Q.Q././././...} KXHXJXFXFXFXFXFXZXFXkXZXcXFXcXFXFXFXGXAXJXJXFXJXFXGXJXJXJXJXJXHXHXHXHXJXJXJXHXJXJXJXHXHXHXHXHXHXAX9X XN b q 2 1 < 2 b b I I oX+X&XdXdXCXZXCXZXZXZX&XI e.&XCXJXJXGXFXJXFXFXJXFXZXcXFXFXZXcXcXZXcXZX} < Z.Z.S.S.S.S.B.Z.Z.Z.Z.Z.Z.Z.B.Z.Z.Z.B.Z.Z.Z.Z.Z.Z.Z.Z.Z.Z.Z.Z.Z.Z.Z.Z.Z.Z.Z.Z.Z.Z.Z.Z.Z.Z.Z.D.D.D.Z.D.D.D.D.D.D.D.D.D.D.F.D.D.D.D.F.F.D.F.F.F.F.F.F.F.F.F.F.P.P.P.P.F.P.K.F.P.F.F.P.P.P.P.P.P.P.F.R.P.I.P.I.I.I.I.} R.I.U.U.I.U.U.U.U.U.U.T.I.Y.U.U.U.T.U.T.T.T.T.T.} U : I `.`.`.]..X.X.X`..X.X.X$X'.A ",
"kXgXgXgXgXgXgXgXgXgXgXgXgXgXgXgXgXgXgXgXgXkXgXgXgXgXgXgXgXgXhXhX-X2 b .X$X$XI G.$X$X$X$X$X$X$X$X]..X.X.X'..X'.'.'.`.'.'.`.`.d k B.B.B.B.B.B.B.B.B.B.B.B.B.B.B.B.B.B.B.B.V.V.B.B.B.B.B.B.B.B.B.B.B.B.B.B.B.B.B.B.B.C.B.B.C.B.B.B.B.B.B.B.B.B.B.B.B.B.B.B.B.B.B.B.B.B.B.B.B.B.B.B.B.B.B.B.B.B.B.B.B.B.B.B.B.B.B.B.B.B.B.B.B.B.B.B.B.B.B.B.B.B.B.B.B.B.B.B.B.B.V.V.B.B.V.V.V.V.B.F z z s , & o .             . + @ * > > > , > , , , a , a , a a h h 8 0 f f a , , , a , > , , > * & * > > & & + @ & $ & 0 8 h h *..... .m +XKXHXFXFXFXFXAXcXFXZXcXFXZXZXFXFXFXFXFXFXFXJXFXJXFXJXJXGXJXJXHXJXJXJXFXJXJXJXJXHXHXHXHXJXZX&XXXN 1 1 8 I ,.+X+XdXdXZXJXHXHXKXKXHXKXKXKXKXKXKXKXKXLXZX XI G I e.&XfXJXJXFXJXFXFXFXFXFXFXZXkXZXZXcXFX&X: h ' ..R.P.D.K.Z.Z.Z.Z.Z.B.Z.S.S.Z.Z.Z.Z.Z.Z.Z.Z.Z.Z.Z.Z.Z.Z.Z.Z.Z.Z.Z.D.Z.D.Z.Z.Z.Z.Z.D.Z.D.Z.D.D.D.D.D.D.D.D.D.D.D.D.D.D.D.D.D.D.D.D.F.D.D.D.F.D.F.F.F.F.F.P.F.F.F.P.F.P.P.F.P.P.P.F.P.P.P.P.P.P.P.P.P.P.I.I.I.P.I.I.I.I.I.U.I.U.U.U.U.U.U.U.I.U.U.T.U.T.Y.T.T.T. XY.P.2 c `.`.`.`.`.`.`..XXX]..X.X.X`.",
"gXgXgXgXgXgXgXgXgXgXgXgXgXgXgXgXgXgXgXgXgXgXgXgXgXgXgXgXgXgXgXgXgX;X3 v $XXXK XX$X$X$X%X$X].XX.X$X.X.XXX]..X'.'.`.`.`.`.].I < Z B.B.B.B.B.B.B.B.B.B.B.B.B.B.B.B.B.B.B.C.B.B.B.B.B.B.B.B.B.B.B.B.B.B.B.B.B.B.B.B.B.B.B.B.B.B.B.B.B.B.B.B.B.B.B.B.B.B.B.B.B.B.B.B.B.B.B.B.B.B.B.B.B.B.B.B.B.B.B.B.B.B.B.B.B.B.B.B.B.B.B.B.B.B.B.B.B.B.B.B.V.V.V.V.V.V.V.V.C.V.C.V.B.F F z f g & +             . + * a d d B S D B.L L S.S.S.G.S.G.S.G.G.G.G.G.J.Z.P.F.F.Z.S.S.C.S.Z.Z.S.S.C.S.A.J S.B.Z.D D S F B c c d 1 < : : : : $ $ : dXHXHXFXFXFXFXZXcXZXZXFXcXZXFXcXFXFXFXFXFXJXJXFXJXJXJXFXFXJXHXJXJXJXJXJXJXJXHXHXHXZX&Xe.b 8 2 r G oXdXFXHXHXHXKXHXHXHXHXHXHXHXHXHXHXHXHXKXKXKXKXLXKXKXKXHXZX&XoX,.I e.+XZXGXZXFXFXcXZXFXcXZXFXFXZXFXfXr . $ % 9 ' ..W.W.E.K.S.S.Z.S.S.S.B.Z.Z.Z.Z.Z.Z.S.Z.Z.Z.Z.Z.Z.Z.Z.Z.Z.Z.Z.Z.Z.Z.Z.D.Z.Z.D.Z.D.Z.D.Z.D.D.Z.D.D.D.D.D.D.D.D.D.D.D.D.D.F.D.D.D.F.D.F.D.F.F.P.F.P.P.F.P.I F.P.P.P.P.F.P.P.F.P.P.P.P.P.P.P.P.R.P.P.I.P.I.I.I.I.I.U.U.U.U.U.U.U.U.I.I.I.U.U.U.T.T.T.Y.T.T.T.U.U.b 2 G.`.`.`.`..X`..X.X.X].XX'.$X",
"gXgXgXgXgXgXgXgXgXgXgXkXgXgXgXkXgXgXgXgXkXgXgXgXhXgXgXgXgXgXgXgXgXgXe.$ P H.P $X$X$X$X].$X$X$X$XXX$X.X.X'.].].'..X`..X`.].A < C.B.B.B.B.B.B.B.B.B.B.B.B.B.B.B.B.B.B.B.B.B.B.B.B.B.B.B.B.B.B.B.B.B.B.B.B.B.B.B.B.B.B.B.B.B.B.B.B.B.B.B.B.B.B.B.B.B.B.B.B.B.B.B.B.B.B.B.B.B.C.B.B.B.B.B.B.B.B.B.C.B.B.B.B.B.B.B.B.B.B.B.B.B.B.B.B.B.B.B.B.V.V.V.V.V.C.V.V.F k k g & &           X & : < d B F D S.S.Z.J.G.G.G.G.G.H.H.G.G.G.G.H.S.G.S.H.H.G.G.G.G.H.G.J.G.H.H.Z.S.S.Z.S.S.H.S.S.S.Z.C.S.S.S.S.A.G.A.A.S.P F.F.I L U A c b GXHXJXFXZXcXkXZXZXcXkXZXZXkXZXFXFXFXFXFXFXFXFXFXFXGXFXJXJXFXFXJXFXGXJXJXHXJXZX+XI q 2 b I +XdXGXHXHXHXJXHXHXHXHXHXHXHXJXHXHXHXHXHXHXKXKXKXHXHXPXHXPXHXKXPXHXJXJXJXdXoXb n @XfXJXAXcXFXZXZXcXZXcXFXfXFXe.o 8 $ + . $ $ h *...R.D.Z.Z.Z.S.Z.Z.Z.Z.Z.Z.Z.S.Z.Z.Z.S.Z.Z.Z.Z.Z.Z.Z.Z.Z.Z.Z.D.Z.Z.D.Z.D.D.D.D.D.D.D.D.D.Z.D.D.D.D.D.D.D.D.D.D.D.D.F.D.D.F.F.D.F.D.D.F.F.F.F.P.P.P.P.F.P.F.P.P.P.F.P.P.P.P.P.P.P.P.P.P.P.P.I.I.P.I.I.U.I.I.I.U.U.T.I.T.U.Y.U.U.U.Y.Y.U.U.Y.U.U.Y.T.T.T.} : A `.`.`.`.]..X].`..X.X'.XX$X",
"gXgXgXgXkXgXgXgXgXgXgXgXgXgXkXgXgXgXkXgXqXgXgXgXgXgXkXgXgXgXkXgXgXgXqXN : A .X$X$X$X$XXX$X$X$X].]..X$X.X.X]..X.X.X`..X`.`.d c C.B.B.B.B.B.B.B.B.B.B.B.B.B.B.C.B.B.B.B.B.B.B.B.B.B.B.B.B.B.B.B.B.B.B.B.B.B.B.B.B.B.B.B.B.B.B.B.B.B.B.B.B.B.B.B.B.B.B.B.B.B.B.B.B.B.B.B.B.B.B.B.B.B.C.B.B.B.B.B.B.B.B.B.B.B.B.B.B.B.B.B.B.B.B.B.B.B.B.C.B.V.V.B.F z s - & .         + & , d B V B.S.G.G.H.S.J.J.G.H.G.G.G.H.G.S.J.G.H.H.G.G.G.G.G.S.J.J.G.J.J.S.G.J.G.G.G.H.G.J.J.S.G.G.J.H.H.J.H.J.J.S.J.G.S.A.S.A.A.S.Z.D.H.I.Y.Y.Y.A oXKXHXJXFXFXFXFXFXcXZXfXcXfXZXfXZXfXFXcXZXFXAXFXFXFXJXGXJXFXJXFXGXJXHXJXFX9XI q 1 n  XdXGXHXHXHXHXHXJXHXHXJXHXJXHXHXHXHXKXHXGXCXdX&X+X X`.I I I M I N I I I e.,. XXX+X+XoXe.A n e.&XFXFXZXFXFXZXcXcXZXcX&X0 ..Q...h 0 $ # # $ 4 h U U Z.Z.Z.B.B.Z.Z.Z.Z.Z.S.Z.Z.Z.Z.Z.Z.Z.D.Z.D.D.Z.Z.Z.Z.Z.Z.Z.Z.Z.D.D.Z.Z.D.Z.D.D.D.D.D.D.D.D.D.D.D.D.D.D.D.D.F.D.D.F.D.F.D.F.F.F.F.P.F.P.F.P.F.F.P.P.F.P.P.P.P.P.P.P.P.P.P.P.P.P.I.P.I.I.I.I.U.I.} R.I.U.U.U.U.U.U.I.Y.U.U.U.U.U.U.U.U.T.T.T.T.P.8 d H.`.`.`.`.`.`.'.].]..X.X].",
"gXgXgXgXgXgXgXgXgXgXgXgXgXgXqXgXkXgXgXgXgXgXkXgXgXgXgXgXgXgXgXgXgXgXgX8Xe 1 .X$X$X$X$X$X$X$X$X$X$X.X]..X.X.X.X]..X].`.`.P 1 F C.B.B.B.B.B.B.B.B.B.B.B.B.B.B.B.B.B.B.B.B.B.B.B.B.B.B.B.B.B.B.B.C.B.B.B.B.B.B.B.B.B.B.B.B.B.B.B.B.B.B.B.B.B.B.C.C.B.B.B.B.B.B.B.B.B.B.B.B.B.B.B.B.B.B.B.B.B.B.B.B.B.B.B.B.B.B.B.B.B.V.V.B.B.B.B.B.B.B.B.B.k a = .       . & : a x A L A.G.G.G.D.J.S.G.H.G.J.G.G.J.G.G.G.J.G.G.J.G.G.G.Z.H.G.H.G.H.J.S.J.J.G.J.J.J.J.J.J.G.J.J.J.J.J.G.J.J.J.J.J.J.J.J.J.J.H.H.H.G.G.G.G.G.G.I.J.Y.Y.Y.b dXHXHXFXFXFXFXFXfXZXcXFXZXZXkXZXkXFXZXZXFXFXFXFXJXFXFXFXFXFXFXJXJXFXdX Xb 2 n  XdXHXHXHXJXJXHXHXHXHXHXHXHXKXHXHXJXFXdX+Xe.I n n b M N I e.XX+X&X&X9X9XdXdXZXdXCXZXfXZXCXfXZXZX+XM 1 N &XcXFXZXcXZXZXZXcXdXh h Q.Q.Q.Q.+...h 4 $ # @ $ > h Z K.Z.Z.S.Z.Z.Z.Z.Z.Z.S.Z.Z.Z.Z.Z.Z.Z.Z.Z.D.Z.D.Z.D.Z.D.D.Z.Z.Z.Z.D.D.D.Z.D.D.D.D.D.D.D.D.D.D.D.D.F.D.D.F.D.F.F.F.F.F.F.F.F.F.F.P.P.F.P.F.F.P.P.P.F.P.P.P.P.P.P.P.P.P.I.P.P.I.I.I.I.I.P.I.I.I.U.U.I.I.I.Y.U.U.U.U.U.U.U.U.T.U.T.U.U.Y.U.R.L : J `.`.`.`.`..X.X]..X.X.X$X",
"gXgXgXgXgXgXgXgXgXgXgXgXkXgXgXgXgXgXgXgXgXgXgXgXgXgXgXgXgXgXgXkX7XgXgXgX1X7 G $X$X.X$X$X$X.X$X.X$X.X.X.X.X`..X].`..X]..XD f B.B.B.B.B.B.B.B.B.B.B.B.C.B.B.B.B.B.B.B.B.B.B.B.B.B.B.B.B.B.B.B.B.B.B.B.B.B.B.B.B.B.C.B.B.B.B.B.B.B.B.B.B.B.B.B.B.B.B.B.B.B.B.B.B.B.B.B.B.B.B.B.B.B.B.B.B.B.B.B.B.B.B.B.V.V.V.V.B.B.V.V.V.V.B.B.F z a > + .       + = f x Z J S.S.G.G.G.J.G.G.G.G.G.H.G.J.H.G.H.G.G.H.G.Z.J.J.G.J.G.G.J.J.G.G.G.G.J.J.C.J.G.J.J.J.J.J.J.J.J.J.J.J.J.J.J.J.J.J.'.J.J.J.'.J.J.J.J.J.J.J.J.J.J.J.J.F.J.Y.I I HXHXJXJXcXcXZXFXFXcXZXcXZXcXFXZXkXZXFXcXZXFXFXFXFXFXFXFXFXFXJXFX9XI 1 b ,.9XJXHXJXHXJXHXHXHXHXJXHXHXHXHXFXDX&Xe.G b n M e.XX&XfXSXJXHXHXHXHXKXKXKXKXKXKXKXHXHXHXJXJXJXGXJXFXJXFXFX&XI 8 I 9XFXZXcXZXZXFXcXXX% &.Q.Q.Q.Q.Q.Q.@.&.*.h $ $ # o * f h D Z.D.Z.Z.Z.Z.D.Z.Z.Z.D.D.Z.Z.Z.D.Z.Z.D.D.D.Z.Z.D.D.D.D.D.Z.D.D.Z.D.D.D.D.D.D.D.D.F.D.D.D.F.D.D.F.D.D.F.D.D.F.F.F.F.F.P.P.P.F.P.F.P.F.P.P.P.P.P.P.P.P.P.P.P.P.P.P.P.P.I.I.I.P.I.I.I.U.U.U.U.U.I.U.Y.U.I.U.U.U.U.Y.U.T.U.U.T.T.T.U.I.2 c `.`.`.'..X`.'..XXX]..X.X",
"gXgXkXgXgXgXgXgXgXgXgXkXqXgXgXgXgXgXgXgXgXgXgXgXgXgXgXgXgXgXgXqX7XOXqX8Xt.r O b ,.].XX$X$X$X$X.XXX$X.X#X.X.X.X.X.X`..X`.j d B.B.B.B.B.B.B.B.B.B.B.B.B.B.B.B.B.B.B.B.B.B.B.B.B.B.B.B.B.B.C.B.B.B.B.B.B.B.B.B.B.B.B.B.B.B.B.B.B.B.B.B.B.B.B.B.B.B.B.B.B.B.B.B.B.B.B.B.B.B.B.B.B.B.B.B.B.B.B.B.B.B.B.B.V.V.B.V.V.B.B.V.z d - &         . & < d A H L A.A.A.A.A.G.G.G.G.Z.G.G.G.G.G.G.H.G.G.G.G.J.G.H.H.G.H.G.G.S.J.G.G.S.G.G.J.G.G.G.J.J.J.J.J.J.J.J.J.'.J.#XJ.J.J.J.#XJ.#X'.J.'.J.J.'.J.#XJ.J.'.'.J.J.J.J.'.Y.Y.Y.Y.A  XKXHXJXFXFXFXZXcXZXZXcXZXfXCXfXfXZXkXFXZXcXFXFXFXFXFXFXFXJXcX&XM 1 b OXdXJXJXJXJXJXJXHXJXHXHXJXHXCX9XXXI M b n I +X9XZXHXHXKXHXKXHXHXHXHXHXHXHXHXKXKXHXKXHXHXJXJXJXFXJXJXGXFXFXJXFXFXcX&XI q e.fXAXZXcXZXFXdXe m +.Q.Q.Q.Q.@.@.Q.Q.Q.W...h 8 $ # # & , d U Z.Z.D.Z.Z.Z.Z.D.D.D.D.D.D.D.D.D.D.F.D.D.D.D.Z.D.D.Z.Z.D.D.D.D.D.D.D.F.D.D.D.D.D.D.F.F.F.F.D.F.D.F.P.F.F.F.F.F.F.F.F.P.F.P.F.F.P.F.P.P.F.P.P.P.P.P.R.P.P.R.P.I.P.I.P.I.I.I.I.U.U.I.U.U.U.I.U.U.U.U.U.Y.T.U.Y.T.U.U.T.U.T.T.U.m > G.`.`.`.`.`.'.'.].$X]..X",
"gXgXgXgXgXqXgXgXgXgXgXgXgXgXgXgXgXgXgXgXgXgXgXgXgXgXgXkXgXgXgXkX1X8 e 1 b U v b b 2 v ].$X$X$X].].$X.X].]..X`.XX]..X'.H.< F B.V.B.B.B.B.B.B.B.B.B.B.B.B.B.B.B.B.B.B.B.B.B.B.B.B.B.B.B.B.B.B.B.B.C.B.B.B.B.B.B.B.B.B.B.B.B.B.B.B.B.B.B.B.B.B.B.B.B.B.B.B.B.B.B.B.B.B.B.B.B.B.B.B.B.B.B.B.B.B.B.B.B.B.B.V.V.B.z d - o         @ > f x S H A.S.A.A.A.A.A.A.A.A.G.G.G.G.G.G.J.G.G.J.G.H.S.S.Z.G.G.G.G.G.J.S.G.J.J.H.J.S.G.J.G.J.J.G.J.G.S.J.J.J.J.J.J.J.'.J.J.'.[.R.J.#XJ.J.J.J.'.'.'.J.R.[.#XJ.'.J.Y.'.J.J.J.J.J.J.J.A 9XHXJXGXFXFXFXcXFXfXkXZXkXZXfXZXFXZXfXZXkXFXfXGXcXZXFXFXFXwXn 1 N +XFXHXJXJXJXJXJXJXJXJXHXHXCXoXI M N I oX&XZXJXHXKXKXHXKXHXHXHXHXHXHXHXHXHXHXHXKXHXHXHXHXHXHXJXJXJXJXJXFXJXJXFXFXFXFXcXZXfX@Xn b } 9XFXFXfXFX X8 +.Q.Q.Q.Q.@.Q.Q.Q.Q.Q.Q.Q.Q.+.*.h 4 $ # & * f h U Z.D.D.D.D.D.D.D.D.D.D.D.D.F.F.D.Z.D.Z.D.D.Z.Z.D.Z.D.D.D.D.D.F.D.D.D.D.D.F.D.F.F.D.D.D.F.D.F.F.F.F.F.F.F.F.P.F.P.P.F.P.P.F.P.P.P.P.P.P.P.P.P.P.P.P.I.I.P.P.P.I.I.I.U.U.U.U.U.I.U.I.U.U.U.U.U.U.T.T.U.U.Y.Y.U.T.T.Y.T.I : A `.`.`.`.].'.].'..X'..X",
"gXgXgXgXgXkXgXgXgXgXgXgXkXgXkXgXgXgXgXgXgXgXgXkXgXgXgXgXgXgXgXgX] : I &XIXPXLXLXIX&Xv 2 ,.$X$X$X$X.XXX.X.X.X'.]..X`..XL , B.B.B.B.B.B.B.B.B.B.B.B.B.B.B.B.B.B.B.B.B.C.B.B.B.B.B.B.B.B.B.B.B.B.B.B.B.B.B.B.B.B.B.B.B.B.B.B.B.B.B.B.B.B.B.B.B.B.B.B.B.B.B.B.B.B.B.B.B.B.B.B.B.B.B.B.B.B.B.B.C.B.C.B.B.B f g o       . & , d V J A.S.S.A.A.L A.A.A.L A.A.L A.G.A.G.G.H.H.G.S.G.G.G.G.H.G.H.J.G.G.J.G.H.G.J.G.G.G.S.J.J.G.G.G.S.G.J.G.J.S.J.J.J.J.J.'.'.J.'.'.'.Y.[.Y.J.#XJ.#XJ.#X'.Y.#X[.Y.J.#X'.'.'..XJ..X'..XJ.J.A.N JXHXHXFXFXFXFXFXFXZXZXcXZXcXZXkXZXcXcXZXFXdXFXFXFXFXFX&Xn 2 I &XGXJXJXJXGXJXJXJXJXHXHXHXSX+XN I +XdXSXHXHXKXHXHXHXHXHXHXHXHXHXHXHXHXHXHXHXHXHXHXHXHXHXHXKXHXHXJXHXJXJXJXJXFXJXFXFXFXFXFXFXZXFXdX@Xb 2 e.fXFXkX9X8 ..Q.Q.Q.Q.@.@.Q.Q.Q.Q.Q.Q.Q.Q.Q.!.+...h 0 $ @ @ & a c U D.P.P.P.D.D.D.D.D.F.D.F.D.D.D.D.D.D.D.Z.D.D.D.D.D.D.D.D.D.D.D.D.F.K.D.F.F.D.F.F.F.F.F.F.F.F.F.F.F.P.F.P.F.P.P.F.P.P.P.P.P.P.P.P.P.I.P.P.P.P.P.I.I.P.I.I.I.I.I.I.I.U.U.U.I.U.U.U.U.U.U.U.U.Y.T.U.T.Y.T.T.T.U.T.Y.r 1 `.`.`.`.`.'.'.'.'..X].",
"gXgXgXgXgXgXkXgXgXgXgXgXgXgXkXqXgXgXkXgXgXgXgXgXgXkXgXgXgXgXgX1Xn 9XLXLXLXLXLXLXLXLXPXY.< P $X#XXX.X.X.X.X.X]..X]..X].b d C.C.C.B.B.B.B.B.B.B.B.B.B.B.B.B.B.B.B.B.B.B.B.B.B.B.B.B.B.B.B.B.B.B.B.B.B.B.B.B.B.B.B.B.B.B.B.B.B.B.B.B.B.B.B.B.B.B.B.C.B.B.B.B.B.B.B.V.V.V.V.B.V.V.V.B.B.V.C.B.V.z j * @       O & s x Z J A.A.A.A.S.A.A.A.A.A.L C.S.L A.C.S.S.G.S.S.S.G.G.S.G.S.G.G.G.G.G.J.J.C.S.J.J.G.G.J.J.J.J.S.J.S.G.J.S.G.J.G.J.Z.Z.G.J.J.'.J.J.J.'.'.J.J.Y.[.R.[.#XJ.Y.'.#X'.J.#XJ.Y.J.#X#XJ.#XY.[.R.J.#XJ.#XD Y.KXJXJXFXFXFXZXFXkXCXZXcXcXZXfXFXFXfXFXZXFXZXcXFXfX&XN 2 I 9XJXJXFXFXJXGXJXFXJXJXJXFXdXOXI I dXJXHXHXHXJXFXJXJXGXJXJXHXHXHXPXHXHXHXHXHXHXHXHXHXJXHXHXHXHXHXHXHXHXHXJXJXJXJXFXJXFXFXFXFXFXFXFXFXZXAXfXXXr I fXkXFXe.8 W.Q.Q.!.Q././././././././././././././.Q.....9 % $ # $ 2 h U } P.F.P.D.D.D.F.F.P.D.D.D.D.D.D.D.Z.D.D.Z.D.D.Z.D.D.D.D.D.D.F.F.F.F.F.F.F.F.F.F.F.P.F.F.F.F.F.F.P.F.F.P.P.P.P.P.P.P.P.P.P.P.P.P.P.P.P.P.P.P.P.I.I.I.U.I.I.I.I.U.U.U.U.U.U.U.U.T.U.U.T.T.T.T.U.T.T.T.T.Y.T.L : L `.`.`.`.'.'.'.]..X].",
"gXgXgXgXgXgXgXgXgXgXgXgXgXgXgXgXgXgXqXgXgXkXgXgXgXgXgXgXgXhXgX} %XLXLXLXLXLXLXLXLXLXLXLX%X1 G $X$X.X.X$X.X.X.X.X]..X'.1 z C.B.B.B.B.B.B.B.B.B.B.B.B.B.B.B.B.B.B.B.B.B.B.B.B.B.B.B.B.B.B.B.B.B.B.B.B.B.B.B.B.B.B.B.B.B.B.B.B.B.B.B.B.B.B.B.B.B.B.B.B.B.B.B.V.V.B.V.V.V.V.B.V.V.V.V.V.B.z d * .     . & d B H J A.A.A.A.A.A.A.A.S.A.A.J A.L S.A.S.A.A.S.S.S.C.G.S.J.G.J.J.J.J.J.S.J.G.G.S.J.J.J.J.J.J.J.J.J.J.J.J.J.J.J.J.J.J.J.J.J.J.J.J.J.J.J.J.#X'.J.#X#XJ.[.R.#X#XJ.#X'.'.'.'.J.#XY.[.#XJ.J.#XJ.#X#X[.'.'.#XJ.A &XHXHXGXFXFXcXcXZXZXcXZXfXFXZXFXfXFXFXfXcXkXZXfX+XN 1 I &XFXFXFXFXFXJXFXJXJXJXFX&XXX,.I  XdXJXHXJXHXFXJXJXJXFXFXFXfXCXdXdXdX&XdXdXZXGXJXHXHXJXHXKXHXHXHXHXHXJXHXJXHXHXJXJXJXJXJXFXJXFXFXFXFXFXFXcXZXZXcXdXN I dXFXfXb .././././.^.^.^./.^./.^.^.^.^.^.^.^.^./.Q.Q.Q.$...h 7 $ X o > k U P.F.F.P.P.I.I.F.D.F.P.D.D.D.D.D.Z.D.F.D.D.D.D.D.D.F.D.F.D.D.F.F.D.F.F.F.F.L P.F.F.F.F.F.P.F.P.P.P.P.F.F.P.P.P.P.P.P.P.P.P.P.P.P.P.R.P.I.I.I.I.U.I.I.Y.U.U.U.U.U.U.U.T.T.U.T.T.T.U.U.U.T.T.T.T.T.T.T.} 2 j `.H.`.'.`.'.'..X.X.X",
"gXgXgXgXgXgXgXgXgXgXgXkXgXgXgXgXgXgXgXgXgXgXgXgXgXgXgXgXgXgX;XI HXLXLXLXLXLXLXLXLXPXGXDXdXI : v A v v M L P G.'..X.XP , F B.B.B.B.B.B.B.B.B.B.B.B.B.B.B.B.B.B.B.B.B.B.B.B.B.B.B.B.B.B.B.B.B.B.B.B.B.B.B.B.B.B.B.B.B.B.B.B.B.B.B.B.B.B.B.B.B.B.B.B.B.B.B.V.B.V.V.V.V.V.V.B.B.V.V.F k * .     O , k Z L A.A.A.A.A.L A.A.A.A.A.S.C.A.A.S.G.S.G.S.G.S.H.G.G.G.H.J.J.J.J.J.J.J.J.J.J.J.J.J.S.Z.J.J.Z.G.J.J.G.J.J.J.J.J.C.J.J.J.J.G.J.J.J.J.J.J.J.'.#XJ.#X#X#X#XJ.#X#X#X#X#XJ.#XJ.'.J.J.'.J.[.J.J.Y.J.'.'.Y.J.#XJ.'.Y.A FXJXJXFXFXFXFXZXcXfXZXFXFXFXfXFXFXdXFXFXZXfX+XA q N 9XFXFXFXFXFXFXFXJXJXJXJXKXFX&XdXdXFXFXZXZXZXdXdX@X Xe.,.} N v b b b N I e. X@X@XdXdXDXdXZXHXJXJXJXHXKXJXHXHXHXHXJXHXJXJXGXGXFXFXFXFXFXFXFXFXFXFXkXZXFXdXe.I dXFX+Xm W.^.^.^.^.:X^.^.^.^.^.^.^.^.:X^.:X^.^././.%.^.%.h.d...' 8 $ # @ 1 U F.P.P.R.U.I.P.D.P.D.D.F.D.D.D.D.D.D.D.D.D.D.D.D.D.D.D.D.F.F.F.F.D.F.F.F.F.F.F.F.F.F.P.F.P.P.P.P.P.P.P.P.P.P.P.P.P.P.P.K.} R.P.P.P.U.I.U.I.U.I.I.U.U.U.U.U.U.U.U.T.T.U.U.T.T.T.U.T.U.T.Y.T.T.T.T.T.b > D.`.`.`.`.`.'.].'..X",
"gXgXgXgXgXgXgXgXgXgXgXgXgXgXgXkXgXkXgXgXgXgXgXgXkXgXgXgXgXqXN &XLXLXLXLXLXLXIXDX XG c 1 2 : & @ : : : : : : : 1 A `.G 1 V.B.B.B.B.B.B.B.B.B.B.B.B.B.B.B.B.B.B.B.B.B.B.B.B.B.B.B.B.B.B.B.B.B.B.B.B.B.B.B.B.B.B.B.B.B.B.B.B.B.B.B.B.B.B.B.B.B.B.B.B.B.B.B.V.V.V.V.V.V.V.V.V.F k > .     O , k H A.A.L A.L A.A.A.A.A.A.A.A.A.G.G.G.G.H.H.G.H.H.J.G.G.H.G.G.G.J.J.J.J.J.J.J.J.J.J.J.J.G.J.G.J.G.J.Z.J.J.G.J.J.J.J.J.J.J.J.J.J.J.J.J.J.J.[.J.J.'.J.'.R.#XJ.#X#X#X'.#X#X#X#X#X%X#X#X#XJ.#X#XR.#XJ.[.Y.'.'.R.[.J.'.J.L I JXJXJXFXFXFXFXFXFXFXcXFXfXkXZXfXfXFXkXfXdXI r e.dXFXFXFXFXFXJXJXFXGXFXdXdX9X@XoXe.e.I I A r 1 2 2 2 2 1 b I I N A n n n b v n b b b M n G N M I I K I I e.XX&XdXCXSXJXHXHXHXHXJXJXJXFXFXFXFXZXFXFXFXFXZXcXZXcX@X@XFXfX} h ^.^.^.^.^.^.^.^.^.^.:X:X^.<X:X^.^.^.^.^.h.h.h.h.:X^.@./...h 2 $ A U.R.} T.T.U.I.P.P.P.F.F.P.F.F.P.D.F.F.D.F.D.F.F.F.D.K.F.D.D.D.F.F.F.F.F.F.P.F.F.P.F.F.F.P.F.P.F.F.P.F.P.P.P.P.F.P.P.P.P.R.P.P.P.P.I.I.I.U.I.I.U.I.I.U.Y.U.U.U.U.T.T.U.U.T.U.T.T.U.Y.U.Y.T.Y.T.T.Y.} > A J.].`.`.'.'.'.].'.",
"gXgXgXgXgXgXgXgXgXgXgXgXgXgXgXgXgXgXgXgXgXgXgXkXgXgXgXgXqX} J.PXLXLXLXLXDX.Xn d < 2 1 1 1 1 1 2 1 1 1 1 1 < 2 : : 1 a k C.V.V.V.B.B.B.B.B.B.B.B.B.B.B.B.B.B.B.B.B.B.B.B.B.B.B.B.B.B.B.B.B.B.B.B.B.B.B.B.B.B.B.B.B.B.B.B.B.B.B.B.B.B.B.B.B.B.B.B.B.B.B.B.B.B.V.V.C.B.F z , O     O , x D A.A.J L L A.A.G.Z.J.S.S.G.A.G.A.S.J.G.H.H.H.G.H.J.G.G.S.H.J.G.G.S.J.J.J.J.J.J.J.J.J.J.J.G.S.S.J.J.Z.J.J.J.G.J.J.J.J.J.J.J.J.J.J.J.J.J.J.J.'.J.Y.'.R.'.J.[.#XJ.%XJ.#X#X#X#X#X#X#XR.[.R.#X#X#X#X#X#X#X#XJ.'.'.J.J.#XJ.'.A oXKXHXFXFXFXFXFXFXkXZXZXFXfXFXfXFXFXcXdXe.r I 9XFXGXFXFXFXAXfXdXdX@X Xe. X XXXe.,.I N b j b b N I XX+XdXAXHXHXHXHXHXHXGXAXCXDX9X9X&X9XdXdXdXdXdX9XdX&X&X@X@X.Xe.,.} ,. XXXoXoX@X+X&X&XdXfXAXFXFXcXFXFXFXGXFXFXFXFXkXZXZXfXI ' :X:X^.^.:X^.<X^.^.:X<X^.^.:X:X:X^.:Xj.^.:X:X:X=X^.$.+.+.~. ...' U t.T. X .T. .U.U.T.P.P.I.P.F.P.F.D.F.F.F.P.F.F.F.D.F.F.F.F.F.F.F.F.D.F.F.F.F.F.F.F.P.F.P.F.F.P.P.F.P.P.F.P.P.P.P.P.P.P.P.P.P.P.P.I.P.I.I.I.I.U.U.U.U.U.U.U.U.U.U.U.U.U.U.T.U.T.T.U.U.U.T.Y.} U.T.T.d d H.`.`.`.`.'.'.'.'.",
"gXgXgXgXgXgXgXgXgXkXgXgXgXgXgXgXgXgXgXgXgXgXgXgXgXgXgXgX;XN PXLXLXLXSXI d , 1 1 d 8 q 1 1 1 1 1 1 1 1 2 1 : : < , : + z C.V.B.C.B.B.B.B.B.B.B.B.B.B.B.B.B.B.B.B.B.B.B.B.B.B.B.B.B.B.B.B.B.B.B.B.B.B.B.B.B.B.B.B.B.B.B.B.B.B.B.B.B.B.B.B.B.B.B.B.B.B.B.B.B.C.V.V.z s &     # < x G J A.A.A.A.A.A.G.A.G.G.G.G.H.G.G.G.G.G.S.G.J.S.G.J.G.G.J.G.G.J.G.H.G.J.J.J.J.J.J.J.J.J.J.J.S.G.J.J.J.J.J.J.J.J.J.J.J.J.J.J.J.J.J.J.J.J.J.J.J.J.J.J.#XJ.[.[.#X'.#X#X#XJ.[.R.'.#X#X#X#X#X{.Y.#X#X#X#X#X#X#X#X#X#X#X%X#XJ.J.#XJ.V 9XHXJXJXFXFXFXFXZXcXZXcXfXFXZXFXCXkX&Xb b @XZXFXFXfXZXfXfXCXfXCXdXfXdXdX+XI M M n I ,.+X9XdXFXJXJXKXHXKXHXHXHXHXGXFXZXZXfXCXCXdXdXDXdXdXdXfXCXfXdXfXZXZXZXFXZXZXZXZXdX&X&X@XXXe.e.,.I N I ,.e. X+X&XfXdXfXZXcXZXFXFXZXcXFXdXn  .<X^.<X^.:X:X^.<X<X^.^.<X:X:X:X<X,X,Xh.:X:XQ. .' b 8 m #.~.;X .n  .T.OXOX;XoXOXT.T.R.I.I.P.P.F.P.F.F.F.P.F.F.F.F.D.D.D.D.D.D.D.D.F.F.D.F.F.F.P.F.F.F.P.F.F.P.F.P.P.P.P.P.P.F.P.P.P.P.P.P.R.P.P.P.I.P.I.I.I.I.I.U.I.I.U.U.U.I.U.U.U.T.U.U.U.U.U.U.U.T.U.T.Y.T.T.T.T.n : P `.`.`.'.].`.].'.",
"gXgXgXqXgXkXgXgXgXgXgXgXgXgXgXkXgXgXgXgXgXgXgXgXgXgXgX0Xn &XLXLXPX$Xb 1 1 d 1 1 1 d 1 1 1 2 1 < 2 2 < : : 2 : 2 2 < : s F B.B.B.B.B.B.B.B.B.B.B.B.B.B.B.B.B.B.B.B.B.B.B.B.B.B.B.B.B.B.B.B.B.B.B.B.B.B.B.B.B.B.B.B.B.B.B.B.B.B.B.B.B.B.B.B.B.B.B.B.B.C.C.B.F f &       & d S L A.A.A.A.G.A.A.G.S.S.G.G.S.G.G.G.G.G.G.G.G.J.G.J.G.G.J.G.J.J.S.S.J.G.J.J.G.S.J.J.J.J.J.J.J.J.J.J.J.G.G.J.J.J.J.J.J.J.J.J.J.J.J.J.'.'.'.J.#X'.'.[.J.J.'.#XY.R.#XY.#X#X#X'.#X#X#X#X#X#X%X#X#X#XY.[.%X#X#X[.R.J.%X#X'.J.#X#X#X#X#XJ.Z JXJXJXFXFXFXFXcXZXFXZXZXFXZXfXFXZX@Xn XXdXcXZXfXFXFXFXFXJXJXGXdX&Xe.N b b I @X&XCXJXHXKXHXHXKXHXHXKXHXHXIXSXSXZXCXCXdX&X&X&X@X+X@X+X%X@XoXXXe. X XoXoX@X@X&X&X&XdXdXZXZXAXZXfXZXdXdXdXdX9X@XoXXXI N n M M n I e.@X9XfXFXGXFX&Xm !.^.^.<X^.^.<X:X<X:X<X^.:X,X,X,X,X>X:Xd. .' 8 n .. . .;X;X;X=X{ U oXt.oXy.;XOXOXT.T.R.T.I.I.R.I.P.P.P.P.F.D.F.F.F.D.D.F.D.D.F.F.F.D.F.D.F.F.P.P.P.P.P.F.P.P.P.I.P.P.P.F.P.F.F.P.P.P.P.P.P.P.P.P.I.I.I.I.I.I.I.I.U.U.U.U.U.U.I.U.U.U.U.U.U.U.U.U.U.Y.T.U.T.T.U.T.T.I : V `.`.`.`.`.'.'.'.",
"gXgXgXkXgXgXgXgXgXgXgXgXgXgXgXgXkXgXgXgXgXgXgXgXgXgXgXoX,.LXLXDXG 1 1 1 1 j 8 1 1 1 1 1 2 < : : @ + @ @ @ = : : < 2 1 , d B.B.B.B.B.B.B.B.B.B.B.B.B.B.B.B.B.B.B.B.B.B.B.B.B.B.B.B.B.B.B.B.B.B.B.B.B.B.B.B.B.B.B.B.B.B.B.B.B.B.B.B.B.B.C.B.B.C.C.C.C.B.d > X     & d V L A.G.A.G.A.G.A.A.G.S.G.A.G.G.G.G.Z.G.H.H.G.G.H.G.S.J.G.J.J.Z.J.G.G.G.J.G.J.G.J.G.J.J.J.J.J.J.J.J.J.J.J.J.J.J.J.J.J.J.J.J.J.J.J.'.'.#X#XJ.R.[.J.#X#XJ.#XY.#X'.#X#X[.#X#X#X'.#X'.#X#X#X#X#X#X#X#X#X#X#X#X#X#X#X%X%X[.Y.#X'.#X#XJ.#X#X#XS.Y.HXJXFXFXFXFXFXFXcXZXcXcXZXcXFXZXoXb oXfXcXZXcXZXFXFXFX9XoXI n b b I XXdXFXJXHXHXHXHXHXHXHXHXHXKXJXJXZXdX&X@X XI M j r : @ 3 @ @ = 3 3 @ 3 @ 3 3 3 = = ; : : 2 2 1 b n I I  XXXXX+X&XdXfXdXfXdXfXdXdX&X+X@X Xe.I M b b I e.oX&XXXm /.<X^.<X:X^.:X^.^.<X:X:X,X,X,X,X:X$.y 8 m  .#.d.~.~.;Xf.-X-X-X[ } OX;X1Xf.OXf.r.OXe.T.T.U.} R.I.I.P.P.F.F.F.F.F.F.F.D.F.F.D.D.F.D.F.F.F.F.F.F.U I.F.P.F.F.F.P.P.K.P.P.F.P.P.P.P.P.P.P.P.P.P.P.P.P.I.I.I.U.U.I.I.I.U.I.U.U.U.U.U.U.U.U.U.T.T.U.U.U.U.Y.T.U.Y.T.U.U.b s H.`.`.`.'.`.`.'.",
"gXgXgXgXkXgXgXgXgXgXgXgXgXgXgXgXgXkXgXgXgXgXgXgXgXgX-XM SXLX+Xb 8 8 j 1 r d 1 1 1 1 , : @ @ # @ @ & = @ @ @ @ @ : 2 < 1 , F V.V.B.B.B.B.B.B.B.B.B.B.B.B.B.B.B.B.B.B.B.B.B.B.B.B.B.B.B.B.B.B.B.B.B.B.B.B.B.B.B.B.B.B.V.V.V.V.V.V.V.B.C.C.C.C.C.C.z < #     O < V L S.A.Z.P G.G.A.G.G.A.G.S.G.G.G.G.S.G.G.G.H.G.G.G.J.G.J.G.J.J.G.J.J.J.J.J.J.Z.J.J.J.J.D.J.J.J.J.J.J.J.J.J.D.J.J.J.J.J.J.J.J.J.J.J.'.R.[.'.Y.R.[.'.#XJ.#XJ.#XR.[.J.#X#X#X#X#X#X#X%X'.R.[.#X#X#X'.'.#X#X#X#X#X#X[.#XR.$X#X#XY.#X#X'.#X.X#X.X.XA &XHXGXFXFXFXFXFXFXFXfXFXZXcXdXfXe.I &XFXFXFXFXJXfX&X XM r b } OXdXZXJXHXHXHXHXHXHXHXKXHXJXGXdX&XoX,.N 8 : @           @ : 2 8 b b b b 8 b r j b 8 r 1 1 : : = : # #               @ 3 q N I  XOX&XdXdXfXdXfXdXdXfXdX9X&XoXe.I M b q 8 m ..#.h.^.:X<X^.:X,X<X<X,X,X,X .e ] $.-X-X=X;X;Xf.-X2X2Xl.-Xd.[ t.@X;X1Xf.;XoXoXt.oXe.T.T.T.T.R.U.I.P.P.F.P.F.F.F.D.D.F.D.D.F.F.F.D.F.F.F.F.F.F.P.F.P.F.F.P.F.P.P.F.P.P.P.P.P.P.P.} P.P.P.P.P.P.P.I.I.I.I.I.I.I.U.U.U.U.Y.Y.U.U.U.U.U.U.U.U.U.U.Y.U.U.T.T.T.T.T.U : P `.`.`.`.`.'.'.",
"gXgXgXgXqXgXgXgXqXkXgXgXgXgXgXgXgXgXgXgXgXgXgXgXgXqXn XXLXXXd 1 d 1 j 1 1 1 1 2 : @ O # @ : : : 2 2 : 2 , 2 : : : : 1 r 1 d V.B.B.B.B.B.B.B.B.B.B.B.B.B.B.B.B.B.B.B.B.B.B.B.B.B.B.B.B.B.B.B.B.B.B.B.B.B.B.B.B.B.B.B.V.V.V.V.V.V.V.V.C.C.B.V.d &     . , c L A.G.A.A.G.A.G.A.G.A.A.A.A.G.G.G.G.G.G.G.G.G.G.G.G.H.G.J.J.G.G.J.Z.J.G.J.J.J.J.J.J.J.J.[.J.J.J.J.J.J.J.J.J.J.J.J.J.J.J.J.J.J.J.J.J.J.J.Y.[.Y.'.#X[.Y.'.'.#XJ.#XJ.'.%X#X#X#X#X#X#X%X#X[.#X%X'.#X#X#X#X%X#X#X#X#X%X#X#X#X#X#X#X#X#X#X#X#X#XY.#X#X.Xb ZXJXJXFXFXFXFXFXFXFXFXFXFXFXfXe.e.fXFXfXFXfX&Xe.b r M XX9XFXJXHXHXJXHXJXHXHXHXGXdX&XOXI b q = @ O       @ @ 3 : 8 r A I N I } } I I e.I } } } } ,.} e.} ,.} e.} I I I N M n b b q % @ .   .   O 3 1 b I e.@X&XdXDXkXFXZXcXFXFXFXZXdX&Xe.I b n '  .^.:X:X<X,X,X,Xh.' t | -X-X-Xd.;X;X-X2X-X>X2X2X2X2X .t.1X1Xz.1Xx.l.;X;XOXt.;XoXOXoXT.U.U.P.P.P.P.P.F.F.F.F.D.D.F.F.D.D.F.K.P.F.F.F.P.F.P.F.P.P.F.F.P.P.F.P.F.P.P.P.P.P.R.P.P.P.P.P.P.I.P.I.I.I.I.I.U.U.I.U.I.U.I.Y.U.U.U.U.U.U.T.U.T.Y.U.T.U.U.Y.T.U.I.2 v '.`.`.`.`.].'.",
"gXgXgXgXgXgXgXgXgXgXgXgXgXgXgXgXgXgXgXgXgXgXgXgXgX} r SXXX< 8 d 8 d 1 1 1 : : + @ @ : : : 2 : : : : , : 2 : , 2 2 < 1 1 q < F C.B.B.B.B.B.B.B.B.B.B.B.B.B.B.B.B.B.B.B.B.B.B.B.B.B.B.B.B.B.B.B.B.B.B.B.B.B.B.B.B.B.B.B.V.B.B.F k d z k d > .     & d Z A.Z.L A.A.G.G.S.A.A.A.A.A.A.G.G.A.A.G.S.A.G.G.G.A.G.G.Z.G.J.J.J.J.J.J.G.J.J.G.J.G.J.J.J.J.[.R.J.J.J.J.J.'.J.J.Y.[.Y.J.J.J.J.J.J.J.J.J.J.J.J.J.'.J.J.#X#XJ.#X'.J.#XY.#X'.#XJ.#X#X#XY.R.%X#X%X#XR.%X#X#X#X%X#X#X%X#X[.R.#X#X#X#X#X%X[.%XY.#X'.#X#X.X#XP I HXJXFXFXFXFXFXcXFXFXFXFXfXZXe.XXfXFXFX9Xe.M b I oXdXFXJXJXJXHXJXJXJXZXZXdX@XI b < 3 .     #       @ 2 b G I I I } e.e.e. X Xe.,.e.e.e.,.T..Xe.e.e. X,. X X Xe. X Xe.e.XX X XXXe. Xe.,.} I n b b 8 : 3 # 3 @ : 8 n I XX&XdXfXZXJXJXHXHXHXJXFX&X XI U N [ .. .$.h.] ' d.2X-X-X-X-X-Xl.-X-Xf.] m { } } f.;X-Xk.1X1Xl.l.1X;Xl.;XOXOXt.t.T.R. .I.I.U.I.P.F.D.F.D.F.D.D.D.F.F.F.F.F.F.P.P.P.F.F.P.F.P.P.P.P.P.P.P.F.P.P.P.I.P.P.P.P.P.P.I.P.I.U.I.I.I.U.I.I.I.I.I.I.U.I.U.U.U.U.U.U.U.R.U.T.T.U.U.U.T.U.U.T.T.b < H.J.`.`.`.'.].",
"gXgXgXgXgXgXgXgXgXgXkXgXgXgXkXgXgXgXgXgXkXqXkXgXf.2 .X+X: 1 d q j 1 1 2 : # O $ : : 2 : , : 2 2 : < 2 : < 2 2 < 1 1 1 : 1 , F C.B.B.B.B.B.B.B.B.B.B.B.B.B.B.B.B.B.B.B.B.B.B.B.B.B.B.B.B.B.B.B.B.B.B.B.B.B.B.B.F B.k k f , , , h 8 o       + < v L G.A.L G.A.L G.A.A.A.G.A.A.A.G.G.S.A.G.A.A.G.A.S.A.G.G.Z.G.G.J.Z.J.J.J.J.J.J.J.J.J.J.J.J.J.J.J.Y.J.J.#XJ.'.#XY.[.Y.[.R.'.J.#XJ.J.#X#XJ.J.J.J.J.J.J.J.'.J.J.J.J.J.#X#XJ.[.J.#XJ.#X#XJ.#X[.%X[.#X#X#X%X[.%X#X#X%X#X#X%X#X%X#X#X#X#X#X#X[.R.%X[.#X#X#X#X.X#XA @XJXFXFXFXFXFXFXFXFXFXFXFXFXoX@XJXFX@XI b n  XdXFXJXFXJXGXJXFXFXZXdX@Xe.b 2 # 3 3 3 ; w w 3   @ : b I } e.e.} e. Xe.e. XI  Xe.e.Y.e. X} e.e.e.e.XXe.e. X X Xe.e.e.XXXXe.e. X Xe. Xe. X X X X XXX X Xe.e.e.I I n A 2 @ 3 3 % r b I e.&XdXFXJXJXJXHXHXGXCX9X&XXXN n 7 m [ r.f.-X2X1X-X-X-X| e u N i m 8 t e.k.1Xl.1X;X1Xl.1X@X1Xk.f.1X;XT.T.T.T.U.U.I.P.P.F.D.F.D.P.F.F.F.F.F.F.F.F.F.F.P.P.P.F.P.P.F.F.P.P.F.P.P.P.P.P.P.P.P.P.P.R.P.R.I.P.I.I.I.I.I.I.I.Y.I.Y.U.I.U.U.U.T.U.U.U.U.U.U.U.U.U.Y.U.U.U.T.U.T.U : J `.`.'.`.`.'.",
"gXgXgXgXgXgXgXgXkXgXgXgXgXgXgXgXgXkXgXgXgXgXhX-XN b XX1 1 8 d 1 1 1 : $ + 3 : < : : : : : 2 1 d r b d 2 2 < 2 1 1 1 1 = 2 > x V.B.B.B.B.B.B.B.B.B.B.B.B.B.B.B.B.B.B.B.B.C.B.B.B.B.B.B.B.B.B.B.B.B.B.F z f f g * : > 8 h ..K.9 8 # # & < c J P Z.S.A.A.A.A.L A.L Z.A.A.A.G.P A.G.G.A.A.A.G.A.S.S.S.S.S.G.J.G.J.J.J.J.J.J.J.J.J.J.J.J.J.J.J.J.J.J.Y.'.[.J.#XJ.J.#XJ.#X#XJ.'.#XJ.#X'.#X#X#XJ.#X#XJ.[.'.'.'.J.#X#X#XY.J.#XJ.R.Y.[.R.Y.#XJ.'.J.#XJ.#X#X#X#XY.%X#X#X#X#X%X#X#X%X[.%X#X%X#X[.%X%X#X#X#X#X#X'.#X`.b CXJXFXFXFXFXFXJXFXFXFXFXFXFXfXdXOXM b e.9XFXFXFXJXJXJXFXZXdX&Xe.M q ; ; w w w w =.=.w ; # 3 1 I } e.e.e.,. Xe.}  X XI e.e.I ,.e.I e.e.,. XY.XXe.,. XXXe.e.XXXX XXXe.e.y.XX Xe.e.e.XXe.XXXXe. Xe.oXXX XXXoXoXoXOX+XI w w w w ; 3 3 3 3 3 q n ,.oXdXcXJXHXKXKXKXIXCX&X XN b e N f.>X<Xf.n 8 { c.rXz.c.l.u 2 t [ t.1X;X1Xk.1Xl.l.1X1X;XOXt.OXT.OX .U.R.P.P.P.P.F.P.P.F.F.F.F.F.F.F.P.F.P.P.F.P.F.P.P.P.F.P.P.P.F.P.P.P.P.P.P.P.P.P.P.P.P.P.P.I.P.P.P.I.U.I.I.I.Y.U.U.U.U.U.U.U.U.U.U.U.U.T.U.U.T.U.U.T.U.T.T.} 1 x `.J.`.'.`.`.",
"gXgXqXkXgXgXgXkXgXgXgXgXgXgXkXgXgXgXgXgXgXgX1X} t.b b : 1 1 1 1 2 : @ @ : : : : : : 2 1 b A I I G b j 1 < 2 1 1 1 1 8 < > 2 d V.B.B.B.B.B.B.B.B.B.B.B.B.V.V.B.B.B.B.B.B.B.B.B.B.B.B.B.B.B.B.F k f > > > 8 h U ....+.Q.+.h 0 + + , c D S.A.A.S.A.L A.Z.L A.A.Z.G.G.G.A.G.A.Z.G.A.A.S.A.A.S.S.G.G.A.G.S.S.G.G.G.J.J.J.J.J.J.J.J.J.J.J.J.J.J.J.J.J.J.J.Y.J.J.J.#XJ.R.J.J.#X'.J.J.#X#X'.J.#X#XJ.#XJ.R.#X#X'.J.#XJ.#X#X#X#X#X[.%X'.'.[.R.#XJ.#X#XJ.#XY.#XR.[.[.R.#XY.#X#X%XR.R.%X#X#X%X#X%XR.#X#X%X#X#X#X#X#XG I FXGXFXFXFXFXFXFXFXFXFXJXFXdXe.N I @XfXFXFXFXFXZXfXdX&XoXI l q w w w =.=.=.=.=.=.w ; # : r N Y.,.e.e.e.Y. Xe.,. X XI e.e.e.e.Y. X Xe.e. Xe.e.e.e. Xe.e.e.e.e.e.e.e.e.XXe.e.e.XXXXe. Xy.e.e.e.XXe.e.e.oXe.oXXXXXXX@XI 3 w w w =.=.=.=.=.w w ; ; 3 3 2 I oXdXJXHXHXLXLXLXLXCX&XI 8 n [ t ' k.rXrXrXM.rXrXc.r.y 2 8 n t.;X1X-X1X1X1Xl.l.f.1X;XOXT.T.T.T.U.I.I.I.F.P.P.P.F.F.F.F.F.F.F.P.F.P.F.P.P.F.F.F.F.F.P.F.P.P.F.P.P.P.P.P.P.P.P.P.P.P.I.P.I.I.I.I.I.I.U.I.I.I.I.U.U.U.U.T.T.U.U.U.U.U.U.U.U.U.U.U.U.U.T.U.b 1 G.`.`.`.`.`.",
"gXgXgXgXgXgXgXgXgXgXkXqXgXgXgXgXgXgXgXgXgX8Xe.8X' 1 : 1 1 1 1 < @ @ 3 : : , : 2 1 j v I I XXY.b 1 2 2 1 1 1 1 1 j 1 j 1 @ < s V.B.B.B.B.B.B.B.B.B.B.B.B.V.V.V.V.B.B.B.B.B.B.B.C.B.V.z k a * : > h ' ....E.!.Q.Q.Q...h 4 + & f U L L A.L A.A.A.L A.A.L A.A.A.Z.A.L G.A.A.Z.G.G.A.S.G.G.S.H.G.G.G.G.G.G.J.J.S.J.J.J.J.J.J.J.J.J.J.J.J.Y.'.Y.J.#XJ.R.[.'.Y.Y.[.#XJ.[.#XJ.J.J.J.J.#XY.'.#X[.#XY.#X#X'.#X'.#X#X'.#X#X[.#X#X#XY.#X#X[.Y.[.R.[.J.#X'.'.'.Y.[.#XY.[.#X[.J.#X#X[.[.Y.#X#XY.#X#X%XR.#X#X$X#X#XJ.#Xb +XJXFXFXFXFXFXFXFXFXJXfX&X} N ,.&XFXFXFXZXFXfXdX@X,.<.p w =.=.=.-.-.-.=.=.=.=.w 3 @ 2 A } e.XX Xe.} e.,.Y.} e.e.e.e.,.} .XY.,.e.e.e.e. Xe.e. Xe.e.e.e.e.e.XXe.XXe.XXe.e.e.e.e.e.e.e. XXXe.e.XX X XXXy.oXXXoXXX@XOX@XP w w w =.w w =.=.=.=.=.-.-.-.=.w ; ; < b  X9XKXLXLXLXLXLXHXdX,.2 t l.rXM.c.5X5X5XrXrXrXM.k.[ r 2 N t.>X1Xf.1X4X1Xf.1Xl.OXoX Xt.T.T.T.T.U.P.P.P.P.P.P.P.F.P.F.F.F.F.P.P.P.P.P.P.P.P.P.P.P.P.F.P.P.P.I.P.P.P.R.R.P.P.P.P.P.I.I.I.I.I.U.I.I.I.U.I.U.U.U.U.U.U.U.U.U.I.U.U.T.T.U.U.T.U.U.T.T.I : P H.`.`.`.`.",
"gXgXgXgXgXgXgXgXgXgXgXgXgXgXgXgXgXgXgXgXgX1X8XqX8 : 1 1 1 1 : @ & : : : : 2 1 b I  XXXXX%Xe.b < 2 1 1 1 1 1 1 1 b 1 8 1 3 1 > F B.B.B.B.B.B.B.B.B.B.B.B.V.V.V.V.B.B.C.B.B.B.F d f > > 2 h U ..+.W.W.W.!.Q.Q.Q.&.h > & > k Z D S.S.L A.A.L S.A.A.L L A.L L A.P A.A.A.S.G.G.G.G.G.G.G.G.H.G.G.G.G.G.G.G.G.Z.J.G.G.J.J.J.J.J.Y.J..XY.J.[.R.[.J.#XJ.[.Y.'.#X[.R.J.'.J.#X#X'.#X#X'.#X#X#X#XR.%X[.#X[.#X#XR.[.#XY.#X#X[.R.J.#X%X#X#X#X%X%X[.Y.#XJ.'.#X#X#X#X#X#X#X#XR.#X#X#X#X%X#X#X#X#X#XY.[.[.#X#XJ.#X[.Y.J.b dXFXJXFXFXFXFXGXJXfXoXI N XXdXFXFXFXFXdXdX@XI b q w =.-.-.-.-.=.=.=.=.=.=.w 3 @ 2 M } e.,.e.e.e.e.`.e.e. Xe.`.e.e.Y. Xe.e. Xe.e. XY. X,. X X,.e.e.XXe.e.XXe.e.e.e.XXe.XXe.XXXXe.oX Xe.XX XoXe.XX X XXXXXXXoXoXOX%X+Xe.3 w w w =.=.w w =.=.=.=.=.=.-.-.-.-.=.w ; 2 M &XGXLXLXLXKXKXFXdXn 8 s.5XrX5Xc.5XM.rXm.rXm.rXz.] 2 r [ s.1Xl.z.4X1X1Xk.;X;X;XT.oX . XR.U.P.I.I.P.P.F.P.P.F.P.F.P.P.F.P.F.P.P.F.P.F.F.F.P.P.P.P.P.P.P.I.P.P.P.P.P.P.P.P.P.P.I.I.I.I.Y.I.I.I.I.U.U.U.U.U.U.U.U.U.U.U.U.U.U.U.U.T.T.U.T.U.U.U.1 c `.`.`.`.`.",
"gXgXgXgXgXgXgXkXgXgXkXgXgXgXkXgXgXgXgXgXgXqXgX1X: , 1 1 < : @ $ : : : 2 d b I .X%X+X+XXXI b 1 1 1 1 1 1 1 1 j j 1 j 1 1 = 2 < k V.V.V.V.V.V.V.V.V.B.B.B.V.V.V.V.B.B.L.x a - & 0 9 K...W.W.W.W.W.W.W.Q.Q.Q...h + & a B D J S.H S.L S.L A.L A.L S.L A.L A.A.L S.A.A.G.G.G.D.H.G.G.G.G.G.G.G.G.G.G.S.G.G.G.J.G.S.J.J.J.J.J.J.`.J.J.[.'.J.'.J.J.#XY.[.R.Y.[.R.Y.#X'.#X'.#X#XJ.#X#X#X#X#X#X#X#X#X#XR.#X#X#X#X'.[.R.#X[.R.#X#X#X#X#X#X#X#X#X#X#X#X'.#X#X#X#X#X#X#X#X%X$X#XR.#X#X#X#X#X#XJ.#X[.#XR.#X'.Y.#XJ.S.I cXZXFXFXFXJXFXdXI b n @XdXJXFXFXZXkX&Xe.b q w =.-.-.-.-.-.=.-.=.=.=.=.w 3   : n ,.e.e.e.e.e.e.e.,. Xe. X Xe. X Xe.e.e.e.e.XXe.,. Xe.e.e.e.XXe.XXe.e.XXe.XXe.XXe.oXe.e.XXe.e.oXe.e.XXy.XXe.oX XXXe.XXoXoXXXoX@XXX+X&XXX; w w w w w =.=.=.w =.=.=.=.=.=.-.-.-.-.-.-.=.w w L &XPXLXLXLXKXSXI : [ 4X5X5Xc.5Xc.rXrXrXrXrXrXk.y 4 8 [ t.1X4X1Xl.1X1Xl.OXt.OXOXT.T.T.T.T.I.I.P.P.P.P.P.P.P.F.P.P.P.F.P.P.F.K.F.P.P.F.P.P.P.F.P.P.I.I.I.P.I.P.P.P.P.P.I.I.I.I.I.I.I.I.I.U.U.Y.U.U.U.U.U.U.U.U.U.U.U.U.U.U.T.U.U.U.T.U.T.b < G.J.J.`.`.",
"gXgXgXgXgXgXgXgXgXgXgXgXgXgXgXgXgXgXgXhXgX1Xt.m $ 1 2 2 : 3 : : : > 2 c I ,.XX*X+X%X#XI A < 2 < 1 a f 8 j 8 1 8 j 8 b 1 : : 1 d V.V.V.V.B.V.V.V.B.B.B.B.V.V.z a , > * > h U ..@.Q.Q.Q.W.W.W.W.W.W.Q.W...0 & * f Z D J L H H L H L H A.L S.J A.L S.L S.A.A.A.L S.A.G.G.G.G.G.A.S.G.S.A.G.S.A.G.G.G.S.J.G.G.J.J.G.J.J.J.J.J.'.J.J.P.J.J.J.J.J.J.J.#X[.J.#X[.#X#XJ.J.#X#XJ.Y.#X[.R.#X#X#X#X#X#X#X%X#X#X#X#X%X#X#X%X#XY.[.#X#X#X#XY.#X#X#X#X#X#X#X#X%X[.#X%X#X#X#X#X#X%X[.#X#X#X#X#X#X%XY.'.'.[.J.'.J.J.J.F e.JXFXFXFXGX&XN r M +XZXFXFXFXFXFX&XI 1 ; =.-.-.-.-.-.=.=.-.=.=.=.w w 3   2 b I  XXXe.e.e. Xe.`.XXe. Xe.,.e. XI e.`.`.e.XXe.e.e. Xe.e. Xe.e.e.e.XXe. Xe. Xe.e.e.XXe.XXoXXXoXXXe.XXoX XXXoX XXXoXXXoXoXXXXXoX@XXX+X@X+XXX; =.w w w w w w w =.=.=.=.=.=.=.-.-.-.-.-.-.v.;.w w = b &XIXLXLXLXLX&Xr N c.5X5X5XrX5Xc.5Xm.rXrXrXM.s.m 2 r [ k.4Xz.1Xl.1X>XOX;XOXt.oXT. X .U.U.P.P.P.P.P.F.P.F.P.P.P.P.F.P.P.P.P.F.F.P.P.P.P.P.P.P.P.P.P.R.I.I.I.P.I.P.P.P.I.I.I.I.Y.I.I.I.I.U.U.U.U.U.U.U.U.U.I.U.U.U.U.T.T.U.T.U.U.T.I.} % D `.J.`.`.",
"gXgXgXgXgXgXgXgXgXhXgXgXgXgXgXgXgXgXgX<X] 8 : : 2 1 2 < : 2 : : : 2 v I } .X&X&X&X&XP b 2 2 : 2 1 1 1 j d 1 d 8 1 r d 1 : : 1 < V.V.V.V.B.B.B.V.B.B.V.F k a f n h @ : ..W.Q.@.@.Q.Q.Q.Q.!.W.Q.Q.W...4 & > d U B.H S.J D J D H L D D A.L L A.L S.G.A.A.A.A.L L A.S.G.S.S.G.A.A.G.A.G.S.A.S.G.G.H.G.J.J.G.G.J.J.J.J.F.S.B V D.H.H.J.J.J.J.J.#XJ.J.Y.'.'.J.J.#X#X'.J.#X#XJ.[.[.%X#X#XY.#X#X#X#X#X#X%X#X#X#X#X[.#X#X#X#X#X#X#X#X#X#X#X#X#X#X#XJ.J.#X%XR.#X#X%X#X#X#X#X%X#X%X#X%X#X#X#X%X#X#X%X[.Y.'.'..XJ.c +XFXFXJXdXe.b I 9XFXGXFXFXFXfXoXM 1 w =.;.;.-.=.-.-.=.=.=.=.=.w ; 3 ; b I e. X Xe. Xe.XX X X Xe.e.e.e.e. Xe.e. Xe.XXe.e.e.`.e. Xe.e.XXe.e.XXXXe.e. Xe.e.XXy.XXoXe.XX XXXy.XX XoXoXXXXXoXXXoXXXoXoX@XXXXXXX+X@X%X+X*X&XXX# w w w w w w w w =.w =.=.=.=.=.=.-.-.-.-.;.;.;.<.;.;.w ; q ].IXLXLXLXdXb [ c.5X5Xc.5XrXc.rXc.M.5XM.rXm.t.y 2 7 [ l.4X1Xl.1Xk.@X;Xt.oX XOXT.R.T.R.} P.P.P.F.F.P.P.P.P.F.F.P.P.P.F.F.P.P.P.P.P.P.P.P.P.P.P.P.P.I.I.I.I.P.I.I.I.I.I.I.I.I.I.I.I.I.I.Y.U.U.U.U.U.U.U.U.I.I.U.U.U.U.U.U.T.U.U.U.1 c H.H.`.`.",
"gXgXgXgXgXgXgXgXgXgXgXgXgXgXgXgXgXgXOXn < 1 d 1 : < 2 : , : : : < b n v I XX*XDXDXG.1 2 < 2 : 1 1 1 d 8 1 r d d j 1 1 b : : 1 , V.C.V.V.B.B.V.V.z d g * & 2 oX+X9X Xh : ..Q.@.@.Q.Q.+...Q.Q. .h 4 & > x D S S.D D S.D S.J S.B.D S.A.A.A.A.L A.A.A.L G.A.G.A.A.G.A.P G.Z.G.A.G.Z.A.G.G.G.G.Z.G.H.J.S.J.J.J.Z.G.J.H.L a < 2 f Z.G.J.J.J.J.'.J.J.J.'.'.J.#XJ.#XJ.#X#X#X#X#X%XR.#X#X[.#X#X#X#X%X#X#X#X#X%X#X#X%X#X#X%X#X#X#X#X#X#X#X#X#X#X#X#X#X#X#X#X#X#X%X#X%X%X#X#X#X#X#X#X#X#X%X#X#X%XR.%X#X#X#X#X#XF.A dXFXFXOXn M +XZXGXFXFXFXdXXXb q w -.-.-.;.-.-.=.=.=.=.=.=.=.w # ; M e.oX Xe.e.e.`.e.e.e.,. X Xe. Xe.e..Xe. X Xe. Xe.e. X Xe. Xe.XXe.XX X X Xe. XXXe.XXXXXXe.XXoXoXXXoXoXXX XoXXX XoXXXoX@XXXoXXXoXXXoX@X@XXX@X+X@X&X&X+X; w w w w w w w =.w =.w =.=.=.=.=.=.=.=.-.-.;.;.;.<.<.<.;.w ; F CXLXKXKXDXr r.5X5Xc.5Xc.5X5X5X5X5XrX5XrXrXtXk.n 2 r [ l.1X>X1Xt.OX;X;X;XT.T.T.T.P.P.P.P.P.P.P.F.P.P.P.P.P.F.P.F.P.P.F.P.P.P.P.P.P.P.P.P.P.P.P.I.I.I.I.P.I.I.I.I.I.I.I.I.U.I.I.I.U.U.U.U.Y.U.U.U.U.U.T.U.U.U.U.U.U.U.T.T.T.U.b , P .X`.`.",
"gXgXgXgXgXgXgXgXgXgXgXgXgXgXgXgXgXoXr 1 d 1 1 1 : 1 < : : $ : : 1 1 2 c  X%X&XIX%X8 < 2 < 2 1 b r d 1 1 q d j q d 8 1 d 2 = 8 , L.V.V.F z k s > > 8 b ..8 U 1XOXOX1XOXV > ' ' K.h m h U h h $ & f B D D S.S.D D L H H D J J D S.L A.G.A.A.A.A.A.A.A.G.A.G.A.G.A.G.A.A.G.G.Z.G.G.G.G.G.Z.J.G.Z.J.J.J.J.G.H.G.H.J.D < b OXI.* c G.J.J.J.J.J.J.J.J.'.J.R.[.J.J.#XJ.#X#X#X#XY.#X#X#X#X#X#X#X%XR.#X#X#X%X#X#X#XR.%X$X#X%XR.%X%X#X%X#X#X#X#X#X#X#XJ.%X%X[.%X[.#X#X#X#X#X#X#X#X[.%X#X#X#X#X%X#X%X#X#X#X#X#XD.e.FX+XM b OXfXGXFXFXFXdX} q w w ;.-.-.=.=.-.=.=.=.=.=.=.=.w @   M XX XXXe. X Xe. Xe.XXe.e. Xe. Xe. X XXX X X X X X X X X XXXe. X Xe. XXXe.e.oXXX X XXXoXXX XXXoXXXoXXXoXXXoXXXXXoXoXXXoXoXXXXX@X+X+XXX@XOXOX+X+X*X@X&X&X&X; w w w w w w w w w =.w =.=.=.=.=.=.=.=.-.-.-.-.;.<.<.<.;.v.;.=.q +XHXHXHX&Xr l.3Xc.5X3X5Xc.c.5X5XrX5X5Xm.m.rXm.k.] 7 r [ l.1X1X;XOXl.OXOXOXT. XR.I.I.I.F.P.P.F.P.P.P.P.P.P.P.P.P.F.P.P.P.P.F.P.R.P.P.P.P.P.I.U.I.I.} R.P.I.I.U.I.I.I.I.U.I.U.U.U.Y.U.U.U.U.U.I.U.U.U.U.U.U.U.U.U.U.T.U.U.T.U > G `.`.J.",
"gXgXgXgXgXgXgXkXgXgXgXgXhXgXgXgXOX8 1 j 8 d 1 1 : 2 2 @ : = : : : 2 : b e.XX&X&XI 1 1 < 1 1 1 1 1 1 d r d 8 8 1 8 j q r < @ q : f f , - : 1 h U ..W.W...: I 9XOX+X9X1X%XI : , B U G G j & * d A D D S.D D D S.D H D S.D S.J L L L A.A.L L S.A.A.A.A.Z.P A.G.G.A.A.G.G.G.G.A.A.G.G.G.G.J.H.G.G.J.G.G.G.J.G.H.J.J 1 U +X&X&Xn : Z S.Z.G.G.S.J.J.J.J.Y.[.Y.J.#XR.J.#X[.'.#X#X#X#X#X#XY.#X[.%X[.%X#X#X#X#X%X#X%X%X[.#X#X%X[.[.#X#X#X#X#X%X#X#X%X#X#XY.#XR.%X%X%X#X%X%X#X#X#XR.%X%X#X#X%X#X#X#X#X%X#X#X#XP ,.M b  XCXHXJXJXdX@XA ; q -.-.<.;.-.-.=.=.=.=.=.=.=.=.w ; = @ N oX@Xe.e.XXXXe.XX X Xe.e.XX X Xe.} K n b b b e b M I I ,.e.e.oXXXXXXX Xy.XXXXoXy.XXoXoXXXoXXXoXXXoXoXOXOXXXXXoXoXXXXX@X@XXX+XOXOXXX@XOX%X@X+X*X+X+X&X&X&X&Xq ; w w ; w w w w w w =.=.w =.=.=.=.=.=.=.-.-.-.;.;.;.;.;.;.<.<.=.q XXGXKXHX} m 3X3X3X5X3X5X5X5Xc.5XM.m.rXrXrXrXrXm.k.i 7 e [ t.@Xf.;XOXt.;XOX .T.T.U m h h U R.K.P.P.P.P.P.P.F.P.P.P.F.F.P.P.P.P.P.P.P.P.P.I.I.I.I.I.I.I.I.I.U.I.U.I.I.I.I.I.Y.U.U.Y.I.U.I.U.U.U.U.I.U.U.U.U.U.T.U.U.T.T.T.U.8 j H.`.`.",
"gXgXgXgXgX8X;XOX} ] m n n N } ;Xn 2 d 8 1 1 1 1 , : < @ : : : 2 : < 2 f v A XX Xb d 1 1 1 1 d 1 d d 8 1 8 1 1 d d 1 d d 1 @ f = g h U }  .W.W.~.E.W. .h $ I 1X9XwX9X9X9X1XI : L G d & : d S S.H D J S.D D D S D H B.D S.S.J L S.S.A.A.L L A.G.G.G.A.G.A.G.G.Z.G.G.A.G.G.G.A.G.H.G.J.J.G.G.G.G.G.G.H.H.G.G.J.F.8 I +X9X+X9X X1 c S.S.H.G.J.J.S.J.J.J.J.J.J.J.[.'.J.R.'.J.'.'.R.[.J.Y.J.Y.J.Y.[.#XY.[.#X#X[.%X#X#X#X#X#X#X(.[.#X#X%XJ.#X%XR.%X#X#X#X%X#X#XR.{.#X#X%X#X%X#X#X#X#X#X%X#X%XR.#X$X$X$X#XJ.j b  XfXHXJXHXZXOXb @ w =.<.-.-.-.-.-.=.=.=.=.=.=.=.=.w + z j b XXXXoXXXXXe. Xe.e.e.XXe. Xe.XXI N G b M b b b b 1 = #   @ : q b N e.XXoXXXoXoXXXoXXXXXoXOXXXoXXX@XXXXX+XXXXX@XXXXX@XOXXX@XXXXX+X+XXXXX+XOX%X@X+X+X+X&X&X&X&Xq w w ; w w w w w w =.w w =.w =.=.=.=.=.=.-.=.-.;.;.;.;.;.<.<.<.<.;.q XXHXHXdXe s.c.c.5X5Xc.c.5X5XrXrX5Xm.rXrXm.m.rXrXm.s.n 8 r N t.y.OXOXOXOXoXT.U.U 8 4 + $ 2 V P.P.P.P.P.P.P.P.P.P.P.P.P.P.P.P.P.P.P.P.P.I.P.I.I.I.I.I.I.U.I.I.I.Y.U.I.U.U.I.I.U.I.U.U.U.I.U.U.I.U.U.U.U.U.R.U.U.U.T.T.T.U.b : G.`.`.",
"gXgXgXqXt.e : : : 2 < 2 , 1 < e 1 1 1 1 1 1 1 2 2 : 2 @ : : < : 2 2 2 1 1 8 v G b 8 d q 1 1 8 1 8 q d 1 j 1 r 1 j 1 8 1 1 @ 1 2 .. ...' U m m m n b d & b N wX+X1X+X1XwX9X+X8 @ = > k Z D D D D J D H H H B.D D H H D D J S.L L A.A.A.S.A.A.G.A.Z.G.G.G.A.A.A.G.G.S.A.G.A.G.G.A.G.S.S.J.G.J.G.G.H.G.S.S.H.H.b I +X+X+X9X+X9XU > S.G.J.G.G.J.J.J.J.J.J.J.J.J.'.J.J.#XJ.#X'.J.[.Y.Y.[.J.J.J.J.Y.J.[.R.#X[.R.Y.Y.#X#X#X#X#X#X#X%X#XJ.%X#X%X[.#X#X%X#X#X#X#X#X#X%X#X[.%X#X#X#X#X#X%X#X#X#X{.$X#X$X.XA 8 } DXGXGXJXFX+Xb @ w =.;.<.;.-.-.-.-.=.=.=.=.=.=.=.w 3 ; [.z < XXXXoXoXXXoXXXoXXX XXX Xe.XXXXXX XXX XoX XXX XP v 1 : : 1 M ,.G b < : 2 b I  XXXXX@XoXXXoXXXOXoXoXXX@X@XXXOX@XXX+X+XXX+X+XXX+X+XXX+X@X%X+X+X+X%X+X*X&X&X&X&X&Xr ; w w w w ; w w w w w w w =.w =.=.=.=.=.=.=.=.;.;.;.;.;.;.;.<.<.<.<.w XXJXHXXX' 3X3X3X5X5X3X5Xc.5XrXc.5X5Xm.rXrXm.rXrXm.tXs.{ n e ' t.OXOX .m n 8 h  .W.' 4 @ # 2 h F.P.P.P.P.P.P.P.P.P.P.P.P.P.P.P.P.P.P.I.P.I.U.U.I.I.I.I.I.I.I.P.U.I.U.U.U.U.U.U.I.U.U.Y.Y.U.U.U.U.U.Y.Y.T.U.T.T.T.U.T.U.I : G `.H.",
"8XgX1Xn & : : 1 1 1 1 1 1 8 d 1 1 d 8 1 1 1 : : @ : : @ : : 2 < < 1 1 1 1 1 1 j d 8 d 8 d 1 2 2 d 8 1 1 1 1 8 1 8 1 1 d 1 @ 1 : 8 d 1 c b B A A A G U , I N e.9X+X9X+X1XwX+X} + < S D L D D D D D D D D D H H D D D D A.L S.L S.A.A.Z.G.A.G.Z.G.G.G.G.A.G.G.A.S.A.A.A.G.A.A.G.S.S.S.L G.S.S.A.A.Z.S.A.A.G.b n +X9X+XoX+X9X+XoX: V G.G.G.H.J.H.H.J.J.J..XJ.Y.'.'.#X'.J.J.J.'.J.J.R.J.J.J.J.J.J.J.Y.'.#XJ.J.J.#XY.[.#X#X#X#X#X#X%X%XR.{.#X#X#X%X%X#X%X#X'.#X#X#X#XR.%X%X#X#X#X#X%X$X#X$X#X%X#XS.1 M 9XJXJXJXJXnX,.; w ;.;.<.;.;.;.=.=.=.=.=.=.=.=.=.w w ; k [.].< ,.OXOXXXoXXXXXoXoXXX XoX XXXXXoXoXXXoXXX XI A < = q F ].XXbXbXbXnX*XbX].,.l ; : b N  XXX@XOX+XOXOX%XXX@XXX@XoX+X+X+X+XOX%X%X@X+X+X+XXX%X@X+X+X*XXXe.I I  X X@XXXq 3 w w w w ; w w w w =.w =.w =.w =.=.=.=.=.=.=.-.-.;.;.;.<.;.;.<.<.<.;.w XXKXfXn h.5Xc.c.5X5X5X5XrX5XrXM.rXrX5XrXm.rXrXm.rXtXm.4Xk.q.N } N e '  .$.+.%.@.@.+.' 8 # $ 2 h F.R.P.P.P.P.P.P.P.P.P.R.P.P.P.I.I.U.I.I.I.I.T.I.I.I.I.U.U.I.U.U.U.U.U.U.U.U.I.U.I.U.I.I.I.U.U.Y.U.U.U.T.U.U.T.T.T.T.I.1 k J.H.",
"1 8 2 & 2 1 1 1 1 1 1 1 1 1 1 1 1 1 1 1 1 : : @ @ : : : : : : 2 2 1 1 1 1 1 1 8 1 1 1 q 1 1 < 2 1 q 2 1 1 1 d 1 1 1 q 8 1 $ 1 : B U F.D.U A b v n A c :  X} N +X1X+X X1X+X1X+X8 , D D D D D B.D D B.H D D D D S.D S.D S.L S.S.L G.A.S.P A.G.G.A.A.A.Z.G.A.S.G.G.G.G.A.Z.A.A.S.L C.S.L L L L H H D D H D b b OX9X1XwXoX+X9XwX+Xc d G.G.G.D.G.H.H.J.J.J.`.J.J.J.'.J.'.#X#X[.Y.#XJ.[.J.J.J.J.J.'.'.#X'.J.#X#XJ.J.#XR.[.'.Y.J.#XJ.'.J.#XY.#X#X#XJ.#XR.[.'.#X#X%X#X#X[.%X#X#X#X#X#X#X#X$X#X%X#XA b oXJXHXHXFX&XI ; =.;.<.<.<.;.;.;.;.=.=.=.=.=.=.=.w w ; & z [.[.< b XX%XXXoXXXoXoXXXXXXXoXXXXXoXoXXXXXoX XI 1 : l J [.*XbXbXbXbX*XmXnXbXnXmXmX*X*X].v < : 1 b I XXXX+X+X+XOX+X%X+X+XXX+X+X*X+X@X%X+X*X+X+X&X+X%X XM j j j q < ; , % @   w w ; w w w w w w w w w =.w =.w =.=.=.=.=.=.-.-.;.;.;.;.;.;.;.<.<.<.;.l dXHXI { 5X5X3X5X5Xc.5Xc.rXc.rXrXrXm.m.rXrXm.rXrXm.rXrXrXc.[ t m ..^.h.^.#.@.~.Q.@.+.W...4 # + a h P.P.P.P.I.I.P.P.P.P.P.P.P.I.P.I.P.P.U.I.U.U.U.I.I.U.I.U.U.U.I.I.U.Y.Y.U.U.Y.I.U.I.U.U.U.I.U.U.U.T.T.T.T.T.T.T.T.} b 2 G.H.",
"@ @ : 1 2 < < 2 < 1 1 1 1 1 1 1 1 1 1 1 2 : $ @ : = : = = : : 2 : < 8 < < < d 8 1 r 8 1 1 1 2 2 2 1 1 1 1 8 2 1 1 1 1 1 1 $ 1 : d j 1 2 2 1 b b A V j 4 +XOXn  X+X@XoXOX+XoX+X} & B B.D D D D D S S.H H D B.D J H H H A.L S.L A.S.G.L A.Z.A.S.Z.L Z.G.G.Z.L D D D V v c c 1 f > > : > > : > & @ + @ & @ # } &X1X+X9X+X+X1X+X+Xm : D A.S.S.G.S.D B.D Z.Z.Z.S.J.J.Y.'..XJ.Y.J.J.J.'.#XJ.#X#X'.Y.'.Y.#XJ.Y.J.#XJ.'.#XJ.'.J.R.[.J.J.J.J.[.Y.#X#X#X#X#X%X#XY.#XJ.#X#XR.#X#X#X#X#X#X#X#X#X.XZ 1 I CXKXHXHXdXN 3 ; ;.;.<.;.<.;.-.-.-.-.=.=.=.=.=.w w w 3 g L.[.[.z q .XXXoXXXXXoXXXXXoXXXoXXXoXoXoXXXXXoX Xr ; q ,.[.{.{.*XbXbX*XbX*XbXmX*XnX*XbXnXnXbXmX*X$XP v 1 2 q b K e.XX+X+X+X&X&X&X+X&X&X&X&X+X&X+X&XoXI b 1 b ].[.bX$X{.%X[.P l @ # w w w w w w w w w w w w w w =.w =.=.=.=.=.-.-.;.;.;.;.v.;.;.<.<.<.<.-.,.JXoX] 5Xc.5X3X3Xc.5X5X5Xc.c.rXrXm.m.rXrXm.rXm.rXrXM.f.W ' d.h.h.:X:X:X:XQ.@.#.Q.+.Q.Q.+.h 8 . o 2 U P.R.P.I.P.P.P.I.I.I.I.I.I.I.I.P.I.I.I.U.I.I.I.U.U.U.U.U.U.U.U.U.I.U.U.U.U.I.U.U.I.I.U.U.U.Y.T.T.T.T.T.T.T.T.T.I : A `.",
": 1 < 2 1 2 1 1 1 2 1 1 1 1 1 1 1 1 1 < : @ 1 8 b 2 : $ $ : < < : : , 2 2 2 1 1 1 1 d 1 1 1 1 1 1 1 1 1 1 1 1 1 1 1 1 1 1 = 1 $ 2 b v G P `.`..XY.H.b b @XwXU N +XwX+XOX+XOX+XOX2 k D D S.D S D D D D D D J D D B.H D A.L L A.S.S.A.L A.G.A.L D G V c d , : & @ O . . .     # . O + + @ + & @ @ & + @   8 +XwX+X+X1X+X+X+XwX+XI @ : 1 , < , : X . . X + @ & & a d c S L J.J.#XJ.'.'.J.#X'.J.J.#X'.[.R.[.#XJ.#X'.J.J.#X#XJ.J.#XJ.'.#XJ.J.J.J.J.#XY.[.R.[.'.'.J.#X[.#X#X#X#X#X#X#X$XG.< 2  XAXHXHXZX X2 3 w ;.;.;.<.<.;.;.-.-.-.-.=.=.=.w =.w ; 3 z [.[.[.[.g K $XOX%XXX@XXXoXXXoXoXXX@XXX@XXX@X+XI 1 q `.*X*XbX*XbXbX{.*XbXbXbXbXbXbXbXbX*XbXnXnXnXnXnXmXnXbX'.I C j < , 1 j A n M U ,.} } I I G A b q 1 l J [.bXbXnX*XbXbXnXdXnXmX].; # ; w w w w w w w w w w =.=.w =.=.w =.=.=.-.-.;.;.;.;.;.;.<.;.<.<.<.;.=.XX&Xm 3X3Xc.3X5X5X3Xc.5X5X5X5Xm.rXrXrXm.rXrXm.rXl.[ m r.>X2X,X,X:X:X~.%.~.@.@.+.+.Q.W.W.W.+...4 $ o , U U R.P.P.P.P.P.I.I.I.I.I.U.I.I.I.I.U.U.U.U.T.U.U.U.I.U.U.U.U.U.U.U.U.U.U.I.Y.I.U.U.U.Y.T.T.T.T. XT. XT.T.T.U $ 1 H.",
"1 1 2 2 1 , 2 1 : $ & @ : 1 1 1 1 1 1 : : e 1X} 2 < : @ @ : 2 : : : : 2 1 1 2 1 1 1 1 2 : 2 2 1 2 2 1 1 1 1 1 1 2 1 1 1 1 $ 2 , G Y..X`.'. X.X`.P H.b m +X1X Xb } +XwXOX+X+X+XOXe d S.D D D D D D D D D D D D S.D D D L L Z.S.A.L H A v k d > = @ . # . . o & & : > , d d d B B B Z S D Z S S Z Z S d : e.1X1X9XwX1X9X+XwX+X1XOX8 . , , , , , : & @ O .               & $ , 1 c B.L D.J.Y.#XJ.J.J.'.'.#XJ.#X'.J.#XJ.#XJ.#XJ.#X#X#XJ.R.[.#XJ.J.J.J.[.J.#XJ.Y.'.'.'.'.#XJ.#X#X'.#XL : b 9XLXPXHX*Xq 3 w <.<.<.;.v.-.-.=.=.-.=.=.=.=.=.w w w ; g L.L.L.[.[.L.j .XXXXX$XOXXXoXXXXXoXoX@XXX+XXX+XOXI d G ].bXbXbX{.bX*X{.*XbXbXbX*X{.bX*XbXbX*XmXbXbXbXnXbXbXnXnXmXnXmXmXnX*X'.P G G C b j r j j j v M K ].[.bX*XbXbXnXmXnXnX*XmXmXnXmXmX*Xk ; w w w w w w w =.w w =.=.w =.w =.=.=.=.-.-.-.-.-.;.;.;.;.<.;.<.<.<.-.].CXn c.5X5X5X5X3X3Xc.5XrXM.5Xc.rXrXm.rXrXrXz.w.m { h.3X3X,X,X,X:X^.~././.@...*...Q.Q.W.W.W.Q.+.h 0 # # 4 U P.P.P.P.P.I.P.I.I.I.I.I.I.I.U.U.U.U.U.T.U.U.I.U.U.T.U.U.U.T.Y.Y.U.I.R.U.U.U.U.T.T.T.T.T.T.T. XT.T.U.A 2 2 : G.",
"2 : , 1 1 : & @ # & : 2 2 1 1 1 1 1 1 < * [ hXt.: 1 $ : @ : : : : : 1 1 1 1 8 1 1 1 1 2 , 2 < 1 1 1 1 2 2 < 2 1 1 1 2 1 1 3 1 : J .XY.'.]..X.XD.H.P < } ;X+X X} n } OX1X;XoXOX;Xb d S S D D D D D D D D D B.D D D L D D Z x d 1 : @ O #   # O @ = , d d x V S S H J D L H A.L D L L D D L D D L L Z 8 T.&XwX+X&X1X&X9XwX1XwX&X1X X: V L H A.L L D S S V V A A A V d 1 : & + O # X + & > 1 B A.G.J.'.J.Y.'.J.Y..XY.#X#XJ.J.#XJ.#X#X#X#XJ.#X#X#X'.[.R.#XJ.J.[.#XR.'.Y.#X#XY.#XY.F : I GXKXKXHX,.; ; ;.<.<.<.<.<.;.-.-.=.=.=.=.=.=.w =.w w + g L.[.[.[.L.[.j P XXXXXX@XXXXXXX@XXX@XXX+X+XXX+X+XP 1 P [.{.bX{.*X%XbXbXbX{.bXbXbXbXbXbX{.bX{.bX{.bXbXbXnXbXmXbXmXbXmXmXnXmXmXVXnXnXmXmXmXnXnXbXbXbXbXnXmXnXbXbXbXbX&XnX*XnXnXnXnXnXVXmXnXmXbX; ; w w w w w w w w w w w w w =.=.=.=.=.-.=.=.-.-.-.;.;.;.<.<.<.;.<.;.].dXn 3Xc.rXc.5Xc.3X5Xc.5XrXrXrXrXrXrXrXM.r.i ' $.:X,X,X,X,X,X,X:X:X:X~.Q.@.+.K...W.Q.W.Q.Q.W.+.W.+.K.4 # O < U P.P.U.I.I.I.I.U.I.U.I.I.U.U.U.Y.T.U.T.U.U.U.U.U.U.U.U.U.U.U.U.Y.T.U.U.T.Y.T.T.T.T. XT.Y. XT.I 8 a I XX1 A ",
"< < 2 2 @ # @ : 2 1 1 1 1 1 1 1 : : 1 2 > N 7X;X$ d @ : @ : : : : : 2 1 1 1 1 1 2 1 2 2 2 2 1 2 1 2 2 < 1 2 2 1 2 1 1 1 1 $ 2 : I Y.H.P A b j b v G 2  X;X+XOX1X} b I oX;XOXOXOX8 x D D D D D D D S D D S Z V x d a > & @ # .   + + * , d k B Z S D D J L D J L D D D L D D D S.D L H B.J J L D H c N 9XwX@X+X1X1X9X1X+X1X+X+X&XOXr d L S.D D S.L D J S.J A.L S.A.A.A.S.L D A c d , : @ # . O = f k A L J.J.#X.X[.Y.#XJ.'.#XJ.J.J.J.%X#X'.#XJ.#XY.'.'.J.J.J.J.[.'.'.#X#X.X.XF k &XKXLXLXdXb w -.<.<.<.;.;.;.-.-.-.-.=.=.=.=.=.=.w w ; X z L.[.L.[.[.[.L.l ].%XXX@XXXXX@XXX@XXX@X+XXX+XOX*XXX< K bX{.%X%X{.*X{.bX[.{.{.bXbXbX{.%X{.bX{.*X{.bX{.*XbXbXbX*XbXbXbXmXmXnXnXVXVXnXnXnXmXmXnXnXnXnXnXmXbXnXmX&XmXbXnXmXmX&XnXnXnXmXnXmXnXnXnXmX].; w w w w w w w w w w w =.w =.=.=.=.=.=.=.=.-.-.-.-.-.;.<.<.<.<.<.;.<.&XN c.5X5X5X5X5X5X5X5X5Xc.m.rXm.m.m.j.! ] f.j.3X,X,X3X:X,X<X,X:X:X/././.@.@.Q.Q.W.Q.Q.Q.W.W.W.W.W.W...K.2 . . 2 U I.I.I.I.I.I.U.I.U.U.U.T.I.U.U.Y.U.U.U.T.U.T.U.T.U.U.U.U.U.T.T.Y.T.T.T.T.T.T.T.T.T. XY.n , b OX9X&XV < ",
"2 : & # @ : 2 < 1 < 2 < 1 1 1 1 1 : 2 : : n qX8X2 1 = : @ @ : : : : < 2 1 1 1 1 1 1 1 , 1 2 2 1 2 1 2 2 2 1 2 1 2 2 2 2 2 = 1 : A b 2 : > 1 < d c V 8 OXOXOX+XOXOX} N N } } oX} : B D D D D D D S S B f > & O # . # # & * , d c V Z S D D D D D D D J D D D D D D L D D S.D D H H D D D S.D S.J D j oXOX+X1XwX+X1X+XwX9X9XOXOX1X+XN , D D J H D D J D J D D H H D J D D L L Z.L D.L L D V j , = & . . + > f B D J.J.J.#X#XJ.#X#X#X#XJ.#X#XJ.#XJ.#XJ.#XJ.Y.J.'.J.J.J.J.#XY.A A ZXLXLXHXXXd w ;.<.<.<.;.<.-.-.-.-.=.=.=.=.w w w w w ; o z [.[.[.[.L.[.L.g ].XXXXXXXXoXOXXXoX%XOXXXXX+XXX%X+XM 1 [.%X{.{.{.[.{.{.[.{.%X%X{.[.bX{.{.[.{.[.{.[.bX{.bXbXbX{.bXbXbXbXbXnXmXnXnXmXnXmXnXmXnXmXmXbXmXnXnXmXmXmXmXnXmXbXbXmXnXnXbXbXmXbXbXbXbX{.bX{.q 3 w w w w w w w w =.w w =.w w =.=.=.=.=.=.-.-.-.;.-.<.;.;.<.<.<.;.[.e.[ rXm.rXc.c.5Xc.rXc.rXrXrXrXrXm.| m | h.2X,X,X,X,X,X:X,X,X,X^.:X^././.Q.@.W.Q.Q.W.Q.W.Q.+.W.+.W.W.W.W.+.' % O $ B F.I.I.I.P.U.I.I.U.U.Y.U.U.U.U.T.U.T.U.T.T.T.T.U.U.T.U.T.T.T.T. XT.T.T. XT. XT.T.U 8 d } &X9XdXdXY.: ",
": # @ : < 2 2 2 2 < < 1 1 1 1 1 1 : : 2 > 8 1XgXn : = : = @ = : : : 2 2 1 2 1 1 1 2 2 2 2 1 2 2 , 1 2 2 2 , 2 1 2 2 2 1 2 * 2 $ * < k B Z D D D D d h OX+XOX@X;XoXOXOX} m ' N 2 f Z S S.S Z B d , & X   . + * > f k B V S D D D D D D D S B.D D D D D D D D D B.D J D D J D D H H B.D H S.D D L S A OXOX@X+X1X+XwX9X+X1XwX+X+X1X+X} > V D L D D H D D L B.D D H S.D H H H D D D S.D S.S.A.S.S.H V c < > @ O # O & : d V L D.J..X'.#XY..X#X'.Y.J.'.'.Y.'.#XJ.'.J.J.J.J.J.D b CXKXPXIXG : =.<.<.<.;.<.;.;.=.=.=.=.=.w w =.w =.w w - g L.[.[.[.L.[.[.[.L.z $XXXXX$XXX@X+XXXOXXXOX%X%XOX%X+X%X1 `.{.bX[.{.{.{.[.{.{.[.[.{.{.{.[.[.[.[.[.[.{.[.{.{.{.bX{.{.{.bX{.bX{.bXbXbXbXbXbXbXMXmXbXmXbXbXbXbXbXbXbXbXmXbXnXbXbXbXbXbXbXbXbX{.bX}.{.{.{.{.z w w w w w w w w =.w w =.=.w =.w =.=.=.=.=.-.-.-.-.-.;.<.;.<.<.<.<.M N s.m.rXrXrX5X5X5X5X5X5XrXrXrXk.] ' h.g.,X,X,X,X,X:X:X,X:X<X^.:X^.^.^.^.!.!.!.!.!.!.!.W.W.W.W.W.Q.W.Q.W.W.W...h + . 2 U R.P.I.I.I.I.} R.U.U.U.Y.Y.U.U.T.U.T.T.T.T.T.U.U.T.T.T. XT.T.T.T.T. XT.T.} b 2 G &X&XUX&X9XDX*X1 ",
". : : < : 1 j A b 1 2 1 1 f 8 1 1 : : 1 : % ;XgXe.@ : : : # = : : : : 2 < 2 2 : 1 2 < 2 2 2 8 , 2 2 , 2 2 2 2 2 4 , 2 2 : $ 2 > B S D D D D S D S a N +X;XOXOXOXt.t.t.OXoXT.} a Z S B d a & . . # + > f x B S S D S D B.S D S D D D S S D D D D D D D D D D D D D D D B.D S.B.D H D L D J D B.H A } +XOXwX+X+X1X1X+X9X1X&X1XwX+X1XOX1 k D D S.D D B.D D H D H H D D H D D S.S.D D D D D S S D D L L Z.J D A d < = + # # @ = a c D G.J..X#X'.'..X'.J.'.J.J.'.'.J.J.J.H.S.c &XHXHXIX,.; w <.<.;.<.;.;.;.;.=.=.=.=.w =.=.w w w ;   g L.[.L.[.L.[.[.L.[.z L.].XXXX@XXXXXXXXXXX+XXX@X@XXX@X+XXXl $X{.[.{.[.[.[.{.[.[.[.[.L.L.z s , 3 & > k G C.[.[.{.{.{.{.{.{.{.{.}.{.}.bXbX}.bX}.bXbXbXbXbXbXbXbX*XbXbXbXbXbXbXbXbXbXbX{.bX{.bX{.[.[.{.{.[.{.z 3 w w w w w w w w w w w w w w =.=.=.=.=.=.=.-.-.-.-.;.;.<.<.<.<.;.b e c.5X5Xc.c.5Xc.5Xc.rXM.m.c.{ y | h.,X,X,X,X:X:X,X:X,X:X:X:X:X:X:X^.^.!./.!.!.!.!.!.!.!.Q.W.Q.W.Q.W.W.W.W.W.W.Q...4 + $ d ..I.P.I.I.I.U.T.U.U.U.U.T.U.Y.U.T.T.U.T.T.T.T.T.T.T.T.T.T. X X XT.T.m : c  XUXDXdXdXdXdX9X9XI ",
": 2 2 2 r D I b 1 1 2 1 1 1 q d 1 1 @ : < : t.qX2X2 = $ : @ = : : % : 2 2 < 1 2 1 1 2 2 , 2 1 2 , 2 2 2 2 2 2 2 , 2 2 , , $ 2 > S S K.S Z S S S Z < } OX@XOXOXoX}  .oX Xe. .b d h & o X . + * < k V F S U S S S D S S S S S S S D S S D D D D S D D D D D D D D S.D D D D D D D S.D D S.D D H H v U ;X+X+X;XwX+X9X@X1X+X+X1X+X+X1X@Xn < D D D J D D D D D H D B.D D B.D H D D D D D D B.D H H B.D D J S.L S.S.A.L A c d > & # # o & : k D G.J..X#X[.J.#XJ.J.'.J.J.J.J.B XXIXIXZXC.g ;.<.;.<.;.;.;.-.-.-.=.=.=.=.=.w w w w 3 O z [.[.[.[.[.[.L.L.[.V.g [.$XXX@XXXoXXXXX@XXXoXOX%X+X+X%X+XXXc [.{.bX[.[.[.F z g & + = ; k c M K P ].G z ; - - g L.V.[.[.{.{.{.{.{.bX{.{.bX{.bX}.bXmX{.{.{.{.{.bX{.{.bX{.bX{.bXbX}.{.bX{.bX{.{.{.[.{.{.{.[.[.g w w w w w w w w w w w w w =.=.w w =.=.=.=.=.=.-.-.-.;.<.<.;.;.<.;.3 N c.c.5X5X5XrXrXM.5XrXrXk.] ' h.j.:X,X,X,X:X:X,X,X:X:X:X:X^.^.<X:X^.^./.!.!.!.!.!.!.!.!.W.Q.W.Q.W.Q.W.W.W.W.W.W.W.+.U : . % U R.T.U.U.U.U.U.U.U.T.U.T.T.T.T.T.U.T.T.T.T.T.} T.T. XT. XT.T.I 1 1 I 9XDXDXDXDXdX9XdXUX9XXX",
"2 < 1 A Y.I 1 2 1 : 2 : < 1 d 8 q 1 : : 2 : } gXqX] O : : $ @ $ = = : : : 2 2 < : 2 : 2 2 2 : 2 2 2 2 : , 4 , 2 2 2 , 4 : $ 2 , S F z S D S S D V 7 e.oXOXOXW.oXT.} t.e. .} 2 1 * + & > d V Z D D D S S S S S S S S S S S S S S D S S D S S S D D D D B.D D D D S D D H D D L D D D D H S.D D S.Z a } 1X+X1Xe.1X+XwX9XwXwXoX+X1X+X@X} < D L D D H D D S.D D D D D D D D B.D D D D D D D H D D H H D D J D D D S.L L L L L L V c < > + . . & , c S.F.J.#X'.#XJ.J.J.J.S.L GXHXDXb w ;.<.<.<.;.;.;.-.=.=.=.w =.w w w w w w 3 ; z [.[.L.[.L.L.[.[.[.[.L.B [.XXXX%XXXXX+X@XXX+X+XXX@XXX&X@X*XXXq v C z k - O O * q M `.].%X*X*X*XnX*X&X*X&X*X'.G q = O O - < k z C.C.[.[.[.[.[.[.{.{.{.}.{.{.{.{.{.{.{.{.{.{.{.{.{.{.[.{.[.[.[.{.[.[.L.L.L.k g 3 w w w w w w w w w =.=.w =.w w =.w =.=.=.-.-.-.-.-.-.;.;.;.<.<.<.=.O r.5X5X5Xc.5Xc.rXrXrXc.| m { :X,X:X,X,X:X,X,X:X:X^.:X:X:X^.^.^.^.:X^.^./.~./.!.!.!.!.W.!.Q.Q.W.W.W.W.W.W.W.!.W.W.W.W.Q...h # $ 8 ..R.U.U.U.T.Y.T.T.Y.U.T.T.U.Y.T.T.T.T. XT.T. XT.T.T.R.} b 2 U &XDXZXDXDXDXDXUXDXdXDXDXXX",
": c I .XI < : , : 2 : , < 1 8 1 d 1 2 : 2 : [ gXyX1X% # : : O : 3 : % : : 2 2 < : : : 2 2 2 , 2 2 2 2 2 : 2 2 : 2 2 : 2 % % : a S S S S S S S S B 8 t. .OXOXOXt. Xt. Xt. Xm , d f B Z S S S S Z Z S S S S S F S S S S Z K.F F S S S S S S S S S D D D D D D D D B.D D D D D D D B.D D H D S.D D H < n +X+X+X XOX+XwX+X9X+XOX+X+X+X+Xt.< A B.H D D D D B.D D D D D D S B.D D D D D S.S S S S Z.D D B.D D D D H D D S.D D L P L G.G.Z.D c f : . # o & 1 x L G.J.Y.J.H.v &XHXdXb q ;.<.<.;.;.;.;.-.=.=.=.w =.w =.w =.w ; * g L.[.[.[.[.[.[.[.[.[.L.V.z P $XXXXXXX+X$X@X@XoXXX@XXX+X+X+X&X&X+X.Xc d G F P ].].%X*X*X*XnX&X&X&X&XnXdXnXdX&XDXnXdX&X%XXXP G b 2 3 O o * , g g d B F F C.].L.[.[.[.C.C.H F F F F F z k s 2 > , > , > = & X       w w w w w w w w w w w w w w =.=.=.w =.=.=.=.=.;.;.;.;.;.;.<.<.<.<.=.$ f.5X3X5X5X5X5XrXrXz.] ' h.,X,Xg.,X,X:X,X:X<X^.:X^.^.^.^.:X^.^.^.:X^.^././.!./.!.!.!.!.!.!.W.W.!.Q.W.!.W.W.W.W.W.W. .W.W.+...2 # = m R.R.} R.T.} T.U.T.U.T.T.Y.U.T.T.T.T.T.T.T.T. XT.} 1 d  XDXCXDXCXDXDXDXdXDXDXDXDX.X2 ",
"G } .Xn 2 : : 2 2 < 2 1 1 1 q d 8 d 1 & 1 : m gXgXgX] # 3 2 @ @ = $ : = : : 2 : 2 : 2 : : 2 2 % 2 : : 2 : 2 : 2 : : 1 8 : : % f S S S S S S Z S d b OXOXOXOXt.oXt.e. .e. .r d Z S S S S Z F S S Z S S Z Z S S S Z S S S B S S S S S S S S S S S D S S S D S D D S D D D D B.D D D D D H D D D L J x 2  X;XOXOXOX1X+X1X1X1X+XwX1X1X@XOXr B D H D D B.D D D D D S D D D D S D D D D D S S B.S Z D D D H D D B.L D D H S.D L P L P P P G.G.G.L Z c < & . # O > c D H.H P HXZXA w <.<.<.;.<.;.;.;.=.=.=.=.=.=.w w w w ; ; L.L.[.[.[.[.L.L.[.L.L.[.[.[.f '.#XXX+XXX+XXXXXXX%X+X%X%X&X*X&X&X&X&X&X&X&X&X&X&X*X&XnX&XmXnX9XmX&XnXdXdXDXdXdXnXDXDXDXDXDXdXdXnXdXnX%X].I v q < ; > @ & = & & + & * - ; @ = > : ; j q l M G G G v A S P '.,.; w w w w w w w w w w w w w w w =.w w w =.w =.=.=.=.-.;.;.;.;.<.<.;.<.<.<.w e c.3X5Xc.c.5Xc.rXs.W { ,Xg.:X:X,X,X:X,X:X^.<X^.^.:X^.<X^.^.<X<X^.^.:X^.^.~./.!.!.!.!.!.W.!.!.Q.W.W.!.W.W.W.W.W.W.W.W.W.W.W.W. .h $ # 8 .. .R.T.T.T.T.T.Y.T.T.T.T.T.T.T.T. XT.T. X} b 2 U &XCXCXDXDXCXDXUXDXCXDXDX&XI : 1 ",
" Xe.b 1 1 1 1 1 1 1 d 8 8 d r 1 d j 1 : : : b gX7XgX6X2 O : = O $ & $ : $ : : : 2 : 2 2 2 : 2 2 2 2 : : 2 4 > : 2 : d b $ : : k S S S S Z S S S f m OXOXt.} oXe.T. .}  .} % c Z Z Z V S Z S Z S Z S Z Z S Z Z S S S Z Z S S Z S S S S S S S S S S S S B.D S S S S D S D S S.H D D D D B.D D D D D D , N +XOX;X1X+XwXwX&X1XwX+X+X+X@X@Xn d D D H D D D D D D D D S D D S D D D D D S D D S D D D S.D D D H D D J D J D J J K K L J J L P S.G.G.G.G.L A k : @ # O 1 b dXJXP w <.<.<.;.;.<.;.;.;.M z =.w w w w w w 3 ; L.[.[.[.[.[.[.[.[.[.[.[.[.[.L.B R.$XXXXX+XXX@XXXXX+X*X+X+X&X&X&X&X&X&XdX9XdX&X&XDXnX&X&XnX&X&XdXdXdXdX&XdXDXdXDXdXdXZXDXCXCXDXDXDXDXDXDXDXnXdXnX*X&X*X$XXX`.J G G G v G K G..X$X$X%X*X*X*XXX,.L G b c G $X&X'.3 w w w w w w w w w w w w w w w =.=.w w =.=.=.=.=.-.-.-.-.;.;.;.;.<.<.<.;.3 r.5X3X3X3X3X5Xc.| ' | ,X:X:X,X,X,X,X:X:X^.^.^.^.<X^.:X<X^.^.<X^.^.^.^.^.~./.!.!.!.!.!.!.!.Q.Q.W.!.W.Q.W.!.W.W.W.W.W.W.W.W.W.W.W.W...2 + $ h ..E. XT.Y.U.T.Y.T.U.T.T.T.T.T.T.T.U.U 8 a  XDXCXCXCXCXDXdXDXDXDXDXCX%Xb * b } ",
"`.A 1 1 1 1 1 1 j j 8 d j 1 d d 1 8 1 : : 2 b 8XgXgXgX} . % : @ $ = 3 = : : : 2 2 2 , 2 : 2 : : : : 2 % : : 2 % : 2 b 8 : : % c S Z S Z Z Z S Z a } OXOXoX . . XI n m e 2 : A S S S S S Z Z Z S Z Z Z Z S V S S Z Z S Z Z S Z Z S S S F S S S S S S S S S B.S S D D D D D D D D D D D D H H D B.D S < 8 OXOX+X+X+X@X+X1X+X+X1X+X;X@X@XN a D H S D D D D D D D D D S D D S D S S S S S S D D D S S D D D D D D D J J J J J L L L L P L L P L A.A.G.D.G.D.S.S c : * I IXXXq ;.<.;.<.<.;.;.;.=.=.=.=.=.=.w w w w 3 , L.[.[.[.[.L.[.[.L.[.L.[.[.[.[.L.B.#X%X@X%XXX+X+X+X&X@X&X&X&X&X&X&X&X&XDX&XnXdXdXdXdXdXdXdXdXDXDXdXdXdXdXDXDXDXdX&X&X@X&X&X&XDXDXCXCXDXDXDXDXDXdXdXDXDXdXDXdXDXdXdXdXdXnX&X&XnXdXnXdXnXnXXXl ; : 1 b G b : 3 G ,.  w w w w w w w w ; w w w w =.w w w w =.w =.=.=.-.-.-.-.-.;.;.;.<.;.<.<.w r 5Xc.5Xc.5X5Xj.{ m $.j.h.:X,X,X:X,X<X:X:X^.^.^.^.^.^.^.^.^.^.^.^.^.(.^.^.^.^.^./.!.!.!.!.!.W.!.!.W.W.W.W.!.Q.W.W.Q.+.W.W...+.E.W.W.W.W.h 4 # 4 ' E.T.T.T.T.T.T.T.T.T.T.T.T.T.I 8 1 A +XDXDXDXDXDXDXUXDXDXCXDXDX} 2 : } T.T.",
"b 1 1 1 d 1 q j j 1 q 8 d 8 d r r d q 1 $ 2 8 0XgXgXgX0X: @ : $ # 3 $ : = % : % 2 2 : 2 2 2 : 2 : 2 2 : : % % : 2 h b % : : : x Z S V S Z B Z V < } OXOXOX .} n 8 b A b @ 1 S Z Z Z Z S S B K.F S V B K.F Z Z F S S S F F Z S S S S S S S S S S S S S S S S S S S S S D D D D D B.D D D D D D D c f J 8 e.;XOX;X+X1XwX+X9XwX+X+X1XOX1X,.: Z S H S B.S S S S S S S S S S S S S S S S S K.B.S S S S D D H D D B.D H H J G L P J G G L P P J G L L L L A.S.S.A.D.L c 9X9Xj ;.<.<.<.;.;.;.;.-.=.=.=.w =.w w w g & g [.[.[.[.[.L.[.[.L.[.[.L.[.[.[.L.l ].XX%X%X@XXX%X*X+X&X&X&X&X&X&X&X&XdXdXdX&XDX&XdXdXdXdXdXdXdXdXDXDXDXdXDXDX&XY.l < < : : > < b  X9XZXZXDXZXDXDXDXDXDXDXZXDXZXDXDXDXdX&X&X&X*XXXXX`.XXP b & @ I +XDXIXLXPXZX.X: 2 3 w w w w w w w w w w w w w w w w =.w w =.=.w =.=.=.=.;.;.;.;.<.<.;.<.;.; e.z.3X5Xc.3Xh.' ' d.2X>X,X,X,X:X,X<X<X^.^.^.^.^.^.^.^.^.^.^.^.<X^.^.^.^.^.^.^.!.~.!.!.+.+.!.!.+.+.W.Q.W.Q.W.W.W.W.W.W.W.W.W.W.W.E.W.W.W.W...8 . # h ..R.T.T.T.T.T.T.T.Y.T.} h < b U.9XDXCXCXDXZXDXDXDXDXDXDX&Xb : r } T.T. X",
"1 1 1 8 8 d 8 j 8 d j j j j 1 1 d 1 d 1 * 1 2 1XgXgXgXgXN O : : @ O = @ 3 : = : : % 2 : : 2 2 : % % : 2 : 2 : : 8 b 2 : % 2 : V S S S S F K.S B 1  .OX| oXoX} $ = c %XUXH.a c Z Z Z Z Z Z Z F V S S S Z F Z Z Z B S B K.Z S Z S S Z Z S V S Z S Z S F S S S S S S D D S D S D S S D D D D D S d < G.*XG n OXOXOX;XOX+X1X1X+X1X@XOXoX@Xw.: V S S S S S S S S S S S S S S S S S S S S F F S S S S D D S D D H D H H H J J L K L L L J J J J L P J L J H J J L L V I HXI w ;.<.;.;.<.;.;.;.=.=.=.w =.w w w w o z [.[.[.[.[.[.[.[.[.[.[.[.[.[.[.[.[.v $XXX@XXXXX+X@X+X&X*X&X&X&XdX&X&X&X&XdX&XdXDXdXdXdXDXdXdXdXdXDXDXDXDXDX+XI 1 1 I *X&XdX&X&Xe.G < < ,.DXAXAXZXZXZXZXDXDX&X&XXXXX`.I I P I I `.e.e.XXe.U I ,. X].XX`.XXSXPXLXLXCXA O ; w =.w w w w w w w =.w w =.=.w w =.=.w =.=.=.=.=.=.;.;.;.;.;.<.<.;.z ,.4Xc.5Xc.3Xd.' ' %.3Xj.,X,X,X,X<X,X:X^.^.^.^.^.<X^.^.^.^.^.<X^.^.^.^.^.^.^.^.^./.!.!.+.+.+.!.+.+.Q.Q.W.Q.W.W.Q.W.W.W.W.W.W.W.+.W.W.W.W.W.W.W.W...4 @ : ' R.T.Y.T.T.T.T. XU f b P.OXdXDXDXDXDXDXUXDXDXDXDXdXY.2 , U  XT.T. XT.",
"1 1 j j b d d j b 1 1 d 8 8 j b r 1 d 1 = < : ;XgXgXgXkX-X@ & : : # @ $ = $ $ : : 2 : : 2 % : 2 : 2 % : 2 : % 2 b 1 : 3 % : , A Z Z Z Z F Z Z x j t.OXOXt.T.m A J : k *XUXG.: c Z Z V Z V S Z Z V S S S S B V S V S Z Z Z F V Z Z Z F S F F S Z F F S S S S S S S S S S S S S S D S D D U Z f j .X*X*XY.8  XOXOX+X+X1X+XwX+X+X;XOXe.@Xy.2 k D D S S S S S S S S S S S S S S S Z S S S S S S S S S S S S H H H H H J P J G P K K J J J J L J J P J J J J J J J c &X9Xq ;.<.<.;.<.;.;.;.;.=.=.=.w w w w w X z [.[.[.{.[.[.L.[.[.[.L.[.[.[.[.[.[.L.v $X$XXX+X%X%X+X+X&X&X&X&X9X&XdX&XdXdX&XdXdX9XDXDXDXnXdXdXDXDXdXDXDXDX X< b XXSXKXPXPXPXLXLXLXLXZXXX1 d %XZXZXdX&X@X].`.P  XXX XXXXXXXXX.Xe. X,.,.A 1 I  X.XXX XXXXXdX9XZXLXLXLXIXI   3 w w w w w w w w w w w w w =.w =.=.=.=.=.=.=.=.-.;.;.;.;.;.;.<.=.e c.5Xc.3X3X$.y { h.j.,X:X<X,X,X:X<X<X:X<X^.<X^.^.<X^.^.^.^.^.^.<X^.^.^.^.^.^.^.^.~./.Q.+.+.!.+.W.+.W.W.Q.W.Q.Q.W.W.Q.W.W.W.W.W.+.W...W.W.W.E.+.W.W...h @ @ 9  .T.T.U.} } A 8 I T.+XDXCXDXDXDXDXDXDXDXDXDX&XA : b } T.T.T.T. X X",
"q 1 8 d 1 8 j 8 1 a r r d j 1 1 1 1 8 1 : 2 : t.gXgXgXgXyXr @ : : = # @ @ @ @ : % : : % : : % : % : % : : % % 1 2 : : $ : % a Z S V F Z V F Z d h oXt.OXOX} j XX%XH.j H *X*XA : B Z S V S V Z S S B B S S S V S S Z F Z Z Z S Z Z Z Z Z F K.B S K.B S S Z S Z S S S S S S S S S S S D D c , b *XnX&X*X%Xd N +X} oXOX+X;X@X+X+X+X@XoXoXx.r s D S S S S S S S S Z F S S S S Z S S S S S S S S S S S S S D D G J H H H G H L J J J J J J P G J L K K P J J J D S A IXP w <.;.<.<.;.;.;.;.;.=.w =.=.w w w o g [.{.[.[.[.[.[.[.[.[.[.[.[.[.[.[.[.[.L.K %XXX@X%X@X@X&X&X&X&X&X&XnX&X&XdX&XdXDXdXDXDX9XdXdXdXdXdXDXDXDXCXCXI d %XHXLXLXKXLXPXLXLXLXLXLXLXLXSXK 1  X&X+X&X*X+XoXXX XI H. X XXXoX+X*X&X&XOXb XXIXHXHXIXDX+XI V A G *XZXIXLXHXb     w w w w =.=.w w w w w w w w =.w =.=.=.=.=.-.-.;.;.<.;.<.<.;.=.f.5X5X3Xc...y $.:Xh.:X:X:X:X,X,X<X,X<X:X^.<X^.^.^.^.^.^.^.^.<X^.^.^.^.^.^.^.^.^.^.^./.!.+.+.+.+.Q.+.+.+.W.Q.W.W.Q.Q.W.W.W.W.W.W.W.W.W.W.W.W.W.W.W.W.W.W...4 # , ..R.I U h h I  X&XDXDXDXDXCXDXDXDXDXDXDX X8 2 U T.T.T.T. XT.T.T.",
"j 1 j 1 1 1 d 1 1 < 1 d r 1 j d 8 1 f 8 3 2 : } hXgXgXgXgXt.@ $ : : @ # @ $ 3 $ = : : : : % : % : : % : : % % 2 : $ @ % 2 : k Z B S B F A Z Z d b t.OXoXoXm x %X%X%XXXV H.*X%XB f Z V Z V S F V V V z K.B B K.F Z Z Z S A A Z Z Z Z Z F Z Z Z Z S S Z Z S S S S S S S S S S S S S H Z d < J *XnX&X*X*X%XG 8 t.} e.OX+X+X1X+XwXOX+XOXt.@Xn , S S S S S S S S S S S S S S Z S S S F Z Z Z S S S S S S S H H H H H H G H H H J K P J J L K P P K L J P K J H J k XXZXq ;.<.;.<.<.;.;.;.=.=.=.=.=.w =.w . g [.[.[.[.[.[.[.[.[.[.[.[.[.[.[.[.[.[.[.z ,.%X+XXXXX&X+X&X&X&X&X&X&XnXdX&X&XDX9XDXDXDXDXDXDXdXDXDXdXDXDXDXDX,.b DXLXLXLXLXLXLXLXLXLXLXLXLXDX&X&XdX&X&X&X+X%XXXXX%X+X&XdXDXDXdXDXDXDXCXZX&XA &XLXLXLXLXLXZX@X[ r 1 u n N M e.XX`.; j 3 ; w w w w w w w w =.=.w =.w =.=.=.=.-.=.-.-.-.-.;.;.<.-.; | c.3X5Xj...' %.%.^.:X:X:X:X:X:X:X:X:X<X:X<X^.^.^.^.^.^.^.^.<X<X^.^.^.^.^.^.^.^.^./././.Q.Q.+.+.+.+.Q.!.+.Q.Q.W.Q.W.W.W.Q.+.W.W.W.W.W.W.+.E.W.W.W.W.W.W. .W...8 + $ h ..D U Y.XX9XDXDXDXDXDXZXDXDXDXDXdXD 2 e } T.T.T.T.T.T.T.T.T.",
"8 d r 1 2 1 1 1 2 1 8 j d d 8 8 1 1 1 1 : : 2 [ gXgXgXgXgXqXn # : : : @ # 3 = $ : $ % : : : % : 2 : : % % : : : $ @ $ : : : x A S B K.z Z V Z a m OX X .t.b L %X%X%X*X.XI H.*X%XB k Z Z S V Z B S Z F B S Z F B Z Z V B B B B V V Z Z F Z Z V S S F Z Z F Z Z F S S S S S Z S S S F a 1 H.&X&XnX*X*X%X%X`.: } oXOXOX1X;X+X1X+X1X;XOXoXy.N - S S S S Z Z S S Z S S S S S Z Z S S Z S F S Z S V S S S Z Z D G H Z H H H H J H I K J J L J K P K P K P I P J J l 9X%Xq <.<.<.;.;.;.;.-.=.=.=.w w w ; X z [.{.[.{.[.[.[.[.[.[.[.[.[.[.[.[.[.[.[.[.z ].%X$X+X@X*X*X&X&X&X&X&X&X9X&XdX&XdXdXDXDXDXDXDXDXDXDXDXDXDXDXDX Xb DXLXLXLXLXLXLXLXLXLXLXIX&X%X X%X&XdXdXXXc +XdXZXCXZXZXCXCXCXDXdXdXDXCXZX+X1 XXLXLXLXLXPX&Xy.2.2 t u e i u ] i u u 3 l l 3 # w w w w =.w =.w w =.w =.=.=.=.=.=.-.-.-.-.-.;.;.;.q ! 3X5X3Xj.] { %.%.h.:X:X:X:X<X^.<X<X<X:X<X:X^.<X^.<X^.^.<X^.^.^.^.^.^.^.<X^.^.^.^.^.^./.Q.Q.Q.+.+.Q.@.W.!.+.W.W.Q.W.Q.W.W.W.W.+.W.W.W.W.W.W. .W.W.W.W.W.W.E.W.W.+.h $ $ 1 ..T.XXdXDXDXDXDXDXDXDXDXDXUX&Xb 2 U T.T.T.T.T. XT.T.T.T.T.",
"j 1 1 1 2 < 1 1 < 2 1 j 1 1 q 1 1 1 1 2 : = 2 N gXgXgXgXgXgX1X2 3 : : : @ # @ = $ $ : % $ % : : : : % % : : % # o = : % $ f A A B S Z S V Z V a }  .} oX} 1 .X%X%X%X*X%X#Xv b *X#Xk B Z V B K.Z F V B S Z V Z V A V d a d a > > f B B K.B Z S S Z Z V S Z Z K.F S S Z S S S Z S V < c %XnX*X*X*X%X*X*X%X%Xh m t.OX;X@X+X+XwXOX1XOXOXOXy.q.> B S S S S Z S Z F F Z Z S Z Z Z Z S Z S Z S S S S S S S S H S H H Z H H G H J J J J J J P L J L P P I J G P J Z A ZXM =.<.;.;.;.;.;.-.-.=.=.w =.w X X L.{.[.[.[.[.[.[.[.[.[.[.[.[.[.[.[.[.[.[.[.[.z ].XX%X@X&X&X&X&X&X&X&XdX9XdXdX&XVXdXDXDXDXDXDXDXCXDXDXDXDXDXDX.Xb DXLXLXLXLXLXLXLXLXLXLXDXe.XX%X XM ,.dXZXIXI G DXZXCXCXZXZXZXCXdXdXdXeX&XXX2 b dXDXSXCXDXe.[ ! u t.5XrX2Xk.w.] u e u u r i q O # 3 w =.=.w =.w =.w =.w w =.=.=.-.-.-.-.;.;.<.;.=.r l.3X5Xl.'  .^.h.^.:X:X,X:X:X:X:X^.:X<X^.<X^.^.^.^.<X^.^.<X^.^.^.^.^.^.^.^.^.^.^.^.^.^././.Q.Q.Q.+.+.+.!.Q.W.Q.W.Q.W.W.Q.Q.W.+.+.W.W.W.W.W.W.W.W.W.W.W.W.W. .W.W.W.W...1 . $ m wXCXDXDXDXDXDXUX&X&X&XI 1 1 } T.T.T.T. XT.T. XT. XT.T.",
"j j 1 1 q d 1 8 1 2 1 1 j 8 1 1 1 1 1 1 2 = : n gXgXgXgXgXgXgXt.2 $ : : : = # @ @ : @ = = $ % = $ : = $ $ @ # @ % : : $ , B Z A Z Z V V V V V < } oXt.OXU r $X%X+X%X%X%X*X.Xc A *XP.d V Z V z F V Z V S V Z V F A f c Y.*X*XY.c , > f B B Z S V Z Z S Z Z S B Z F S S Z S S S B , x %X*XUX*X*X*X*X*X%X*X%XL 1 oXt.oX;XOX+X+X} OX1XOXOX@Xy.: k S Z Z S S Z Z F K.F Z Z S Z S Z F Z Z S S Z S Z S Z S S Z S Z S H G H H H H K J G L K K L K K I K K L J J L V I ZXb ;.<.<.<.;.;.;.-.-.=.=.=.g   & [.{.[.{.{.[.[.[.[.[.[.[.[.[.[.[.[.{.[.[.[.%X].z %X%XXX&X*X&X&X&X&XdX&X&X&XdXdXDXdXDXDXDXDXDXDXdXDXCXDXCXDXCX&Xc nXLXLXLXLXLXLXLXLXLXLXHX$X Xb 2 % 7 n e.oXe.n 3 ,.SXDX&XXX,.} P P I N k.n 1 v I I I I H.b u u N z.rXrXrXiXrXrXrX4Xk.w.N r r 2.p ;     3 w w w =.w =.=.=.=.=.=.=.-.-.-.-.;.;.v.-.: f.3X3Xj.' $.^.h.%.^.^.:X:X^.<X^.<X<X<X^.<X<X:X<X^.^.^.^.^.^.^.^.^.^.^.<X^.^.^.^.^./.(.^./.Q.Q.!.Q.+.Q.Q.+.Q.W.Q.Q.Q.W.Q.W.W.Q.W.W.W.W.W.W.W.W.W.W.W.W.W.W.W.E.E.W.W.W.W.W.h $ $ b +XDXDXDXUXZXDXdX+XU 2 d U } oXT.T. XT.T.T.T.T.T.T.T.",
"8 d 8 j j 8 j d 1 1 1 1 1 8 d 1 2 1 2 < : : 2 e 0XgXgXgXgXgXgXhXe.2 & : : 2 : @ O # # @ @ $ $ $ $ $ @ # O @ $ : : % @ : x Z Z V B Z V V S B B 1  .OXoX .b U $X%X%X%X%X%X%X*XY.c L *XA d Z V A V V S B S V V Z V x U %XnXDXUXNX&X'.V > & > , k V S Z Z A S S S S Z Z Z Z Z Z c : A *XnXUX&X*X*X%X*X%X*X%X%XJ.8 e.t.oXOX;X+Xe.} +X@XOXOX@Xy.r d D S Z Z S S S Z B Z Z S F B Z F Z S S Z S B S Z Z Z Z S S S S Z D G J G L G I J J J K L P G L P K I K K L J v +X&Xw <.<.;.;.;.;.=.=.=.=.=.3 . f C.[.{.[.[.[.[.[.[.[.[.[.[.[.{.[.[.[.{.[.[.[.%XC.z $X@X%X@X&X&X&X&X&X&X&X&X9XDXDXCXDXCXDXDXDXCXDXDXDXDXCXCXZXDXG &XLXLXLXLXPXLXLXLXGX&XXXI e r r i i u r ! w.] r $ @ b } P I I I P I I n z.[ d ,.I I P } A b y w.5XrXrXrXrXrXyXrXrXrXrXrXrXf.2 r ] q.l z o O w w w w =.=.=.=.=.=.=.;.;.;.;.;.<.-.q { 5X3Xf.[ $.%.%.^.%.%.^.:X:X:X:X:X<X^.<X<X^.<X^.^.<X^.^.^.^.^.^.^.^.:X^.^.^.^./.^././.^./.Q.Q.Q.Q.Q.+.+.Q.+.+.!.!.+.+.+.W.!.W.!.+.W.Q.+.W.W.W.+.W.W.W.+.W.W.W.W.W. .R.W.W.W.W.' 4 # 2 T.DXZXDXDX*XXXn < U }  XF.T. XT.T. XT.T.T.T.T.T. X",
"j 8 r d 1 1 j 8 1 1 < 8 q 1 1 1 1 1 2 2 : $ 2 j 8XgXgXgXgXgX8X0XyX;Xe $ : : 2 : : @ @ # . O O # # O @ $ $ % : % % 3 % < A V V Z S B S B B S k 1  XOXoXoXd } %X%X%X%X%X%X%X%X%XT.b L $Xj d V Z V Z B B B V Z V B S.*XUXnX*XnXUXnXdXnXG.1 < 2 & * d S Z A V Z V S S Z Z Z S k > G *X&X*X*X*X%X%X*X%X%X*X%X%XXX1 }  .oXOX+X1XOXOX+X;XOXOX;Xy.r , S Z Z Z Z V S Z S Z Z Z B S Z Z Z S V Z S K.Z Z S Z S F S S S Z D K G G L K K K J H J K L L K P K K P K P G b dXXX=.<.;.<.;.;.-.-.=.=.w 3   L.{.{.{.[.[.{.{.[.[.{.[.[.[.[.[.[.[.[.[.%X[.[.[.[.K v XX%X@X*X*X&X&XdXDXDXDXDXDXDXDXDXCXDXCXDXCXDXCXCXCXCXCXZXSX XI LXLXLXLXLXLXPXDX.XM e u u u u t m [ w.w.{ l.r.] e # + b I .X XXXOXoXN q.M.w.} PXPXIXPX&XN n w.rXrXyXrXrXrXrXrXrXrXrXrXrXsXrXt N u N q.{.[.z +   3 w w =.=.=.=.-.-.;.;.;.;.;.<.w { 5Xc.f.{ $.:X:X:X:X^.:X^.^.:X^.<X<X^.<X^.<X:X^.<X^.^.^.^.^.^.^.^.^.^.^.^.^.^.^.^.~./.^././.Q.Q.Q.!.Q.+.!.@.!.!.+.!.+.W.+.+.W.W.!.W.W.W.W.+.W.W.W.W.W...W.W.W.W.W.W.+.+.W.W.W.W.E...h $ $ U &XDXUXI 1 1 } T. XY.} Y.T.T.T.T.T.T.T.T.T.T.T.",
"1 b d 1 1 b d 8 r 1 1 1 1 1 2 1 < 2 2 2 : @ 2 8 0XgXgXgXgXgXN 7 ;XhXqXt.7 @ : : 2 : : : % 3 $ : : % : : : : $ & : }  ., S V Z V B Z F Z B B f h oXt.oX} d #X$X%X%X%X%X%X%X%X$X%X#XA L Y.d B A V V B Z B V A B B %X*X*X*X*X*XnX*XnXUXnX.Xc .X.XD j d Z Z S Z Z Z Z Z Z Z d > P *X*X*X*X*X%X%X%X%X*X%X%X%X%X%Xc U oXt.OX;X;XOX;X+X@XOXt.OXy.i ; Z S V Z S V S Z V B K.K.F S V F Z V Z F V z F S S S Z Z Z Z Z S G J H G G G L J J G I P G K I J P P K I K J A SXI ;.<.<.;.;.;.-.=.=.w @ = V.{.bX{.[.{.{.[.{.[.[.[.{.{.[.{.[.{.[.{.[.[.[.%X{.%XK v %X@X*X&X&X&X&XdXdXDXDX9XDXDXDXCXZXCXCXZXCXCXCXCXCXZXSXSXdXG SXLXLXLXLXPXdXI b t u i y n ] r.l.5XrXrXrXrXrXrXrX4X] % $ I CXGXGXGXOXu s.z.k.q.IXLXLXPXe.N w.rXrXrXrXrXrXrXrXrXrXrXrXrXrXyXrXt.N e.u w.XXMXMX[.k +     3 ; w =.=.-.-.;.;.<.<.=.[ 5Xc.s.{ #.%./.~.:Xh.:X^.:X^.:X:X:X^.<X^.<X^.<X^.^.^.<X^.^.^.^.^.^.^.:X^.^.^.^./.~././././././.Q.Q.!.Q.Q.Q.@.@.@.!.+.!.+.+.+.W.Q.W.W.Q.Q.W.+.W.W.W.W.W.W.W.W.W.W.W.W.W.W.W.E. .W.W.W.E.' * O b T.OXn b I.U.T.T.T.T.T. XT.T.T.T.T.T.T.T.T.T.",
"d 1 1 b j 8 j j d 1 2 1 1 1 1 2 2 2 2 : % @ : 8 1XgXgXhXgXyXe.% 4 1XgXgX1XN : : : : 2 2 : : : : : : : % $ @ : r t.7X1X2 B V F V Z B B B B S f h W.OXOXm b $X$X%X%X%X%X%X%X$X%X%X%X%XL L D.d c A B S V V A V d D.*XnX*X*X*X*X*X*X&XnXUXnXJ.A *XDXUX#XZ.k B V Z Z V S A d : P *XUXUXnX*X%X%X%X%X%X%X%X*X%X*XXXA n oXe.OXOX+X+X1XOX;XOXOXOX@Xy.; V Z Z Z Z S S V F F z V S V S B F K.B Z Z Z S V S Z Z Z S S Z S H G H H G G K J G L K K L P K K P K L K ,.G I IXM ;.<.<.;.;.;.=.=.; = x [.{.{.[.{.{.[.{.[.[.[.{.{.[.[.[.[.[.[.[.[.[.[.{.[.[.[.z b %X%X%X@X*XdX&XdXDXdXDXDXDXDXDXCXZXCXCXZXDXZXCXZXSXSXSXSXI %XLXLXLXLXSX.Xn r r e e y [ l.M.rXrXrXrXrXrXrXrXrXrXrXc.] % : } GXAXZXI i k.q.w.q.ZXLXLX+Xi [ rXrXrXrXrXrXrXrXrXrXrXrXrXrXrXrXrXl.N y.e.i e.mXMXMXMX{.].j * @ O # 3 w =.;.<.<.;.q.c.c.f.| #.%.^././.^.:X^.:X^.^.:X:X:X<X^.<X^.^.^.^.^.^.^.^.^.^.^.^.^.^.^.^./.^./.^.~.~.^./.Q./.Q.Q.@.@.!.Q.Q.!.Q.@.+.+.!.!.+.+.+.!.Q.Q.W.W.W.W.+.+.+.W.W.W.W.W.W.W.W.+.E.W.W.W.+.W. .W.W.W...8 # $ b U U.T.T.T.T.T.T.T.T.T.T. XT.T.T.T.T.T.T.",
"8 j j j 8 d q 1 1 1 1 1 2 1 2 2 2 : : 2 : @ % 1 1XgXgXgXgXgXgX6X7 2 t.gXgXgXOXn $ @ & : : 2 : % % % $ @ $ n t.0XgXgX0X8 k V B S V V B Z V V a m oXt.oXh A XX%X%X%X%X%X%X%X#X%XXX$X%X%XD L J 1 c S B B B B k V %X*X*X*X*X*X*X*X*X*XnX&XUX*XG.L *XnXUXnXb s C A A S B , , '.nX*XnX*X*X%X%X%X%X%X%X%X%X*X%X%X%XL e t.e.W.OXOX;X+X+X@XOXoX;X@Xy.8 B Z F V S S B Z Z Z V V S S S V K.F Z Z V Z Z Z Z Z Z S S V S Z G Z G G G J P G J J K P K P K P K P P P I v @XSXp ;.<.;.<.;.=.q O j [.{.{.{.[.bX{.{.[.[.{.[.[.[.[.[.[.[.[.[.[.{.[.{.[.$X[.[.[.k b %X@X&X&X&XdXdXdXDXDXDXDXDXCXZXZXZXCXZXDXCXZXZXAXSXSXGX&XA HXLXLXIX+XM r r 7 7 u w.4XrXrXrXrXrXrXrXrXrXrXrXrXrXrXrX[ % 8 2 +XGX9Xu q.[ 7 ] q.&XLXCXI N c.rXrXrXyXrXrXrXrXrXrXrXrXrXrXrXrXrX4XN e.e.i t.%XMX|.MXMXMXMXbX[.[.A.Z d ; ; q M } 4X2Xf.$.d.@.%.Q./.^.^.:X^.<X^.<X<X^.^.^.<X^.<X^.^.<X^.^.^.^.^.^.^.^./.^.^././.~././.^./.^.~./././.@.Q.Q.Q.Q.!.Q.Q.+.+.+.Q.+.W.+.+.W.+.Q.W.W.Q.W.+.W.+.W.W.W.W.W.W.W.W.+.W.W.W. .W.W.+.W.W.W.W.+.h $ o 1 } T.T.T.T.T.T. XT.T.T.T.T.T.T.T.T.T.T.",
"b 1 8 d 1 1 1 1 1 1 2 1 1 2 2 2 2 % % : $ @ 2 % 1XgXgXgXgXgXgXgX;X7 @ N 7XgXgXgX1X] 8 $ @ @ @ @ @ . = n OX7XgXgXgXyXgXm f Z B B V V V B B V < N e.oXoXj I %X$X%XXX%X$X$X#XXX#X%X%XXX%X$XU V A d B B F B B f J.*X*X*X%X*X*X*X*X%X*X*XnX*XDX*XA U nXnXUXY.> B Z Z B > f Y.UX*X*X*X*X%X%X%X$X%X%X%X%X%X%X%X%X%XF.b  . Xt.OX+XOX;XOX;XOXOXOX@X@Xb k Z Z S V V S F z Z F S V B S S B B F F Z F z F V F Z S V Z S Z D G J G J G G J G J J G P I K ,.I P A l 2 < dXCXq <.;.;.;.w 3 < ].{.mXbX{.{.bX{.[.[.{.{.[.[.{.{.[.{.{.).{.{.[.[.[.[.[.[.[.[.[.j b &X*X&X&X&XdXdXdXdXDXDXDXDXZXCXCXDXZXZXZXZXGXAXAXAXSXZXA &XLXLXZXI r 7 7 2 e { z.rXrXrXrXrXrXrXyXrXrXrXrXrXrXrXrXrXl.% ! 7 b CXXXu y.p 7 q.w.%XKXe.i s.rXrXrXrXrXrXrXrXyXrXrXrXrXrXrXrXrXrXrXi N y.N w.].MXMXMXMXMXMXNXNXBXBXBXNXmX[.K z d 8 b n ..$.$.+.@.@./.:X^.^.^.^.^.^.^.<X<X^.^.^.^.^.^.^.<X^.<X^.^.^.^.^.^.^./.^./.^.^././.~.~./.@./.@.@.Q.@.Q.!.Q.!.Q.@.+.+.+.!.!.+.+.+.W.Q.Q.W.W.W.W.+.!.W.!.W.W.W.W.W. .W.E.W.+.+.W.E.W.W. .R. .R...2 # > U T.T. XT.T.T.T.T.T.T.T.T.T.T.T.T.T.",
"1 8 d 1 8 1 1 1 1 8 2 1 1 2 2 < 2 : % : $ @ : 2 -XgXgXgXgXgXgXgXgX8XN # m gXgXgXgXgXyX1X} N 8 b e [ 1X7XgXgXgXyXyXgX7X} f B Z B V V B B V B a } } oXe.8 Y.$X$X%X%X#X#X$X#X%X$X$XXX%X%X$X%XL h A k B B B k D *X*X*X%X*X%X*X*X%X%X*X%X*X*XnXnX%Xd XX*XnX*Xc d A c * k %XnXnX*X*X%X%X%X%X%X%X%XXX%X%X%X%X%XOX%X.X8 } oXt.OXOXOX+X@XOXOXe.e.@Xy.u k V B S S S z F K.K.B V S S B S B V S V Z B K.F K.V V S Z S Z S S G J G G K K K I K K I K ,.K P K r 1 q M K SXdXM ;.;.w g : C.{.bXbX{.bX{.{.{.{.{.{.{.[.[.{.[.{.[.[.{.[.[.{.[.{.[.[.[.[.[.[.[.s v *X&XVXdXVXdXdXdXDXDXDXDXDXCXDXCXCXZXZXSXAXAXAXAXAXAX+XI PXLX*Xb r 7 2 r [ z.rXrXrXyXrXrXrXrXrXrXrXrXrXrXrXyXrXrXrXrX[ t [ % e.e.i t.r N q.q.XX&Xi [ rXrXrXrXrXrXrXrXrXrXrXrXrXrXrXrXrXrXrXrX[ b y.e.q.y.|.MXMXMXMXNXNXNXBXBXBXBXBXBXBXBXNXbX#XF.v c b m m ' ' ..$.~.^.^.^.^.:X<X<X^.^.^.^.<X<X^.^.^.^.^.^.^.^.^.^././././././.~./.~./././.@.@.Q.Q.Q.+.Q.Q.Q.!.+.+.+.+.!.+.!.+.W.W.@.Q.W.Q.W.W.W.W.!.W.W.W.W.W.W.W.W.+.+.W.E.+.R.W.W.W.W.W.W.W...h $ @ h } U.T.T.T.T.T.T.T.T.T.T.T.T.T.T.",
"1 j 1 q j 1 8 j 1 1 1 1 2 2 2 : % : : % @ 3 % 2 1XqXgXgXgXgXgXgXgXgX7X} @ t.gXgXgXgXgXqXgXgX7X7XgXgXgXgXgXgXgXgX7XgXqX ., S B B V B V B B B 8 } } OX} b Y.%X$X$X#X%XXX#X#XXX#X#X$X$X%X$X$X$XP c h f B B f R.%X*X%X*X*X%X*X%X*X*X%X*X*X*X*XUX*XD b *X*X*XJ 1 d , A nX*XUX*X*X*X%X%X$X%X%X%X#X%X%X%X%X%X%X%X%XXXj } e.t.OXOX@X;XOXOXt.} e.@Xx.p j S V Z B B K.B B z V Z B B S B S B B S V V F B B Z Z Z Z V S Z S G G G G I K K K ,.K K K P ,.M q q K ,.].,.HXdX=.=.; ; F [.mXbXbXbXbXbX{.{.{.%X[.{.[.{.{.[.{.[.{.{.[.{.[.[.{.[.[.{.[.%X[.[.bX1 G &XdX&XdXdXdXDXDXDXCXCXCXCXZXZXZXZXZXAXSXAXAXAXAXSXAXI &XIX} t i r e t.c.rXrXrXrXrXrXrXrXrXrXrXrXyXrXrXrXrXrXrXrXrXrXc.t w.u q ] ] q.b &X] 2.e.[ y z.rXrXrXrXrXrXrXrXrXrXrXrXrXyXrXrXrXrXrXrXt.r e.e.[ y.}.MXMXMXMXMXMXNXBXBXBXBXBXBXBXBXBXBXBXBXNXVXnXmXnXnXnXnXD.$.^.<X^.^.^.^.:X^.^.<X^.^.^.^.^.<X^.^.^.<X^.^.^./.~./.Q././.^./.^.~././.Q.@.@.Q.+.@.Q.Q.!.Q.@.Q.@.Q.+.+.!.!.+.Q.@.W.+.W.Q.Q.W.!.W.W.W.W.W.W.W.W.W.W...W. .+.W.W.W.W.W.W.+.E.W.+.h % o f } T.T.T.U.T.T.T.T.T.T.T.T.U.U.",
"8 d 1 1 1 1 1 2 < 1 2 1 : 2 : : : $ 2 < # % % 2 8XgXgX7XgXgXgX7XgXgXgX7Xm % -XhX7XgXgXgXgXgXgXgXgXgXgXgXgXgXgX7XgXgXgXf.< B V B B B B B B d 1 } OXt.} 1 T.$X$X$X#X#X#X.X#X.X#X#X#X$X$X$X$X%X%XI d 1 d k S %X*X%X*X%X*X%X*X%X%X*X%X%X%X%X*X*X*XY.< Y.*X%X.X, c Y.*X&X*X*X*X*X%X%X$X%X$X%X$X$X%X%X%X%X$X%X%X%X$Xb [ T. XoXOXOX;XOXOXOXt.e.+Xy.N d B S V S B F V B B F S B V S V S B S B S B S B S C Z Z Z C G G A G G G G K I K K K I K K ,.v 2 v ,.XXXX,.,.GXXX3 ; z %XMXbXbXbX}.}.bX}.bX{.{.{.{.[.{.{.[.[.bX{.[.[.{.{.[.{.[.*X[.%X[.[.[.bX[.j K DX&XDXDXDXDXDXDXDXCXCXZXDXCXZXZXAXAXAXAXSXAXAXAXJX&X.XDXN u i t { z.rXrXrXrXyXrXrXrXrXrXrXrXrXrXrXrXrXrXrXrXrXrXrXrXrX[ ] u.% e q.[ K AX[ w.N i r.rXrXrXrXrXrXrXrXrXrXrXrXrXrXrXrXrXrXrXrXrXl.7 e.t.N y.{.MXMXMXMXMXMXNXBXBXBXBXBXBXBXBXBXBXBXBXBXBXBXBXBXBXBX[.U :X:X^.^.^.^.^.^.^.^.^.^.^.^.^.^.^.^.^.^.^.:X^.^././.!./.Q./././././././.@.Q.@.Q.@.@.@.Q.Q.Q.Q.!.+.@.@.Q.!.!.!.+.+.W.W.Q.W.Q.W.W.W.+.W.W.W.W.+.W.W.W.W.W.W.W.W.W.W.R.W.W.W.W.W.W.W...1 . : U U.T.T.T.Y.U.T.T.T.T.T.U.T.",
"< 2 1 1 1 1 1 1 1 2 1 2 2 : : % : $ 8 2 # : : 8 7XgXgXgXgXgXgXgXgXgXgXgX8X2 b 7XgXgXgXgXgXgXgXkXgXgXgXgXgXgXgXgXgX7XyX6X7 x V B B B B B Z d 1 } oXoXI b $X$X#X#X#X#X#X#X.X.X.X#X#X#X#X#X#X#X#X%XF.j : < P.%X%X%X*X%X%X*X%X*X(.%X%X%X%X%X%X*X%X#Xc A %X%XL b $XnX*X*X*X%X%X%X%X#X%X$X#X$X#X%X#X%X$X$X%X%X%X%XXXb m t. .e.OXt.t.+XOXOXOX .@X1X:.s S B S V Z B S S V V B Z V V B B S B F B S B S V Z C Z A A G G G G G K G G K K K K I K ,.v 2 M ,.].].,.].I N ; r [.mXmXmXMXbXbXMXbXbXbX}.{.bXbX{.bX{.{.{.bX[.{.bX{.[.*X[.{.[.[.{.[.[.{.[.{.bXk F.nXdXdXDXDXDXDXCXCXZXDXZXZXZXAXSXAXAXAXAXAXAXAXAXSXXXXXn e u N z.rXrXrXrXrXrXrXrXrXrXrXrXyXrXrXrXrXrXrXrXrXrXrXrXrXrXrXl.t f.t 2 s.N XXKXw.w.[ ] z.rXrXrXrXrXrXrXrXrXrX5XrXrXrXrXrXrXiXs.rXrX4Xr q.e.i w.[.MXMXMXMXNXNXNXBXBXBXBXBXBXBXBXBXBXBXBXBXBXBXBXNXBXVXd  .:X:X^.^.<X^.^.^.<X^.<X<X^.<X^.^.<X^.<X^.<X^.^.^./././.!.Q.!./././././.Q.@.Q.Q.Q.@.@.@.Q.Q.Q.Q.Q.@.+.+.+.+.+.Q.+.+.W.+.W.Q.W.Q.W.W.+.+.W.W.W.W.W.W.W.W.W.W.W.W.W.W.+. .W.W. .E.W.E.W...h @ @ h U.T.T.T.T.U.Y.U.T.U.U.U.",
"< 2 2 2 1 2 1 2 1 1 2 2 : : 2 : % 2 n % # 2 3 m qXgXgXgXgXgXgXgXgXgXgXgXgXt.$ ] 7XgXgXgXgXgXgXgXgXgXgXgXgXgXgXgXgXgX7X7X8 k V B B B B B V d 1 t. .OXU c $X#X#XXX#XXXY.#X#X#X.X.X.X#X.X.X#X#X$X$X%X.XV 1 $X%X%X%X%X%X%X%X*X%X[.*X%X%X%X%X%X%X#X%XL j #X.XI #X*X*XnX*X*X%X%X#X#X%X$X$X$X$X#X#X%X%X%X%X%X%X%X%X$XU m  Xe.oXOXOXoXOX;XOXOX .OX@Xq.< B B F B B U S B V Z B V S B S B B Z V V B B Z S V Z C A A G G G K G K G K I I K K K K v 2 M `.XX].e.I q ; c H.nXNXNXmXmXbXMXMXbXbX}.bX}.bXbX{.}.bX{.%X{.{.{.{.[.{.bX{.{.{.[.{.{.{.{.%X[.{.{.c ,.9XDXDXDXCXCXDXDXCXCXZXCXZXZXAXAXAXAXAXAXAXAXAXAXdXG b y r [ 5XrXrXrXrXrXrXrXrXrXrXrXrXrXrXrXrXrXrXrXrXrXrXrXrXrXrXrXrX5Xu r.w.% w.n &XLX@Xq.N q.rXrXrXrXrXrXm.c.c.c.M.w.m l.rXrXrXrXl.u 5XrX5Xt I y.N q.].MXMXMXMXMXNXNXBXBXBXBXBXBXBXBXBXBXBXBXBXBXNXNXNXBXH.h ^.^.^.:X^.^.^.^.^.^.^.^.^.<X^.^.<X^.^.^.<X^.^.^.^././.!.Q.Q.!.Q.Q.Q.Q.Q.Q.@.@.@.@.@.@.@.Q.W.@.Q.Q.Q.+.+.!.+.+.!.!.!.+.+.@.Q.W.W.W.W.W.+.+.+.W.W.W.W.W.W.W.W.W.E.W.W. .E.E.W.W.W.W.W. .W. .' $ X 1 } U.T.U.T.T.T.Y.T.T.U.",
"2 1 1 1 1 1 1 2 2 2 2 : % : % % = 8 A @ @ 2 : } gXgXgXgXgX7XgXgX7XgXgX7X7X7X[ = 1XgXgXgXgXgXgXgXgXgXgX7XgXyXgX7XyX7X7X7Xm f B B B B B B B f h e.OXOXm A XX#X#X.X.X.X#X'.'.Y..X.X.X.X.X.X.X.X.X#X#X$XH.V %X%X%X%X%X%X%X%X%X%X%X%X%X%X#X%X%X%X%X%X.X1 D .X*X*X*X*X*X%X%X%X%X%X#X#X$X#X#X$X$XXX#X#X%X#X$X%X%X%X$XL b  .t. .t.OXOXOXOXOXt.OX@X1Xe.q B K.B B F B B B Z B F B B B S B Z B Z V V Z V V C V Z A C G G A G K K I K M K K K K M : M ].,.].,.q : l ].VXBXnXVXmXmXmXMXmXMXbXbX}.bXbXbX}.bX}.{.bX{.{.{.bX{.{.{.[.[.bXbX{.%X{.[.{.{.{.%X{.j XXDXDXDXDXZXCXZXCXCXZXCXAXAXAXAXAXAXAXAXSXAXAXAXSXe.% ! i w.rXrXrXrXrXrXrXrXrXM.rXrXrXrXrXrXrXrXrXyXrXrXrXrXyXrXrXrXrXrXrX[ W l.8 ! M CXLX+Xi N x.rXc.c.rXrXrXc.c.c.c.c.u $ 8 z.rXrXrXr.t rXrXrXn n t.[ ] `.MXMXMXNXNXNXNXBXBXBXBXBXBXBXBXBXBXBXBXBXNXNXNXNXmXc ..^.:X:X^.^.^.^.^.^.^.<X^.^.^.^.^.^.^.^.<X^.^.:X^.^.~.!./.!.Q.Q.Q.Q.Q.Q.Q.Q.@.@.Q.Q.@.@.@.@.@.Q.@.Q.Q.+.!.+.+.+.+.!.!.+.+.+.+.W.Q.W.+.+.W.W.W.+.W.W.W.W.W.W.W.W. .W.W.W.W. .W.W.W.R.W.+.E.W.W...4 . : U Y.T.U.T.U.U.U.U.T.",
"1 1 1 1 1 2 < 1 2 2 2 : : % : $ $ n b # : 2 = ;XgXgXgXyXgX7XgXgX7XgXgXgXqXgX7X8 [ gXgXqXgXgXgXgXgX7XgXgXgXgXgXgXgXgX7X7X] a V B B x B B x < n oXOXOXn A $X#X.X.X#X'.'.'.'..X.XJ..X.X.X.X.X#X.X#X.X$XL L %X#X%X%X%X%X%X%X%X%X#X%X%X$X$X%X$X$X$X%X%Xb D U %X*X%X%X%X%X%X$X#X#X#X$X#X#X#X#X#X#X#X%X#X%X$X%X$X%XXXU b  X} t.OXOXOX;Xf.oXT.OXoX@Xy.8 B F B B S B V S B B B B B S B B V V F V V V V A C V Z C G G G G G M K K M M P K K M q b '.,.M q ; b ].VXVXVXnXVXVXmXNXmXmXbXMXbXbXbXbX}.}.bXbX}.bX{.bX{.{.%X{.bX%X{.{.bX{.%X{.{.{.%X{.{.{.{.j XXdXDXDXCXCXZXZXZXZXCXZXSXAXAXAXAXAXAXAXAXSXSXZX&X2 u i r.rXrXrXrXrXrXrXrXrXc.c.c.c.M.5XrXrXrXrXyXrXrXrXrXrXrXrXrXrXrXrXrXt.u l.! r u &XJXe.i [ rXM.c.a.c.c.c.c.c.c.rXrX[ s.% m rXrXyXw.m rXrXc.N b y.e.! ,.bXMXMXMXNXNXNXBXBXBXBXBXBXBXBXNXBXBXNXNXNXNXMXMXJ.h ~.^.^.^.^.^.^.<X^.<X^.^.^.^.<X^.<X^.^.^.^.^.<X^.^.^./.Q.Q.Q.Q.Q.Q.Q.Q.Q.Q.Q.Q.Q.Q.Q.Q.@.Q.Q.@.Q.@.@.!.!.Q.+.Q.+.+.Q.!.+.+.+.+.+.Q.Q.W.Q.W.W.+.W.+.W.W.W.W.W.W.W.W.W.W.W.W.W.W.R.W.+.W.W.E.R. .W.R.9 # @ b } I.T.U.U.U.Y.U.",
"1 1 1 1 1 1 2 2 : % : : % : : $ 1 I : # : % 2 8XgXyXgX7XgX7XgX7XgXgX7X7XgX7X7X} 8 7XgXgXgXgXgXgXgXgXgXgXgXgX7XgX7X7X7X7X} < B B B B x x x , U oXt.OXn U #X.X.X.X'.#X'.'.J.'.J..XJ..XJ..XJ.J..X'..X#Xv F.%X#X%X$X%X#X%X%X%X%X#X%X%X$X$X#X$X$X#X$X$XL G j .X%X$X%X#X$X#X#X#X#XXX#X#X#X#X#X#X#X#X#X%X#XXX%X%X%X$XI 8  .} e.t.OXOXOXOXOXt.OXOX@Xy.d B z B B B V B B F K.B B B B S B V V B V Z V V C V Z Z A v G M G G K K M I K K ,.M q p K M q ; M ].NXNXVXNXNXVXVXnXNXnXmXbXMXbXMXMX}.}.MXbXbX{.bX{.bX{.bX{.bX{.{.{.{.bX{.{.{.{.{.{.{.{.{.bX{.q XXnXDXDXCXDXZXZXDXZXZXAXZXAXAXSXAXAXSXAXAXZXSX&Xr r u w.rXrXc.M.5XrXrX5Xm.c.c.a.c.c.c.rXrXrXrXrXrXrXrXrXrXrXrXyXrXrXrXrXrXc.e u.| 7 w.e.x.w.y k.rXc.c.c.g.c.a.M.c.rXrXrX4XrXr.2 q.l.rXN ] rXrXrX[ r e.w.N } bXMXMXMXMXNXNXBXNXBXNXNXBXNXNXNXNXNXMXMXMXMXMX%X8 ..^.^.<X^.<X^.^.^.^.^.^.^.<X^.^.^.^.<X^.<X^.^.:X^.^.^.^./.~.Q.!.Q.Q.Q.Q.Q.Q.Q.@.Q.Q.@.@.@.Q.Q.@.@.@.@.Q.Q.Q.+.@.Q.+.+.Q.W.+.W.+.W.W.+.W.Q.+.W.!.+.+.W.W.!.W.W.W.W.W.W.W.W.W.W. .+.W. .W.W. .W.W.W.W.W.K.$ + d } T.U.U.T.U.U.",
"8 1 1 1 1 2 2 : : : : % : $ $ % A r # @ 2 $ n 7XgXgX7X7X7XgXgX7X7XgXyX7X7X7X7Xf.8 1XgXgXgXgXgXgX7XgXgXgXgX7XgXgX7XgX7X7Xf.: x B x B B x x < U t.oX XA L .X.X'.Y.'.'.J.Y..XJ.J..X.XJ.J..XJ..X'.#X.XY.b .X#X%X%X#X#X%X%X#X%X%X%X#X$X$X#X$X#X#X$X.X$XG.L V F.%X$X$X$X#X#X#X#X#X#X.X#XY.#X.X#X#X%X#X%X#X#X%X%X$X%XI b  .} } | OXOXOXOXOXt.oXOX@Xt.< B B S B B B B B B B S B B B B B V V V B B V V V C C C C A G G M K M K K M K M I q q l ; : C %XVXVXVXNXVXNXVXVXnXNXmXnXMXmXmXMXbXMXbXMXbXbX}.bX}.bX}.bX{.bX{.bX{.{.bX{.{.{.{.bX{.{.bXbX{.{.bXj %XDXDXCXCXZXZXZXZXAXAXAXAXSXSXAXAXSXAXSXSXSXDXr r 2 [ iXrXM.c.a.g.c.c.c.c.c.c.c.M.rXrXrXrXrXrXrXrXrXrXrXrXrXrXrXrXrXrXrX5XrXi r.k.7 w.M.z.! i 5Xc.c.c.c.M.c.c.rXrXrXrXrXrXrXc.7 $ ] rXe { l.z.rX{ 2 t.e.N } {.MXMXMXNXNXNXNXNXNXNXNXNXNXNXNXMXMXMXMXMXMXbXk h ^.^.^.<X^.^.^.^.^.^.^.^.^.<X<X^.<X^.<X^.^.^.^.^.^.^.^.^.Q.Q.Q.Q.Q.Q.Q.Q.Q.Q.Q.@.Q.Q.@.@.@.@.@.@.!.Q.Q.Q.Q.!.Q.Q.!.@.+.@.+.@.@.Q.+.+.+.W.W.W.+.W.W.W.!.+.W.W.W.W.W.W.W.W.E.W.W.W.W.W.W. .W.W.W.W.W.W.W.W...2 . : U Y.Y.Y.U.I.",
"1 1 2 2 2 2 % = % $ % : $ = : 8 n % # : : $ } gX7XgX7X7X7X7X7X7X7X7X7X7X7X7X7X>X7 2XgX7XgXgXgXgXgXgXgXgXgXgX7XgX7X7X7X7Xf.: x x B x x x x , } OXt.t.U I #X#X#X.X.X'..XJ.J..XJ.J.J.'.J.J.J.J.'.'.'.G.V .X#X#X#X#X%X#X#X%X#X#X%X#X$X$X#X#X#X#X#X.X#XY.G G L $X$X$X#X#X#X#X#X#X#XY..XXX.X#X.X.XT.#X#X#X%X%X%X.XF.v e e. .| T.OXOXt.OXOXoXt.OX1Xt., B B F B B F B B B B B V B B B B B V B V V V V C v C C G A A G G G K K M ,.M ,.M 3 3 q ,.*XVXVXVXVXVXVXBXNXVXNXNXNXNXNXmXMXMXnXMXbXMXbXbXMXnX}.bXbXbX{.bX{.bX{.{.bX{.%X{.bXbX{.bXbX{.{.bXbX[.j *XDXDXCXZXCXZXZXAXAXAXAXSXAXSXAXAXZXAXAXSXZXI 5 r u 5XrX5Xc.c.c.c.a.c.a.c.c.rX5XrXsXrXrXrXrXyXrXrXrXrXrXrXrXrXrXrXrXrXrXrXrX{ ] j.r ] N.z.n w.rXc.M.rXrXrXrXrXrXrXrXrXrXrXrXrX]   8 z.8 w.y l.m.r.2 t.y.[ ' bXMXMXNXMXNXMXNXNXMXNXMXNXMXNXMXMXMXMX}.}.MXC.h Q./.^.^.^.^.^.^.^.^.<X^.<X^.^.^.^.^.^.^.^.^.^.^.:X^.^.^.^.^./.Q.Q.Q.Q.Q.Q.@.@.Q.Q.Q.Q.Q.Q.@.@.@.@.+.Q.Q.Q.Q.!.Q.Q.!.Q.+.Q.@.@.W.Q.Q.+.+.+.+.+.W.!.!.!.W.W.W.W.W.W.W.W.W. .+.W.W.W.W.W.W.E.W.W. .E.W. .+.R.W...h # & b I.U.U.F.",
"1 < 2 2 1 2 : % : = $ $ % @ % b 8 # @ % : % t.gX7X7X7X7X7X7X7X7X7X7X7X7X3X7X7X{ 7 8X7XgXgXgXgXgXgXgX7XgXgXgXyX7X7X7X7X7X2X2 k B B B B k c , } oXoX .N Z.H.Y.'.'.J.J.#XJ.J.J.'.J.J.J.J.J.J.J.J.`..XL A .X.X#X#X$X#X#X$X$X$X$X$X$X.X#X#X.X#X#X#X#X.XJ.A L I #X#X.X#X#X.X#X.X.X'.#X'.#X#X#X#X#X#X.X$X.XF.L v j c k b  .e.} oXOXOXOXOXt.oX .OX1Xe.2 l V V B V B B B B B B B B B B B B B B F V V V V C C C G v C G G M K K G K M l ; < ,.bXVXVXVXVXVXVXVXNXBXNXVXVXNXNXnXNXnXMXnXnXMXMXnXMXnXMX}.bX}.bXbXbX}.bX}.bXbX}.bX}.bX}.bX}.}.bX}.}.bX}.{.f wXDXCXZXZXZXZXAXSXAXAXAXAXAXAXAXAXAXZXZXAX*X8 y 7 z.rXrX5Xc.c.M.c.rX5Xc.c.rXrXrXrXrXrXrXrXyXrXrXrXrXrXrXrXrXrXrXrXrXrXrXrXrXs.y c.t 5 w.i r k.rXrXrXrXrXrXrXrXrXrXrXrXrXrXrXrXl.# $ [ 4 u w.rXrXl.7 t.y.N [ [.MXMXMXNXMXMXMXNXMXNXMXMXMXMXMXMX}.}.|.MX[.8 .././././.^.^.^.:X^.:X:X^.<X^.<X^.<X^.^.<X^.^.^.^.^.^.^.^.^.^././.Q.Q.Q.Q.!.Q.Q.Q.Q.Q.Q.Q.Q.Q.Q.Q.Q.Q.Q.Q.Q.Q.Q.Q.Q.Q.Q.Q.&.Q.E.Q.Q.Q.Q.+.W.Q.Q.W.Q.Q.W.W.Q.W.W.W.W.W.W.W.W.W.W.W.W.W.W.E.+. .W.E.$.W.W.E.W.W.E.R.m $ + 1 } I.I.",
"1 2 2 2 : : % : % % % = 3 % b r @ @ @ 2 : 8 8XgXgX7X7X7X7X7X7X5X7X7X3X7X7X3X>X8 m 7X7X7XgXgXgXyXgXyXgXgXgX7XgX7X7X7X7X7X,X1 d x B k k B k < } OXOXOXm : = 1 V L D.D.J.J.#XJ.J.J.J.J.J.H.J.J.J.J.Y.V A .X.X.X#X.X#X#X#X#X#X#X#X#X#X.X.X.X'.#XJ.#X.X.XV P Z .X.X.X'.#X.X'.'.'.#X'.#X'.J.#X#XY.G.D c 1 1 a d B V c b }  .t. .t.t.oXOXOXoXOXOXOXy.2 B V V B B B B B B B B B B B B B B B B B B V V V C C G v G M G M K K M M q 2 p ,.mXVXVXVXVXVXVXVXVXVXBXNXNXNXNXmXNXnXMXNXNXNXMXnXnXMXnXMXnXbXbXMXbX}.}.bXbX}.bX}.bX}.bX}.bX}.bX}.}.bXbX}.MX{.k *XDXZXZXZXZXSXAXAXAXAXSXAXSXAXAXAXAXAXAXDXb i 7 w.rXrXrX5Xc.m.rXrXrXrXm.rXrXrXrXrXrXrXrXrXrXrXrXrXrXrXrXrXrXrXrXrXrXrXrXrXrXc.y l.y 2 n 7 r z.rXrXrXrXrXrXrXrXrXrXrXrXrXrXrXrXrXe   % # e s.f.j.s.2 e.t.N 2.[.MXMXMXMXMXMXMXMXMXMXMXMXMXMXMXMX}.}.}.{.k 9 Q./.Q.Q.^.^.^.^.^.^.^.^.^.^.^.<X^.^.^.^.^.^.^.^.^.<X^.^.^.^././.Q.Q.Q.Q.Q.Q.!.Q.Q.Q.Q.Q.Q.Q.Q.Q.Q.Q.Q.Q.Q.Q.Q.Q.Q.Q.Q.Q.Q.Q.Q.Q.Q.Q.Q.Q.+.Q.+.W.+.W.W.Q.+.W.W.+.+.W.W.W.W.W.W.W.W...W.W.W.W.W.W.W.W. .+. .W.W. .W.W...> . > U } ",
"2 2 < 2 : : : $ % = $ $ $ 1 r : # @ 2 : 3 m 7XyXgX7X7X7X3X7X7X7X7X7X3X7X3Xj.m @ f.7X7XgXgXgXgXgX7XgXyXgXgXgXgX7X7X7X7X7X3X8 k B B k B k d 1  .oXOXOXm 8 1 * O = - > > k L J.J.`.H.J.H.H.J.H.J.J.J.v L .X'.#X.X.X#X#X#X#X#X#X#X#X#X'..X.X#X'.'.Y..X.Xx U A .X.X.X'.'.Y..XJ.'.Y.'.Y..X.XG.A a > > 1 k x V B B V B 8 e.t.e.e.t.OXoXT.oX .OXt.oXy.1 B B B B B B B B B B B B B B B B B B B B V B C v C v C G v G K K C v q q K XXmXVXDXVXVXVXVXVXBXVXVXBXBXBXBXNXNXNXNXNXNXnXnXMXnXNXnXMXMXMXnXMXMXnXbXMX}.}.}.}.}.bX}.bXbX}.}.bX}.bXnX}.nXMXMX{.d &XBXCXDXSXSXSXSXAXAXAXAXAXSXSXAXAXAXAXAXOXr i 2 z.rXrXrXrXrXrXs.c.rXrX5XrXrXrXrXr.2XrXrXrXrXrXrXrXrXrXrXrXrXrXrXrXyXrXrXrXrX5Xy f.! N PXe.u 4XrXrXrXrXrXrXrXrXrXyXrXrXrXrX5Xc.! 2       # % [ k.s.7 w.y.] [ [.mXMXMXMXMXMXMXMXMXMXMXMXMXMX}.MX}.}.}.F 1 A ..../.Q./.^.^.^.^.^.^.:X^.<X^.^.^.^.^.^.^.^.^.^.^.^.^.^.^./././.Q./.Q.Q.Q.!.Q.Q.Q.Q.Q.Q.Q.Q.Q.Q.Q.Q.Q.Q.Q.Q.Q.Q.Q.Q.Q.Q.Q.Q.Q.Q.Q.+.Q.W.+.W.W.+.+.+.W.W.W.+.+.W.+.W.W.W.W.W.W.W...+.W.W.W.W.+.R.E.W.W.R.W.W.+...W.W.W...8 # & U ",
"2 2 2 : : % = % % $ 3 3 : 8 : # @ @ 2 : 2 ;XgXgX7X7X7X7X7X7X3X3X3X7X3X2Xd.t @ { 7X7X7XgX7XgXgXgXgXgX7XgXgXgX7XgX7X7X7X7X3X8 f z k B k B f b  XoXt.oXoXT.oXN % < a - & & + a A D.J.J.H.H.J.D.H.J.J.c L .X'.Y..X.X'.#X'.#X.X.X.X.X'.Y..X.X'.'.'..XJ.J.v D V J.J.J.J.'.J.J.J..X'.'.'.L k & $ 1 c V V B V V A V V x d }  . .e.OXW.oX .oXt.OX Xy.y.2 x B B B B B B B B B B k B B B B B B B B v V V v v G G v G G b q q v ].vXVXVXVXVXVXVXVXVXVXVXNXNXBXVXVXBXNXNXBXNXNXNXNXNXNXNXNXMXMXMXnXMXMXMXnXnXMXbXbXbXbXMXMXbXMXMX}.MXbX}.MX}.}.MX}.MXbXbXk &XDXDXIXSXSXSXAXAXAXAXAXAXSXSXSXAXAXAXZXU i % m rXrXrXrXyXrXrXy r.rXrXrXrXrXrXk.2 k.rXrXrXrXrXrXrXrXrXrXrXrXyXrXrXrXrXrXrXrXrXy w.] I LXe.y rXrXrXrXrXrXrXrXrXrXrXrXrXrXrXM.j.9         % [ c.c.l.7 e.t.N ! [.MXMX|.MXMXMX}.MXMXMXMXMXMX}.MX}.}.}.C.@ I .XZ : *.W./././././.^.:X^.^.:X^.^.^.^.^.<X^.^.^.^.^.^.^.^.^.^.^././.Q.Q.Q.Q.Q.!.Q.Q.Q.Q.Q.Q.Q.Q.Q.Q.Q.Q.Q.&.Q.Q.Q.Q.Q.Q.Q.Q.Q.Q.Q.+.Q.Q.Q.+.Q.Q.Q.+.+.+.+.Q.W.Q.W.W.W.+.W.W.W.W.W.W.+.E.W.W.W. .W. .W.W.W.W. .E.W. .E.W.R.E.b $ . ",
"2 2 2 : % : $ = $ $ @ $ 2 2 # # # % : : m 7XgXgX7X7X7X7X3X3X3X3X3X3X{ 9 7 8 $.3X3X7X7XgX7XgXgX7XgX7XgX7X7X7XgX7X7X7X7X7X3X9 a B B k k x f b t.oXOXOXOXOXt.U 2 d k k k f > & & a b L J.H.H.D.H.J.G.c G.'.J..XJ.#X'.'.#X#X#XJ.'.#X'.#X.XJ.'.J.J.J.J.J.j A b H.J.J.J.J.J.J.J.J.J.U d & & , c B A B B V B V B V V B 1 }  .e. .oXOXe.t.oX .OXOX@Xy.; B B B B x B x z B k B B B B B B B B B B B B v G v C C M M G q K mXVXVXVXVXmXVXVXVXVXVXmXVXVXNXBXVXVXVXVXNXNXNXNXNXNXNXNXNXNXMXNXNXMXMXMXMXMXMXMXbXMXMXMXMXbXMXMXMXMX}.}.bXMX}.bXbX}.MX}.MXbXd &XDXIXSXZXSXSXAXAXSXAXAXAXAXAXAXAXSXSXdXe i $ w.rXrXrXrXrXrXrXw.y rXrXrXrXrXm.e [ rXrXrXrXrXc.M.c.m.5XM.5XrXrXrXrXrXrXrXrXrXrX[ ! i } LX} n 5XrXrXrXc.rXrXrX5Xc.c.5XrXrXrXM.j.u $     5 l.M.rXM.j.r q.t.N [ [.MXMXMX|.MXMX}.MX}.MX}.}.}.}.}.}.}.[.* = 1 '.$XI b 8 W.!././././.^.^.^.<X^.^.<X^.^.^.^.^.^.^.^.^.^.^.^.^./././.Q.Q.Q.Q.Q.Q.Q.Q.Q.Q.Q.Q.Q.Q.&.Q.Q.Q.Q.Q.Q.Q.Q.Q.Q.Q.Q.+.Q.Q.+.+.Q.+.+.Q.Q.W.W.Q.Q.+.+.W.Q.+.W.Q.W.W.W.W.W.W.W.W.W.W.W.W.W.W.W.W.W. .W.W.E.R.$.W.R.W.W. .E.U & ",
": : $ 3 $ $ $ $ @ $ # % $ # # # = 2 : 1 OXgXgXyX7X7X7X3X3X3X3X3X3X3X{ { u.j.g.3X3X7X7XgXgXgXgXgXgXgXgXgXgXgXgX7X7X7X7X7X7Xm , B d B x k f U oXoX| OXt.e.T.N 2 d k B k k k f > > . = d D G.J.H.H.D.k G.J.'.J.'.J.'.'.'.'.'.#X'.'.J.'.'.J.'.J.J.J.J.Y.1 v d D.H.H.H.H.J.J.J.L f & = a c B V B B B V B V V B B B B 2 } t.} e.t.t.oX .oXOXt.OX;Xy.1 x B k B B x B x B B B B k B B k B B B B B B C v C v C G v K l l bXVXVXVXVXVXVXVXVXVXVXVXVXVXVXNXNXVXVXVXNXBXNXBXNXNXNXNXNXNXNXNXNXNXNXMXMXNXMXMXMXMXMXMXMXMXMX}.}.bXMXbX}.}.MX}.MXMX}.bXMX{.k &XZXZXSXSXSXSXAXAXAXAXAXAXAXSXAXAXAXIXOXN u % l.rXrXrXrXrXrXrXl.r 4XrXrXrXrXr.4 z.t.s.rXrXc.c.c.c.c.c.c.c.rXrXrXrXrXrXrXrXyXrX[ y e e.LXI N m.M.c.a.c.c.rXc.a.c.c.c.rXrX5X{ 7 u N     % z.5Xc.c.f.2 t.y.N N [.}.MX}.MX}.MX}.}.}.}.}.}.}.}.}.}.[.g c Z > 1 G .X.XA 8 ../././././.^.^.^.^.^.^.^.<X^.wX^.^.^././.^.^.^././././.Q.Q.Q.Q.Q.Q.Q.Q.Q.Q.Q.Q.Q.Q.Q.Q.Q.Q.Q.Q.Q.Q.Q.Q.Q.Q.Q.Q.Q.+.Q.Q.+.Q.+.Q.W.Q.Q.+.W.+.W.Q.W.W.Q.Q.W.+.W.Q.W.W.W.W.W.W.W.W.W.W.W.E.W.W.+.W. .W.W. .+. .+.W. .W.} ",
"= % $ $ $ $ @ @ $ # $ 3 # # . @ : % : ' 7XgXgXgX7X7X7X7X3X3X,Xg.,Xg.c.g.j.g.,X3X3X7X7X7XgXgXgXgXgX7XgXgXgX7XgX7X7X7X7X7X5X[ $ d B B k B a N OX .oXOXOXe. X' : k k f k k k k k f a * & $ a x D D.P c G.J.J.J.J.J.'.Y.J..XJ..XJ.'.'.J.J.'.J.J.J.H.J.G.d V d L G.G.H.G.Z.D c @ * f x B B B B B B B B B B B V B B B d } t.}  . XoXW.oXt.T.T.OX1Xy.1 x B B B x B x x k B B k B B B B B B x B B V V A v C C v C M M 1 q *XVXVXVXVXVXVXVXVXVXVXVXmXVXNXNXVXNXNXBXVXBXNXNXNXNXNXNXNXNXMXMXNXMXMXMXMXMXMXMXMXMXbXMXMXMX}.}.MXMX}.MX}.}.MX}.}.}.MXMX{.j &XZXSXAXAXSXAXAXAXAXAXAXSXAXAXAXAXSXZXI ! r r 2XrXrXrXrXM.5XrXc.u { rXrXc.c.5 u r.] z.rXrXc.M.c.c.c.c.c.c.5XrXrXrXrXrXrXrXrXrXr.t 7 e.LXI ] rX5Xc.c.c.a.c.c.c.c.M.rXrXrXk.r r.rXu     u t.rXrXM.f.2 w.t.N N [.MX|.MXMX}.MX}.MX}.}.}.}.{.}.}.{.g f A.A.A > + d `.$XD 1 h .././././././.^.<X^.^.^.^.^.^.^.^.^./.^.^.^./././.Q./.Q.Q.Q.Q.Q.Q.Q.Q.Q.Q.Q.Q.Q.Q.Q.Q.Q.Q.Q.Q.Q.Q.Q.Q.Q.Q.Q.+.Q.Q.+.Q.+.+.Q.+.+.+.+.+.+.+.+.+.+.W.W.W.Q.+.W.W.W.W.W.W.W.W.W.W.R.W.$.W.W.E.W.W.E.W.W. .W.R.W.E.R.W.",
"@ $ 3 $ # @ $ # @ # # # # # # : 2 : e 1XgXgXgXgXqX7X7X7X3X3X3Xg.g.g.g.g.g.,Xg.3X3X7X7X7X7XgX7XgXgXgX7XyXgXgXgX7X7X7X7X7X3X[ 8 8 k k k k < ' oX X .oXOX} oXN : k k k k k k k f B k k d f , , f d d 1 H.J.J.J.J.J.J.J.J.J.J.J.'.J.J.J.J.J.J.J.J.J.H.S.< A 1 D S.L L V < & 1 & d B B B B B B B B B B B B B B B B B f }  .} t.e.t.e.oXoXt.oXOXy.q.< B d k B x x x x B k B B B k B k B x B B B V V v M C v M G G M K q ; %XVXmXVXVXVXVXVXVXVXVXVXVXNXNXNXNXNXNXNXNXNXNXNXNXNXNXNXNXNXNXMXMXNXNXMXMXMXMXMXMXMXMX}.MXMXMXMX}.MX}.MXMX}.}.MXMXbXMX}.k dXDXZXAXSXAXAXAXAXAXAXAXAXAXAXAXSXSXdXn ! 8 y rXrXrXrXc.c.c.c.c.{ e rXc.c.! $ y W c.rXrXrXrXrXrXrXrXrXM.rXrXrXrXrXrXrXrXrXrXrXr.r 5 e.LX} [ rXrXrXrXc.c.c.M.rXc.rXrXrXrXrX4XrXl.$ % 4 m c.c.c.c.u.2 t.t.N ! [.}.MX}.}.|.}.}.}.}.}.}.}.{.{.{.z , B.S.A.A.C : $ d `.#XH.b 8 ' Q././././.^.^.^.^.^.^.:X^.^.^.^.~./.^.^./././.Q.Q.Q.Q.Q.Q.Q.Q.Q.Q.Q.Q.Q.Q.Q.Q.Q.Q.Q.Q.Q.Q.Q.Q.Q.Q.Q.Q.+.Q.+.Q.Q.Q.+.Q.+.+.Q.+.+.+.+.Q.W.+.W.+.Q.W.W.W.Q.W.W.W.W.W.W.W.W. .+.W.W.W.W...W.W. .W.W.E.W.W.W. .W.W.",
"$ $ $ @ # # $ # # # # # #   $ 2 < 7 OXgXgXgXgXgXgX7X7X7X5X3Xg.3Xg.g.g.g.g.3X3X3X7X7X7XgXgXgXgXgXyXgXgX7X7XgX7XgX7X7X7X7X5X{ T 9 f x k c 1 U oXoXOXOXOXt.OXU : d B f f B f z z f k k f k B f f B a , G.J.J.G.J.J.J.J.J.J.J.J.J.J.J.J.J.J.H.H.H.G.G.L < A , Z L B , & 1 B L , k B B B B B k B B z B B B B B B B B < [ }  . . X XoXOXT. Xt.oXy.y.1 B B x x x x x x B B k z x x B B B B v V B v C M v v M G G M M M K ; 2 [.VXmXVXVXmXVXVXVXVXNXNXVXNXNXNXNXNXNXNXNXNXNXNXNXNXNXNXMXNXMXMXMXMXMXMXMXMXMX}.MXMX}.MXMX}.MX}.MXMX}.}.MXMX}.MXMXbX{.j dXZXDXIXZXAXAXAXAXSXAXAXAXAXAXSXAXSX&Xi u e [ rXrXrXrXrXc.M.c.a.{ % r.w.u.% # 7 l.rXrXrXrXrXrXrXrXrXrXrXrXrXrXyXrXrXrXrXrXrXrXs.5 5 e.HXN q.rXrX5XrX5XrXc.M.rXrXrXrXrXrXrX7XrX[   u ] 7 c.5Xc.5Xw.r r.w.M N [.|.}.}.}.{.{.{.{.{.{.}.{.}.{.L.& B.B.A.A.A.A.C * $ j '.$X#XI 8 9 +./././.^.^.^.^.^.^.:X:X^.^.^././.^.^./././.Q.@.Q.Q.Q.Q.Q.Q.Q.Q.Q.Q.Q.Q.Q.Q.Q.Q.Q.Q.Q.Q.Q.Q.Q.Q.Q.Q.Q.Q.Q.+.Q.Q.Q.Q.Q.Q.+.+.+.+.+.W.+.+.Q.Q.W.Q.W.W.W.W.W.W.W.W.W.W.W.W.W.W.W.W.+.+.R.W.$.R. .E...+.W.$.W.W.",
"@ @ @ # $ # # # # # # # # 3 : 2 : [ gXgXgXgXgXgXgXgX7X7X7X3X3Xg.g.g.,Xg.g.g.3X3X5X7X7X7X7XgX7XgXgX7XgXgXyXgXgX7XgX7X7X7X7X{ h &.8 k k k < } t.oXoXt.T.OXt.m , k f B B f k f f B f f z k f k k f f 1 D.H.J.J.G.J.G.J.Z.J.Z.J.J.J.J.J.H.J.H.H.G.G.S.A < A , c d & , x D Z.L , d B B B k B B F k f B B B B B B x B f } t.e. .t.t.oX| oXt.oXoX@Xq.1 d B B B k x k x k x x k k x k B k k v v x v C v v G v M G M K M K ,.; 1 [.mXmXmXmXVXmXVXMXVXMXVXNXNXNXNXNXNXNXNXNXNXNXMXMXNXNXMXMXMXMXMXMXMXMXMXMXMXMXMXMXMX}.MXMX}.}.}.}.MXMX}.}.MX}.MXmX{.j &XZXIXZXIXAXAXAXAXAXAXAXAXAXAXAXAXAXoXi u t w.yXrXrXrXrXrXrXrXc.8 # 5 e y   # [ rX4Xz.z.5XrXrXrXrXrXrXrXrXrXrXrXrXrXrXrX5XrXc.l.e 7 y.PXN w.7XrXrXrXrXrXc.rX5X7XrXrXrXrXrXc.M.] # r.s.% x.M.5Xc.{ r t.t.n N [.}.MX}.{.{.{.{.{.{.{.{.{.}.L.& z Z.Z.A.A.A.A.A.x = & b '.$X$XR.8 8  .^./././.^.^./.^.^.^.^.^.^.^.^.~././.^./././.Q.Q.Q.Q.Q.Q.Q.Q.Q.Q.Q.Q.Q.Q.Q.Q.Q.Q.Q.Q.Q.Q.Q.Q.Q.Q.+.+.+.Q.Q.Q.Q.W.Q.+.+.Q.+.+.+.+.W.+.+.W.+.W.Q.Q.W.Q.Q.W.W.W.W.W.W.W.W.W.R.W. .E.+.W.W.W.W.W.W.R.W.R. .R.",
"# # @ $ # # # # # # # # @ : 2 = m 8XgXgXgXgXgXqXgXgX7X7X7X3X3X3Xg.3X3Xg.3Xg.3X3X7X7XgXgXgXgXgX7XyXgX7XgXgX7XgX7X7X7X7X7X7X{ 9 %.9 f k k 2 } oX .oXOXOXoXT.n < k k f z f k k f f B f k k k k f B f < H.H.J.G.G.G.G.J.J.H.H.J.J.H.G.G.J.Z.G.Z.G.S.S.c d A a a : * F S F K.D , c c k B B B B B k K.B B B x B x B B < }  .e.e.e. .OXOXt.oX .@Xy.q.: a B B B B x B k k B x x x B k B B B B B v v v v C v C M M M M K M ,.M 3 , [.bX|.mXb.mXVXVXMXVXNXNXNXNXNXNXNXNXBXNXNXNXNXNXNXNXNXNXMXMXMXMXMXMXMXMXMX}.MXMX}.}.MXMX}.MX}.MX}.MX}.}.MXMXMXMXbXj dXBXZXZXSXAXAXAXAXAXAXAXSXSXAXAXAXZXe.! u t k.rXrXrXrXrXrXrXrXz.'     % $   # 8 7 % $ 7 [ z.7XrXrXrXrXrXrXrXrXrXrXrX5X5XrXrXc.l.u 7 oXPXI w.rX5XrXM.c.5XM.5X5XrXrXrXrXrXc.c.c.! 5 c.l.% w.M.c.c.! e t.e.u M {.}.}.}.}.{.{.[.{.{.{.{.}.L.- B S.Z.B.A.S.A.G.A.A.k + + b .X$X#XY.h % ..Q./.^.^./././.^.^.^.^.^.^.^.^.^.^./././.@.@.@.Q.Q.Q.Q.Q.Q.Q.Q.Q.Q.Q.Q.Q.Q.Q.Q.Q.Q.Q.Q.Q.Q.Q.Q.Q.Q.Q.+.Q.Q.Q.Q.Q.+.Q.+.+.Q.+.+.Q.W.+.+.+.Q.W.W.Q.Q.W.Q.W.W.W.W.W.W.W.W.+.W.W.+. .W.W.W.W.W.W.W.W. .W.W.",
"# # # # # # # # # # # # : 2 = r 1XgXgXgXgXgXgXgXgX7XgX7X7X7X3X3X3X3Xg.g.3X3X3X7X7X7X7X7XyXgXyXgX7X7XgXgXgX7XgXgX7X7X7X5X5X| 9 O.&.2 k k , } t.oX .OXt.oXoXn f d k k f k f k B f B f f k k f k f f a G.H.G.J.G.H.G.G.G.G.G.H.G.J.G.J.G.G.H.G.A.A.L d c V k c k : V S S B.A , c B k B k B B k B B B k B x x B x d : } e. .e. .t.T.t.T.e.t.@Xy.N } : d B d k k x x x k x k x k B k k x k B v v C M v C M v M K M M M M r q ; s [.|.|.|.mXmXVXVXmXVXmXNXNXNXVXNXNXNXNXNXNXMXNXMXMXMXMXMXMXMXMXMXMXMXMX}.MXMXMX}.MXMX}.MX}.MX}.MX}.MXMX}.MX}.MX{.j nXDXZXZXSXAXAXAXAXAXGXAXAXAXAXAXAXZXI ! y t z.rXrXrXrXrXrXrXl.2 #               # $ % r.l.c.rXrXc.c.rXrXrXrXrXrXrXrXrXM.rXrXrXc.e r @XLXI w.rX5XrXc.c.5XrXrXM.rXrXrXrXM.c.c.i.% { c.z.] | c.M.c.W u t.q.y G [.}.}.}.{.{.{.{.{.{.{.{.L.g z S.S.S.Z.S.A.A.A.A.G.A.j o = v '.#X$X X1 $ ../././././././.^.^.^./.^././.^././././././.@.Q.Q.Q.Q.Q./.Q.Q.Q.Q.Q.Q.Q.Q.Q.Q.Q.Q.Q.Q.Q.Q.Q.Q.Q.Q.Q.W.Q.Q.Q.Q.Q.Q.Q.+.+.+.+.+.+.+.+.+.+.W.+.Q.W.W.W.W.Q.W.Q.W.W.W.W.W.$.W.E.$.W.W.$.E.W.W.$.R.W.+.R.W.",
"# # # # #   # #     @ : 2 @ 2 -XgXgXgXgXgXkXgXgXgXgXgX7X7X7X6X3X3X3X3X3X3X3X7X7X7X7X7XgXgX7XgXgXgX7XgXgX7XgXgX7X7XgX7X7X7X| 9 %.@.9 d d ,  . XoXOXOXOXOXt.8 d d k f B k k f f f f f z f z f f B f < H.H.G.G.G.G.G.G.G.G.G.G.G.G.G.G.G.G.A.A.S.L D a B F B B B > B F F F f f k B B B k B B k F k k B B x x x k 1 2 } t.}  .e.e.t.oX .oXe.oXy.n 1Xh f B k x k x k x x k x x B B k B k B v C v v v v M M M C M ,.M ,.M ; M M 3 q [.bXb.|.|.MXmXVXVXmXVXVXNXNXNXNXNXNXNXNXNXNXMXMXMXMXMXMXMXMXMXMXMXMX}.MXMX}.MXMX}.MX}.}.MX}.MXMX}.}.MXMX}.MXbXj &XZXZXIXSXSXSXAXAXAXAXAXAXZXSXSXSXdXN ] ! y 5XrXrXrXrXrX4Xy 2   # #       # r r.k.z.c.c.a.c.c.c.a.c.c.rXrXrXrXrXrXrXrX5XM.c.rXc.r r &XLX} [ rXrXc.c.c.c.M.rXrXrXrXrXrXc.rXrX[ e c.c.M.5Xf.c.c.c.y q ] [ n M C.}.}.{.{.{.{.{.{.[.}.[.- k S.S.C.S.G.A.A.A.A.A.A.A.A.< @ = v .XXX.XK & @ ' +.@.@././././.^./.^./.^././././././.@./.@.Q.Q.Q.Q.Q.Q.Q.Q.Q.Q.Q.Q.Q.Q.Q.Q.Q.Q.Q.Q.Q.Q.Q.Q.Q.Q.Q.Q.Q.Q.Q.Q.+.Q.+.Q.+.Q.+.+.+.W.@.Q.+.+.+.W.Q.W.Q.W.W.W.W.W.W.W.W.W.W.W.W. .W.W.W.R. .W.W.W.E. .W.W.",
"  # # # # #       # : : $ 2 ;XgXgXgXgXgXgXgXgXgXgXgXgX7X7X7X7X7X3X3X3X<X7X3X7X7X7X7XgX7XgXgXgX7X7XgX7XgX7XgXgX7X7X7X7X7X7X{ W O.O.&.1 x 1 } oX .r.T.t.t.T.8 f k f k f f f f B z f k k f f f k f f < G.G.G.G.G.G.G.S.S.G.G.G.S.G.S.G.G.G.S.L L J V , B V B B B > k F K.z f f B B k B B k k B k B x x x x B k f | [ } } e.} e.e. . .oXoX .oXy.n 8X} f k k k x x k k x x k k k k x x v v x l v v v v C v C M M M M :.l q :.:.M 3 q [.|.{.bXmXmXmXmXMXMXVXNXMXVXNXMXMXNXMXNXNXMXMXMXMXMXMXMXMX}.}.MXMXMX}.MXMX}.}.MX}.MXMX}.MX}.}.}.MX}.}.MXMX}.k dXDXZXDXSXSXZXSXSXAXAXAXAXSXSXSXSXdX[ ] ] n 5XrXrXrXrXrX4Xy 9 ! f.r.#     y l.rXrXrX5Xc.c.c.c.c.c.c.rXrXrXrXrXrX5X5XrX5X5XrX5Xc.u r &XLXXX[ c.5XM.c.M.c.c.c.c.rXrXrXrXrXrX5Xe w.5Xc.5XM.c.a.c.c.u u N n i M [.{.{.{.{.{.{.{.{.}.[.g k A.G.S.S.S.S.A.A.A.A.A.A.A.A.J , & : v .X.X.XU * $ h @.@.Q././././././././.^.^.^./.%././.@././.@.Q.Q.Q.Q.Q.Q.Q.Q.Q.Q.Q.Q.Q.Q.Q.Q.Q.Q.Q.Q.Q.Q.Q.Q.&.Q.Q.Q.Q.Q.+.Q.Q.Q.Q.+.Q.+.Q.+.W.Q.+.+.+.W.W.Q.W.Q.W.Q.Q.W.W.W.W.W.W.W.W.+.W.W. .+.E.W.W.W.W.W.W. .",
"              # $ 2 : $ b 1XgXgXgXgXgXgXgXgXgXgXgXgXgXgX7X7X7X7X7X3X7X3X7X7X7X7X7XgXgX7XgX7XgXgXgX7XgXgXgX7XgXgXgX7X7X7X5X{ 9 %.%.X.9 f 1 } e.oXoX .e.OXe.1 f d f k f z k f k f f f f k z f f z f , G.G.G.H.S.G.G.G.S.G.S.G.G.G.G.G.S.S.S.S.Z.D x , B B x x d * B B z K.a f k k B k k B B k k B k B x x k k h 8X[ } }  . .} e.t. . Xe. .y.t.n 8X} j k B k k k k x k x k x k k x c v k B v v v M v v M M M M M M M q b ,.,.,.M 3 l [.{.|.|.}.mXmXMXmXmXMXmXMXmXNXMXNXMXMXMXMXMXMXMX}.MXMXMXMXMXMX}.MX}.MX}.MX}.}.MX}.MX}.}.MX}.MX}.MX|.MXMX{.k &XIXDXIXSXSXSXSXSXAXAXAXAXSXSXSXZX&X] N ! ] rXrXrXrXrXrXrXc.c.M.c.y     u 5XrXrXrXc.c.m.5XM.c.rX5Xc.c.rXrXrXrXrXrXrXrXrXc.m.c.x.u r &XLX&Xi c.M.c.c.rXc.c.a.c.c.rXM.rXrXrXl.] 5XrXc.5Xc.c.c.c.c.r n [ i u G L.}.}.[.{.{.{.{.{.[.j d A.A.A.S.A.G.A.G.A.S.A.A.A.A.A.S.A : , , v .X.X'.V : $ 9 +.@.Q.Q.Q.Q.Q././././././././.@.@.Q.Q.@.Q.Q.Q.Q.Q.Q.Q.Q.Q.Q.Q.Q.Q.Q.Q.Q.Q.Q.Q.Q.Q.Q.Q.Q.Q.Q.Q.Q.Q.Q.Q.+.+.Q.+.+.+.Q.+.@.+.@.@.Q.+.+.+.+.Q.W.W.W.W.W.+.W.W.W.W.W.W.W.E.W.W.W.W.W.W.E.W.W. .W.E.",
"            @ % 2 ; 2 [ 7XgXgXgXkXgXgXgXgXgXgXgXgXgXgXgXgX7X7X7X7X7X7X7X7X7X7XgXgX7XgXgXgXgX7X7X7XgXgX7XgXgXgX7X7X7X7X7X7X' ' %.%.%.' a 1 } t. .oX XoXOX .: d d k f f f k f f k f B f f f f f f f : S.H.G.Z.G.S.S.S.S.S.S.G.C.G.A.S.S.S.Z.D S S f f B B x B f * k B z f a B B k k k B k k B k B B k k x B a U qX} }  .} e. .r.e.e.} t.} e.[ N yXy.8 k k B k x k k x d k k x x l c c c z v v v v v M M M M K K :.M q :.:.:.:.>.M 3 w [.{.{.{.}.|.mXMXmXMXMXmXMXMXMXNXMXMXMXMXMXMXMXMXMX}.}.MX}.}.MX}.MX}.MX}.}.MX}.MX}.MXMX}.MX}.MX}.MX}.MXbXk UXDXIXZXSXSXSXSXZXAXAXAXAXZXSXSXIX@Xq.W ! [ rXrX5XrXrXrXc.c.m.c.e       t rXrXrX5XrXrX5XrXrXrXrXM.a.c.rXrXrXrXrXrXc.5X5XM.c.c.s.u r &XLX&Xu c.5X5XrXc.c.a.c.c.rX5X5X5XrXrXz.c.rXrXc.m.rXc.c.c.i.2 m [ y i F [.}.{.{.{.{.{.}.{.z d C.G.A.A.A.A.A.A.A.S.A.A.G.A.A.A.A.A.x : j 2 G .X.X'.c c * 8 ..Q.Q.Q.Q./././.~.Q./././././.@././.Q.Q.Q.Q.Q.Q.Q.Q.Q.Q.Q.Q.Q.Q.Q.Q.Q.Q.Q.Q.Q.Q.Q.Q.Q.Q.Q.Q.Q.Q.Q.Q.Q.Q.Q.Q.Q.Q.Q.+.Q.+.Q.@.+.+.W.+.+.W.Q.W.Q.Q.W.W.W.W.W.W.W.W.W.W.W.W.W.W.W.W. .W.W.R.W.W.",
"# # # # $ : : 2 : b ;XqXkXgXgXgXgXgXgXgXgXgXgXgXgXgXgXgXgXgXqXgX7X7X7X7X7XgXgX7XgXgX7XgXgX7XgXgX7XgX7XgXgXgXgXgX7X7X7X7X5X] Q %.%.%.&.8 8  . XoXt.oXoXOX} % f d d d f k f k f f f f z f f f f f f > S.G.G.A.A.G.A.A.A.A.L A.A.A.A.A.A.A.Z.D D Z > d B x k k a - k z B f f k B k k B k k B k k k x x k x x : t.gX[ } } r.} } e. .} e. . Xy.n t.iXv.8 k k k k x k k x k k k k x k k x x v v v v v v M M M M M M :.q M ,.:.:.,.>.>.1.= g [.{.{.{.}.}.}.|.}.|.|.MXMXMXMXMXMXMX|.}.MXMXMX}.}.MX}.MXMX}.MXMX}.}.MXMX}.}.MX}.MX}.MX}.}.}.MX}.MXbXbXb nXDXZXSXSXAXAXAXSXAXAXAXAXAXAXAXAXoX[ ] y w.rXrXrXrXrXrX5Xc.rXrXr.@ # $ $ l.7XrX5X5X5XrX5Xc.rXrXc.5Xc.rX5XrXrXrX5XrXM.rXc.M.c.r.u u XXLXDXe l.rXM.c.c.c.c.c.M.c.rX5XrX5X5XrXrX5XrXc.m.c.M.c.c.w.7 w.w.n i L.[.}.}.{.{.{.{.[.z g B.Z.A.A.S.G.S.A.G.A.A.S.A.G.A.A.G.S.A.C.c : c < A .X.XP 1 A : % ..Q.Q.Q.Q.Q.Q./.Q.Q././.@./.@./.@.Q.Q.Q.Q.Q.Q.Q.Q.Q.Q.Q.Q.Q.Q.Q.Q.Q.Q.Q.Q.Q.Q.Q.Q.Q.Q.Q.Q.Q.Q.Q.Q.Q.+.Q.Q.Q.Q.Q.Q.Q.!.+.+.+.!.+.+.+.!.W.!.W.!.W.!.+.+.W.W.W.W.W...W.W.W.E.W.E. .W.W.W.E.W.",
"@ = 3 : : , 2 2 [ 8XgXgXgXgXgXgXgXgXgXgXgXkXgXgXgXgXgXgXgXgXgXgXgX7X7XgX7XgXgX7XgXgXgXgXgXgX7X7X7X7XgX7XgX7XgX7X7X7X7X7X5XW ' %.O.%.%.W 1 }  .} e.oX .OX} * d d d k k f f f f k f f f f z f z f f > D H.G.G.G.A.S.A.L A.A.A.A.S.A.A.A.A.H D S B > B x x z k - , B B f f k k k k k k k k k k k B k k x x d b qX7XN { } } e.r.} e. .t. Xt.e.e 1XyXx.2 d k k k d x k k k k k x k x x x x c l v v v v l M v M M M M 2 M :.:.:.:.,.,.:.:.; , [.}.{.{.}.}.}.|.|.}.MXMXMXMXMXMXMXMXMXMX}.MX}.MX}.MX}.}.MX}.}.MXMX}.}.MX|.}.MX}.MX}.MXMXMX}.MX}.MX{.8 dXZXZXZXAXAXAXAXAXGXAXAXAXAXSXAXAXe.! W y r.5XM.5XrXrXrXrXrXrXrX]   $ u # w.rX5XM.c.m.5XrXrXrXrXrXrXc.M.rXM.5XrX5X5X5Xc.M.5Xc.! ! I .XLXSXe u.c.5Xc.rXc.M.c.c.c.rXM.rXc.M.M.5XrX5X5XrXc.c.c.c.! 7 r.e.i n L.{.{.{.{.{.{.{.z - B.S.G.G.G.A.A.A.A.A.S.G.A.A.A.A.A.A.A.A.S.L < > b < G .X.XA 1 A : = ' !.Q.Q./.Q.!././.Q.@./.@././.@.Q.Q.Q.Q.Q.Q.Q.Q.Q.Q.Q.Q.Q.Q.Q.Q.Q.Q.Q.Q.Q.Q.Q.Q.Q.Q.Q.Q.Q.&.Q.Q.Q.Q.Q.Q.Q.&.Q.Q.Q.Q.+.+.Q.@.!.+.+.+.+.!.Q.W.!.W.W.+.+.W.W.W.W.W.W.W. .+.W.W.W.W.W.W. .W.",
"= % : : : % b t.qXgXgXgXgXgXgXgXgXgXgXgXgXgXgXgXgXgXgXgXgXgXgXgXyXgXgXgXgXgXgXgXgXgX7XgXgX7XgX7X7XgXgXyX7XgXgX7X7X7X7X7X3Xm { %.g.%.O.&.8  Xe.e. .oX .OX} & f f d f f f f f f f z f f f f f f f f > A H.G.G.A.A.A.L A.L L A.A.L A.L B.J D D Z a , B B x x f & f k k f f k k k k f B B f f B z f k x x k d I gXyXn } e.}  .} e.|  X Xe.e.N n 7XyXy.% , k k B d x k k k k k k k x x k x x v v v l v M M M M ,.:.q r :.:.,.,.>.:.>.>.:.M 3 - L.{.{.{.{.{.{.}.|.}.MX|.|.|.|.MXMX}.MXMX}.}.MXMX}.}.}.}.}.MX}.}.}.MX}.MX}.MX}.}.MXMX}.}.MX}.MXMX{.c &XZXZXSXZXAXAXAXAXAXAXAXAXAXAXSXSX,.! ! y s.rX5XrXrXrXrXrXrXrX4X% 2 u ! % t rX5X5XrXc.m.c.M.5XrXrXM.5XrXrX5X5XrXM.c.c.c.c.c.l.e { +XI LXSXn w.c.c.c.c.M.c.M.c.c.m.5Xc.5X5X5X5XM.M.rXc.c.c.c.a.u e q.} b M [.{.}.}.}.}.[.L.& F G.G.G.S.G.G.G.A.A.S.C.G.A.G.A.A.S.A.A.G.A.A.H , 1 v 1 P .X'.v 1 A 2 + h +.Q.Q.Q.Q.Q.@.Q./././.Q.@.@.@.Q.Q.Q.Q.Q.Q.Q.Q.Q.Q.Q.Q.Q.Q.Q.Q.Q.Q.Q.Q.Q.Q.Q.Q.Q.Q.Q.Q.Q.Q.Q.Q.Q.Q.Q.Q.Q.Q.Q.Q.+.+.@.@.!.+.+.W.W.+.!.W.!.W.+.W.W.+.W.W.W.W.+.W.W.W.W.W.W.+.E.W.E.+. .",
"@ @ @ : r  .0XgXgXgXgXgXgXgXgXgXgXgXgXkXgXgXgXgXgXgXgXgXgXgXgX7XgXgXgXgXgXgXgXgXgX7XgXgX7XgX7X7X7X7X7XgX7XgXgX7X7XgX7X7X2X9 o.%.%.%.%.X.9 }  .t.oX Xt.OXm + f f f k f k f k f f f f f f f f f f f , c H.G.S.G.A.A.L L A.L L A.J A.S.L J D D A > d B k k x a * k F f f k k k k k B k k B z k k f k k k k a [ gX1Xm } { } e. .} } }  .t. .b r.gXiXn.e > x k d x d k k k k k k k k k x l x c v v M v v v M M :.M q M :.,.:.:.,.:.>.:.:.p w w + L.[.{.{.{.{.}.}.}.}.}.|.}.}.}.MXMX}.}.MX}.}.}.}.}.}.MX}.}.}.}.MX}.}.MX}.}.MX}.}.}.MX}.}.MXMXMX[.q nXVXIXSXSXAXAXAXSXAXAXAXAXAXSXSXZXI ] ] t s.c.rX5X5XrXrXrXrXrXw.O r.5Xl.W % c.rXM.5XM.c.c.rX5XrXc.c.5XrXrXc.rXrXc.c.m.rXc.c.u.e y.9Xv IXPXb w.c.M.M.c.c.c.c.c.c.c.5Xc.M.M.5XrX5X5Xm.c.M.c.c.g.5 n w.[ l z {.{.}.}.{.}.g - F S.G.G.G.G.G.S.G.S.G.A.S.A.A.S.A.A.A.A.A.A.S.A.A.Z : k b < P .X'.v < v 2 & 8 +.Q.Q.Q.Q.@.Q.@.@.@.Q.@./.Q.Q.Q.Q.Q.Q.Q.Q.Q.Q.Q.Q.@.Q.Q.Q.Q.Q.Q.Q.Q.Q.Q.Q.Q.Q.Q.Q.Q.Q.Q.Q.Q.+.Q.Q.Q.Q.Q.Q.Q.+.Q.Q.@.!.@.+.!.+.+.+.+.+.!.W.W.+.+.+.W.W.W.W.W.W.W.W.W.W. . .W. .R.W.",
"2 b } f.8XgXgXgXgXgXgXgXgXgXgXgXgXgXgXgXgXgXgXgXgXgXkXgXgXgXgXgXgXgXgXgXgXgXgXgXyXgXgX7XgX7XgX7X7X7XgXgXgX7XgXgX7X7X7X7X2X9 $.h.g.h.%.&.e } e.t. . Xe. Xb & f f f f g z k f k f f f f f f f f f d , d G.G.S.G.A.A.L A.J S.J A.S.L J S.D D D k > x B k z k > > , a f f k k k k k f B k k k k f K.k k x k , e.gX;Xm e. .} } } } r.} } } } 8 1XgXiXv.i 8 d k k k k f k k k k k x k l x x l l v v v v M M M M :.M q :.,.:.:.,.:.>.,.>.M q v.v.w . z [.}.[.{.}.}.}.}.}.}.}.}.}.}.}.}.}.}.}.}.}.}.}.}.}.}.}.}.}.}.}.MX}.MX}.}.}.}.MX}.MXMX}.MXMX{.8 dXDXZXZXSXAXAXAXAXAXAXAXAXAXAXSXCXN ! ] u r.rXM.5X5XrXrXrXrXM.8 r c.rXrXj.4 r.5X5Xc.5Xc.rXrXM.5XrXrXrXM.5X5X5Xc.5XM.c.M.c.c.r.i @XCXb dXPXN [ M.c.M.c.c.M.c.c.rXc.a.g.c.rX5Xc.c.5Xc.M.c.c.c._ % [ w.] y K {.}.{.}.[.g o F S.S.G.G.S.G.G.G.G.S.G.A.A.A.A.A.S.A.C.S.S.A.S.A.A.G.x = v c 1 G.'.'.v 2 B 2 & 8 ..Q.Q.Q.Q.Q.Q.Q.Q.Q.@.Q.Q.Q.Q.Q.Q.Q.Q.Q.Q.Q.Q.Q.Q.Q.Q.Q.Q.Q.Q.Q.Q.Q.Q.Q.Q.Q.Q.Q.Q.Q.Q.Q.Q.Q.Q.Q.Q.Q.Q.Q.Q.Q.!.Q.+.@.!.+.+.+.!.+.+.W.!.!.Q.W.W.+.+.W.W.+.W.W.W.W.W.W.W.W.W.W. .W.",
"2X7XgXgXgXgXgXgXgXgXgXgXgXgXkXgXgXgXgXgXgXgXgXgXgXgXgXgXgXgXgXgXgXgXgXgXgXgXgXgX7XgXgX7XgX7X7X7X7XgXgX7XgX7X7X7XgX7X7X7Xf.r f.h.%.%.o.o.h }  .} t.oXoXt.1 & f d f f f f g f f f f f f f f f f f f a , L G.G.A.A.L A.J S.J J S.J S.L H D S A , f B k B k f - > > a f f k k f k k k f k k k k k k k k k k < ;XgXt.m } } }  .}  .}  . .e.n n 7XyXiXy.i j k f k k f k k k k k k k k k c c c v v l v M l M M M M q q ,.:.:.,.:.:.>.>.:.p 1.v.v.v.1.# g L.{.{.{.{.{.}.}.}.}.}.}.}.}.{.}.}.}.}.}.}.}.}.}.}.}.}.}.}.}.}.}.}.MX}.MX}.}.}.}.|.MX}.MX[.k DXDXSXSXSXAXAXAXAXAXAXAXAXAXAXSXDXN [ ! u w.c.c.5XrXrXrXrXrXs.$ t.rXrX5X5Xq.] m.c.M.5XrXc.c.rXc.rXrXc.c.5XM.5XM.c.c.c.c.a.c.! i &XFXA +XLXI W c.c.c.c.c.c.M.c.c.g.c.c.a.c.c.c.M.c.c.c.c.c.c.~ % w.e.y r [.}.}.}.L.g & F S.G.S.S.G.G.G.G.G.G.G.S.G.A.A.A.A.A.G.G.A.A.A.A.A.A.A.A.k : A j j H.'..XG 1 B f * h ..Q.Q.Q.Q.Q.Q.Q.Q.@.Q.Q.@.Q.Q.Q.@.Q.Q.Q.Q.Q.Q.Q.Q.Q.Q.Q.Q.Q.Q.Q.Q.Q.Q.Q.Q.Q.Q.Q.Q.Q.Q.Q.+.Q.Q.Q.Q.Q.Q.Q.Q.!.Q.Q.+.@.@.+.+.+.W.+.+.Q.W.W.+.Q.W.+.W.W.W.W.W.W.W.W.W.W.W.W.W.+.E.",
"gXgXgXgXgXgXgXgXgXgXgXgXgXgXgXgXgXgXgXgXkXgXgXkXgXgXgXgXgXgXgXgXgXgXgXgXgXgXgXgXgXyXgX7XgXyX7X7X7XgX7XgXgXgX7X7X7X7X7X3Xf.9 %.h.%.%.O.&.8  .e.e. Xe.oXt.f @ f f f f f f f f f f f f g f f f f f f f > A H.A.A.A.S.J A.J J S.D L J A.D B.D x - x z k x k f & f k B f k f f z k k k f B k k k f k k k k f 8 8XkXt.m } { } } } { } } } } 8 t.gX7XiXy.n k k k k k k k k f k k k k k k c k v z b v M l M M M M :.; M ,.:.:.:.,.>.>.>.p p v.v.v.v.v.1.g g L.{.{.{.{.{.{.{.}.}.}.}.{.{.}.}.}.}.}.}.}.}.}.}.}.}.}.}.}.}.}.}.}.}.MX}.}.}.MX}.}.MXMX{.k DXBXZXZXSXAXAXSXSXAXAXAXAXAXGXAXDXn ] ] y r.c.rXM.5XrXrXrXrX] u 5XrXM.5XM.c.u i.g.a.c.M.5XM.c.c.c.M.rXrXM.5Xc.M.c.c.c.c.c.l.e n dXGXI XXLXe.u z.c.c.c.c.c.c.c.c.N.c.c.c.c.M.c.c.M.c.c.c.a.c.u 8 w.w.u e [.}.}.C.O o L.Z.Z.G.G.G.G.G.G.G.G.G.H.G.G.A.S.A.A.G.S.A.S.G.A.A.A.A.A.A.A.s : G 1 b `.'.'.A 1 A d & 8  .!.Q.Q.@.Q.Q.Q.Q.Q./.@.Q.Q.Q.@.@.Q.Q.Q.Q.Q.Q.Q.Q.Q.Q.Q.Q.Q.Q.Q.Q.Q.Q.Q.Q.Q.Q.Q.Q.Q.Q.Q.Q.Q.Q.Q.Q.Q.!.+.Q.Q.Q.+.@.+.+.Q.+.+.+.+.+.+.W.W.+.W.W.+.W.W.W.W.W.W.W.W.R.W.+.E. .W.",
"gXgXgXgXgXgXgXgXgXhXgXgXgXgXgXgXgXgXkXgXqXgXgXgXkXgXgXgXgXgXgXgXgXgXgXgXgXgXgXgXgXgX7X8X .N t 8 e ' 8XgX7XgXgX7X7X7X7X5Xo.t O.%.{ Q $.&.t } e. . . X .e.h + f f f f f f f g f f f f f f f f f a f f : d G.G.A.A.A.A.H S.S.J S.S.J D D D F , f B B k k x , > k f f k f B f f f k f B f k k k z k k k k f b 7XgX>Xm } [ } N [ } } } } m e 7XyXyXiXq.} h f k k k k k f k k k k k k k x l l v l l v M M l M M p q :.:.:.:.,.:.>.:.>.p >.v.v.v.v.v.v.>.; X L.[.}.[.{.{.{.{.}.}.}.{.{.}.}.}.}.}.}.}.}.}.}.}.}.}.}.}.}.}.}.}.}.}.}.}.|.}.}.MX}.MX[.k DXDXZXZXSXZXSXSXSXAXGXAXAXAXAXAX9Xn ! ~ i { rXc.5XrX5XrXrXl.t c.rXrXrX5X5Xc.! { a.c.c.c.c.c.c.rXc.5Xc.5Xc.M.c.c.c.c.c.c.c.u.7 n ZXSXXXP LX@Xr u.c.c.c.c.M.c.c.M.c.c.c.m.c.M.c.c.c.a.c.c.c.i.7 y t.[ t M {.{.L.& & L.Z.Z.J.G.G.G.G.S.G.G.G.G.G.G.G.G.G.A.A.A.A.A.A.A.A.A.A.S.A.A.A.H , 1 J < v `.'.J.b 1 G d = a ../.Q.Q.@./.Q.Q.@.Q.Q.Q.Q.Q.Q.Q.Q.Q.Q.Q.Q.Q.Q.Q.Q.Q.Q.Q.Q.Q.Q.Q.Q.Q.Q.Q.Q.Q.Q.Q.Q.Q.Q.Q.Q.Q.Q.Q.Q.+.+.Q.Q.!.@.Q.!.+.+.!.+.W.+.+.+.Q.W.W.W.W.+.+.W.W.W.W.W.W.W.+.W.+.W.W.W.",
"gXgXgXgXgXgXgXgXgXgXgXgXgXgXgXgXgXgXgXgXkXgXgXqXgXgXgXkXgXgXgXgXgXgXkXgXgXgXgXgXgX1X[ % @ 7 e e e [ 8X7XgX7X7XgX7X7X7X3X{ 9 &.' 9 &.X.&.8 }  .} } t. XOXV & f f f f f f f f f f f f a f f f f f a a , > D G.Z.S.A.J L D S.H L H Z.S S Z.k > B B B B k f > f f f f f k f k k f k k k k f k k k f k k k f h 7X6X>Xm } } } [ [ }  .[ } 2 r.gXgX7XeX2.q.b d k k f f k k k f k k k x k k x k l v v l l M M M M q q :.:.:.:.:.:.>.>.p 1.v.v.v.v.v.v.b.v.v.1.# ; [.[.{.{.{.{.{.{.{.{.{.{.{.{.{.{.{.{.{.}.}.{.}.}.}.}.}.}.}.}.}.}.}.}.}.}.MXMXMXMX[.B DXVXZXAXSXSXAXSXSXSXSXSXZXSXZXIX&Xt i { ! ! c.c.m.5XrXrXrXr.[ rXrXrXc.5XM.c.c.j.c.c.c.c.M.5Xc.5Xc.c.M.c.M.c.c.N.c.c.c.N.c.! % e.GXSX&XI PXdXr w.c.a.c.c.c.c.c.c.c.c.c.c.M.c.c.c.c.c.c.c.i.u.$ [ r.[ u K {.z . g A.J.J.J.G.J.S.J.S.J.S.G.G.G.G.G.G.G.S.G.S.C.G.A.A.A.G.G.A.S.G.A.A.G.Z * c G 2 V `.'.`.c < G 1 : 1 ..Q.Q.Q.Q.Q.Q.Q.Q.Q.Q.Q.Q.Q.Q.Q.Q.Q.Q.Q.Q.Q.Q.Q.Q.Q.Q.Q.Q.Q.Q.Q.Q.Q.Q.Q.Q.Q.Q.Q.Q.Q.Q.Q.Q.Q.Q.Q.@.Q.Q.Q.+.!.Q.+.+.+.+.!.!.!.!.+.+.W.W.W.Q.W.+.W.W.W.W.W.W.W.W.W...W.W.W.",
"7X7XgXgXgXgXgXgXgXgXkXgXkXgXgXgXkXgXgXgXgXgXgXkXgXgXgXgXgXgXgXgXgXgXqXgXgXgXgX;X] % = m l.6X7X7XqX7XgX7XgX7X7X7X7X7X7X3X' T &.O.o.%.o.&.8 [ e.}  .e. .t.n & f f f f f f a f a f a f a a a f a f a f a - k D.G.A.A.A.J S.S.J L D D S.D V > f F z B k B f > f f k z f f k k f f z f f k k f f k k f k k a U 7X8XOX[ } } ..} } [ } } e m 7XgXgXiX4XN t.8 d k f k k k f k k k k k f k x x x v v b M v M M M =.r M :.>.:.,.>.>.,.>.p 1.v.v.v.b.b.b.b.v.b.v.<.; @ L.[.{.[.[.{.{.{.{.{.{.{.{.{.{.{.{.{.}.}.}.}.{.}.{.}.}.}.}.}.}.}.}.}.}.}.|.}.}.[.B DXZXDXZXSXZXSXSXSXSXSXSXZXSXSXZX+Xr i { ~ u c.c.5XrX5XrXrXr.l.rX5XrXrX5Xc.c.M.c.5Xc.M.c.rXc.M.c.M.M.c.c.c.c.c.c.c.c.a.c.c.r 2 &XSXSXCXG ZXJXe [ c.c.M.a.c.M.c.M.c.M.c.c.c.c.c.a.a.c.a.a.c.! % w.r.i u F l & k C.J.J.J.J.J.G.J.G.G.S.G.G.S.G.G.S.J.J.G.G.S.S.S.G.S.A.S.C.A.A.A.A.A.A.A.B = V G : A `.'.`.b < v < : d } !.Q.Q.Q.Q.Q.Q.Q.Q.Q.Q.Q.Q.Q.Q.Q.Q.Q.Q.Q.Q.Q.Q.Q.Q.Q.Q.Q.Q.Q.Q.Q.Q.Q.Q.Q.Q.Q.Q.Q.Q.Q.Q.Q.Q.Q.Q.@.+.Q.Q.Q.Q.Q.Q.+.+.+.+.!.!.+.+.W.W.+.+.W.W.+.W.W.W.W.W.W.W.W.W.W.W.W.",
"1X7XgXgXgXhXgXgXgXgXgXgXqXgXgXkXgXgXgXgXgXgXgXgXgXgXgXgXgXkXgXgXhXgXgXgXgX8Xm @ % m >XhX7X7XgX7X7XgXgXgXgX7X7XgX7X7X5X3Xt *.%.%.X.%.$.&.8 } }  . .t. XoXm & f f f g f f f a f a f a f a a a a a a a f , : A G.S.A.J S.J H S.H L D S.S , a V B B z B k , f f f f f f f f f f z f k f k k k f k k k k f a [ 7XyX2X] } } [ [ } ..} m 7 1X7XgX7XiXx.N ;X1 k f k f k f k k f k k k k k k c c l l b l l M M M M q :.:.:.,.>.:.:.:.:.p v.v.v.b.b.b.b.b.b.b.b.b.v.p . g [.{.[.{.{.{.{.{.{.{.{.{.{.{.{.{.}.}.}.}.{.{.{.{.}.}.}.}.}.}.}.|.}.}.MXMXMXJ.V DXDXIXAXIXSXFXCX&X+XXXe.I ,.9XoXt.u 7 w.{ t c.c.rXM.5X5XrXc.5XrX7XM.5X5X5Xc.M.c.M.c.c.c.c.N.c.c.M.M.c.c.c.c.a.c.c.c.c.c.q.2 b ZXSXSXCXI &XPXn N a.c.c.c.c.c.c.c.N.c.N.c.c.g.a.g.a.c.g.a.a.5 u r.w.u r O g F C.'.`.J.J.J.J.J.J.G.G.S.G.H.J.J.G.G.G.G.G.G.G.S.S.A.A.A.A.A.A.A.A.A.A.A.A.A.j : L G : A `.`.`.b : j < = 1 P.!.Q.Q.Q.Q.Q.Q.Q.Q.Q.Q.Q.Q.Q.Q.Q.Q.Q.Q.Q.Q.Q.Q.Q.Q.Q.Q.Q.Q.Q.Q.Q.Q.Q.Q.Q.Q.Q.Q.Q.Q.Q.Q.Q.Q.@.Q.@.@.+.Q.+.Q.Q.+.+.Q.+.!.W.+.+.+.W.W.Q.W.W.Q.W.W.W.W.W.W.W.W.W.E. .U ",
";XhXgXgXgXgXgXgXgXgXgXgXgXgXgXgXgXgXgXgXgXgXgXgXgXgXgXgXgXgXgXgXgXgXgXgX8Xb % [ 6X7XgXqXgX7X7X7XyX7X7XgX7XgX7X7X7X7X5Xg.9 { O.$.X.&.o.X.9 [ } } } e. .e.m & f f f f f f f a a f a a a a a a a a a a a a > , L A.J S.D J H H H B.D Z f > B S K.B B B f a f f f k f f z f f k f f f k f k f k f k f k k a } gX7X7Xt.e ' } } [ m r % e.gX7XgX8X4Xy.[ -X1 d k f k k k f k k f k k k k c c c M v l M M M M p p q M :.:.:.,.:.>.>.p :.v.v.v.v.b.b.b.b.b.vXb.b.v.v.3 X & L.{.{.{.{.{.{.{.{.{.{.{.{.{.{.}.}.{.{.{.{.{.}.}.}.}.}.}.}.}.}.MX}.}.MXMX[.F ZXZXDXdX&XXXI n e u i [ q.w.w.q.z.z.u { u.9 c.M.c.5X5XM.rXrXM.c.M.c.5XM.c.rXc.c.m.M.c.M.c.c.c.g.c.c.c.c.c.c.c.c.a.a.a.c.u %  XAXAXSXSXXX XLX} u k.c.a.c.c.c.M.c.c.c.c.c.c.c.a.c.g.a.c.c.o.$ { w.{ u 2 a H G.G.H.H.J.J.J.J.G.J.J.J.G.G.G.G.C.G.G.G.G.S.G.G.G.S.A.A.A.S.G.S.A.A.A.S.A.A.A.L < : P A 2 L `.'.`.G , < < = < U W.Q.Q.Q.Q.Q.Q.Q.Q.Q.Q.Q.Q.Q.Q.Q.Q.Q.Q.Q.Q.Q.Q.Q.Q.Q.Q.Q.Q.Q.Q.Q.Q.Q.Q.Q.Q.Q.Q.Q.Q.Q.Q.Q.@.+.@.+.+.Q.Q.Q.Q.+.+.+.+.+.Q.+.+.+.+.+.W.+.Q.W.!.W.W.W.W.W.W.W.W.W...8 ",
"gX7XgXgXgXgXgXgXgXgXkXgXgXgXgXgXgXgXgXgXgXkXgXgXgXgXgXgXgXgXgXgXgXgXhX8Xe 2 ;XgXhXyXgX7XgX7X7X7XyX7XgX7XgX7XgX7X7X7X3Xf.6 &.X.X.@.X.&.&.9 } } } } e. .oXm & f a f f a a a a a a a a a a a a a a a a a a , & d Z.Z.L J S.D D D L S f > V S F F B k f g f f f f f f f z f f k k f k k f k f k f k d d d >  .7X7X7X7Xt.8 : 2 : : e t.qXgXgX7X7XiXw.4Xt.: d d d k f f k k k f z f k b l b l M l M l M v M M M q :.:.:.:.:.>.2.1.w v.v.v.b.b.b.b.vXvXvXb.b.b.b.b.; K M   j [.{.[.{.{.{.{.{.{.{.{.{.{.{.{.{.{.{.{.{.{.{.}.}.}.}.|.}.}.}.|.MXMXMX[.j XXP n b e i ! 4.z.M.M.M.z.M.w.p.z.z.u r.u.5 u.c.M.5X5XM.rX5X5Xc.c.M.c.rXc.rXc.M.c.c.c.c.M.c.a.g.a.c.a.c.a.a.c.g.c.c.c.w.2 q dXSXAXAXSX&XP LXOXr u.N.c.c.c.c.c.c.c.c.N.c.a.c.c.c.a.c.g.a.5 5 u.w.t r n G.G.S.J.G.G.C.J.J.J.H.J.J.G.J.G.S.G.J.G.G.G.G.G.G.G.G.G.A.G.A.A.S.A.A.A.A.A.A.A.S.A.H , 1 G.v 2 P `.].'.J : d 1 = : U $.Q.Q.Q.Q.Q.Q.@.@.Q.Q.Q.Q.Q.Q.Q.Q.Q.Q.Q.Q.Q.Q.Q.Q.Q.Q.Q.Q.Q.Q.Q.Q.Q.Q.Q.Q.Q.Q.Q.Q.Q.@.@.@.@.@.@.@.Q.Q.Q.!.@.!.+.+.+.!.+.+.+.+.W.Q.W.Q.W.W.W.W.W.W.W.W.W. .R.h ",
"7XgXgXgXgXgXgXgXgXgXgXgXgXgXkXgXgXgXgXgXgXgXgXgXgXgXgXgXgXgXgXgXgXgX7Xn : l.gXgXgXgXgX7X7X7X7X7X7XgX7XgX7X7X7X7X7X3X3X$.8 X.@.@.@.X.X.&.9 [  .[ e. .} e.m = * > g f a a a a a a a a a a a a a a , a , a a , = d D L D D S.D L Z f > B D S F f , - - g f f f f f f f f f f f f f f f k f f k k f k d k < t.7X7X7X7XgX6Xt.} t.>X7XgXgXgX7XgX7X-Xt.8Xw.> d k d f f k f f k k f k k k l l v v v v l l p M M p p :.,.:.:.>.:.>.1.p v.v.v.b.b.b.b.vXb.b.m.vXb.b.b.p b %Xq 3 + L.[.[.{.{.{.{.{.{.{.{.{.{.{.{.{.{.{.{.}.}.}.}.}.}.}.}.}.MX}.}.[.C.k 3 u ! w.k.p.x.x.k.w.w.[ ] ] e.t.[ q.! r u.i.e { M.c.5XM.5X5XrXM.rXrX5Xc.c.M.c.N.c.c.c.M.c.c.c.c.c.g.c.c.c.c.c.c.a.a.c.c.u $ e.AXAXSXAXAXDXN SXdXe ~ c.c.c.g.N.c.c.a.c.c.c.c.c.a.c.a.a.a.u.$ ! w.u % e I H.G.G.G.S.G.J.J.J.H.J.J.J.J.J.J.H.H.G.S.S.J.J.Z.G.G.G.G.S.A.A.G.A.A.A.A.A.A.A.A.G.A.A.Z @ c G.j d G.`.`.'.G : j d 3 ; U +.@.Q.Q.Q.Q.@.Q.Q.Q.Q.Q.@.Q.Q.Q.Q.Q.Q.Q.Q.Q.Q.Q.Q.Q.Q.Q.Q.Q.Q.Q.Q.Q.Q.Q.Q.@.@.Q.@.@.@.@.Q.Q.Q.@.Q.Q.Q.Q.Q.@.+.+.+.+.+.!.+.+.Q.W.Q.W.!.W.+.+.!.W.W.W.W.+.+.U ",
"7XgXgXgXgXgXgXgXgXgXgXgXgXgXkXqXgXgXkXgXgXgXgXgXgXgXgXgXgXkXkXqXgXqXm 2 ;XgXgXyX7XgXgX7XgX7X7XgX7XgXgX7X7X7X7X7X7X3X3X{ 9 X.&.X.X.X.&.&.9 } } }  .t.} e.N n [ 1 g f a a a a a a a a a a a > f a a a a a a a > # , B Z D S V k > = < V D z > & & > f f f f f f f f f f f f f f f f f f f f k f k d d d < f.7X7X7X7X7X7XgXgXgXgXgXgXgXgXgX7X7Xt.4XiXN @ d d d d k f k f f f k k k k l v v l q M M M M M p q p M :.:.:.>.:.>.p 2.v.v.b.b.b.b.vXb.vXvXvXvXb.vXb.v.% %Xp ;.w o & L.{.{.{.{.{.{.{.{.{.{.{.{.{.}.}.{.{.}.}.}.}.}.}.}.{.[.V.C b ! r u k.w.! i n u n M U I e.XXXX,.9X&XI 5 u u.u.y W c.c.c.rXc.5Xc.rX5Xc.m.c.c.c.c.c.c.M.c.N.c.c.c.c.c.c.c.a.c.c.c.a.c.c.a.w.4 1 DXSXSXAXAXAXAXG A dXi i c.c.c.a.c.c.a.c.c.c.c.a.c.c.g.c.g.c.u % { w.t r b Z.J.H.J.S.G.G.C.J.G.J.J.H.J.J.J.G.G.Z.C.J.G.J.G.G.J.G.G.G.A.S.A.A.S.A.A.G.A.A.S.A.A.A.A.A.x : v P 1 c `.`.`.'.G : v c : : b +.Q.@.Q.Q.Q.Q.Q.Q.Q.Q.Q.Q.Q.Q.Q.Q.Q.Q.Q.Q.Q.Q.Q.Q.Q.Q.Q.Q.Q.Q.Q.Q.Q.Q.Q.Q.Q.Q.@.Q.@.@.@.@.Q.@.@.@.Q.!.!.@.+.+.+.!.Q.!.!.Q.Q.W.Q.W.W.W.W.W.W.W.W.W.W.W.+...",
"gX7XqXgXgXgXgXgXgXgXgXgXgXgXgXgXgXgXgXgXgXgXgXgXgXkXgXgXgXgXgXgX7XN % t.gXgXgXgXgXgXgX7X7X7X7X7X7X7X7XgX7X7X7X7X7X3Xc.' T &.X.&.&.&.X.&.9 ' } } } e. .oXm N 7X8 , f a a a a a a a a a a a a a a , a a , a a > X > $ * > > * : d d @ , > & & g f g f f f f f f f f f f z f f f z f k f f f k f f k d d > f.7X7X7X7X7X7X7XgX7XgXgX7XgX7X7X7X7X6X4Xz.r = d d k k f k f f k k f k f k b l l v M l M M p M M q M :.:.:.:.:.>.>.p v.v.v.v.b.b.b.vXvXvXvXvXb.vXb.b.v.q '.z <.<.=.- & L.L.{.[.{.{.{.{.{.{.{.{.{.{.{.{.{.}.}.}.{.[.[.z M M ] 4.x.w.r : r b I .X&X&XdXDXZXSXSXSXJXZXSXGX Xi u r.i.{ 5 c.rXc.5Xm.5Xm.c.M.c.c.c.c.M.c.c.c.c.c.c.c.N.c.c.c.a.c.g.a.a.c.g.g.a.j.u %  XSXSXAXZXAXAXGX X1 oXe.r a.c.a.c.c.c.c.c.c.a.c.c.c.a.a.g.i.u.$ 6 W W 9 u c H.J.H.J.J.G.G.H.S.J.G.J.G.J.J.H.J.J.G.G.G.G.S.G.H.C.G.G.G.G.G.G.A.A.A.A.A.S.A.A.G.A.A.A.S.A.j : G J , v `.`.'.'.v : C c : , b +.@.Q.Q.Q.Q.Q.Q.Q.Q.Q.Q.Q.Q.Q.Q.Q.Q.Q.Q.Q.Q.Q.Q.Q.Q.Q.Q.Q.Q.Q.Q.Q.Q.Q.Q.Q.Q.@.@.@.@.@.@.Q.@.Q.!.Q.Q.Q.+.Q.Q.@.+.Q.@.W.Q.W.Q.+.W.Q.+.W.+.W.W.W.W.W.W.+.R.",
"7XgXgXgXgXgXgXgXgXgXkXgXgXgXgXgXgXgXgXgXgXkXgXgXgXgXgXgXhXgXgXgX} $ t.gXgXgX7XgXgX7X7XgX7X7X7X7X7X7X7X7X7X7X7X3X5X3Xg.9 R &.&.&.X.&.( &.9 m [ } e. . .t.N m -X2 a f a a a a a a a a a a a a , a a a a , a , > & V Z d d d B V D B & d * > a a a a a a a f f f f f f a f f f f f f f f f f f z f f f f g E.6X7X7X7X7X7X7X7X7XgX7X7XgX7X7XyX7X7X4Xf.8 a d f k k f k f f d d d k j k l l v l v l M M M p <.q p :.:.:.:.:.>.:.p >.v.v.b.b.b.m.vXvXvXJXvXvXvXb.b.b.p U I -.<.;.;.;.w g [.{.[.{.{.{.{.{.{.{.{.{.{.}.}.[.[.[.L.M N w.k.k.s.2.r z < M &XDXSXZXSXSXSXSXSXAXAXAXAXAXAXSX Xi u w.i.u.4 u.c.M.rXc.m.M.c.c.c.c.c.N.c.c.M.c.c.c.a.c.c.c.c.c.c.a.c.a.g.c.a.g.c.{ 2 j DXAXAXAXAXSXSXSX+XG N I u u.c.c.c.c.c.a.g.c.a.c.g.g.a.a.i.i.W # 6 W W 5 u J J.J.J.J.J.J.G.G.G.G.J.J.J.J.J.G.J.G.J.C.S.G.J.G.J.C.J.G.G.J.G.S.S.C.S.S.S.A.A.A.A.A.A.A.A.G.A.a : L G : H `.`.`.`.c : V b : < h W.Q.Q.Q.Q.@.@.Q.Q.Q.Q.Q.Q.Q.Q.Q.Q.Q.Q.Q.Q.Q.Q.Q.Q.Q.Q.Q.Q.Q.Q.Q.Q.Q.Q.Q.Q.Q.Q.Q.Q.Q.Q.Q.Q.Q.Q.Q.Q.Q.Q.Q.Q.Q.Q.Q.W.Q.Q.+.W.+.W.+.W.W.W.Q.+.W.W.W.W.W.W.",
"7XgXgXgXgXgXgXgXkXgXgXgXgXgXgXgXgXgXgXgXgXgXgXgXgXgXgXgXgXgXkX;X$ } gXgXgXgXgXgX7XgXgX7X7X7X7X7X7X7X7X7X7X7X7X7X3X3Xj.9 *.&.&.( &.&.&.&.9 m [ N } } }  X' m } , a , a a a , a , a , a a a , a a a , , a a , > & Z S.D D D D S D B * c > a a a a a a a a a f f a f f f f f f f f f f f f f f f f z f f g U 6X3X3X3X7X7X7XgXqXgX7XgXgX7X7X7X7X4X4Xr.m < f f f f k f f k k d d j k l l b l M l p M p M M M q M :.:.:.:.:.>.:.p v.v.v.v.b.b.b.vXvXJXvXvXvXvXvXb.b.v.1 e.=.<.<.<.;.;.w ; [.|.{.{.{.{.{.{.{.{.{.[.L.[.[.[.%X@Xz.z.s.[ e v C.[.}.K P AXDXSXIXZXSXSXSXSXGXSXAXAXAXAXSX Xy e w.j.u.9 y c.c.c.c.c.c.c.M.c.a.c.c.c.c.c.c.c.c.c.N.c.a.c.g.a.g.a.a.g.g.a.i.i.u 7 OXSXAXAXAXAXSXSXSX9XI ,.% u ! c.a.c.a.i.g.i.g.g.a.a.g.i.g.i.8.# 5 T W 9 u e C.J.J.J.J.G.G.J.G.S.G.G.G.J.J.G.G.J.J.J.J.J.S.S.G.G.G.Z.G.G.G.S.J.S.G.S.S.G.A.G.A.A.A.A.A.A.A.A.H : 1 G.c < P `.`.`.`.c : G c , , 1 +.Q.Q.Q.Q.@.Q.Q.Q.Q.Q.Q.Q.Q.Q.Q.Q.Q.Q.Q.Q.Q.Q.Q.Q.Q.Q.Q.Q.Q.Q.Q.Q.Q.Q.Q.Q.Q.Q.Q.Q.Q.Q.Q.Q.Q.Q.Q.Q.Q.Q.Q.Q.Q.Q.Q.Q.W.+.+.+.+.W.Q.Q.W.W.W.+.W.W.W.W.W.",
"yXqX7XgXgXgXgXgXgXgXgXgXgXgXgXgXgXgXgXgXgXgXgXgXgXgXgXgXgXgX1X2 m gXgXgXgXyXgXgXgX7XgX7X7X7X7X7X7X7X3X7X7X7X5X7X3Xc.f.0 ^ &.&.^ ^ &.&.T 8 m ..} } } } t.I 8 c , a a a a , a a a a , a , , a a , , , a , , , > & D J D D D S S D V * V , , a , a a a a a a a a f a f a f f f f f f f f f f f f f f f f f m 3X7X3X7X7X7X7X7XgX7XgX7XgX7X7X7X7X7X4Xn [ a f k g f f f k k d d k d k k l l v l l p M l p M p p p ,.:.:.:.:.>.1.p v.v.v.b.b.b.b.vXxXvXJXvXvXb.vXb.b.b.2 } b <.<.;.;.;.=.w ; L.}.}.{.{.{.{.{.{.{.{.{.{.@Xn.n.x.e.M F C.[.}.|.MXMXF ].DXDXZXIXSXAXAXSXAXAXAXAXSXAXAXAXXXi u { i.i.[ 2 i.M.c.c.M.M.c.c.c.c.c.c.c.g.a.c.a.c.g.c.g.c.g.a.g.g.i.i.i.i.i.i.! u I ZXAXAXAXAXAXSXZXAXDXI &Xb u y c.a.g.i.g.g.a.a.i.g.i.a.i.a.u.4 # 9 u W 5 u v J.J.H.J.J.J.G.G.J.S.S.G.G.H.J.J.J.J.J.J.J.J.G.S.G.G.G.G.G.G.G.J.G.G.S.A.S.C.A.A.S.A.G.A.A.A.A.A.G.Z = c P d j G.H.`.`.H.j : H b , d h ..Q.Q.@.@.Q.Q.Q.Q.Q.Q.Q.Q.Q.Q.Q.Q.Q.Q.Q.Q.Q.Q.Q.Q.Q.Q.Q.Q.Q.Q.Q.Q.Q.Q.Q.Q.Q.Q.Q.&.Q.Q.Q.Q.Q.Q.Q.Q.Q.Q.Q.Q.Q.Q.Q.W.W.Q.W.Q.Q.W.Q.W.Q.W.W.W.W.W.W.W.",
"gXgXgXgXgXgXgXgXqXgXgXgXgXgXgXgXgXgXgXgXgXgXgXgXgXgXgXgX7X7Xe r 8XgXgX7XgXgXgXgXgX7X7X7X7X7X7X7X7X7X7X7X7X7X3X3X3Xg.{ 5 &.&.^ &.&.^ Q 9 ' 9 [ } }  .e. .} : , a a , a , f , , a , a a , a , , a , a , a a a - , D B.D D S S D B.Z : V a , a a a , a a a a a a a f a f f g f f f f f f f f f f f f f f g 8 3X3X3X3X3X7X7X7X7XgX7X7X7X7X7X7X7X5Xs.t f.g f f f f f f f d d d d s k l k l b l v l M M M M :.q p :.:.:.:.>.>.1.1.v.v.v.v.b.b.b.vXvXcXvXvXvXb.b.b.b.b.p I K ;.<.<.;.;.-.-.=.w L.L.[.{.{.[.{.{.{.{.{.[.@X@X,.,.C.[.}.MX}.}.MX|.MXF `.ZXZXIXZXZXAXSXAXAXAXAXAXAXAXAXAX+Xu y { i.i.u.7 { c.c.c.c.c.c.N.c.c.c.a.i.i.g.a.c.a.g.a.a.a.i.i.i.i.i.i.i.i.i.~ u N dXAXZXAXAXAXAXSXAXAXAXI &XXXe i u.g.a.g.a.a.g.g.i.i.i.i.i.i.9   $ 6 W 9 5 u K J.J.J.J.J.J.J.J.J.H.S.S.G.S.G.G.G.J.G.J.G.G.J.G.S.G.H.G.G.G.G.G.S.G.G.A.G.A.A.A.A.A.A.A.A.S.S.A.A.Z.c & v P 2 c G.H.`.`.H.j : G b d d 8 +.Q.@.@.Q.Q.Q.Q.Q.Q.Q.Q.Q.Q.Q.Q.Q.@.Q.Q.Q.Q.Q.Q.Q.Q.Q.Q.Q.Q.Q.Q.Q.Q.Q.Q.Q.Q.Q.Q.Q.Q.Q.Q.Q.Q.Q.Q.Q.Q...Q.Q.Q.Q.Q.+.+.Q.W.+.W.W.Q.W.W.+.W.W.W.W.W.",
"gXgXgXgXgXgXgXgXgXgXgXgXkXgXgXgXgXgXgXgXgXgXgXgXgXgXgXgXgX} 2 -XgXgX7XgXgXgXgX7X7X7X7X7X7X7X5X7X7X3X7X7X7X7X3X3X3Xg.' 9 / / ^ *.R &.T ' { 7 [ [ } { e.t.} : X @ - g a , a , a , a a a , , a , , a , , , , , & f J J D D S D D D D > V d > < a a f , a a a a a a a f a f f a a f f f f f f f f f f f f a : d.c.3X7X5X7X7X7X7X7X7X7X7X7X7X7X5X3Xm r.t., d f f f f f f f f d d k k k c l c l b l M M p p :.q p :.:.>.>.>.>.p 1.v.v.v.v.b.b.vXvXvXcXJXvXvXb.vXb.b.b.:.r  Xw <.<.;.;.-.-.=.g L.L.L.}.{.{.{.{.{.{.{.{.[.{.{.}.}.|.}.}.MX}.MX}.MXB..XCXZXZXZXAXSXAXAXAXAXAXAXAXSXSXSX&Xu i ] i.j.u.W r c.c.g.a.c.c.c.c.a.g.i.a.a.g.a.g.g.i.i.i.i.i.i.i.a.i.i.i.i.i.i N +XSXZXSXAXAXAXAXAXAXAXAXI +XDXe.! 8 u.i.i.g.i.g.a.a.g.i.i.i.9   5 5 u Y 9 r e P J.J.J.J.J.J.J.J.J.G.S.S.S.G.G.J.J.J.G.J.J.J.G.G.G.G.J.S.G.G.C.J.G.G.S.S.G.C.A.A.G.A.A.S.A.A.A.G.S.A.A.j > K G 2 v `.`.`.`.H.q : A c 1 c h  .Q.@.Q.Q.Q.Q.Q.Q.Q.Q.Q.Q.Q.Q.Q.Q.Q.Q.Q.Q.Q.Q.Q.Q.Q.Q.Q.Q.Q.Q.Q.Q.Q.Q.Q.Q.Q.Q.Q.Q.Q.Q.Q.&.Q.Q.Q.Q.Q.Q.W.Q.+.+.+.+.+.+.+.+.W.Q.+.+.+.W.+.W.W.W.",
"7XyXgXgXgXgXgXgXgXgXgXgXgXgXgXgX7XgXgXgXgXgXgX7XgXgXgXgX<X2 } gXgXgXgXgXgXgXgXgX7X7X7X7X7X7X5X7X7X7X3X7X3X7X3X3Xg.g.t T &.R &.^ R ^ Y ..| 7 [ } } }  .} } 2 * & & o - > , a , a , , , a a , , a > , a a , a & k A.D H D D D D D D : B k * a , a a a a a a a a a a a a a a f a a f f g f f f f f f f f f *  .3X3X3X6X7X7X7X7X7X7X7X7X7X7X7X7Xf.m 2Xq.> d f f f k f k f k d d d k j l b l b l M l p M M :.p q :.:.:.1.>.>.1.1.v.v.v.v.b.b.vXvXvXvXJXvXvXvXvXb.b.v.>.q  XM <.;.;.;.-.=.w z }.}.{.{.{.{.{.{.{.{.[.}.}.}.}.}.}.MX}.MX}.MX|.MXMXz .XZXDXZXSXAXSXAXAXAXAXAXAXZXSXSXSX&Xu [ W i.u.i.u.% ~ c.c.a.g.a.g.a.g.g.a.g.g.a.a.g.a.i.i.i.i.i.i.i.i.i.i.i.i.~ u  XCXZXZXZXZXAXZXAXAXAXAXSXXXXXSXXX! $ % ~ i.i.i.a.g.i.i.a.3.5   5 _ 9 6 u 5 u n `.J.J.J.'.J.J.J.J.J.J.J.G.G.S.G.G.G.C.J.G.J.G.H.H.G.S.S.J.J.G.J.G.G.G.G.G.G.S.A.S.S.A.A.A.A.A.A.A.A.G.A.L , < G.v 2 G H.H.`.`.G.d : G 1 j c 8 +.@.Q.Q.Q.Q.Q.Q.Q.Q.Q.Q.Q.Q.Q.Q.Q.Q.Q.Q.Q.Q.Q.Q.Q.Q.Q.Q.Q.Q.Q.Q.Q.Q.Q.Q.Q.Q.Q.Q.E.Q.Q.Q.Q.Q.Q.Q.Q.Q.Q.Q.+.+.+.+.+.+.+.W.Q.W.W.W.W.W.W.W.W.W.",
"gXgXgXgXgXgXgXgXgXgXgXgXgXgXgXgXgXgX7XgXgXgXgXgXgXgXgX7Xn r qXgXgXgXgXgXgX7XgX7X7X7X7X7X7X3X7X7X7X3X3X7X5X3X3X3Xg.g.5 T R ^ *.*.Q R 5 o.o.7 [ { }  .e.t. .b , , > - o X o - > g a > a a , a , , a , , , , , & B S.S.L D B.D D S.S., x V * , a a , a , a a a a a a a a a a a a a f f f f f f f f f f f f > m c.3X3X3X3X7X7X7X7X7X7X7X7X7X7X>X| f.c.N - f f f f f f f f f d d d d l l l l l v q M l M p M M w :.:.>.>.>.>.1.1.v.v.v.v.b.b.b.vXvXcXvXvXvXb.b.b.b.b.v.p ,.M ;.;.;.;.-.w & [.}.}.}.}.{.}.}.{.{.{.}.}.}.}.}.bX}.}.MX}.MXMX}.MXMXz .XDXZXIXSXSXAXSXSXAXAXAXAXSXSXZXSXDXM ! u u.i.d.i.W % u.a.g.g.g.a.i.a.g.a.g.i.a.g.i.g.i.i.a.i.i.i.i.i.i.i.g.{ r [ DXSXZXZXZXZXZXZXAXAXAXAXSXoX} IX&X] u $   5 ~ u.i.i.i.o.W $   5 _ _ 5 6 9 8 e L J.J.J.J.J.J.J.J.J.J.H.H.H.G.G.S.G.J.G.J.J.G.J.J.G.J.G.G.G.Z.J.J.S.G.G.G.S.S.G.A.A.A.A.A.A.A.G.A.G.A.A.A.A.Z : k G.c : J `.H.`.`.G.1 < L 1 d c 8 +.Q.Q.Q.Q.Q.Q.Q.Q.Q.Q.Q.Q.Q.Q.Q.Q.Q.Q.Q.Q.Q.Q.Q.Q.Q.Q.Q.Q.Q.Q.Q.Q.Q.Q.Q.Q.Q.Q.Q.Q.Q.E.Q.Q.Q.Q.Q.Q.+.+.Q.Q.+.+.Q.Q.+.W.+.Q.+.W.+.+.+.W.W.W.",
"gXgXgXgXgXgXgXgXgXgXgXgXgXgX7XgXgXgXgXgXgXgXgXgXgXgXgXOX2 f.gXgXgXgXgXgXyXgX7XgX7X7X7X7X7X7X7X3X7X3X7X3X7X3X3Xg.g.d.0 R R R *.^ R R 5 f.d.4 N } } } } } } 9 > a a , > - o X X o & & - - , , , g , , , a , , o U H.S.H B.D D H D D , c A * , , , , a a a , a , a a a a a a a a a f f f f f g f f f f f f > 9 g.3X3X3X7X7X7X7X7X7X7X7X7X7X4Xf.2X5Xz.2 , f f f f f f f f f d d k j k l l b l v l l M M M 1.p q :.:.:.:.>.>.1.>.v.v.v.v.b.b.b.vXvXvXvXvXvXvXvXb.b.v.v.1.n e.<.<.<.;.-.& L.}.}.}.{.}.}.}.}.}.}.}.}.}.|.}.}.|.MX}.}.MX}.MXMXMXbXx %XZXDXSXZXAXAXAXAXAXSXSXZXZXSXZXZXZXN ] u u.u.i.u.o.5 9 i.i.a.i.g.i.g.a.i.i.g.g.a.i.i.i.i.g.i.i.i.i.i.i.i.~ 5 i &XCXCXCXZXCXZXZXAXZXAXAXAXSX%XI GXZXe.! u 9 #   $ 5 5 4 $   # W o.o.8.9 % 5 u v G.G.H.H.J.J.J.J.'.J.J.J.G.J.J.C.A.G.S.J.J.G.J.J.G.J.G.G.G.G.G.H.J.S.H.G.G.G.G.S.G.A.A.A.A.A.A.S.S.C.A.A.A.A.A.x = Z G.j , P `.`.`.`.P , 1 P 1 k d 8 Q.Q.Q.Q.Q.Q.Q.Q.Q.Q.Q.Q.Q.Q.Q.@.Q.Q.Q.Q.Q.Q.Q.Q.Q.Q.Q.Q.Q.Q.Q.Q.Q.Q.Q.Q.Q.Q.Q.Q.Q.Q.Q.Q.Q.Q.Q.Q.Q.+.W.Q.+.+.+.W.+.+.W.+.+.+.W.W.W.+.W.W.",
"gXgXgXgXgXgXgXgXgXgXgXgXgXgXgXgXgXgX7XgXgXgXgXyXgXgX8X8 ' gXgXgXgX7XgXgXgXgX7X7X7X7X7X7X7X3X7X3X3X7X3X5X3X3Xc.g.g. .0 R R R R R *.T y g.j.4 ' } } { } }  .n > > > > , > > - & o o X X X X & - > , > , , , > & A.J.L L J J J S.H K.a f B.- > a > a , a , a a a a a a > a a a a a a a a a a a a a a a a a , 8 d.3X3X3X7X5X3X7X7X7X7X5X7X3X3X3X3X5Xr.@ a f f f f f k g f k f k f k d l k l l b M M p M M p 1.q :.:.:.:.:.q.1.>.v.v.v.v.N.b.b.b.vXvXvXb.vXm.b.b.v.v.v.>.q  X;.<.;.;.w - {.}.}.}.MX}.}.}.}.}.}.}.}.}.MX}.MX}.MX}.MX}.}.MXMXMXmXz %XDXSXSXSXSXZXSXSXZXZXAXZXAXZXZXZXZX} ! u o.i.u.u.O._ % y i.i.g.i.i.i.i.i.i.g.a.i.i.i.i.i.i.i.i.9.i.a.i.W # u e.CXCXCXCXCXCXZXZXZXZXAXZXAXSX%XN SXSX+X! u _ ~ 9 $ #     $ 5 ~ O._ ` o.9 # 5 e P H.H.G.H.H.J.J.J.J.J.J.J.G.J.H.S.J.S.S.H.J.J.G.J.G.J.J.G.G.G.G.J.J.G.J.G.J.G.S.G.S.G.A.A.A.A.A.S.A.A.A.A.A.A.S.A.d : P P 1 1 G.`.`.`.`.I : j P 1 c b 6 +.+.+.Q.Q.Q.Q.Q.Q.Q.Q.Q.Q.@.@.Q.Q.Q.Q.Q.Q.Q.Q.Q.Q.Q.Q.Q.Q.Q.Q.Q.Q.Q.Q.Q.Q.Q.Q.Q.Q.Q.Q.+.Q.Q.+.Q.+.+.Q.@.+.+.+.+.+.W.+.+.W.+.W.W.+.+.W.",
"gX7XgXgXgX7XgXgXgXgXgXgXgXgXgXyXgXgXgXgXgX7XgXgXgXgX} 7 1XgXgXgXgXgXgXgX7X7X7X7X7X7X7X7X5X7X7X7X7X3X7X3X3X3X3Xg.g.*.0 R Y R *.R R 6 ' g.j.% m [ [ } } }  Xm * a g , > > > > - - & - - o X X . X - - > , a & & J.J.A.S.L L L J S.S.f , B.a - a a , a a , a , a , a a a a a a a a a a a a a a a a a a a a b n { g.3X3X3X7X7X7X7X7X7X7X7X3X7X3X3X3X9 @ a f a f f f f f f f f f k d k l l b l l l p b M 1.M p r 1.:.:.>.>.:.p 1.v.v.v.v.v.b.b.m.b.vXvXvXb.b.b.b.v.v.v.v.r I M <.<.=.o [.MXMX}.}.}.}.MX}.}.}.}.}.MX}.}.}.}.}.}.MX}.MXMX|.MXMXMXl *XZXDXZXSXIXSXSXSXSXAXAXAXZXZXZXZXZXXXN i ! u.O.u.u.8.W $ W i.a.i.i.i.i.g.a.i.i.i.i.i.i.9.i.i.i.i.i._ 5 # 7 N &XZXCXDXCXCXZXZXZXZXZXAXAXZXSX+Xb SXSXCXe.i W O.u._ ~ ~ ~ ~ O.O.o.u.O.8.9 5 7 1 P G.G.G.G.G.H.J.J.J.J.J.J.J.J.J.J.G.S.S.G.G.G.J.G.J.G.G.G.J.S.J.C.J.G.G.J.C.S.G.G.G.G.J.A.A.A.S.A.A.A.G.S.A.A.A.A.J , 1 G.L < j G.`.H.`.`.J : c P 1 c x 0 +.Q.Q.Q.Q.Q.Q.Q.Q.Q.Q.Q.@.@.Q.Q.Q.Q.Q.&.Q.Q.Q.Q.Q.Q.Q.Q.Q.Q.Q.Q.Q.Q.Q.Q.Q.Q.Q.Q.&.+.Q.+.Q.Q.+.Q.+.+.@.+.+.+.+.+.+.+.W.Q.Q.W.+.W.W.W.",
"gXgXgXgXgXgXgXgXgXqXgXgXgXgX7XgX7XgX7XgXgXgXgXgXgX8X8 } gXgX7XgXgXgXgX7XgX7X7X7X7X7X7X7X7X3X3X7X3X7X3X3Xg.3Xg.g.g.9 E *.R T R T T 0  .g.j.4 n [ } } } } e.N > , > , , > - - & & - & & - - & + X X X & - - & , '.'.A.A.A.L L L A.S.k > Z., > , a a , a a a a a , a a g a a a a a a a a a a a a a a a a > n ] ' c.3X3X3X7X3X7X7X7X3X7X3X7X3X3X3X#.8 > f a f f a f f g f f g j s k l j l b M b l v M p M :.M p :.:.>.>.>.>.1.1.v.v.v.v.v.b.b.b.m.vXb.vXb.b.b.b.v.v.v.v.M b I <.=.3 z MXMX|.MX}.MX}.}.}.MX}.}.}.}.}.}.MX}.MXMX}.MX}.MX|.MXMXmXl *XIXIXSXSXDXAXAXZXSXAXZXZXZXZXZXZXZXdXN q.W O.u.8.O.u.O.W # W u.i.i.i.i.i.i.i.i.i.i.i.i.i.i.i.i.i.W $ $ % y oXZXCXCXdXDXCXCXCXZXZXZXAXZXAXSX*X8 DXSXAX+X] u _ u._ o._ O.o.O.u.o.8._ u.5 7 p : c G.G.G.G.Z.J.H.J.J.'.J.J.J.J.J.H.J.J.J.S.G.J.J.G.J.G.G.J.J.S.G.S.G.J.G.J.G.G.G.G.G.G.G.G.A.A.A.A.G.A.A.A.A.A.A.A.G.F * v G.G < c G.`.`.`.`.G : v L 1 x x h +.Q.@.Q.Q.Q.Q.Q.Q.Q.Q.Q.@.Q.Q.Q.Q.Q.Q.Q.Q.Q.Q.Q.Q.Q.Q.Q.Q.Q.Q.Q.Q.Q.Q.&.Q.Q.Q.Q.+.+.Q.Q.Q.Q.Q.Q.+.Q.+.+.+.W.+.+.Q.+.Q.W.Q.W.+.+.W.",
"gXgXgXgXgXgXgXgXgXgXgXgXgX7XgXgXyXgXgXgXyX7XgX7XhX .8 7X7XyXgXgXgX7XgX7XgX7X7X7X7X7X7X7X3X7X7X3X7X3X7X3X3Xg.g.g.%.8 E Y *.Y Y *.T 0 h.c.c.9 h } [ e. . .t.m $ : > > - - - - & & & & & & & - - & + o X X .   a #X'.H.A.A.A.A.S.A.S.c - Z.f - > a , a , , , , , a > a a a a > a a a a a a a a a a a a a > ' } t d.3X3X3X3X7X3X7X5X7X3X3X3X3X3Xj.m 9 > f a a f a f f f f f f s j k j l j l l l l p l M p M 1.q :.:.>.>.>.>.1.1.v.v.v.v.v.b.b.b.b.b.b.b.m.b.b.v.v.v.v.>.p q  X,.3 < MXMXMXMXMXMX}.MXMX}.}.}.}.MXMX}.MX}.MX}.MXMXMX}.MXMXMXMX}.k *XIXDXIXSXSXAXAXSXZXAXAXZXZXZXCXZXZXDXN { u _ u.u.O.u._ _ T $ 4 Q i.i.i.i.i.i.i.i.i.i.i.i.i.9.W $ # 5 9 t ,.CXCXZXdXdXdXdXCXCXCXZXZXZXAXZXAX&Xb DXSXAXCXy.i ~ o.8.O.u.O.8._ _ _ O.u._ 7 y ,.{.< j A.G.G.H.G.G.J.J.J.J.J.J.J.G.J.J.J.H.G.G.G.C.J.S.J.J.H.G.J.G.G.G.G.G.J.J.G.G.G.S.G.G.G.G.S.G.S.C.A.A.A.G.S.A.A.A.A.k = K G.C : v G.H.`.`.`.v : A P , h k 9 +.@.Q.Q.Q.Q.Q.Q.Q.@.+.+.Q.Q.Q.Q.Q.Q.Q.Q.Q.Q.Q.Q.Q.Q.Q.Q.Q.Q.Q.Q.Q.Q.Q.Q.Q.Q.Q.Q.+.+.Q.Q.Q.Q.Q.@.+.+.+.+.Q.+.W.Q.W.W.Q.W.W.W.+.W.",
"qXgXgXgXgXgXgXgX7XgXgXgXyXgXgX7XgXgX7XgX7XgXqXgX8Xe } gX7XgXgXgX7XgX7XgX7X7X7X7X7X7X7X3X7X3X7X3X3X7X3X3X3Xg.g.g.o.4 E Y T T T T E 9 g.g.3Xt 9 } ' } } } N r } ;Xf - - - & - & & & & & & & & - & & - - & o X B #XJ.J.G.Z.S.G.S.A.G.A : A.k & , , a > > a , a , , > a a a > a > a > a a a a a a a a a a , [ } n | 3X3X3X7X3X7X6X7X3X7X3X3X3X3X{ ] y , a a a a f a f f a s f d k j j j j l l l l l p M M =.M p 1.:.>.>.>.>.1.p v.v.v.v.v.v.b.b.b.b.b.b.b.b.v.v.v.v.v.>.q p I 2 * bXNXMXMXMXMXMXMX}.}.MX}.}.}.}.}.}.}.}.MXMXMX}.MXMXMX}.MXMXbXk &XDXZXSXAXAXSXAXAXAXAXZXZXZXZXZXCXZXZX X[ i { 9.u.u._ 8.O.u.~ % # 5 ~ u.i.i.i.i.i.i.i.i._ W % $ 5 ~ ~ 9 N dXZXCXCXdX9XdXdXCXCXZXZXZXZXAXZXAX&Xb CXAXAXAXdXq.y o.8.O._ _ o.u.O._ u.O.~ e ] mXBX*Xk , B.H.G.G.G.G.G.J.[.J.J.J.J.J.J.J.J.J.J.G.J.G.G.J.G.G.G.S.G.G.G.G.S.S.J.G.S.J.S.G.G.G.G.S.S.S.A.A.A.G.A.A.A.G.A.A.L < < P P v , G `.H.`.`.`.c : J I 1 V b 9 W.Q.Q.W.Q.@...h 8 0 ..Q.Q.Q.Q.Q.Q.Q.Q.Q.Q.Q.Q.Q.Q.Q.Q.Q.Q.Q.Q.Q.&.Q.Q.Q.Q.Q.Q.Q.Q.Q.Q.Q.Q.Q.W.+.+.+.+.W.Q.W.Q.Q.Q.+.W.Q.W.!.W.",
"gXgXgXgXgX7X7XgXgXyXgX7XgX7XgXgX7XgXgX7XgXgXyXgXt.8 8XgXyXgX7X7XgX7XgX7X7X7X7X7X7X7X7X7X3X7X3X7X7X3X3Xg.c.g.g.g.] 0 Y E E Y Y T 6 ' 3X3X3X' 8 [ } [ } m n >XyX6Xa & - & & & & & & & & & & & & - & * & - & X Z.#X'.J.H.G.G.G.G.G.A.H > L k & , , > a g > a , , a a a > a a a a a a a > a a a a a a , , 2 } ..N ' g.,X3X7X7X3X3X7X3X3X3X3X3Xf.y k.b a a a f f a f a a f f s f s j j j l l l l v p M p M M M q 1.:.>.>.1.>.1.p >.v.v.v.v.v.b.b.b.b.b.b.b.b.v.v.v.v.v.p q :.1 & [.NXNXNXMXMXMXMXMXMXMX}.MXMXMXMXMXMXMXMXMX}.MXnXMXMXMXMXMXMXbXj &XIXZXZXAXAXAXAXAXZXZXZXZXZXZXXXdXDXCX&XN ] W o._ O.O.o._ _ _ _ W 4 # $ 5 y ~ { ~ Q u 4 $ # 5 W _ o.u u @XdXZXCXdXdX9X9XdXDXCXZXZXCXZXZXAXAX9Xb DXSXAXAXZXt.y W ` u.u.O.8.O.8.u.O._ u y ,.BXBXBXMXJ - B G.G.G.G.S.H.J.J.Y.J.J.J.J.J.J.G.J.G.G.G.S.S.J.G.G.J.G.G.G.S.G.J.J.H.J.G.G.G.G.G.G.G.G.S.A.G.S.C.A.S.S.A.G.S.A.Z > j G.P k 2 J `.`.`.`.`.j , G.G < Z f *.Q.Q.+...h m 8 h 8 ..Q.Q.Q.Q.Q.Q.Q.Q.Q.Q.Q.Q.Q.Q.Q.Q.Q.Q.Q.Q.Q.Q.Q.Q.W.Q.Q.Q.Q.Q.Q.Q.Q.Q.Q.+.+.+.+.+.Q.Q.Q.W.Q.W.+.+.W.+.W.+.",
"gX7XgX7XgXgXyXgXgXgXgXgX7XgX7XgXgX7X7XgX7X7X7X7XN [ 7X7XgX7X7XgXgX7X7X7X7X7X7X7X3X7X7X3X5X3X3X7X3X3X3Xg.g.g.g.g.9 0 E E E T E 6 % { 3Xc.3X' e } } } n m 4X7X7Xt.& - - - & & & & & & & & & & & & & - & & & & J.%X.XJ.H.H.G.G.S.A.G.S.< L B - > > > > > a > > , , a > g a a > > a > a a a > a a a a a > h } } } ] j.3X3X3X3X7X3X3X3X3X3X3Xj.[ u.s.1 a , a a a a a a f f s a s s k j j l l l b l M p M M 1.p p :.>.>.>.>.>.>.1.1.v.v.v.v.v.v.b.b.b.b.b.v.v.v.v.v.v.>.q 1.p X S.NXMXNXMXMXNXMXMXMXMXMXMXMX}.MX}.}.MXMXMXMXMXMXMXMXMXMXMXMXMXbXj UXZXZXSXSXAXAXAXAXZXZXZXZXZXCXe.@XDXCXdXN q.t _ o.8.o._ O.u._ o.8.o.Q 9 5 $ # # # $ $ 5 W ~ _ ` O.W r e.ZXZXZXCXdXdX9X9XdXDXCXZXCXZXZXZXSXSXdXb dXSXAXAXSXdXi u { ` u._ O.8.o.u.O.! W r *XBXNXNXNXMXJ.> < J G.G.S.G.J.J.'.J.J.'.J.J.G.J.G.G.G.C.G.G.S.J.G.G.G.G.S.G.G.S.S.J.J.G.G.G.G.S.G.H.G.G.S.S.G.A.A.A.A.A.A.A.A.G.B = V G.P j < P H.`.`.`.G.2 d J.S < B h h *.h P &XDXU ' 8 ' Q.Q.Q.Q.Q.Q.Q.Q.Q.Q.Q.Q.Q.Q.Q.Q.Q.Q.Q.Q.Q.Q.Q.W.Q.Q.Q.Q.Q.Q.Q.Q.Q.Q.Q.Q.+.Q.Q.+.Q.W.W.Q.+.+.W.Q.!.W.W.W.",
"gXyXgXgXgXgX7XgXgX7XgX7XgXgX7X7X7X7XgX7X7XgX7X8X8 -XgX7X7X7XgX7X7X7X7X7X7X7X7X7X7X3X3X7X3X7X3X3X3X3X3X3X3Xg.g.g.4 6 E E Y E 0 4 4 g.3X3X3X[ 8 N ' n m 8X7X7X0X..& & & & & & o & & o & o & & & o & & & & X a #X$XJ.J.J.H.H.G.G.G.G.G.1 D F - a > a g a > a a > a > a a > a a a a a a a g a a a > , a - U [ ' [ 9 h.c.3X3X3X3X7X3X3X3X3X2Xc.j.z.{ > a a a a a a a a a a s s s s j j j j j l l l l b p M M M p 1.1.>.>.>.>.>.1.p >.v.v.v.v.v.v.v.v.v.b.v.v.v.v.v.v.p q M X F MXNXNXNXNXNXMXNXMXMXMXMXMXMXMXMXMXMX}.MX}.MXMXMXMXMXMXMXMXMXMX{.k dXBXDXSXSXAXAXAXZXAXZXZXCXCXCX*XXXCXCXZX Xq.t ~ u.o.` u.O._ u._ O._ ` ` _ _ Q ~ Q ~ _ _ _ o._ O.~ 7 M dXZXZXZXZXdX9X&X&X9XdXdXCXCXCXZXZXZXSX9Xb dXGXAXAXGXAXe.u y _ O.8.o.o._ ` ~ u r I VXBXNXNXNXNXNX{.x , x A.G.G.G.J.J.J.J.J.J.J.G.J.J.J.J.J.G.S.G.G.G.J.C.J.J.G.G.G.G.G.J.G.G.G.G.G.G.G.G.C.S.A.A.A.S.A.A.A.A.A.A.S.A.j : G G.P < j G.`.`.`.'.J : b Y.b = , , F.DXPXPXIXN ' m h Q.Q.Q.Q.Q.Q.Q.Q.Q.Q.Q.Q.Q.Q.Q.Q.Q.Q.Q.Q.Q.Q.Q.Q.Q.Q.Q.Q.Q.Q.Q.Q.Q.Q.Q.Q.Q.+.+.+.Q.Q.+.+.+.+.Q.W.W.W.W.+.",
"7XgX7XgXgXgX7XgXgX7XgXgX7XgX7X7XgX7XgX7X7X7XgXr.n 7X7X7X7XgX7X7X7X7X7X7X7X7X7X7X7X3X3X7X3X3X3X3X3Xg.3Xg.g.g.g.$.$ 6 E E E 0 0 T 9 j.3X3X5X| 4 ' m n 2X7X7XqX7X8 & & & & + & & o & + & + o & & & & & & & o d %X%X.XJ.J.D.H.G.H.S.G.J.f D D * > , , > > , , > , , , , , g , , a a > a a > a a > a g a > [ [ N e u c.3X3X3X3X3X3X3X3X3X3X,Xg.c.l.e > a a a a a a a a s a a s s j j j l j q l p l p M p p M 1.q 1.>.>.>.>.>.v.1.p >.v.v.v.v.v.v.v.v.v.v.v.v.v.v.v.1.q p O z mXmXNXNXNXNXNXNXMXMXMXMXMXMXMXMXMXMXMXMXMXMXMXMXMXMXMXMXMXMXMXMX}.c dXDXZXSXSXSXSXZXSXZXZXZXZXCXCXUXI DXCXCX&X[ ! y o.u.u._ _ u._ o._ u._ o.8.o.8.O.` _ o.8._ O.u.~ e u &XSXZXCXZXCXDXXX+X&XdXdXdXZXZXZXZXZXZXZX9Xb DXAXAXAXSXAXDXN u W _ ` o.` 9.~ W r k MXNXNXNXNXNXMXMXNXMX[.C < x A.J.S.H.J.J.J.J.J.J.J.J.H.J.G.Z.S.S.G.G.G.G.G.G.G.G.G.G.J.Z.J.G.G.J.Z.J.C.J.S.G.S.A.G.G.A.G.A.A.A.A.A.A.L , d P G.G , v H.H.`.`.'.A & 1 b b  XDXPXPXPXPXPX$Xt m 9 Q.Q.Q.Q.Q.Q.Q.Q.Q.Q.@.Q.Q.Q.Q.Q.Q.Q.Q.Q.Q.Q.Q.Q.Q.Q.Q.Q.Q.Q.Q.Q.Q.Q.Q.Q.W.+.@.@.!.+.+.!.!.+.+.W.W.W.W.+.",
"7XgXgXgX7XgXgX7XgX7X7X7X7X7XgX7X7X7X7X7X7XgX7Xm | 7X7X7X7X7X7X7X7X7X7X7X7X3X7X3X3X3X3X3X7X3X3X3X3X3X3Xg.g.3Xc.W 0 6 E E 0 0 T T ' c.3X3X5Xf.2 ' 8 f.7X7X7X7Xt.O & & & & + & & & + & + & & & & & & & & & . F %X%X'.J.J.J.H.H.G.G.G.H.f A D * > , , > > g , , , , > g , , , , > a , a a a g a a a , a 8 } } m % $.3X3X<X7X7X3X3X3X3X3X3Xc.c.l.q.: , a > a , f a a a a a s s s < j j j j l l l l b q M M 1.M q :.>.>.>.1.>.>.>.1.p v.v.v.v.v.v.v.v.v.v.v.v.v.v.1.% q   v mXNXNXNXNXMXNXMXNXNXNXNXMXMXMXMXMXMXMXMXMXMXMXMXMXMXMXMXMXMXMXMXNXbXc DXZXIXDXZXSXSXSXZXSXZXZXZXCXCXDXI &XCXdXCXI q.u ~ O.8.o.o.` ` O._ _ O.8.O._ o._ o._ O._ o.` _ u r *XZXCXZXZXZXCXDX Xe.&X&XdXdXZXfXCXCXZXZXAXDXb dXAXAXAXAXZXGX&Xn u ! o.o.~ W i [ r A.NXNXNXNXNXMXMXMXMXMXMXmX{.C.k z S.G.G.J.J.J.'.J.J.J.J.G.J.H.G.G.S.S.G.S.G.G.G.G.G.G.S.G.G.G.G.J.G.G.J.G.G.G.S.A.S.C.A.A.A.A.A.A.A.A.A.A : v L G.v : G H.`.G.G f * b *XIXIXPXPXPXLXPXPXdX8 m 8 &.Q.Q.Q.Q.Q.Q.Q.@.@.@.@.Q.Q.Q.Q.Q.Q.Q.Q.Q.Q.Q.Q.Q.Q.Q.Q.&.Q.Q.Q.W.Q.Q.Q.+.+.+.Q.@.+.+.!.!.+.+.+.+.!.W.W.",
"7XgX7X7XgX7XgX7X7XgX7X7X7XyX7X7X7XgX7X7X7X7X6Xt >X7X7X7X7X7X7X7X7X7X7X5X3X7X3X3X3X3X3X3X3X3X3X3Xg.3Xg.g.g.c.j.8 0 6 E 9 9 R *.6 { 3X3X3X3Xf.% 8 t.7X7X7X7X7XN $ & & & + + & o o o o o + & o & & X & + + . L *X%X'.J.J.H.H.G.G.Z.H.J.d v L = O & > , , > > , , > , , , , , > , , a > > a a > > a , > b { [ m 8 ,X3X3X3X3X3X3X3X,X3Xg.g.,Xc.s.8 > a , a a a , a a a a s s d d s j j j j l l l l l v l p M p q 1.:.>.>.>.>.>.v.1.p 1.v.v.v.v.v.v.v.v.v.v.v.v.1.w q # l mXNXBXNXNXNXNXNXNXMXMXNXMXMXMXnXMXMXMXMXMXMXMXMXNXMXMXMXMXMXMXMXMXMX[.c DXDXSXSXZXSXZXZXZXZXZXZXCXCXCXCXOX XdXCXCX+Xi q.u u.o.u.` _ u._ _ o._ o._ _ _ o._ O._ _ o.~ u n &XZXCXZXZXZXZXDXCX Xe.&X&XdXZXdXCXCXCXZXZXZXdXN DXSXSXAXAXAXSXAX&XI ] ! i u i ] e.q [.NXMXNXMXMX|.MXMXMXMXMXMX}.MX{.G.B.G.J.H.J.J.J.J.J.J.J.J.G.G.G.G.G.G.S.G.S.H.J.G.G.G.C.G.G.G.G.S.J.G.G.G.G.G.S.S.A.A.A.S.A.A.A.A.A.A.S.S.d : L P A.c , G b 1 b J.DXIXPXLXPXPXPXPXPXPXIXZXA 9 h &.Q.Q.Q.Q.Q.Q.Q.Q.Q.Q.Q.Q.Q.Q.Q.Q.Q.Q.Q.Q.Q.Q.Q.Q.Q.Q.Q.Q.Q.Q.E.@.Q.Q.Q.@.+.+.+.!.@.+.!.!.+.+.+.+.W.!.+.",
"gX7X7XgX7XgX7X7X7X7X7X7XqXgX7X7X7X7X7X7X7X7Xt.N 7X7X7X7X7X7X7X7X7X7X5X7X7X7X3X3X3X3X3X3X3X3Xg.3X3Xg.g.3Xg.g.o.4 6 6 E E *.*.*.9 d.3X3X7X7Xj.% m 7X7X7X7X7Xf.m b o & + & + + o + o o o o o o o o & o & . + J.%X%X#XJ.J.H.J.J.H.G.H.F.j c L >     . + * > , , , > , , , , > a g > > a > > a > a a , > U } [ 2 { 3X3X3X3X3X3X3X3X3X3X3X3Xg.h.9 * , a a a a a a a , a a a < a s s j q l j l l b l p p M M M M 2 :.>.>.>.>.>.>.>.>.p p >.v.v.v.v.v.v.v.v.v.v.1.w % $ C mXBXNXNXNXNXNXNXNXNXNXNXMXNXMXNXMXNXMXMXMXMXMXMXMXMXMXMXNXMXMXMXMXMXMXbXc DXBXZXSXSXSXSXSXSXZXZXCXCXCXCXCX&XI dXDXCXdXI { ! W u.O.o.u._ ` o._ ` o._ o._ _ _ _ o._ ~ r n dXZXZXZXCXCXCXCXDXdX XI +X&XdXdXdXdXCXCXZXZXZX&XG DXAXZXAXAXAXSXZXZX9XoXe.N [ e.1XoX< bXMXMXMXMXMX|.}.MX}.}.}.MX}.}.MX[.F G.S.H.J.J.J.J.[.J.J.J.J.J.J.G.G.G.G.G.G.S.G.G.G.G.H.G.C.G.G.G.C.G.G.G.G.G.G.A.G.A.S.A.A.A.A.A.A.G.A.S.L : j P P A 3 $ A %XZXPXPXPXPXPXPXPXIXDXSXIXBXUXU 4 8 Q.Q.Q.Q.Q.Q.Q.Q.Q.Q.Q.Q.Q.Q.Q.Q.Q.Q.Q.Q.Q.Q.Q.Q.Q.Q.Q.Q.Q.Q.Q.Q.Q.Q.Q.Q.Q.+.Q.@.@.+.+.+.+.!.+.+.W.!.W.W.",
"gX7X7XgX7X7X7X7X7X7X7X7X7X7X7X7X7X7X7X7X7X7X] r.7X7X7X7X7X7X7X7X7X3X7X3X3X3X3X3X3X3X3X3X3X3X3Xg.3Xg.g.3X3Xg...% 6 E E T R Q Q t c.3X3X7X7Xd.8 >X7X7X7X7X<Xb } } o & + + + + + + & o o o o o o & o & &   * .X%X%XJ.J.J.J.H.H.H.G.G.J.j c Z.a O O       X & - - > , , > > > , > g a > > > a > a > , : ..} n 7 >X3X7X5X3X3X3X3X3Xc.g.3Xg.j.t & , a a , a a a , a a a a a s s s < s j j l l b l l l l p p M 1.q 1.:.>.>.>.>.>.>.>.>.p 1.>.v.v.v.v.v.v.v.v.>.q + - C.NXNXNXBXBXBXNXNXNXNXNXNXNXNXNXMXMXNXNXMXMXMXNXMXMXnXMXMXMXMXMXMXMXMXMXMX%Xv DXDXZXSXSXSXAXAXZXZXZXCXCXCXCXDXdXe. XCXdXCX&Xn w.u { u.u._ o._ O.o._ O._ _ _ o.o._ _ ! r M dXSXZXZXCXZXCXZXCXDXdX@Xb OX&X9XdXdXCXCXCXZXCXZXdXU CXZXZXAXAXAXZXZXZXZXCXCXdXdXZX9Xj z nXMX}.}.}.}.}.}.}.}.}.}.{.}.{.L.a J S.G.G.J.J.J.J.J.J.J.J.J.G.J.J.C.G.G.G.S.A.G.G.G.G.G.S.G.G.G.H.G.G.G.G.G.G.G.G.G.A.S.A.A.S.A.S.A.A.G.A.A.V = c d , F XXIXPXLXPXPXPXPXIXSXDXDXDXUX*XI r 2 4 *.Q.Q.Q.Q.Q.Q.Q.Q.Q.Q.Q.@.Q.Q.Q.Q.Q.Q.Q.Q.Q.Q.Q.Q.Q.Q.Q.Q.Q.Q.Q.Q.!.Q.Q.Q.Q.+.+.+.@.@.!.!.+.+.+.+.W.!.W.W.",
"7X7X7X7X7XgX7XgX7X7X7X7X7X7X7X7X7X7X7X7X7X2Xm 6X7X3X7X3X3X7X3X5X7X7X3X7X3X3X3X3Xg.3X3X,Xg.3Xg.3Xg.3Xg.g.g.j.5 0 6 E Y *.' &.T m 3X3X3X3X7X{ [ 7X7X3X7X7X] m oX} @ & + + o + + + o o o o o + o + o o +   d $X*X$X#XJ.J.J.J.D.G.Z.G.J.c c Z.d & & & o X   X . X - > > g > , , > , g > a > a g g > - d } [ : { 3X7X3X<X7X3X3Xc.g.,X3Xg.g.t & , , a , a > , , a a a a a a a < s s j j l l q l q l b M l M M M q :.:.1.>.>.>.>.>.>.q.p p 1.v.v.v.v.v.v.v.1.q O j %XNXNXBXBXNXNXNXNXNXNXNXMXNXNXMXNXNXNXMXMXMXMXMXnXMXMXNXNXMXNXMXMXMXMXMXMXNX{.b DXZXSXZXSXZXAXAXAXSXZXZXZXCXCXDXCX&XI dXCXdXCX X] q.u _ O.o.u._ o.8.8.o.o._ _ _ _ _ ] t N 9XZXZXZXZXZXCXCXCXCXDX9X+Xb } &X&XdXdXCXdXCXCXZXZXdXL CXAXAXAXAXZXSXZXZXZXZXZXZXZX&XK v K MX}.}.}.{.}.}.}.}.}.}.}.{.[.g - S J.J.G.G.G.G.J.J.J.'.J.J.J.J.J.J.G.Z.G.G.G.G.G.G.S.G.G.G.G.G.S.S.G.G.G.G.G.G.G.G.G.A.A.A.A.A.G.S.A.A.A.A.L V @ $ A &XPXLXLXPXPXPXIXIXSXDXDXdXXXG s : > $ h +.Q.Q.Q.Q.Q.Q.Q.Q.Q.Q.Q.Q.Q.Q.Q.Q.Q.Q.Q.Q.Q.Q.Q.Q.Q.Q.Q.Q.Q.Q.Q.W.Q.Q.Q.Q.Q.Q.Q.+.+.!.@.@.+.+.W.+.+.+.+.W.+.",
"7X7X7X7X7X7X7X7X7X7X7X7X7X7X7X3X3X7X7X5X7Xr.[ 7X7X7X7X7X7X3X3X7X3X3X3X3X3X3X3Xg.3X3Xc.3X,Xg.g.g.g.g.g.c.g.{ $ 6 6 6 T T R &.T { 5X3X3X7X3X[ -X7X3X7X7Xs.n  .} OX2 o + & + + + o o o o o o o o + + + o   k %X*X#X'.'.J.J.J.G.G.G.D.J.k d A.x + & & * & & X   .   . X - - , , , > > > > > > a > a & m } 8 9 2X3X7X7X3X3X3X3X,X3Xj.g.h.t : , , , a a , a a , a a a a < a a s a a s s j q l b l l q q M p M p q M :.>.>.>.>.>.>.>.>.>.1.p p 1.v.1.v.>.p 3 3 A.mXNXBXNXBXNXBXNXNXNXNXNXNXNXNXNXMXNXMXMXNXNXMXNXMXNXMXMXMXMXNXMXMXNXMXMXMXNXMX{.c DXDXZXSXAXAXAXZXZXZXZXZXCXCXCXdXDXdXI XXCXCXdXdXI w.! W 8.u.u.O.8.O.8.O._ o.o.8.s.{ N } DXSXSXSXZXZXCXZXCXCXCXdXdX&XI r +X&XdXdXdXZXCXCXCXZX&XI CXZXSXAXSXZXZXZXZXCXZXCXXXI G XXXXF }.{.}.{.{.{.}.{.}.}.}.[.k & d S.G.H.H.G.S.S.G.J.J.J.J.J.J.J.J.G.H.G.G.G.G.G.G.S.G.S.G.G.G.S.S.G.S.G.G.Z.S.H.G.G.G.G.G.A.S.A.A.A.A.A.A.G x 1 1 D *XGXLXPXPXPXPXIXZXDXDX9X*XH.b : d 1 : I U 8 ../.Q.Q.Q.Q.Q.Q.Q.Q.Q.Q.Q.Q.Q.Q.Q.Q.Q.Q.Q.Q.Q.Q.Q.Q.Q.Q...Q.Q.Q.Q.Q.Q.Q.Q.Q.Q.Q.Q.Q.!.@.+.+.!.!.!.+.+.+.W.W.",
"7X7X7X7X7X7X7X7X7X7X7X7X7X7X7X7X7X7X7X5X7X[ f.7X3X7X3X3X7X5X7X3X7X3X3X3X3X3Xg.3Xg.3Xg.g.3Xg.3Xg.g.3Xg.c.g.9 0 6 0 6 T T Q R 9 d.7X3X7X3X3Xf.7X3X3X5X-Xm } OXe.OXj X & & + + o O o o & o o o + o X + X   S *X*X#XY.'.J.J.J.G.J.G.G.J.c f L v + & & & & & & & X X     . X + - > > a > g a > > g > > } m % f.3X7X<X3X7X3X3X3X3Xg.c.g.' $ > , a , , , a , a , , a , a < a < a a a s < j l l l q l M l p M 1.M q :.:.>.>.>.>.>.>.>.>.>.>.1.q 2 w 4 w 2 = x bXVXBXBXBXBXBXBXBXBXBXBXNXNXNXNXNXNXNXNXMXNXMXMXNXMXMXNXMXNXMXMXMXNXMXMXnXMXMXmXmX{.z DXIXZXSXAXAXAXAXAXZXZXCXCXCXCXCXdXDX+XI dXdXDXCX&XN w.[ W { O.u._ u.O._ u._ o.w.q.N XXCXSXSXSXSXZXCXCXCXCXCXCXdX9X&XoX1  X&X9XdXdXdXCXCXZXZXdXI CXZXZXSXSXZXZXZXZXZXCXdX&X&XdXDXXXz }.{.{.{.{.{.{.{.{.[.z o * S G.S.G.H.G.H.J.G.H.G.J.J.J.J.J.J.J.J.J.H.H.S.G.G.G.G.S.G.G.G.S.J.G.S.G.S.G.J.G.G.G.G.G.S.G.G.G.A.S.S.A.Z d , j I &XPXPXPXPXPXIXIXDXDXDX&X#Xv < : : & P '.c d H.G 8 ..Q.Q.Q.Q.Q.Q.Q.Q.Q.Q.Q.Q.Q.Q.Q.Q.Q.Q.Q.Q.Q.Q.Q.&.Q.Q.Q.Q.Q.Q.W.Q.!.Q.Q.Q.Q.@.W.Q.@.+.+.+.+.!.+.+.+.W.W.+.",
"7X7X7X7X7X7X7X7X3X7X7X3X7X3X7X7X3X7X7X3X2X[ 3X7X3X5X7X3X3X3X3X7X3X3X3Xg.3Xg.3X3Xg.g.g.3Xc.c.g.3Xg.3Xg.g.$.$ 6 0 0 6 E R Q *.m 2X3X7X3X7X7X3X3X7X7X,Xm } e.oX .OXU . @ & o o o & o X o o X + + + X + . . G.nX%X.X#XJ.J.J.J.J.G.G.D.J.c a S.B X & & & & + & & & & & & X X     X & - > , > > > > * d } 2 m 3X3X7X3X3X7X3X3Xg.3Xj.g...a & > > a a > , a a , a a a > , a a a a a a s < j j q l l p l M p M M 1.q :.:.>.>.:.>.>.>.>.>.>.q.>.1.p p p % l [.NXBXNXNXBXBXBXBXBXNXBXNXBXNXNXNXNXNXNXMXNXNXnXMXNXMXMXMXNXMXNXMXMXNXMXNXMXMXMXMXMXNX%Xv DXZXZXZXSXSXAXAXZXAXZXZXCXCXCXCXdXdXCXe. XDXDXCXCX&XN q.q.i ~ o.o.8.u.8.~ { w.N e.&XCXSXAXAXAXZXZXZXCXCXCXCXdXdX9X&X+Xn N &X&XdXdXDXDXCXZXZX9XI CXAXSXZXZXZXZXZXZXCXCXCXCXZXDXdX.Xz {.{.[.{.{.}.{.L.z & & V G.G.G.G.G.G.G.G.J.J.,.].G.H.`.J.'.'.H.J.H.H.H.G.S.G.G.S.S.G.A.G.S.G.G.A.S.G.G.G.G.G.G.G.G.G.S.G.G.S.L x < > B #XSXPXPXPXPXIXIXIXZXDX&X*XI 1 > 1 V P P 1 1 H.H.b c `.A 8 *.Q.Q.Q.Q.Q.Q.Q.Q.Q.Q.Q.Q.Q.Q.Q.Q.Q.Q.Q.Q.Q.Q.Q.Q.Q.Q.Q.Q.Q.Q.Q.Q.Q.Q.Q.!.Q.!.+.+.@.!.+.+.+.!.W.+.!.W.+.",
"7X7X7X7X3X7X7X7X7X7X7X7X7X7X7X3X7X3X5X7Xf.| 7X3X7X3X3X3X3X3X3X3X3X3X3X3Xg.3Xg.g.g.3Xg.g.g.g.g.g.g.g.g.3Xm 0 E 6 4 6 Y T *.R ' 3X3X3X3X3X3X7X3X3X3X[ n  Xt.oXOXOX} @ & & & + o o o & o o + o X + + X   & Y.*X%XY.J.#XJ.J.J.H.H.H.G.J.B 1 L A & & + & + & & + + & & & - & + X   .   o & > , a > & m m % f.7X7X3X7X7X3X3X3X,Xg.j.o.8 f - a > g > a , , , a a > > a a , a , a a a < s j s j j l l b q M M p p q M :.:.>.:.>.>.>.>.>.>.>.>.>.>.>.M p ,.BXNXBXNXNXBXBXBXNXBXBXNXBXNXBXNXBXNXNXNXNXNXMXNXNXNXNXNXNXnXNXMXNXNXMXMXNXMXMXMXMXMXMX{.b DXZXZXIXZXSXAXAXAXZXZXZXCXCXdXCXdXCXdX9XG &XCXDXCXCX9XI [ w.! ! u W W [ q.[ I +XCXSXAXAXAXAXAXAXZXZXCXZXCXDXdXdX9X&X+XI 1 +X&X9XdXdXdXCXdXZX9XI DXZXZXZXSXZXZXZXCXZXCXCXCXCXDXdX$Xk [.{.{.{.L.L.g - - x G.'.'.J.J.G.G.G.G.G.H.J.`.].G.H.H.J.J.J.J.J.J.J.H.H.G.G.G.G.G.G.G.G.G.G.G.G.C.G.S.G.G.G.G.G.G.H.H.S.H k > < U &XGXLXPXPXPXIXIXSXDXDX&X.Xv > @ < A P H.`.`.K : b `.H.1 c XXA h Q.Q.Q.Q.Q.Q.Q.Q.Q.Q.Q.Q.Q.Q.Q.Q.Q.Q.Q.&.Q.Q.Q.Q.Q.Q.Q.Q.Q.Q.Q.Q.!.!.Q.Q.Q.@.Q.Q.+.@.+.!.+.!.!.+.!.!.W.",
"7X7X7X3X7X7X7X3X7X5X3X7X7X5X7X3X3X7X7X3Xf.f.7X5X3X7X3X5X3X3X3X3X3Xc.g.c.3Xg.c.g.3Xg.g.g.g.g.g.g.g.g.g.d.% T R 6 0 E Y T R 9 | 3X3X7X7X3X3X3X3X5X| n }  .t.e.oXOXOX8 + & & & o o & + + o X o o o X o . , #X*X%X'.J.'.'.J.J.H.H.H.H.J.V < L S & & & + & & o & & & & & & & & * & + .     . & - * > m $ m 3X7X7X7X7X7X3X3X3Xg.g.g.e m 2 > > a > a > , , a , a > a a a a a a , a < s j q j j j q l q q M p M M q M :.:.:.:.>.>.:.>.>.>.>.>.>.>.>.>.M C NXNXNXNXNXNXNXBXBXBXBXBXNXNXBXNXNXNXNXNXNXMXNXMXNXnXNXNXMXNXMXNXnXMXMXMXMXNXMXMXMXMXNXbXb DXZXZXSXSXSXAXAXAXZXZXZXZXCXCXdXDXDXdXDX XI 9XCXCXCXZXCX XN N i i i N q.e.@XDXAXAXAXSXAXAXAXAXAXZXZXZXCXCXdXdXdX9X+X+XXX7  X&X9XdXdXdXCXCXCX9XI CXZXZXSXZXZXZXCXCXCXCXCXCXDXDXnX].: z L.g - o X o o S '.'.'.'.'.J.J.H.G.G.G.G.`.].].].P H.`.`.`.`.`.`.`.H.H.H.G.G.G.G.G.G.S.S.G.G.S.G.S.S.G.G.G.G.G.G.A.Z f : b I DXPXLXLXPXPXIXSXSXSXDX%XI 1 = , b c ; K G.G.`.`.`.A = v .XP 1 A .XB h ..Q.Q.Q.Q.Q.Q.Q.Q.Q.Q.Q.@.@.Q.Q.Q.Q.Q.Q.Q.Q.Q.Q.Q.Q.Q.W.Q.Q.!.Q.Q.Q.!.Q.@.!.!.@.!.@.+.+.!.!.+.+.W.!.",
"3X3X7X7X7X3X7X7X7X7X3X7X3X7X3X7X3X3X7X3X,X3X3X3X3X3X3X3X3X3X3X3Xg.,X3Xg.g.g.g.g.g.g.g.g.g.g.g.g.g.g.g.y 6 *.*.6 % E Y T R 9 f.7X3X3X3X3X3X3X3Xj.t [ }  .oXoX .OX@XU o & & & & & & + + + X + + o X X   B *XbX%X'.#X#XJ.'.J.J.H.D.G.J.A , L D & o o + o + & o & o & & & & & & * & & + X     . . 1 : 2 >X7X3X3X7X3X3X3X3X,Xg.g.' t N : > a g > g > , , , , > a a > , g , , a a a s s s < j l l l l l l p M p q :.:.:.:.:.>.>.>.>.>.>.>.v.>.>.>.>.:.< nXNXNXNXNXNXNXNXNXBXBXBXNXBXBXBXNXNXNXNXNXNXNXNXNXNXNXMXNXNXNXNXNXMXNXNXMXMXMXMXMXMXNX{.V DXBXZXZXSXSXAXZXAXSXZXZXCXCXCXDXDXDXdXDXdX} e.CXCXCXCXZXZXdXXXe.} I XX&XCXZXAXAXAXAXAXAXAXAXAXAXZXZXZXZXCXdXdXdX9X&XOX@Xb I +X&X9XdXDXCXdXZX9XI DXZXZXZXSXZXCXZXCXCXZXdXdXDXDXdXH.O - & g g k L.k o * D .X.X'.#XJ.J.H.H.H.G.`.,.,.].].`.`.G.'.`.].].].`.`.H.H.S.S.G.G.A.G.G.G.A.G.G.G.G.G.S.S.S.G.S.A a : V %XZXLXLXPXPXIXSXBXDXdX&X`.b : + : v H J J d < J G.H.H.`.`.v : G .XP < G R.h 0 Q.Q.Q.Q.Q.Q.Q.Q.Q.Q.Q.Q.Q.Q.Q.Q.Q.Q.Q.Q.Q.Q.Q.Q.Q.Q.Q.Q.Q.Q.Q.!.Q.Q.Q.Q.@.@.@.!.@.+.+.+.!.!.+.W.!.",
"7X3X3X7X3X7X3X7X3X3X3X7X3X3X7X3X7X3X3X7X3X3X3X3X3X3X3Xg.3X3Xg.3X3Xg.g.g.c.g.,Xg.g.g.g.g.g.g.g.g.g.c.$.% Q Q R Y 0 6 E *.Y h 2X3X3X3X3X3X3X3X3X' 7  .} t. .t.} OX;X X: & - & & & & + + + o o + o X O O S.*X*X#X#X'.'.'.J.J.J.H.J.G.J.A , S.D & X o & o o o & o & o & & & & & & & & & & & +   . : @ | 3X7X7X7X3X3X3X3X3X3Xg.{ 8 q.r * , , g a > a a g > > a a a > a , a a < a q s s < s j j j l l l p M p M q :.:.:.:.:.>.>.>.>.>.>.>.>.>.>.>.>.>.q [.NXNXMXNXNXNXNXNXBXBXNXBXBXNXNXNXNXNXNXNXUXNXNXNXNXNXNXNXNXMXMXNXMXNXnXNXMXMXMXMXMXMX}.A DXDXIXZXSXSXZXSXAXZXZXZXCXCXCXCXCXqXCXdXdXdXI oXCXZXZXZXZXSXZXSXZXZXZXSXSXAXAXAXAXAXSXAXAXAXAXAXZXZXZXCXCXdXdX9X&X&X+X+XI c +X&X&XdXdXCXCXCX&XI CXZXZXZXZXZXZXZXZXdXdXZXdXCXDXnXP , D D D S.S.D Z.f # & U '.'.#X#X'.J.J.J.H.].,.,.].,.XX].`.`.].].,.].].].`.J.G.G.G.G.G.G.G.S.G.A.A.G.A.G.A.C.J c > f G.&XPXLXLXPXPXIXIXZXDX&X.XV 1 = , x B > v J J L J < j P G.`.`.`.`.j : P XXG 2 B.Y.b h +.@.Q.Q.Q.Q.Q.Q.Q.Q.Q.Q.Q.Q.Q.Q.Q.Q.Q.Q.Q.Q.Q.Q.Q.Q.Q.Q.Q.Q.Q.Q.!.Q.+.+.Q.+.@.!.@.!.!.!.+.+.+.W.",
"3X7X7X3X7X3X7X3X3X7X7X3X3X7X3X5X3X3X3X3X3X3X3X3X3X3X3X3X3Xg.3X3X3Xg.3Xg.g.g.g.g.g.g.g.g.g.g.g.g.g.g.9 9 / &.*.T 0 E Y Y Y 9 j.3X3X3X3X3X3X3X,X' : { } }  XOXOXOXOX+Xb O & - & - & & & & & o + + + O & '.*X*X#X#X#X'.'.'.J.J.J.G.G.J.S : S S.> X o o o o o o o o & & & & o & & o & & & & & O + # m <X3X7X7X3X3X7X3X3Xg.g.i.e N :.3 : , - > > > > > > a a > g > a , g , a a a a s s s < j q j l q l l l p p q M M :.:.:.>.:.>.>.>.>.>.v.>.>.>.>.>.p K MXMXMXMXNXNXNXNXNXNXNXNXNXNXNXNXNXNXNXNXNXNXNXNXNXNXNXNXNXNXMXNXNXMXNXMXMXNXMXMXNXMXbXV DXZXZXZXSXZXSXSXAXAXZXZXZXZXCXCXCXdXdXCXdXZX&XN XXDXCXZXZXZXSXZXAXAXSXSXAXAXAXAXAXAXAXAXAXAXAXAXAXZXZXCXCXdXDX9X9X&X+X+XoX2  X&X9X9XdXdXdXdX&XI CXCXZXZXZXZXZXFXdXZXCXdXdXCXDXDXI a B.H D H B.S D D k o & H J.'.'.#X#XJ.`.H.].,.>.].,.,.].,.`.,.>.y.>.y.].].G.G.H.S.S.G.A.G.G.G.G.G.G.G.A.Z c 2 $ d DXPXLXLXPXIXPXIXSXDX%XS 1 = : d Z A.A.A.d , A K K J C : v G.P P H.`.G.1 < H..XA a G.`.b 9 +.Q.Q.Q.Q.Q.Q.Q.Q.@.@.Q.Q.Q.Q.Q.Q.Q.Q.Q.Q.&.Q.Q.Q.Q.Q.!.Q.Q.Q.!.!.Q.@.!.@.@.!.+.+.+.!.!.+.+.+.",
"3X3X7X7X3X7X3X7X3X3X3X7X3X3X3Xd.3X3X3X3X3X3X3Xf.j.c.3Xc.3X3Xg.g.g.3Xg.g.g.g.g.g.g.g.g.g.g.g.g.g.g. .4 Q &.&.R T 4 E T T Y m 3X3X3X3X,X3Xg.3Xc.| % '  .}  .t.OX;XOX;X} o & - & & - & & & & & & + & . , %X*X%X#X#X.XY..XJ.'.J.J.H.G.'.S = S S.f X o o o & o o o o o o o & & & & & o & & & + . . % l.7X7X3X3X7X7X3X3X3Xg.g.' t q.M - - - - > > > > > g a > a > > a g , a - , a < a < s j j j j l l l l M M 1.q 1.:.:.:.:.:.>.>.>.>.>.>.>.>.>.>.>.>.:.q {.MXMXMXMXMXNXNXNXNXNXNXBXBXBXNXNXBXBXBXNXNXNXNXNXNXNXNXNXnXNXNXNXNXMXNXMXMXMXMXMXMXbXb DXSXIXIXZXSXSXZXSXZXAXZXZXCXCXCXCXCXCXdXCXdXCX&XI XXdXZXSXZXZXZXSXAXZXSXSXAXSXAXAXGXAXAXAXAXAXAXAXZXZXCXCXCXdX9X9X9X&XXX+Xb n &X9XdXdXdXdXCX&XU CXCXZXZXZXZXZXCXZXdXdXZXZXdXDXdXG d D D D D D S.S.D D d o & B.Y.'.'.#X'.'.].].>.].>.>.,.XX].].].>.v.>.].,.].J.J.G.J.G.G.G.G.S.G.G.A.A.D c r i w.N I PXPXPXIXIXSXZX&XXXb > & s V L G.A.A.A.G.J : j H J J J c : G G.`.G.`.'.P : j `..XB < J.`.d h @.Q.Q.Q.Q.Q.Q.Q.@.@.&.Q.Q.Q.Q.Q.Q.Q.Q.Q.Q.Q.Q.Q.Q.Q.Q.Q.!.!.Q.!.!.@.@.@.Q.@.!.+.!.!.!.W.+.+.",
"7X3X3X3X3X5X3X3X7X3X3X3X3X3X5X{ { 3X3X3X3X3Xg.9 $.c.g.3Xg.g.3Xg.g.g.g.g.g.g.g.g.g.g.g.g.g.%.g.g.j.9 6 &.Q Q R T 0 6 T *.E ..3X,Xg.3X3Xg.3X3Xg.{ @ n } } } e.OXOXOX+X Xa & & - & & & & & & o & & & . B *X*X%X#X#X.X#X.X.X.X'.J.J.J.Y.D = B.S.f X X o o o o o o o o + o o + o o & & & o & X     { 3X7X7X5X7X6X3X3X3Xj.g.u.7 ! q.1 * < - , > a g > > a g > > a g > a - a a s - a < s a s q q j l l l p q M M q :.:.:.>.:.>.>.>.>.>.>.>.>.>.>.>.>.>.>.r F MXMXMXMXMXMXNXMXNXNXNXNXNXNXBXNXNXNXNXNXBXNXNXNXNXNXNXNXNXNXMXMXNXNXMXMXMXMXNXMXNXbXb dXDXZXZXSXSXSXSXSXZXZXZXZXZXCXCXCXdXdXCXdXCXDXCXCX+Xe.XX&XZXSXAXAXSXSXSXAXAXAXAXAXAXAXAXAXAXAXAXAXZXZXCXCXdXdX9X&X&X+X+X+X} 1 @X&X9X9XdXdXDX&XI CXZXCXZXZXZXZXCXZXdXCXdXZXdXDXdXI d D L B.D D D D D L D k + + F '.'..X'.XX].].>.>.>.v.y.,.].>.>.:.<.>.v.,.`.'.J.H.H.H.G.S.A.G.G.A.S j r ! w.a.M.t.I IXIXSXZXUX%XG 1 * < c H S.A.S.A.A.A.A.A.S.x * v G G J G j < P G.G.H.`.`.G = b .X'.c d .XH.1 ' @.Q.Q.Q.Q.Q.@.Q.Q.Q.Q.Q.Q.Q.Q.Q.Q.Q.Q.Q.Q.Q.Q.Q.Q.Q.Q.Q.Q.Q.!.Q.!.!.@.+.+.@.!.!.+.!.+.+.+.",
"7X3X3X3X3X3X3X3X3X3X3X3X3X3X3Xh.r $.3X3Xc.c.{ % h.g.3Xg.g.c.g.g.g.g.g.g.g.g.i.g.g.g.g.%.g.g.g.g.' 0 &.&.&.*.R R 0 6 T R Y { 3X3X3X3Xc.g.j.j.' 4 % 7 } } [ } OXOXOX;X@Xm = & & * & & & & & & & & o o S.*X*X#X#X#XXX.X.X.XY.'.J.J.J.J.G.* Z A.c O X O o . o o o o o + o + o & & + + + & X     8 2X7X7X7X3X7X7X3X3Xj.g.g.W r q.q.+ * - , - > , > , , > > , , > g , , g < , a , < s < a d j s j q q p b q M p q M :.:.:.:.:.>.>.>.>.v.>.>.>.>.>.>.>.>.:.1 {.}.MX}.MXMXMXMXNXNXNXNXNXNXNXNXNXBXNXNXBXNXBXNXBXNXNXNXNXNXMXNXNXMXNXMXNXNXMXMXNXmXl &XZXSXAXAXAXAXAXAXAXAXZXZXZXZXCXCXCXCXCXDXCXCXCXCXZXDX9X9XCXZXAXAXAXAXAXAXAXAXAXAXAXAXAXAXAXAXAXAXZXZXCXCXCXdXdX9X&X+X+X+XXXq } &X9X9XDXdXDX+XI ZXZXZXZXZXZXCXCXCXUXZXCXCXDXDXdXG f D D D H H B.D D D D H x + + A J.Y.#X'.].].v.>.1.1.:.,.].>.>.M -.=.1.v.].].'.'.J.H.G.S.G.S.Z c t q.k.M.M.M.M.x.t &X&X%XI b : , c Z S.G.S.A.A.S.A.A.A.A.S.A.A.s < G H H J G < j P G.`.`.`.'.A 3 v XX`.j c .XH.d ' @.Q.Q.@.@.@.@.@.Q.Q.Q.Q.@.@.@.@.+.+.Q.Q.Q.Q.Q.Q.Q.Q.Q.Q.Q.Q.@.!.Q.@.+.+.+.+.+.!.+.+.+.+.",
"3X3X3X3X3X3X3X3X3X3X3X3X3X3Xc.3X[ 8 d.j.j.{ $ ' c.3Xg.3X3Xc.g.c.g.g.g.g.g.i.%.g.g.g.i.g.g.g.g.u.% *.^ &.^ R T T 0 6 T E W h.3Xg.,Xg.g.3Xd.9 5 &.9 @ m } } } oX;XOX@X+Xe.2 & * & & * & * & & & & & & D.*X*X%X$X#X#X#X.X.X'.'.'.J.H.'.D.= Z L v o . O o . o . . X o o X o X X o o o o o     @ f.7X7X5X3X7X3X3X3X3Xc.g...4 I q.r + - - g - > > > > > , g > > a > a , < , g , a s < s q j < j j l l l l l M M 2 :.:.:.:.>.>.>.>.:.>.>.>.>.>.>.>.>.>.>.>.p z MX}.MX|.MXMXMXNXMXNXNXNXNXNXNXNXNXNXNXBXBXNXBXNXNXNXNXNXNXNXNXMXNXNXMXMXMXMXMXMXmXz &XZXAXAXAXAXAXAXAXAXAXZXZXZXCXCXCXCXCXdXCXCXCXCXCXCXZXZXZXAXAXZXAXAXAXAXAXAXAXAXAXAXAXAXAXAXAXAXAXAXZXZXZXdXdXdX&X9X+X+X+X&XN b &X&XdX9XdXdXXXe.CXCXZXZXZXZXZXZXCXCXCXDXDXCXDXDXI a L D H D D H D D B.D H H c @ @ x J.'.].y.>.>.<.q p q :.,.>.v.p >.1.p q.>.].'.Y.J.H.G.S.S b ] t.M.M.M.M.M.c.a.w.r c j < < d A S.G.H.G.G.A.A.S.A.G.A.A.S.A.A.A.H * j K Z G G C > v G.G.G.`.`.`.v : G .XH.1 v .XD.8 *.Q.Q.Q.@.Q.@.@.Q.Q.Q.Q.@.@.@.Q.+.Q.Q.Q.!.Q.!.Q.!.Q.!.Q.!.!.Q.@.+.!.@.Q.+.+.!.!.W.+.+.+.",
"3X3X3X3X3X3X3X3X3X3X3X3X3X3X3X3Xg.9 % 8 8 $ ' j.g.c.g.g.g.g.g.g.g.g.g.g.g.g.g.g.O.g.g.i.g.g.g.9 0 &.*.^ *.R R E 0 6 0 y d.c.3X,X3Xg.,Xd.5 9 &.X.T # n } }  .t.oXOX;X;XOXn & & & * & & * & - & & & - J.nX*X$X$X#X#X#X#X.X#X'.J.J.J.J.J.: A G.V + X . O O X o o o X o o o o X o & o X X     ] 7X7X7X7X7X7X5X3X3Xg.g.&.% M :.:.$   & - > > > g g - > , > , > , > a , a - < a g , a a q q s j q l l l p l p p q 1.:.:.:.>.>.>.>.>.>.>.>.>.>.>.>.>.>.>.>.:.q [.}.}.|.MXMXMXMXMXMXMXMXNXMXNXNXNXNXNXBXNXBXNXBXNXBXNXNXNXNXNXNXNXMXMXMXMXMXMXNXMXv &XZXAXAXAXAXAXAXAXAXAXZXZXZXZXCXCXCXdXCXCXCXCXCXCXZXZXZXZXZXZXAXAXAXAXAXAXAXAXAXGXAXAXAXAXAXAXAXAXZXZXZXCXCXdX9X&X&X&X@X+X+XoX1  X&X9X9XDXdXXX XCXCXCXZXZXCXCXZXDXCXCXdXCXCXCXDXI d S D D D D D D D D H D D D x & # l ].].].v.:.M v.v.-.p ,.>.>.<.v.1.1.p ,.'.J.J.L c j V } z.M.M.M.M.M.M.p.w.i u ; * d C J G.G.G.G.G.G.G.A.A.A.A.G.A.A.A.A.A.A.A.k * V G G J J l - A G.G.`.`.'.`.b : P .XP < G .XP f ..Q.@.@.Q.Q.Q.Q.Q.Q.Q.@.@.@.@.@.@.Q.W.Q.Q.Q.!.Q.Q.!.Q.Q.Q.Q.+.+.@.+.@.!.+.!.+.W.+.+.+.",
"3X3X3X3X3X3X3X3X3X3X3Xg.3Xc.3Xg.c.f.W 8 8 { g.3X3Xg.3Xg.c.g.g.g.g.g.g.g.g.g.g.i.g.g.g.g.g.g.{ % *.^ ^ R R Y Y Y 0 $ ' j.3Xj.g.3Xg.g.u.9 Q @.&.@...$ 8 { } }  .oXOXOX+XOX} : & * - & * & & & & & & a %X*X*X$X%X$X#X$X#X.X#X'.#XJ.J.J.'.> V Z.S @ O O O O X X o . X X X X o o o o o .     4 6X7X3X7X3X3X3X3X3X3X,Xu.5 e q.q.r       o * - > > > - , > , > > > g > < < a , , < a < a < j s j s q j q l l M q q M :.:.:.1.:.>.>.>.1.>.>.>.>.>.>.>.>.>.>.>.M a {.}.}.}.}.}.MXMXMXMXMXMXMXMXNXNXNXNXNXBXNXBXBXNXNXNXNXNXNXMXNXNXNXNXMXMXNXMXNXMXF *XSXAXAXAXAXAXAXAXAXAXAXAXZXZXZXZXCXCXCXCXCXCXqXAXUXCXZXZXZXZXAXAXAXAXAXAXAXAXAXAXAXAXGXAXAXAXAXAXZXZXZXZXdXdXdXdX9X&X&X+X+X+Xb I 9X9XdXdXdX XXXCXCXZXZXZXZXZXDXZXCXCXCXCXCXCXCXG d D D D D B.D D J D D D B.D D x & + l ].y.>.p >.b.v.>.p :.].>.:.v.1.>.=.1.,.D d > @ i k.M.M.N.M.z.a.p.! r 2 % j v Z A.S.A.G.G.Z.G.G.G.G.G.G.A.S.S.A.A.G.A.A.A.A.L < s F G G J J j : J H.,.`.`.`.P 1 1 `.XXJ 2 K $XU 8 ..Q.Q.Q.@.@.Q.Q.Q.Q.Q.Q.+.+.@.@.!.Q.Q.!.Q.Q.Q.Q.Q.Q.Q.!.@.!.@.!.@.+.+.!.!.!.W.+.+.+.",
"3X3X3X3X3X3X3X3X3X3X,Xc.g.3X3X3Xc.3Xg.3Xg.3Xg.g.g.g.g.3Xg.g.g.g.g.g.g.g.i.g.g.%.g.g.g.i.g.%.0 6 ^ *.R R Y Y Y E $ ' j.3Xg.3Xg.g.g.j.W &.&.o.&.X.&.4 2 [ } e.t.oXOXOXOX@XOX8 = * & & & & - & & & & k *X*X*X%X#X#X$X#X#X#X.X.X.X'.J.'.J.< B G.D & . X X X X X o X X . . X X X o o o .   # r.7X7X7X7X7X3X7X3X3Xg.g.t % [ q.q.@ o +       X + * - - > > g > > > , , < < , g , a < a s < < j j q l q l l p M M q M :.:.:.>.>.>.:.>.>.1.>.>.>.>.1.p p :.>.>.>.q l {.{.}.}.}.}.|.MXMXMXMXMXNXMXNXNXNXNXNXNXBXNXNXNXNXNXNXNXNXMXMXNXMXNXMXMXNXMXNXJ %XZXAXAXAXAXAXAXAXAXAXAXZXZXZXCXZXCXCXCXCXCXCXCXZXZXZXZXZXZXAXAXAXAXGXAXAXAXAXAXAXAXAXAXAXAXAXAXAXAXZXZXCXCXdXdX9X&X&X+X@X&X&Xe.d +X9X9XdXdX XXXCXCXZXZXZXZXZXZXZXCXCXCXCXCXCXZXN d D D D D D D D D D D D H D H H B & @ v >.>.p v.>.M v.<.M >.>.<.b.p 1.<.r 1 = = 1 2 w.M.a.M.a.p.q.u % : < c D L A.A.A.A.A.S.A.A.G.G.G.G.G.G.S.S.C.A.S.A.A.S.G.A.S.Z > c Z F H J G 1 < P G.H.`.`.'.G.: c '..XG < P #XD 1 ..Q.Q.Q.Q.Q.Q.Q.&.Q.+.+.+.Q.@.Q.Q.Q.!.Q.!.!.Q.Q.Q.!.!.@.@.@.+.+.@.!.+.+.!.W.!.+.+.",
"3Xg.,X3X3X3Xg.3Xg.3X3Xg.3X3Xg.3Xg.c.3Xg.g.3X3Xg.g.c.g.g.g.g.g.g.g.g.g.g.%.g.g.i.g.g.%.g.g.' 0 R *.R R Y Y Y E 0 ' 3X3Xc.3Xg.g.3Xh.W *.X.&.&.X.&.^ 9 $ m }  .}  .e. .OX;X+X} : & & - & - - & - & & Z *X*X*X#X$X%X$X$X$X.X#X#X.X'.J.J..X1 c Z.D : X X X o o X X X X X X . X X X o X     N 7X7X7X7X3X7X3X3X3X3Xj.&.@ n [ q.b X & & & X         X & > - - > , , > , , , , , < < < < < s a s s s j q l p l l p q 1.:.:.>.:.1.>.>.>.:.>.>.>.>.1.q % q q :.>.>.>.q z {.}.{.{.}.}.}.}.MXMXMXMXMXNXMXMXNXNXNXNXNXNXNXNXNXNXNXNXNXNXNXNXMXNXMXMXNXNXC.XXIXAXAXAXAXAXAXAXAXAXZXAXAXAXCXZXCXZXCXCXCXCXZXZXCXCXZXAXZXAXAXAXAXAXAXAXAXSXAXAXAXAXAXAXAXAXAXAXAXAXZXZXCXCX9X9X9X&X&X&X+X+X@Xr XXdX9XdXdX,. XCXCXZXZXZXZXZXZXCXDXCXCXCXCXCXCXG k S D D D D D D D S D D D D D D H B @ @ p :.p b.p w >.v.l >.y.;.b.p q w # : 1 1 1 1 w.z.p.w.] r : , c Z A.G.Z.A.G.G.A.A.A.G.G.G.A.G.G.G.S.G.S.G.A.A.G.A.A.A.A.A.A.S.j : C G G G J G < j G.G.H.`.`.`.G : G .XXXv 1 H.#XZ 8 ..Q.Q.Q.Q.Q.Q.Q.Q.Q.Q.Q.@.@.+.Q.Q.Q.Q.Q.Q.Q.Q.Q.Q.@.@.Q.+.Q.@.!.+.+.+.!.+.Q.+.+.",
"3X3Xg.3X3Xg.3Xg.g.3X3Xg.3Xg.g.,X3Xg.g.c.c.g.g.3Xg.3Xg.g.g.g.g.g.g.g.g.O.g.i.g.g.g.g.i.g.&.: Y ^ R R R R Y E 4 { ,X3X3Xg.3Xg.g.h.W Q &.&.X.X.@.( &.T $ n }  .} } OX} e.;XOXoX1 @ & & & & & o - & @ U *XnX%X%X%X#X#X$X#X#X#X.X.XY.'.J..Xc c G.L , X X X o o X X X X . . X X X X X     % -X7X7X7X7X7X3X3X3X3Xc.d.% 2 ] q.N $ o & + + & & o         o - - > g > g > , g < < < < g , < < < s q s l l p l p M p q 1.:.1.>.q.>.:.>.>.>.>.>.>.>.q q 1.1.q q >.>.>.:.q z {.{.{.{.{.}.}.MXMX|.MXMXMXNXNXNXNXNXNXNXNXNXNXNXNXNXNXNXMXNXNXMXNXMXNXMXNXC..XSXAXAXAXAXAXAXGXAXAXAXAXZXAXZXZXCXZXCXCXZXCXCXZXCXZXZXZXZXAXAXAXAXAXAXAXAXAXAXAXAXAXZXAXAXAXAXAXAXAXZXCXCXCXdXdX9X&X&X&X+X&X+XN N 9X9X9XdXI XXCXCXCXZXZXZXZXCXCXZXCXCXCXCXZXZXU c S S S S S S S D S D S D D D S H J v @ 3 q p v.p 1.M b.;.<.>.p b.p 3 q p r d 1 1 1 N w.i r : < V L A.A.G.S.A.A.G.S.A.S.S.A.G.A.G.Z.G.S.G.G.G.S.A.A.A.A.A.A.A.A.A.A.J : j F G G J J C : l G.G.`.`.`.'.c : P .X.Xc 1 H.#XA 8 ..Q.Q.Q.Q.Q.Q.Q.Q.Q.Q.@.+.Q.Q.!.Q.!.Q.!.Q.Q.Q.Q.+.@.!.!.@.@.!.+.+.+.!.!.W.+.+.",
"3Xg.3Xc.3Xg.3X3X3X3Xg.3Xg.3Xc.3Xg.g.3Xg.g.3Xg.g.g.g.g.g.g.g.g.g.g.g.g.g.g.i.%.i.g.g.g.O.8 6 ^ *.^ R R Y 0 % { 3X3X3X3X3Xj.j.i.h R &.&.&.&.&.X.&.&.*.% 8 [ } } t. Xt.oXOXOXOX} & & * * & & - & & & J.*X*X%X$X%X%X%X$X$X#X#X#X.X.XJ.J..Xx d Z.L < + + + + X X X X X X X X . . X       { 7X3X7X7X3X7X3X3X3X3Xg.W $ n } q.7 X o + + & + + & & + X   . X o - - , > > , - < , < < < < < s j q s j q j l l q l q q :.:.:.:.>.>.>.>.>.1.>.>.>.p q 1.v.v.1.2 1.>.>.>.:.q L.[.{.{.{.{.}.}.}.MXMXMXMXMXMXMXMXMXNXNXNXNXNXNXNXNXNXNXNXNXNXNXMXNXMXNXNXA.Y.SXZXAXAXAXAXAXAXAXAXAXAXAXZXAXZXZXZXZXZXCXZXCXZXZXZXZXZXAXAXAXAXAXAXAXAXAXAXAXAXSXAXGXAXAXAXAXAXAXAXZXZXZXDXDXdXdX&X&X&X&X&X&XXX1 +XdXdX9Xb OXCXCXZXZXZXZXZXZXZXZXZXZXZXZXZXCXb c D S S S S S S S S S B.D D D H S H J v 3 . p b.=.1.1.v.<.q q ; y.1.p :.p q 2 1 1 : : 2 < k G A.G.A.G.G.S.G.S.G.A.A.G.A.G.S.C.G.A.G.G.H.G.G.G.A.A.A.A.A.A.A.A.A.G.A.A.C = z C G G J P V : v `.`.`.`.`.`.< 1 `..X`.b c .X#XA h ..Q.Q.Q.Q.Q.@.@.+.+.@.+.Q.Q.Q.Q.Q.Q.Q.Q.Q.!.!.Q.@.@.@.@.!.@.+.+.!.+.!.+.W.+.",
"g.3Xg.3Xg.g.3Xg.3Xg.3Xg.3Xg.3Xg.3Xg.g.c.g.g.g.c.g.g.g.g.g.g.g.g.g.g.g.g.%.g.i.%.g.O.g.W 4 R *.^ R R T 0 8 $.3X3X3X3Xg.3Xg.d.9 T &.^ &.&.&.&.&.&.( ^ 0 , ' } }  . XOXOXOXOX .OXr & & & & & & & & = .X*X*X%X%X#X#X%X#X%XR.$X#X.X.X'.J.Y.A 1 G.Z.d + & o o o o X o X o X X X X       b 3X7X7X7X7X3X7X3X3X3Xg.g.4 7 m [ u @ X X X o + + & o + & & + X       X + - - , , , < < , - a < a < s g j j j q l l M p q 1.:.:.>.:.q.>.>.>.>.1.>.1.4 1.v.v.v.1.=.w 1.4.1.>.:.g L.{.{.{.{.{.{.{.|.{.|.|.|.mXMXMXNXNXNXMXNXNXNXNXNXNXNXNXNXNXMXNXMXMXNXNXC.G.SXSXAXAXAXAXAXAXAXAXAXAXAXZXZXZXZXZXZXZXZXZXCXCXZXZXZXZXSXAXAXAXAXAXAXAXAXAXAXAXAXAXAXAXAXAXAXAXAXAXZXZXCXCXDX9X9XdX&X&X&X&X&X&Xb G 9X9X+Xb 9XDXCXCXZXSXSXZXZXZXZXZXCXZXZXZXCXb x S S S S S S S S S S S S D D D D J K ,.p + p b.1.1.p p 3 3 ; p v.>.M 1.r q < 2 = @ + f B.G.J.J.G.A.A.A.A.G.S.S.S.G.S.G.A.A.S.A.G.G.G.G.G.G.S.G.S.S.G.A.S.A.A.A.A.A.A.A.d < C G F K J K c : G G.`.`.`..XI > c ].#X`.q A .XXXC 8 ..Q.Q.Q.Q.Q.Q.Q.Q.!.Q.Q.Q.!.Q.!.Q.Q.Q.Q.@.!.@.Q.+.@.!.@.+.+.!.!.!.+.!.+.+.",
"g.3X3X3X3X3Xg.3Xg.3Xg.3Xg.3Xg.c.3Xg.g.3X,Xg.g.g.g.g.g.g.g.g.g.g.g.i.i.g.i.g.g.i.g.g.o.% T ^ ^ ^ R R 0 9 f.3X3X3X3Xj.3Xg.u.9 T ^ ^ ^ &.&.&.&.^ ^ ^ &.E > m  .} } } t.t.OXOXe.;X} & & - - & & & & , %X*X*X%X%X%X%X%XXX%X%X#X#X.X.X'.J.'.L < G.Z.k & + & o & o + o o X X o X X     $ f.7X6X3X7X7X7X3X3X3X3Xg.' $ m ] m %   X X X o o X o o + & + + & X X       X * - , < < < < < g < a q s q j q q l l q M q q :.:.>.1.>.1.>.>.>.>.>.>.q p v.v.v.v.v.4.5 w >.>.>.>.<.; L.[.[.{.{.{.{.|.|.{.bX|.MXMXMXMXMXMXMXNXNXMXMXNXNXNXNXMXMXNXMXNXNXNXNX[.I SXAXAXAXAXAXAXAXAXAXAXAXZXAXAXAXZXZXZXZXCXCXAXZXZXZXZXZXZXAXAXAXAXAXAXAXAXAXAXAXAXAXAXAXAXAXAXAXAXAXAXZXZXCXCXCXDX9X9X9X9X9X&X9X@X1 XXdXI G CXCXCXZXZXZXZXZXZXZXZXZXZXZXZXZXDXh c S S S S S S S S S S S S S D D S H K K >.p l b.:.; ; 3 ; q p p :.v.w 1.p q 3 # @ a S H.J.J.J.G.S.G.A.A.G.A.G.G.A.G.C.S.A.A.A.A.A.S.S.G.G.A.G.G.A.A.A.A.A.A.G.A.A.A.A.S.J > k Z Z G J J P j < P `.`.`.`.].A : G XX'.I < P $X.XA 8 ..Q.Q.Q.Q.Q.Q.Q.Q.Q.!.Q.Q.Q.Q.Q.Q.!.!.+.@.@.!.@.+.+.@.!.+.+.!.!.W.+.+.+.",
"3Xg.3Xg.3Xg.3Xg.3Xg.g.3X3X3Xg.g.g.g.3Xg.g.3Xc.g.g.g.g.g.g.g.g.g.g.O.g.g.i.g.g.i.h.u.8 6 &.&.^ *.R $ ' g.3X3Xc.3X3X3Xc.d.9 6 R *.^ ^ ^ &.^ ^ *.^ R *.*.4 t } t.}  .} e.oXOXT.;XOXb + & & * & & X d *X*X*X%X#X%X%X$X$X$X$X#X#X#X.X'.J..XL < A.G.x + & o + + + & o o o o X X .     ' 8X7X7X7X7X7X3X7X3X,Xg.o.% r ' ] 7 . X . . . X o o o & o & + + o & & + o       O = < < ; < < , a < q g j < j j q q l b p q :.:.:.>.1.>.>.>.>.>.:.1.q v.v.v.v.v.v.v.1.w p >.>.>.<.,.q z [.}.[.{.{.{.|.{.|.|.mX|.MXnXMXMXMXNXMXNXNXNXMXNXNXMXNXNXNXNXMXMXNX[.A ZXAXAXAXAXAXAXAXAXAXAXAXAXAXAXAXZXZXZXZXZXAXZXZXZXZXZXZXAXZXAXAXAXAXAXAXGXAXAXSXAXAXAXAXAXGXAXAXAXAXZXZXZXCXCX9X9XdX9X&X&X&X9X&XdXI n &Xb oXCXCXCXCXZXZXZXSXSXZXZXZXZXZXZXZXCXc c S S F S F F S S S S S S S S S D H J ,.:.p w b.<.w 1.p r q M p p b.q q ; @ & d G D.J.J.J.G.J.J.S.G.A.A.S.A.A.A.G.A.A.A.A.A.A.A.A.S.G.A.G.G.G.G.A.A.A.G.G.A.A.S.A.A.A.A.S.v , v C Z G J J J < j G.H.`.`.'.`.b : H.$X.XG 1 `.$X.Xv 0 ..Q.Q.Q.Q.+.+.Q.!.Q.Q.Q.Q.Q.Q.Q.!.Q.Q.!.@.@.@.+.Q.+.+.+.+.!.!.Q.+.+.+.",
"g.3Xg.3Xg.3Xg.3Xg.3Xg.g.g.g.g.3Xc.g.g.g.g.g.g.g.g.g.g.g.g.g.g.g.g.g.g.g.%.g.i.%.j.W 0 &.^ ^ ^ T 0 ..,X3Xj.3X3X3X3Xj.j.9 0 R R / ^ *.&.*.^ ^ ^ R R ^ R 6 8 [  .} } } t. Xt.OXOXOX} 2 * & & & & . b *X*X*X%X%X$X#X%X%X$X$X$X$X#X.X'.'.J.H.1 A.G.V & o & + + + + & & o o X X     % >X7X7X7X3X7X7X3X3X3X3Xg.t % m ' n # . X . . X X o o X o o X + X o o o & + + X       @ : , g , < < < < < < j q l l l l p q q M 1.:.:.>.>.>.>.1.>.>.p p v.v.v.v.v.v.v.v.v.p p >.>.:.>.:.q z L.{.{.{.{.[.|.{.bX}.mXMXMXMXMXMXMXMXMXMXMXNXNXNXNXNXMXNXMXNXNXNX%XA CXAXAXAXAXAXAXAXAXAXAXAXAXAXAXZXAXZXAXZXZXZXZXZXZXZXAXAXAXAXAXAXAXAXAXAXAXAXAXAXAXAXAXAXAXAXAXAXAXAXAXAXZXZXCXCXCXdXdXdX9X9X&X&X9X@X1 b n 9XdXCXCXZXZXSXSXZXZXZXZXZXZXZXZXSXCXb B Z Z S S K.B S Z S S Z S S S D D G v q ; 3 p b.>.p >.1.p p p p p v.1.# O p J G.G.H.H.J.J.J.G.G.J.G.A.A.G.G.A.A.A.A.S.G.A.S.G.A.S.G.S.G.G.A.G.A.G.S.A.C.S.A.A.A.A.A.G.A.A.L a 1 C F H H J K G : G `.G.`.`.'.P < j '..X'.k b ].$X.XB h +.Q.+.+.+.Q.Q.!.Q.Q.!.Q.!.Q.~.!.!.@.@.+.+.Q.+.+.+.+.+.+.!.!.+.+.+.+.",
"3Xg.3Xg.g.3Xg.g.3Xg.3X3Xc.g.g.c.g.g.g.c.g.c.g.g.g.g.g.g.%.g.g.i.g.g.g.g.i.g.O.g.{ 4 R ^ / Q Y % { 3X3X3X3X3X3Xg.j.j.t 0 R R R ^ *.*.^ ^ ^ *.^ R R R *.Y % ' }  .[ } }  .e. XOXOXOXU : = & * & . D *X*X%X%X%X%X%X$X$X%X#X$X#X#X.X#X'.J.J.1 A.G.S & o o & & + & + + + + X     . r.7X7X7X7X7X3X3X3X3X3Xg.o.% t ' m $ . X . . . X X X X X X o o o + o o o + + & & & o .     + ; , , < < j < < j q j q l q l q p :.:.:.1.>.>.>.>.>.>.1.7 v.v.v.v.v.b.v.v.v.v.1.q :.>.>.,.:.>.w ; z {.{.{.{.{.{.|.bX|.|.MX|.mXmXMXmXmXMXMXNXNXMXNXNXNXNXNXMXNXNXbXb ZXAXAXAXAXAXAXAXAXAXAXAXAXAXAXZXAXAXZXZXZXAXAXUXAXAXZXZXAXAXAXAXSXAXAXAXAXAXAXAXAXAXAXAXAXAXAXAXAXAXAXZXZXZXCXCXUXdXdX&X9X&X&XdX&X9XXXn OXDXdXCXCXZXZXZXZXAXZXZXAXAXZXAXZXZXCXb B S Z S Z S Z Z S F Z S S S Z B d - @ 3 p 1.p b.v.p >.1.p q q q 3 ,.>.w p :.G.G.G.H.H.H.J.J.J.G.G.H.S.A.A.A.A.A.S.A.G.S.G.C.S.A.A.G.G.S.G.S.G.S.A.A.A.A.A.G.A.A.A.A.A.S.A.G.Z , k C G G H J P k < P `.H.`.'.'.J : A .X$X`.1 A $X$X.Xc h Q.Q.Q.Q.Q.Q.Q.!.!.Q.Q.Q.Q.!.@.+.Q.@.@.Q.+.+.+.Q.Q.+.+.Q.+.+.+.W.+.",
"g.3Xg.3X3Xg.g.3Xg.g.g.g.g.3Xg.g.g.3Xg.g.g.g.g.g.g.g.g.O.i.g.g.g.%.g.i.g.g.g.g.g.4 9 &.^ ^ Y 4 $.3Xc.,X3X3X3X3X3Xg.9 0 Y R Y R R R ^ R *.R R R R T R R *.0 8 [ } } ' }  .t. .t.OX;X X8 : * & & . G.*X%X%X$X%X%X#X#X%X#X%X$X#X#X.X#XJ.J.'.f S.H.L - & o o + + + & + + & X     e 6X7X7X7X7X5X7X7X3X3X,Xg.y $ m m 7   X . . . X . X X X o X X o o + o X o o + & & o + = O       + = , < q g s s j q q l l p q p M :.:.>.:.:.:.:.:.:.1.w v.v.v.b.b.b.v.v.v.v.v.p p >.>.>.>.,.<.M ; g [.{.{.[.{.{.{.{.}.}.bXMXMXmXmXMXMXNXMXMXMXNXMXMXMXMXNXNXNXmXv dXAXAXAXAXAXGXAXAXAXAXAXAXAXAXAXAXAXZXAXZXAXAXGXAXAXAXAXAXAXAXAXAXAXAXAXAXAXAXAXAXAXAXAXAXAXAXAXAXAXAXAXZXZXZXCXCXdXdXdXdXdX9X9XdX9X9XDXdXDXDXCXCXZXZXZXSXZXAXAXZXZXAXZXAXAXCXj B S S Z Z Z Z Z S Z S S A k > & & : q p 1.1.p v.v.=.1.p q 3 3 q p <.v.1.p ,.H.G.G.H.H.J.J.J.J.J.J.J.G.G.S.A.A.A.A.A.S.A.A.A.G.A.A.C.S.A.S.G.G.G.A.A.A.S.A.S.A.S.A.A.A.A.G.A.A.c < v Z F G J J J 1 c G.G.`.`.`.'.b : P .XXXP 2 K .X$XY.j h W.Q.+.Q.Q.!.Q.Q.Q.Q.!.Q.Q.!.@.@.!.@.@.+.+.+.+.+.+.+.Q.W.+.+.+.+.",
"g.3Xg.g.g.,X3Xg.g.3X3Xg.,Xg.,Xg.3Xg.c.g.g.g.g.g.g.g.g.g.g.g.g.g.i.g.g.g.g.g.g.9 0 &.&./ 6 8 #.c.3X3X3X3X3X3X3Xh.6 $ E R E R R R R R R R R R R R T R R T 6 % ' } } [ } }  . XoXoXOXOXI 2 & & + + .X*X*X%X%X%X%X%X%X%X#X#X#X#X#X.X.X'.'.#Xd D J.S.> o & & & o o & + o       # f.7X7X7X3X7X3X<X3X3X3Xg.$.$ 8 ] e .   . X . . . X . X X X X X X o o o o o o o & X o + + & + + .     O * , < < q j q l l l M q l :.:.:.1.1.:.1.>.>.>.p p v.v.b.b.b.b.b.b.v.v.v.1.p 1.>.>.:.>.>.,.;.; g L.[.{.[.|.{.|.bX}.bXMXbXmXMXMXMXMXMXMXNXMXMXNXNXMXMXNXNXmXG dXAXAXAXAXAXAXAXAXAXAXAXAXAXAXAXZXAXAXAXAXZXAXAXAXZXAXAXAXAXAXAXAXAXAXAXAXAXAXAXAXAXAXAXAXAXAXAXAXAXAXAXZXZXZXZXCXdXdXdX9X9X9X&XdXdXdXdXdXdXdXCXZXZXZXAXAXSXAXAXAXAXAXAXAXAXDX1 < B S Z S Z S S S S V d * @ : 1 h q b r 1.1.p v.b.p % ; ; w M y.>.<.>.<.:.>.].G.G.G.J.J.J.J.J.G.J.H.G.H.S.A.A.A.A.A.A.A.A.A.A.A.A.A.A.G.A.C.S.A.G.A.A.A.A.S.A.C.G.A.A.G.A.A.A.J < j C G G K J J C : G `.`.`.`.`.`.1 < '..X.XG < `.$X$X'.d h W.Q.+.Q.Q.Q.Q.!.Q.Q.!.Q.!.@.!.+.+.!.@.+.+.+.+.!.!.Q.!.W.+.+.+.",
"g.g.3Xg.c.g.c.g.c.g.g.g.c.g.g.c.g.g.g.g.g.,Xg.g.g.g.g.g.i.g.g.g.g.g.O.g.g.g.y $ R ( Q 0 9 d.3X3Xg.3X3Xg.3Xc.j.9 0 E Y Y Y Y R Y E R R R Y R E Y Y T R T T 4 8  .[ } [ } }  . .oXt.e.oXm $ & + = .X*X*X%X%X$X#X%X$X$X%X#X$X#X#X#X.X#XJ.'.k S J.Z.g & o & o & + o o .       ] 7X7X7X7X7X3X7X3X3X3Xg.g.5 $ m ' %   X . . X X X X . X X X X X o o o X o o X X o o + @ + + + @ @ @ .     o ; < < j j q l q p q q 1.M :.:.:.>.:.:.>.>.p p v.v.b.b.vXm.b.v.v.v.v.>.p >.>.>.>.>.:.:.:.,.w ; =.[.{.[.{.{.{.bX}.|.}.|.mX|.MXMXMXMXMXNXNXMXMXNXNXNXNXNXJ 9XAXAXAXAXAXAXAXAXAXAXAXAXAXAXAXAXAXZXAXZXAXAXAXAXAXAXAXAXSXAXAXAXAXAXAXAXGXAXAXGXAXAXAXGXAXAXAXAXAXAXAXFXZXZXCXCXfXdXdXdXdXdXdX9XdX9XdXdXCXCXCXCXZXZXZXZXAXAXZXAXAXZXAXAXAXCX2 # * d Z Z Z F Z B f * @ : 1 1 1 1 1 q q p 1.p v.v.1.w p p <.,.>.>.>.p p :.>.`.G.G.G.D.J.J.J.J.J.J.H.G.H.S.G.A.A.A.A.A.A.A.A.A.A.A.A.A.A.A.G.G.A.S.A.A.A.G.A.A.S.G.A.A.A.A.A.A.A.V , v C F F J K P j 1 P G.H.`.`.'.P : v XX.X].b c .X$XR.D.4 *.Q.Q.Q.!.Q.!.Q.Q.Q.Q.Q.@.@.@.!.+.Q.@.!.+.+.+.+.!.W.W.+.+.W.+.",
"3Xg.3Xg.3Xg.g.g.g.g.g.g.c.g.g.g.g.g.3Xg.g.g.g.g.g.g.g.g.g.g.g.O.i.g.g.g.g.' % R &.R 0 9 j.3X3X3X3X3X3X,Xc.g.9 0 0 0 E Y Y Y R R Y R R Y R R E Y *.Y *.*.Y 6 & ' ..' } [ }  .} oXoXt.OXOXm @ + 1 %X*X%X%X%X%X%X%X%X%X%X$X#X$X#X.X#X'.'.#XA A Y.J.1 + & + & & o + .       % 2X7X7X7X7X7X3X7X3X3X3Xg.' . 9 ' 9       . . X X . X . X X X X X X X X X X X X o o X o + + + + @ = 3 & + .     @ ; q q l l p b q q :.M :.1.:.>.:.:.>.>.p 1.v.v.b.m.vXvXb.b.v.v.v.1.p 1.>.>.>.>.:.,.:.>.,.M ; < ].[.}.{.{.|.bX|.bX|.mX|.mXmXmXMXMXNXMXNXNXNXNXMXNXNXA.&XGXSXAXSXAXAXSXAXAXAXAXAXAXAXAXAXAXAXAXAXAXAXAXAXAXAXAXAXAXAXAXAXAXAXAXAXAXAXAXAXAXAXAXAXAXAXAXAXAXAXAXAXAXZXCXZXDXDXdXdXdXdXdXdXdXdXdXCXdXZXCXZXZXZXAXAXAXAXAXZXAXAXAXAXAXdX2 8 % @ > c Z V d & @ > < 8 8 1 a 8 1 q q q ; ; >.b.v.p p 1.<.w >.y.].v.<.y.].].G.G.G.G.J.J.J.J.J.G.J.J.J.G.G.A.A.A.A.A.A.A.A.A.A.A.A.S.C.G.S.A.G.A.G.C.S.A.A.A.A.A.A.A.G.A.A.S.S.A.d d v A G G J J G < b G.G.`.`.`.].A : P .X.X`.1 A XX$X$XP 2 ..Q.Q.Q.Q.Q.Q.!.Q.!.!.Q.@.!.@.!.@.@.!.@.+.!.!.!.!.!.W.+.+.+.",
"g.g.g.g.g.g.g.3Xg.3X3Xg.g.,Xg.c.c.g.g.g.g.g.g.g.g.g.g.g.g.i.g.g.%.i.g.g.' $ R / R 0 m j.3X3X3X3X3Xg.3X3Xj.9 0 E 6 0 E E Y E E Y Y E E R E Y Y E E E E Y *.E 0 8 ' } m } } } }  . Xt.oXT. .n # c %X%X%X$X%X%XR.#X#X#X#X$X$X$X#X#X.XY.'.'.A V J.J.d o o & + o o . . > . # } 7X7X7X7X5X7X3X3X3X3Xg.i.% % m N *   . X . . . . . X X . X X . X X X X X X X X o X X o + O + + + + + & & & @ O     @ 3 q q q l q p :.:.:.:.:.>.>.1.1.:.q 1.v.v.b.vXvXvXvXb.v.v.v.v.p 1.>.,.y.,.:.>.:.,.:.:.p q ; l L.{.{.{.{.{.{.bXbX|.mXmXMXMXMXNXNXMXNXMXNXNXNXBXG.*XGXSXAXAXAXAXAXSXAXAXGXAXAXAXAXAXAXAXAXAXAXAXAXAXAXAXAXAXSXAXAXAXSXAXAXAXAXAXAXAXAXGXAXAXAXAXGXAXAXAXAXAXZXAXAXCXCXCXCXdXdXdXdXdXdXdXdXdXdXCXCXZXZXZXZXAXAXAXAXAXAXAXAXAXSX9X2 8 8 % @ @ > & @ > 1 8 d 1 < 1 1 , 2 = 3 % p p 1.v.v.w p >.>.3 p >.>.v.XX>.>.].J.G.G.G.G.G.J.J.J.J.G.G.G.J.G.A.A.A.A.A.A.A.A.A.S.A.A.A.A.A.S.A.A.A.A.A.S.G.A.A.A.A.A.A.A.S.G.C.A.G.S < c C F G S G J v : J H.H.`.`.`.`.d 1 '..X.XP < I $X$X$XG 8  .Q.Q.Q.Q.Q.Q.Q.Q.@.@.@.@.@.!.@.!.@.+.+.+.!.!.!.!.+.+.+.+.",
"g.g.3Xg.3Xg.g.c.g.g.3Xg.g.g.g.c.g.g.g.g.g.g.g.g.g.g.g.g.g.%.g.g.g.g.g.Q $ T / R 4 m j.3X3Xc.,Xc.3X3Xc.h.m 0 6 E E 6 E E E Y E E Y R E Y Y Y Y E E *.E T E *.0 & b ' [ [ [ } } } }  Xt.e. Xe.7 b %X%X%X%X$X$X%X%X%X#XXX#X#X$X#XXX#X'.#X#XL j J.'.V o + o & o . + n b   7 2X7X7X7X7X3X3X7X5X3Xg.g.t # n ' 8     X . .   X . . . . X X X X X X X X X X X X X X X o O + @ o & @ + @ + = = = 3 @ .   # ; q M q p :.M :.:.:.1.1.:.>.:.q v.v.v.b.vXvXvXvXb.v.v.v.>.p 1.>.>.>.:.:.,.>.:.,.:.q ,.,.M w g L.|.}.}.|.{.|.bXmXMXMXMXMXMXNXMXNXNXMXNXNXBX`.oX+X+XSXAXSXAXAXSXAXAXAXAXAXAXAXAXAXAXAXAXAXAXAXAXAXAXAXAXAXAXAXSXAXAXAXAXAXAXAXAXAXAXAXAXAXAXAXAXAXAXAXAXAXZXZXZXZXCXCXCXCXdXdXdXdXdXdXCXCXCXFXZXZXZXAXAXAXAXAXAXAXAXSXSXSX&X2 8 4 % @   @ = 1 8 q d 1 1 , : & @ + ; q :.:.>.=.v.v.w q v.>.3 X l ,.].y.,.].].'.J.G.G.G.J.J.J.J.J.G.J.G.G.G.G.A.S.A.A.A.A.A.A.A.A.A.A.A.G.S.A.A.A.G.A.A.A.A.A.A.A.S.A.A.A.A.S.A.A.A.x < v C G G J K J j < P H.G.`.`..XI : C .X$X.Xv 1 `.$X$X#Xv 8 +.Q.Q.Q.!.Q.Q.Q.!.@.Q.+.@.@.!.@.!.+.!.!.!.!.!.+.+.+.+.+.",
"3Xg.c.g.g.g.c.g.c.g.g.g.g.3Xg.g.c.g.c.g.g.g.g.g.g.g.g.g.g.i.g.g.g.g.' $ T / R 4 ..c.3X3X3X3X3X3X3X3Xg.9 0 E E E E 6 E E E E E E Y E E Y E Y E E E E T T *.E 6 & * m } ' [ [ }  . .e. .T.e.OXh A %X%X$X$X%X$X#X%X%X#X#X%X#X#X#X#X#X#X#X'.P c J..XL & & o X   : } } @ .  .7X7X7X7X7X7X3X3X3X3Xg.| # 4 n 8 .   . . . . . . . . . . . . X . X X X X X X X . X X . X + O @ o o + + + & & 3 = = : : 3 #   3 q 2 p M 1.M 1.:.:.>.:.:.1.p v.v.b.vXvXvXvXvXb.b.v.v.>.q >.>.>.>.:.:.>.,.,.>.,.q ,.,.,.:.l ; l ].{.bX|.bX|.|.|.MXMXNXMXMXNXMXMXNXNXBXBX[.G < XXSXSXAXAXAXAXAXAXAXAXAXAXAXAXAXAXAXAXAXAXAXAXAXAXAXAXAXAXAXAXAXAXAXAXAXAXAXAXAXAXAXAXAXAXAXAXAXAXAXAXAXZXAXZXZXCXCXdXdXdXdXdXCXdXCXdXCXZXCXZXZXAXAXAXAXAXAXAXSXSXSXSXSX&X2 4 $ # @ 2 d 8 1 1 1 2 : : $ & & , c C K ,.:.v.p 1.v.1.1.>.1.q ; @ ,.>.].e.].$X'.'.J.J.G.G.S.J.J.J.J.G.J.G.G.G.G.A.A.J A.A.A.A.A.L A.S.A.A.A.A.S.A.A.S.A.A.S.A.G.S.G.A.A.A.A.A.A.A.S.L a j V C Z G H J G < v P H.`.`.`.'.v : ,..X.X.Xc l XX$X$XXXc 8 W.Q.Q.Q.Q.!.!.@.@.!.@.!.@.@.@.@.!.!.!.+.!.!.+.+.+.+.W.",
"g.g.3Xg.g.g.g.g.3Xg.g.g.3Xg.g.c.g.c.g.g.g.g.g.g.g.g.g.g.i.g.g.g.g.W $ 0 ^ T 4 { g.3X3X3X,Xc.3X,X,Xg.W 0 E E E E 6 0 E E E E E E E E E E E E E E E E E Y E T E 0 X 8 ' [ [ [ } [ } }  .t.t. Xe G %XXX%XXX#X%X#X#XXX%X#X$X#XXX#X#X#X#X.X#X.Xc J..XJ & + + . f  X+X8   e 8X7X7X7X3X3X3X3X3X3X3Xg.4 $ m 8 o   . X X . .   X .   X . . . . . X X . X X X X . X X X X O + O + O O @ + & 3 & @ = ; ; 2 q 3 3 # 3 p M :.:.:.1.:.>.:.>.p p v.v.b.b.vXvXvXvXb.b.v.v.1.q >.:.>.>.,.>.,.,.:.:.,.p ,.,.].,.,.K v < q F {.bXmXMXMXMXMXMXNXMXNXNXNXNXNXNXNX].& e.ZXAXAXAXAXAXAXAXAXAXAXAXAXAXAXAXAXAXAXAXAXAXAXAXAXAXAXAXAXSXSXAXAXAXAXAXAXAXAXAXAXAXAXAXAXAXAXAXAXAXAXAXAXZXZXZXZXZXCXFXCXdXCXDXDXCXCXCXZXZXZXZXAXAXAXAXAXAXAXAXAXAXSXAXXX@ # @ 2 d 8 1 1 1 < 2 = @ = , k B F S Z G K :.>.<.q >.v.v.v.=.M M 3 @ K .X`.'.#XJ.J.J.J.J.S.J.S.J.J.J.J.Z.J.H.G.S.G.A.A.A.A.A.B.L S.S.C.A.A.A.A.A.A.A.A.G.A.S.C.A.A.S.A.C.G.A.A.A.A.A.A.Z < l C C G G J J C ; G P `.`.`.`.`.1 1 ].#X$X`.< v $X$X$XXXf h Q.Q.Q.Q.Q.Q.Q.@.@.@.Q.+.@.!.+.+.@.W.!.!.!.+.Q.W.Q.Q.",
"g.g.g.g.3Xg.,Xg.g.g.c.c.g.g.g.g.g.g.g.g.g.g.g.g.g.g.%.i.g.g.g.g.y $ T 6 0 7 $.3X3X3X3X3X3X3X3Xg.g.' 4 E E E E E 0 0 6 E 6 E E E E E E E E E E E E E h E T T h 6 & + b ] ' } ' } [  .} e. .t.b U XX%XXX#XXX%X%XXX#X#X#XXX#X$X$X#X#X#X.X#X.Xb D.#Xx . . & n oXwXN   @ f.7X3X7X7X7X7X3X3X3X3Xg.'   8 ' $   . X X . . . . . . . . . . . . . . . . X X X X X X X . . O O + + + O O & @ & = & = 3 : ; ; q q 3 = p M 1.1.:.:.:.:.>.>.1.p v.v.v.b.vXvXvXvXb.v.v.v.1.p >.>.>.>.:.:.>.>.>.,.:.q ,.,.,.,.,.,.P K j g z ,.{.|.mXMXMXMXMXNXMXMXNXNXNXNXbX, I CXAXAXAXAXSXAXSXAXAXAXAXAXAXAXAXAXAXAXAXAXAXAXAXAXAXAXAXAXAXSXSXAXGXAXAXAXGXAXAXAXAXAXAXAXAXAXGXAXAXAXAXAXAXAXZXZXZXZXCXCXCXCXCXCXCXCXCXCXZXZXZXAXAXAXAXAXAXAXAXAXAXSX9X} 1 @ 2 1 1 1 d 1 : : $ & & d B V S S U Z Z G K :.:.>.M w 1.<.1.p 1.,.M @ @ K .XJ.'.'.Y.J.J.G.J.J.G.S.J.J.J.J.G.H.G.S.S.S.A.A.A.A.A.S.S.A.G.A.A.A.A.A.A.A.A.S.A.S.G.A.A.A.G.S.A.A.A.G.A.A.A.A.d s z C G H G J J j 1 P `.H.`.`.'.P * A .X.X$XP < K .X$X$XJ.8 ' W.Q.Q.Q.Q.@.!.!.@.@.+.+.+.+.Q.Q.!.!.!.W.+.W.W.Q.W.",
"g.3Xg.g.g.g.g.g.g.g.g.g.g.c.3Xg.c.g.c.g.g.g.g.g.g.g.g.g.g.g.g.9 $ T Q $ b d.c.g.3X3X3X3X3Xc.g.g...$ E E E E E 6 6 0 6 E E E E E E E E E E E E E 6 E E 6 T 9 T 6 : X : ' ' } ' } [ } } } }  Xm A #XXXR.%XXX#X$X$X$X$X#X$XXX#X#XXX#X#X.X.X#XL I Y., @ 8 } @X+Xe.:   ' 7X7X7X3X6X5X3X3X3X3Xg.o.$ $ m :   . . . . . . . X . . . . . .   . . X   . . X X X X X X . X + O + O O + @ + 3 = @ = 3 @ = ; 3 2 q q ; M :.:.N 1.1.>.>.:.:.p p v.v.v.b.vXvXvXvXb.b.v.v.p 1.q.:.,.>.>.:.:.:.,.:.M q ,.e.,.,.,.,.P P j [.{.{.[.bXMXMXMXNXMXNXNXNXNXNXNXbXa A CXSXSXAXAXAXAXAXAXAXAXAXAXAXAXAXAXAXAXAXAXAXAXAXAXAXAXAXAXAXAXAXSXAXAXAXAXAXAXAXAXAXAXAXAXAXAXAXAXAXAXAXAXAXAXAXAXZXZXZXCXZXCXCXCXCXCXZXCXZXZXZXZXAXAXAXAXAXAXAXAXAXCXT.b < 1 < 1 1 1 2 : $ $ # $ % $ f A Z V S V Z Z Z K K :.<.>.1.q p <.:.,.K K b + * S.'.J.Y.[.J.Z.J.G.S.S.G.J.J.J.J.J.H.G.G.A.A.A.J A.A.A.A.A.S.A.A.S.A.A.A.A.A.A.A.A.G.A.A.A.A.A.A.A.G.S.S.A.A.A.A.D < k C Z F G G J H < c G.G.`.`.`.`.b : P .XXX.XG 2 `.$X$X$XG.8 ..Q.Q.Q.Q.@.+.+.@.!.!.@.+.+.!.+.!.!.Q.+.+.Q.Q.W.Q.",
"g.g.g.g.g.g.g.c.g.g.g.,Xg.g.g.g.g.g.g.g.g.g.g.g.g.g.g.g.g.o.4 % R R 4 ' j.3X3X3X,X3X3X3Xg.c.g.$.0 E Y E E E 6 6 6 0 6 6 6 6 6 E E E E E E E E E E 6 E *.E T 9 6 2 * . e N ' [ ' [ } [ }  .} 8 : A Y.#X#X#X#XXXXX.X$XR.XX#X.X#X#X.X.X.X.X$XL A L b } OXOXOXOXe   % ,X7X7X3X7X3X3X3X3X3X,Xg.' # 9 8     X X . X X X . . . X . . . . X . . . . X .   . X X X X X X O + + O @ @ O @ @ = @ = @ & 3 % ; ; q q q p 1.M :.:.:.:.1.:.>.1.p v.v.b.b.vXm.vXb.b.b.v.v.w 1.1.>.>.>.>.>.,.,.:.,.M M ,.>.,.,.,.K ,.P q ].|.mX|.MXMXmXVXNXNXNXNXNXNXMXMXk k 9XSXSXSXAXAXAXAXAXAXAXAXAXGXAXAXAXAXAXAXAXAXAXAXGXAXAXAXAXAXAXAXAXAXAXAXAXAXAXAXAXAXGXAXAXAXAXAXAXAXAXAXAXAXAXAXAXAXAXZXZXZXZXCXZXZXCXZXCXCXZXZXZXZXZXAXAXAXAXAXAXAX&Xb : : < 2 2 2 : : @ @ # $ % 4 % $ @ d V Z V S Z C Z G K :.:.>.>.1.1.>.:.:.K P L d . g J.'.J.J.J.J.J.J.J.J.H.G.J.Z.J.J.J.G.G.A.A.A.A.A.A.A.A.A.A.A.A.A.A.A.A.A.A.A.S.A.A.A.G.S.A.S.A.A.A.A.A.A.A.A.A.G.x < k C C G G H J C : A G.`.`.`.'.H.1 j ]..X$X'.x q `.$X$X$XH 8 ..Q.Q.W.Q.+.@.!.@.@.!.+.+.!.!.!.!.W.+.+.W.Q.Q.W.",
"g.g.g.g.g.g.g.g.g.g.g.g.c.3Xg.g.c.g.g.3Xg.g.g.g.g.g.g.g...% 0 R Y 4 { g.3X3X3Xc.3X3X3Xg.g.g.u.4 E E E E E E 6 6 6 6 6 6 6 6 6 E E E E E E E E E 6 E T 9 Y 9 T 6 : > & + h ' [ } ' } } [ } } ' 7 $ 2 v I.XX#X$XXX.X.XXX.X#XXX.X.XXX#XXX.X.XH.A S } +XOXt.+X} # #  .7X7X7X3X7X3X3X3X3Xc.g.o.# $ 1   . X . X X X . X . X X X . X . . . . . X . . . . . . . . X X . O O + O O 3 @ + @ @ 3 + 3 @ : ; ; % q ; ; 1.M :.M 1.:.:.1.:.>.p p v.v.v.v.b.m.b.b.b.v.v.>.q :.>.>.>.:.>.:.:.,.:.:.M M ,.,.,.,.,.,.P K q [.MXmXMXmXVXmXMXNXNXNXNXNXNXMX]., &XSXZXZXSXAXAXSXAXAXAXAXAXAXAXAXAXAXAXAXAXAXAXAXAXAXAXAXAXAXAXAXAXAXAXAXAXAXAXGXAXAXAXAXAXAXAXAXGXAXAXAXAXAXAXAXAXAXAXZXZXZXZXZXZXZXZXCXZXCXZXZXZXSXAXAXAXAXAXSXSX&XG : : 2 2 2 < 2 = @ # % % 5 4 4 4 4 $ $ & d V Z V V Z Z G K K :.:.>.>.:.:.:.,.K K D S.f . < H.'.'.J.J.G.J.J.G.S.J.G.J.J.J.Z.G.G.S.A.G.A.A.A.A.A.A.A.A.A.A.L S.S.A.A.A.A.S.A.A.A.A.A.A.S.A.A.A.S.A.A.A.G.S.J s d V C G F G J P j < P G.`.`.`.`.K : v .X.X$X].q b .X$X$X.XG 8 ..Q.!.+.Q.+.Q.+.+.+.+.+.W.!.!.!.+.+.+.+.+.+.W.",
"g.g.g.g.g.g.g.g.g.3Xg.g.g.g.g.g.g.g.g.g.g.g.g.g.g.g.o.9 $ 9 Q 9 5 $.,X3X,Xg.3X,X3Xg.c.,X3X%.0 0 E E E E E 6 6 6 0 6 0 6 6 6 6 6 E E E E E E E E E E T T Y T T 6 $ > > + % m ' ] ] ' ' } [ } } } N 8 : : c I .XY.XX.XY..XXX#XXX.X#X.X.X.X$XY.A I oXOXOXOX X2   9 3X7X5X3X3X3X3X3X3X3Xg.g.9   &     X X . . X . X . X . X X X . . . . . X . . . . . . . . . . . . O O O O O O + O O 3 3 + @ @ 3 ; ; 3 q q 2 M p M 1.:.1.:.:.:.>.1.p v.v.v.v.b.b.b.b.v.v.v.1.p >.>.>.>.>.>.>.>.:.:.:.M b >.,.,.,.,.P P J l {.VXmXMXmXmXVXVXNXNXNXBXNXNXbX< .XZXZXSXSXSXAXAXAXAXAXAXAXGXAXAXAXAXAXAXAXAXGXAXAXAXAXAXAXAXAXAXGXAXAXAXAXAXAXAXAXAXAXAXAXAXAXAXAXAXAXAXAXAXAXAXAXAXAXAXFXAXAXAXZXZXZXZXZXZXZXZXZXZXZXSXAXAXAXCXdX} < & : 2 2 < : : . $ % 7 8 5 7 4 4 4 4 4 0 $ @ k V A F C C G C K K ,.,.<.:.,.,.K K F D D D 1 # d J.'.J.J.J.J.S.J.J.Z.G.J.G.J.J.J.G.G.S.G.A.A.J A.A.A.A.A.A.A.B.A.A.A.A.A.S.A.S.G.A.A.A.G.A.A.A.G.A.S.A.A.A.A.A.Z , c C C Z G G J J < j P `.G.`.`.'.v : P $X.X#XH.< G $X$X$X$XB 8 +.Q.+.@.+.+.+.+.!.+.+.Q.Q.!.+.W.+.+.W.+.+. .",
"g.g.g.g.g.g.g.c.g.g.g.g.g.c.g.3Xg.c.g.g.g.g.3Xg.h.W $ % R Q 0 t f.c.g.3Xg.3X3X3X3X3Xg.g.d.9 0 Y E E E E 6 6 0 0 0 0 6 0 6 6 6 6 E E E E E Y Y 6 E E *.E T 9 T 6 $ * - & + 4 m ' ] ' m ' ' } [ } } } } t : $ 8 A P Y..X.XY..XXX.XXX.X.X.X#XXXS.U.OXOXOXOXn   2 -X7X7X7X<X3X3X3X3Xg.3Xg.{ #     . X X . . X X . X . . . . X X X X X . X X X . X . . . . . . . . . . O @ O O @ @ @ @ + + @ 3 3 3 ; % ; 2 q ; p M 1.M 1.M :.:.1.:.1.p v.v.v.v.b.b.b.v.v.v.v.q p >.:.>.>.>.,.,.:.:.,.,.M p ,.,.,.P ,.K ,.K l mXmXVXMXVXmXNXNXNXNXBXBXBXNXz b DXZXSXSXAXAXAXAXAXAXAXAXAXAXAXAXAXAXGXAXAXAXAXAXAXAXAXAXAXAXAXAXAXAXAXAXAXAXAXAXAXAXAXAXAXAXAXAXAXAXAXAXAXAXAXGXAXAXAXAXAXZXZXAXZXZXAXZXZXZXZXZXZXSXSXZXSXSX9XI b   & 2 2 2 : : a b < % e 8 8 5 7 5 4 4 4 % % 4 $ + k B V Z C A C K K M :.:.,.<.K K K G Z S Z.D > # A Y.'.J.J.J.H.J.G.J.J.J.G.Z.G.J.G.G.S.G.S.A.A.A.A.A.A.A.A.A.A.A.S.A.A.A.A.A.A.A.A.A.G.S.A.A.C.S.A.A.S.C.A.A.A.A.j s z v C G G G J G 2 C `.`.H.`.`.`.s 1 `..X.XXXP < P $X$X$XY.x h +.Q.!.+.@.+.+.+.+.Q.!.!.Q.+.+.+.+.+.+.+.+.",
"g.g.g.g.3Xg.g.g.g.g.g.3Xg.g.g.g.g.g.c.g.g.g.h.' 4 $ 9 &.Q 5 { c.c.3X3X3Xc.3Xc.,Xg.g.g.j.t 0 Y E E E E 6 6 6 6 0 6 0 0 0 6 0 6 6 6 E E E 6 E T T E T *.*.*.*.*.9 $ * > - & X 8 ' ] m m N } [ [ }  .} } } } m 1 : : 1 8 U F..XY..X.XY.Y.Y.F.I } oXOXOXOX} O # | 7X3X7X3X3X3X3Xg.3Xg.g.o.%     . . . . . . X X . . X . . X . X X . X X X X . X X X . X X   . . . . . . 3 O + @ @ @ + @ + @ 3 3 3 : ; ; ; q ; M 1.M :.:.1.:.:.:.>.:.w 2.v.v.v.v.v.v.v.v.v.>.p 1.>.>.>.,.>.>.:.:.>.,.>.M M ,.,.,.,.P ,.,.b K mXVXmXNXMXVXNXNXBXBXBXBXBXbX< &XZXAXZXSXAXAXAXSXAXAXAXSXAXAXAXAXAXAXAXAXAXAXAXAXAXAXGXAXAXAXAXAXAXAXAXAXAXAXAXAXAXAXAXAXAXAXAXAXAXAXAXAXAXAXAXAXAXAXAXAXAXAXAXAXAXZXAXZXAXZXZXAXZXSXSXZX&X} c 8 @ : 2 1 : O j  X&XdX+X% 8 9 r 5 7 7 7 4 4 4 4 % % $ @ k Z V C C C C G K K K M K K K G S S S S D S & @ D '.'.J.J.J.G.G.J.G.G.J.J.J.J.J.G.G.G.G.G.A.L J A.A.A.A.A.A.A.A.A.A.A.A.A.A.A.A.S.A.A.A.A.G.A.A.A.G.G.A.A.A.A.H < j v C F Z H G P k < P G.H.`.`.'.P : b .X#X$X.XA 1 ].$X$X$XJ.8 m +.Q.+.Q.+.+.+.!.!.!.!.W.+.+.+.+.+.+.+.+.",
"g.g.g.g.g.g.g.g.g.c.g.g.g.g.g.g.g.g.g.g.g.{ 4 $ 0 Q &.9 6 { g.g.,Xg.3X3X3Xc.g.c.3Xg.g.W 0 E E E E E 6 6 0 9 0 0 0 0 0 0 0 0 6 6 E E 6 6 0 E R R *.*.R *.&.T 9 T $ - - - & & + 8 N ' m N [ ' ' [ [ } } } }  .} } m e 2 2 2 a b c b j b N } T.oXOXOXOX} 8   m 7X7X7X3X3X3X,X3Xj.j.g.g.W     . X X . . . . . . X . . . . X X X X . . X . X . X X X X X . . . . . . . . O O O + O O @ @ O @ 3 3 3 3 % 3 % w % p 1.1.1.:.:.:.:.:.1.:.w 1.v.v.v.v.v.v.v.v.v.1.r >.>.>.>.:.>.,.>.,.:.:.:.b K >.,.,.,.I P K q [.NXNXVXVXVXBXVXVXBXBXBXBXBXG n ZXSXZXSXSXAXAXAXAXAXSXAXAXAXAXAXAXAXAXAXAXAXAXAXAXAXAXAXAXAXAXAXGXAXAXAXAXAXAXAXAXAXAXAXAXAXAXAXAXAXAXGXAXAXAXAXAXAXAXAXAXAXAXAXAXAXAXAXZXAXZXZXAXAXCXXXN c I &XDX Xd j b v r I ZXFXZXZXb % 9 r 9 8 5 8 7 4 5 4 % 4 $ # + d A V V A A Z G G K K K K G S Z S S S S L B + = J.J.J.J.J.J.J.J.J.S.S.J.J.G.G.J.G.H.Z.S.S.J L A.B.A.A.S.J A.A.A.A.A.A.A.A.A.A.A.A.A.S.A.A.A.G.A.S.S.A.A.A.A.A.B < k C C F G G J J 1 c P H.`.`.`.'.A 3 L .X$XXX].b v XX$XXX$X`.1 ' Q.Q.+.@.Q.+.+.Q.!.Q.!.+.+.+.+.+.+.+.+.",
"g.g.g.g.g.g.g.g.g.g.g.g.3Xg.g.3Xg.g.j.{ % # 9 Q Q 9 9 W $.g.g.c.c.3Xc.,X3Xg.,Xg.g.j.Q $ 6 E E E E E 6 6 6 0 0 0 0 0 0 0 0 0 6 6 6 6 0 4 T *.Q *.*.*.*.' *.' *.T $ * - - - & & o 8 ' ] ' N [ U N N ] ' } } [ } } e. .} } N m m ' } }  .T. Xt.t. X X} N   8 2X7X5X3X3X3X3Xg.3Xj.g.g.%.$   X X . . . . . .   X X   . . . . . . X X . . X . X . . X X . . . X . . . . . . O O O O @ O . O @ @ 3 3 3 w % q % ; p M M M M 1.M 1.:.:.>.p 1.v.v.v.v.v.v.v.v.v.p 1.>.:.>.>.>.>.>.:.:.,.:.,.p M ,.,.,.,.,.,.l v mXNXVXVXVXBXVXVXVXBXBXBXBXnX< %XSXZXZXSXZXAXAXAXAXAXAXAXAXAXAXAXAXAXGXAXAXAXAXAXAXAXAXAXAXAXAXAXAXGXAXAXAXAXAXGXAXAXAXAXGXAXGXAXAXAXAXAXAXAXAXAXAXAXAXAXAXAXAXAXAXZXAXAXAXAXAXAXGX&XA c Y.&XZXSXAXZXdX&X9XZX&XG DXZXCXAXXX% e t 5 e 5 8 5 8 4 4 4 4 4 % $ & k V Z F V Z C M G G G G Z Z Z S Z S S S L k . a J.[.Y.J.J.J.Z.J.J.G.G.S.J.G.S.G.G.G.G.A.A.A.L A.L A.A.A.S.A.A.A.A.A.A.S.A.A.A.A.A.S.C.A.A.S.A.A.A.A.A.G.A.A.A.s d v v C G F K J C : G G.`.`.`..X`.b : `.'.$X$XG.< P $X$X$X$XP 1 ..Q.+.@.W.Q.!.!.Q.W.Q.+.+.W.+.+.+.+.W.",
"g.g.g.g.g.g.g.g.g.g.g.3Xg.g.g.g.g.{ 7 # 0 Q X.X.X.5 W g.g.g.3Xg.,X3X3Xg.g.,X3Xj.g.o.0 6 Y E E E E 6 6 6 0 0 0 0 0 0 0 0 0 0 0 6 0 0 6 T ..&.&.&.&...*.Q &.Q T T 0 & > - & - & & & e ' ' ' ' ] ' m ' } ' [ } { } } } } } } } t.T. .oXoXt.e.e.oXt.t.} = # f.7X5X3X7X3X3X3X3Xg.j.g.g.W     X . . . . . . . . . . . X . . . X . X . . . . . . . X X X . . . . X . . . . . . O O O O O O @ @ 3 3 3 = ; 3 % w q p M p M 1.:.1.1.:.>.1.1.p 1.v.v.v.v.v.v.v.1.w :.>.>.>.:.>.:.:.:.:.:.:.:.q M ,.,.,.,.K ,.q [.NXNXVXBXVXBXVXVXVXBXBXBXBX'.b CXZXAXAXAXAXAXAXAXAXAXAXAXAXAXAXAXAXAXAXAXAXAXAXAXGXAXAXAXAXAXAXAXAXAXAXAXAXAXAXAXAXAXAXAXAXAXAXAXAXAXAXAXAXAXAXGXAXAXAXAXAXAXAXAXAXAXAXAXZXAXAXZXXXe } DXSXSXAXAXZXZXSXZXAXSXAXXX&XZXCXZX&X2 r t e t 8 8 5 5 4 4 4 4 4 % $ # & k Z V Z Z Z F Z Z Z Z Z Z Z S S S S S S S.f o d Y.#XJ.J.J.G.G.J.S.G.S.J.J.S.S.H.G.G.G.A.L A.S.A.A.A.A.A.A.A.A.A.A.A.A.A.A.A.A.G.A.G.G.A.A.A.A.A.G.A.S.A.A.A.A , k C C Z F G J P c 1 P H.P `.'.].G.: l .X$X$X.XG 1 `.$X$X$X#XS 2 ..Q.!.!.W.Q.Q.W.Q.W.W.!.+.+.+.+.+.W.",
"g.g.g.g.g.g.g.,Xg.g.g.g.c.g.g. .8 $ 0 Q ) X.X.X.X.Q % o.g.g.3X3Xc.3X3Xg.3Xg.g.j.o.4 E E E E E E E 6 6 6 6 0 0 0 0 0 0 0 0 0 > 0 0 Y *.&.&.&.&.| $.&.&.&.*...*.T $ - - & & & & - & @ 8 ] ' N N ' ' ' ' } ' [ [ } [ } } }  .} e.} e.e. X . X . .e.} h   ' 7X7X7X3X3X3Xg.3Xg.g.g.g.o.$   . . X X X . X . . . . . .   . . . . . . . . X . . . X . . . . . . . . . .   . . . . O 3 O O O O @ + 3 3 3 3 % ; 2 q M p M M 1.1.N :.:.1.>.1.=.1.v.v.v.v.v.v.v.p i >.>.:.>.e.:.>.:.,.:.:.,.:.q K ,.K K :.,.q b VXBXVXNXBXVXBXVXBXBXBXBXBXVXv ,.SXAXZXAXZXZXAXAXZXAXAXAXAXAXAXAXAXAXAXAXAXAXAXAXAXAXAXAXAXAXAXAXAXAXAXAXAXAXAXAXAXAXAXAXAXAXAXAXAXAXAXAXAXAXAXAXAXAXAXAXAXAXAXAXAXAXAXAXAXAXAXDXI.1 XXAXSXSXSXAXAXAXSXZXZXZXZXZXDXDXZXZXZX9X2 9 t e t e t e 8 8 4 4 4 4 4 0 $ # & k V Z V V A C Z Z F Z Z S Z Z Z Z S S D D a + B J.J.J.J.G.G.G.J.G.G.G.G.G.G.G.G.S.G.G.A.L L L L A.A.A.A.A.A.A.A.A.A.A.A.A.A.S.A.A.S.A.A.A.A.A.A.A.A.A.S.A.L j < z v C Z G G J G , v P `.`.`.'.'.G : G .X.X$X.Xj b $X$X$X$X#XB 8 +.Q.Q.Q.Q.Q.W.W.Q.Q.!.W. .W.+.+.Q.",
"g.g.g.g.g.g.g.g.g.g.g.g.$.! 5 $ 6 ~ ) ) X.X.X.X.X.) 0 e j.j.3X3X3X,Xg.3Xg.g.g.o.8 6 E E E E E E 6 6 6 0 0 0 0 0 0 0 0 0 0 0 0 6 W *.&.&.$.o.$.o.&. .&.&.&...' *.% & * * * & & & & + @ 8 m ] m ' ] } ' ] [ [ ' } } [ } } } [ } } } } }  . .} } t.' + 7 6X7X7X3X3X3X,Xg.3Xg.g.g.i.9   . . X . X X X X X X X X X X X X X X X X . . . . . . . X . . X . . . . X . . . . . O O O O @ @ O O + @ 3 @ 3 3 % q w % p p 1.1.M 1.:.:.1.:.>.1.p p v.v.v.v.v.v.p p 1.>.>.:.>.:.>.,.:.:.>.:.:.,.q M ,.,.,.K K q ].VXBXBXBXBXVXVXIXVXBXBXBXBXVXs &XAXZXZXZXZXAXZXZXAXAXAXAXAXAXAXAXAXAXAXAXAXAXAXAXAXAXAXAXAXAXAXAXAXAXAXAXAXAXAXAXAXAXAXAXAXAXAXAXAXAXAXAXAXAXAXAXAXSXSXSXAXAXAXAXAXAXAXSXSXSXDXI 1 +XAXAXZXAXAXAXAXAXZXZXZXZXZXCXCXZXZXZXCXdX2 u t t e e e e 5 5 8 5 7 7 4 4 % % # $ k A V Z V Z Z B K.Z Z V K.F F S S S S K.F & & Z '.J.J.J.H.G.G.G.G.S.G.G.G.G.G.G.D.G.A.A.A.J J A.A.A.A.A.A.A.A.S.A.A.S.A.A.A.A.A.G.C.A.A.S.A.A.A.S.A.A.A.A.H < j x C C C G G L v , K H.`.`.`.`.].b : `..X.X$X`.1 P $X$X$X$X.Xb h $.Q.Q.W.Q.Q.Q.W.W.Q.!.!.W.Q.Q.W.",
"g.g.g.g.g.g.g.j.o.' y 4 $ # 9 5.a.0.i.` O.O.X.X.X.X./ 4 { c.3Xc.g.3Xc.g.,Xg.u.9 0 E E E E E E 6 6 E 6 0 0 0 0 0 0 0 0 0 0 6 6 E Q &.&.o.&.$.&.o.o.o.$.&.&.*.*.*.0 * & * & * & * & & & # 7 m m N ' m ] ] N ' N ' ' } ' } } [ } } { } } } } } } } 1 # r.7X5X3X7X3X3X3Xg.g.g.g.g.{ # # X X X X . . X X X o o X X X X X X X X X . . . . . . . . . . . . . . X X . .   . . O O O O + O O O @ @ 3 = 3 3 ; ; q % p M M M 1.M 1.:.:.1.>.:.1.7 p 1.v.v.v.p w 1.>.>.:.>.:.:.:.>.:.>.,.:.,.,.q ,.,.,.K K q M VXVXBXBXBXBXVXVXBXBXBXBXBXBXbXj dXZXZXZXCXZXZXZXGXAXZXAXZXZXAXAXZXZXAXAXAXAXAXAXAXAXAXAXAXAXAXAXAXAXAXAXAXAXAXAXAXAXAXAXAXAXAXAXAXAXAXAXAXAXAXAXAXSXSXSXAXAXSXAXAXGXAXAXAXSXCXI c &XSXAXAXAXAXZXAXZXZXAXZXZXZXZXZXZXZXCXCXCX&X2 r t t t t t e e r t 5 7 7 4 4 4 % $ # & c V V Z V S B z F V S V S V S S F S S S B @ & L '.J.J.H.Z.S.G.G.S.S.G.G.G.S.A.G.A.G.A.A.A.A.A.J J A.A.A.A.A.A.A.A.A.A.A.A.A.A.G.S.A.A.G.A.A.A.A.A.A.A.A.A.x < k C C C G F J J s j P `.G.`.`..XG.: c .X.X$X$XG 1 `.$X$X$X$X].q h W.Q.W.Q.W.W.Q.!.!.Q.W.W.!.Q.W.",
"g.%.o.o.Q t 8 % $ # $ 6 Y Q i.a.a.a.a.a.9.9.` ) X.X.O.~ 5 h.3Xg.3Xg.c.g.g.g.9 0 Y E Y E E E E E E 6 6 0 0 6 6 0 8 0 0 0 6 6 E *.W &.&.$.$.o.$.&.&.$.$.&.&.*.*.R % & * & * & & & & & & @ # % t ' m ' N m ' m m [ ' [ ] [ ' } ' ' } [ [ } } ' [ m   m 7X7X7X3X3X3X3Xg.g.g.g.g.O.0   X X X X X X X X o o o o X X o X X X X . . . . . . . . . . . . . . . . . . . . . . . . O O O + + @ O @ @ 3 @ 3 3 % w 2 ; p p :.M M M 1.1.1.:.:.>.1.1.q p 1.1.p p 1.1.>.>.>.>.:.>.>.>.:.:.:.,.,.,.q ,.,.:.,.K q %XVXBXBXBXVXVXIXBXVXBXBXBXBXBX].b CXCXZXCXZXZXZXZXZXZXZXZXZXAXZXAXZXZXAXZXAXAXAXAXAXAXAXAXAXAXAXAXAXAXAXAXAXAXGXAXAXAXAXAXAXAXAXAXAXGXAXAXAXAXAXAXAXAXAXAXAXAXAXAXAXAXAXAXGXZXI b 9XAXAXAXAXAXZXAXZXZXZXZXZXZXCXCXZXCXCXDXDXDX&X2 t t t t e t 9 t 9 r 9 9 5 7 5 4 4 % $ # $ c A V S V V Z Z Z Z S Z S Z S S Z S D D c O , D.J.J.J.H.G.G.A.A.A.S.G.G.A.A.G.A.A.A.S.J S.J A.A.A.A.A.A.A.A.A.A.A.A.A.A.A.S.S.A.S.G.A.A.A.A.A.A.A.A.A.A.L d 1 z v C Z G K J G : C G.H.H.`.`..XG : G $X.X$X].j v .X$X$X$X%X,.1 ' Q.Q.Q.+.Q.+.W.Q.!.!.Q.W.Q.W.",
"8 % $ $ # $ 4 6 T ^ ( ( ) i.a.a.a.a.a.a.N.N.9.9.X.X.O.a.r ' 3X3X3X3Xj.g.g.' $ Y Y Y E E E E E E E 6 0 6 E 6 6 0 0 0 0 0 0 6 *.T *.&.&.$.X.$.o.$.$.o.o.{ &.{ *.T 0 * * * * * & & * - > & + . $ t ' N ' ' ' m m ' N ' m ] ' } [ } ' ' } [ } } [ = % 2X7X7X3X3X3X3X3Xg.g.g.g.g.' # . X X X X X X X X X o o + X + o o X X X . . . . . . . . . . . . . . . . . . . . . . O O O O + + @ O + @ + 3 3 3 3 ; % ; ; M p M 1.M M :.:.M 1.:.:.:.1.1.w q q 1.1.2.>.>.:.>.:.>.:.:.>.:.:.:.:.:.:.b ,.,.K ,.q M VXVXVXBXVXBXVXVXVXBXVXBXBXBXBX].I ZXCXCXDXDXCXCXCXZXZXZXZXZXZXZXZXZXZXAXAXAXZXAXAXAXAXAXAXAXAXAXAXGXAXAXAXAXAXAXAXAXGXAXAXAXAXAXAXAXAXAXAXAXAXAXAXAXAXAXAXAXAXAXAXAXAXAXAXAXXX8 &XAXAXAXAXZXAXAXZXZXZXZXZXZXZXZXCXDXdXDXdXdXDX+X2 t t t u t u e e t e e r 8 e 5 4 5 4 % $ # & c V V V S B B F Z V S B S Z S S Z D D D d O d J.J.J.J.G.Z.A.A.A.A.A.A.G.G.S.G.G.A.A.A.A.A.J A.S.J A.A.A.A.A.A.A.A.A.A.A.A.A.A.A.A.A.A.S.G.A.A.A.A.A.A.A.Z < l z C C F G J L c < P H.`.`.`.'.`.c < ,.$X$X.X`.< I $X$X$X$X$XL 7 ..Q.W.+.+.W.Q.W.!.!.W.Q.W.Q.",
"0 0 6 R Q / ( X.( X.( ( X.9.a.a.a.a.a.N.a.N.N.a.i.O.` a.3.4 u.c.j.3Xg.g...0 0 0 E E 6 E E E 6 6 6 6 Y T E 6 6 6 0 0 0 0 6 E 6 *.*...o.o.$.&.o.&.&.&.o.&...&.Q T % & - - & * & 8 m m N n : & . . 7 t m ' N ' N m ' m m ' N ] N ' } N } ' [ } 9 .  .7X7X7X7X3X3X3Xg.g.g.g.g.o.$ . X X X o X X X o o o o o o + o o & o o o X X X X . . . . . . . . . . . . . . . .   . . . . O O + + O O @ @ 3 & : 3 ; % ; 2 M p M p 1.M M 1.:.1.:.1.:.:.>.1.1.:.1.>.>.>.>.:.>.:.:.:.>.:.:.:.:.:.:.,.q ,.,.K M 1 *XBXVXVXVXBXBXVXVXVXVXVXVXBXNXBXK I CXDXDXDXDXCXCXCXZXZXZXZXZXZXZXZXZXZXZXZXZXAXAXZXAXAXAXAXAXAXAXAXAXAXAXAXAXAXAXAXAXAXAXAXAXAXAXAXAXAXAXAXAXAXAXAXAXAXAXSXAXAXAXAXAXAXAXSX&X1 *XAXAXZXAXAXZXZXAXZXZXZXZXZXCXCXCXdXdXdXdXdXdX&Xe.% t t t t t t t e e t t t 8 e 8 5 4 4 4 % $ # = B F B K.B S B S B U F S F Z S S S S S D , X c Y.J.J.J.S.A.A.A.J L S.S.G.A.G.G.G.S.L A.S.J A.A.S.J A.A.A.A.A.C.S.A.A.A.G.A.A.A.A.A.C.S.S.A.A.S.A.A.A.A.A.k d v v C C Z G J K < k P `.`.`.`.'.P 2 l '..X$XXXG 1 ].$X$X$X$X$XG 1 ..W.@.+.+.+.+...W.W.W.W.Q.",
"( ( X.( ) ( ( ) X.X.X.X.) 9.a.a.a.a.a.N.a.N.a.N.a.i.O.a.a.u 9 3X3X3X3X$.0 E E E 0 0 0 0 $ 0 0 6 T *.*.R T E 6 6 0 0 0 0 0 6 E *.&.&.&.$.o.$.@.X.o.$.$.&.&.*.' Y 0 - - - - & : m { [ [ [ n & &     $ 7 t m ' ' m y m ] m ' ' ' } ' ' ' } ' m $ b 7X7X3X7X3X3X3X,Xh.g.g.g.g.9   o X X X X X o o o o o o o o o o o o o o o X X X o . X . . . . . .   X . .   . . . . . . . . . O o + O O O @ = 3 3 % 3 q q ; p p M M M M 1.M :.M 1.:.:.:.>.>.>.>.q.1.:.>.>.>.:.>.q.:.>.:.:.M ,.:.,.K p ,.,.M q ,.BXVXVXVXVXVXVXIXVXVXVXVXVXBXBXBXG e.CXDXdXdXdXdXDXCXCXCXCXCXCXZXZXCXZXZXZXZXZXZXAXAXAXAXAXAXSXSXAXAXAXAXAXAXGXAXAXAXAXAXAXAXAXAXGXAXAXAXAXGXAXAXAXAXGXAXAXAXAXAXAXAXAXAXGX9Xj  XSXAXAXAXAXAXZXZXZXZXZXZXCXCXdXdXdXdXdX9X9XdX9X&Xb 7 t n t t t t e t t t t t t t e 8 8 7 4 4 $ $ # - B B B S B Z B F S F B V Z Z S Z S Z D S & # D J.J.H.G.A.L A.J J A.A.A.G.A.A.A.A.A.A.H S.A.L A.A.A.B.A.A.A.S.L A.A.C.S.A.A.A.A.A.G.A.G.A.A.A.A.A.A.A.A.J d x k C C C G J J G > G H.`.`.`.`..XG : K XX$X$X'.k b $X$X$X$X$X.Xv 8 +.Q.+.+.+.+.+.+.Q.Q.Q.W.",
"( ( ( X.( X.) ) X.( ) ) X.` a.a.a.a.a.a.a.N.N.a.N.N.i.9.N.p.% { 3Xc.| 6 T T Y Y 6 E 6 0 0 6 Y R *.*.*.*.*.E E 6 0 0 0 0 6 6 E *.Q &.&.o.$.o.o.&.&.$.&.{ *.&.*.T 0 - - - * @ r [ ] ] ] [ [ , & & .     $ 8 t y ' m ' N ' N ' ' ' ] ' [ [ N 2 $ -X7X7X7X3X3X3Xc.g.g.g.g.g.{ # X o o + o o o o o o & o & X o X o o o o o o X X o o . X . . . . . . . . . . . . . .   . . . . . o O O O O @ + @ 3 3 ; 3 2 ; ; q M M M 1.p M :.1.1.:.1.:.:.1.:.:.>.1.>.:.:.1.:.>.:.>.:.:.:.:.:.,.:.,.M r ,.,.b l mXBXVXVXVXNXVXVXVXVXVXVXNXVXNXNXNXv P ZXdXdXdX9X9XDXdXCXDXCXDXCXdXfXCXCXZXZXZXZXZXZXZXAXAXAXAXAXAXSXAXAXAXAXAXAXAXAXAXAXAXGXAXAXAXAXAXAXAXAXAXAXAXAXAXAXSXAXAXAXAXAXAXAXAXDXn I ZXAXAXZXZXAXAXZXZXZXZXZXCXCXdXdXdXdX9XdX9X&X&X9X+X2 8 t y t t u u t e u t e t t t e 9 8 5 5 4 4 % # . , B B B B V S S B V S Z S z F Z Z S S D B o * S.H.H.H.A.A.A.J J A.A.A.A.A.A.G.A.A.S.H S.J A.L L S.L S.A.A.A.A.A.A.S.G.S.A.A.A.A.A.S.A.A.A.A.A.A.A.A.A.A.V j k l C C Z G J P j 1 P H.`.`.`.'..Xc , `..X$X$XH.1 I $X%X$X$X$XXXl 9 +.+.+.+.+.+.+.W.Q.W.Q.",
"( X.( ( X.( ( ) ( ) ) ) ) X.9.a.N.a.a.9.9.N.N.N.N.N.a.i.N.N.W 2 j.d.9 Y R R R R Y Y Y R R R *.&.*.&.*.*.*.*.E 6 0 0 0 0 6 6 E E *.{ &.&.&.o.$.o.$.&.o.&.&...*.T $ & - - @ 2 ] ' ] ] [ } } r o = & o . #   # % 7 8 t m m m ' N ' N ' N ' e . [ 7X7X7X7X6X3X3X3Xg.g.g.i.g.0   o o + o o + + + o o + o o o o X & o o o o o o o o o X . . . . . . . . . X   . . . . . . . . . O + O O O O + @ + 3 = 3 ; ; ; q M l p p M M M 1.M M :.:.1.1.>.>.1.>.:.>.>.>.:.:.:.:.:.:.:.M :.:.:.:.:.M p ,.K ; ,.VXVXVXVXVXVXNXVXVXVXVXMXNXMXNXNXNXG } DXDX9X9X9X9XdXdXdXdXdXDXdXdXdXCXCXCXZXZXZXZXZXZXZXAXAXAXAXAXAXAXAXAXAXAXAXAXAXAXAXAXAXAXAXAXAXAXAXAXAXAXAXAXAXAXAXAXAXAXAXSXAXAXAXZXI V DXAXAXAXAXAXZXZXZXCXZXZXCXCXdXdXdX9XdX&X&X9X&X&X&Xe.$ e y u t t t t e t t t t u t t t e e e 8 5 4 4 $ # . a B S S B B B S B V S V K.B Z Z Z Z S S k # d G.H.H.J.A.A.A.L J L P Z.A.A.A.A.H A.A.J A.L A.L L L S.A.A.A.S.A.A.A.S.A.A.A.A.A.A.A.A.A.A.A.A.A.A.A.A.A.A.j k z v C C G J J K 2 v G.G.`.`.'.].`.: v '.'.$XXXG 1 ].$X$X$X$X$X]., U +.+.+.+.+.+.Q.W.Q.W.",
"( ( ) ( ( X.( X.( ( X.X.( X.X.i.N.N.a.9.O.O.i.a.a.N.a.O.a.N.i.0 t T T R R R R *.*.R *.R R &.&.&.&.&.*.&.*.T Y 6 6 0 0 0 0 6 6 *.*.&.&.&.&.&.{ &.$.o.&.&.&.*.T E $ > > & % W ] N ] [ [ }  .N . + & & o o .         # $ $ $ 2 8 8 b 8 8 2 O 8 6X7X7X5X7X3X3X3Xg.g.g.g.O.{   # + o o o & o o o o o o o o o o o o o & o o o o o o o X X X X X X X X X . .   . . .   . . X . . X X X O O O O @ @ 3 3 3 3 ; ; q p l M p p M M 1.M 1.:.:.1.:.:.>.:.:.1.:.1.:.:.:.>.:.:.:.,.:.:.:.M :.K M q <.l M VXVXVXVXVXVXVXMXVXMXVXMXMXmXVXmXNXNXF I DX9X&X&XdX&XdXdXdXdXdXdXdXdXdXdXCXCXCXCXZXZXZXZXAXAXAXAXAXAXAXAXAXAXAXAXAXAXAXAXAXAXAXAXAXAXAXAXGXAXAXAXAXAXGXAXAXAXAXAXAXAXAXAXAX} c &XSXAXAXZXAXZXAXZXZXZXCXCXdXDXdXdX9X9X&X&X&X&X&X&XOX1 7 t t t t t t t t u e t t t t t t t e r 9 8 5 4 4 $ # . f V V V A F B F V Z B S Z F F B S Z Z K.a . B F.J.J.Z.S.A.A.J J A.A.S.A.A.A.A.S.H A.A.S.H L S.L A.A.S.S.J A.A.A.A.A.A.S.A.A.S.A.S.C.S.A.A.A.A.A.A.A.A.V a c v C C C G J L v , J `.H.`.`.`.'.K = G XX$X.X.Xc b .X$X$X$X$X%XL 2 ..+.!.!.!.!.W.Q.W.Q.",
") ( ( X.X.( X.( X.X.X.( X.X.X.` a.a.N.N.9.X.X.O.O.9.O.O.i.N.a.Q $ E R R R ^ *.^ Q R &.R Q R &.&.&.&.&.Q *.*.T 6 6 0 0 6 6 6 E T Q *.&.Q &.&.&.o.&.&.&.&.&.W T 9 * > & % m ' m ] [ } { q.e.] @ o & & & & + o o X # # # . . .   . . . X   @ f.7X7X7X7X7X3X3Xg.3Xg.g.g.g.4   + + + & & o o o o o o + X o X o & o o o o o o o o o o X X X X X X X . X   . . . . . .   .   . . . X X X . O O + @ @ = ; % ; 2 ; l b l M M p M M M M 1.1.:.1.1.1.1.>.:.:.>.1.:.:.:.:.:.:.:.:.M :.,.:.,.M b M p bXVXVXVXVXVXmXmXMXmXmXmXmXmXmXmXMXMXMXK v dXdX9X9XdX9X&X&X9X&X1XdXdXdX9X9XdXCXCXCXZXZXCXZXZXZXAXZXAXAXAXAXAXAXGXAXAXAXAXAXAXAXAXAXAXAXAXAXAXAXAXAXAXAXAXAXAXAXAXAXAXAXAXSXOXb &XGXAXAXAXSXZXZXZXZXCXCXCXCXdXdXdX9X&X9X&X&X&X+X9XoXb $ e y t t n t t 8 e t t t u n t t t t t t e e 8 7 5 4 $ # . f V V V B K.B F B S B F Z z K.Z Z F F B & : L J.J.H.S.S.A.A.H A.L A.A.A.A.A.S.J J S.A.A.S.L L A.A.A.A.A.A.A.A.A.A.S.A.A.A.A.A.A.S.A.A.A.A.A.A.A.A.A.S.f d k z C C G K J L d q P H.`.`.`..X`.c < J.#X$X$XH.1 G $X$X$X$X$X#XB 8 $.!.Q.W.W.Q.W.W.W.",
"( X.( X.( X.( X.X.( X.( X.) X.) 9.a.N.a.N.i.X.X.X.O.O.O.a.N.a.` 9 $ R R R ^ ^ *.^ *.*.&.&.&.&.&.&.&.&.&.&.*.Y E 6 0 0 0 6 6 6 T W *.&.&.&.( &.&.&.&.&.&.R T Y 0 * & $ m ] m ] [ [ { w.} [ { r . & & + + o & & o & & & + o o + & + + o   ] 7X7X7X7X7X3X3X3X3Xg.g.g.g.'   O + + & o o o o o o o o o o X o o o o o o o o o o o o o X X X X X X X . X . X X . . . . X   X . . . . X . . O O + @ 3 3 3 3 q 3 q l M l b p M =.M 1.M 1.:.:.N :.:.:.:.:.:.:.:.:.:.:.:.:.:.:.:.,.M :.M ,.M q l %XVXVXVXVXVXmXmXmX|.MX|.|.mXmX|.mXmXmXMX].b &X&X&X&X&X&X9X&X9X&XdX9X&X9XdXdXdXCXCXCXCXZXZXZXZXZXZXZXAXAXAXAXAXAXAXAXAXAXAXAXGXAXAXAXGXAXAXAXAXAXAXAXAXAXAXAXAXAXAXAXSXSXSXdXb %XAXAXAXAXZXSXZXSXZXZXZXCXCXCXDXdX9X9X&X&X&X&X+X&XOXr : 8 t n t u t t e 7 8 e t t u t t n u u t t t e 5 8 5 4 4 $ # & k B B B B B F V V S z Z V Z Z Z S S S c O f H.H.J.J.Z.A.A.A.J S.A.A.A.A.A.J J J S.B.L S.L J A.J A.A.A.A.A.A.A.A.A.A.A.A.A.A.A.A.A.A.A.A.A.A.A.A.A.A.A < k l V v Z F J L G : A P `.`.`.`..XP 2 c .X$XXX.XK < H.$X$XXX$X$X.Xk h W.W.Q.!.W.Q.Q.W.",
"X.( ( ) ( X.X.( X.X.X.X.X.( X.X.` a.N.a.N.a.O.X.O.X.X.` a.N.N.O.&.0 0 R ^ *.*.^ ^ &.^ *.&.&.&.&.o.&. .&.&.*.E 6 6 0 0 0 6 6 E E T *.*.&.&.&.&.&./ &.&.*.*.T Y 0 + $ h ' W ! [ [ } [ } { { e.y   + & + & & o & & @ + + + o & & & + & . 3 -X7X7X7X3X3X3X3Xg.c.g.h.g.o.$ X + o + + o o o o o o o o o o o o o o o o o o o o o o o o X X X X X X X X X X   X . . . . X X . . . . . . O O O + @ + 3 = ; 3 q 3 q q l b M M M M M 1.M M M 1.1.:.1.:.1.:.:.1.:.:.:.:.:.:.:.M :.:.:.,.:.K b q ,.VXVXmXmXmXmXmX|.mX|.}.{.|.}.|.}.|.{.{.[.F : %XdX9X&X1X&X&X&X&X&X&X9X&X&X9X9X9X9XdXCXCXCXCXZXZXZXZXAXAXAXAXAXAXAXAXAXAXAXAXAXAXAXAXAXAXAXAXAXAXAXAXAXAXAXAXAXAXAXAXAXAXSXCXG  XGXZXAXAXAXAXZXZXZXCXCXCXCXDXdX9X9X9X9X9X&X&X&X&X+Xc : 9 t u t t y t e 7 5 7 4 e t t t y t t t t t t t t e 5 4 4 $ $ # * B B B S V B S V B K.V Z S V S V S V Z , # v J.H.H.Z.A.J S.A.J L A.A.A.L J S.S.H S.L L B.A.A.A.A.S.A.A.A.A.A.A.A.A.A.A.A.A.A.A.A.A.A.A.A.A.A.A.A.A.A.j j k x z C G G J P c < P `.`.`.`..X.XK : K $X].$XXXc b $X$X$X$X$X%XF., ' Q.W.!.Q.W.Q.W.",
"X.) ( ) ) ) X.X.( X.X.) X.) X.X.X.` a.a.N.a.a.` O.O.O.9.N.N.a.i.O.^ $ Y ^ *.*.&.*.^ &.^ &.( &.&.&.&.&.&.Q W Y 6 6 6 0 0 0 E E T T *.^ *.&.&.&.&.&.R ^ Q T T E 4 $ y ] m m ] [ } [ } [ [ { [ [ 3 o & & + & + o & & + o + & & & + & O   ' 7X7X7X5X7X7X3X3X3Xg.g.g.g.T   X o o o o & o o o o X o o o X X X X X X o o o o o o o o o o X o o X o o X X X X X X   X     . . . . . . . . . X o o @ @ & 3 2 : ; q r l q q M M M p M M 1.1.M :.1.1.M :.:.:.:.:.:.M :.:.:.:.M :.M M :.:.,.q q ].BXMXmXmXmX|.|.|.{.}.}.|.{.}.}.{.}.[.q < [.< P &X&X9X&X&X+X+X9X&X&X&X&X&X&X9X9XDXDXCXCXCXCXZXZXZXZXZXAXAXAXAXAXAXAXAXAXAXAXAXAXAXAXGXAXAXAXAXAXAXAXAXAXAXAXGXAXAXAXAXAXAX9X} CXSXAXAXAXAXZXZXZXZXZXCXCXdXdXdX9XdX9X&X&X&X&X&X Xr 8 ' t t t t t t t 8 % 5 5 % 4 t t u t t t u t n t t t e 8 8 5 5 % # # > B V U B F V B B S V Z B S Z Z S S S B @ * L F.H.J.S.A.A.J A.J A.J S.L D L D J J S.H A.A.A.J A.A.A.A.A.A.A.A.A.A.A.A.A.A.A.A.A.A.A.C.S.S.J S.A.S.L Z < k z x v C K J L J 1 c P `.`.`.'..X].c < `.$X.X$X].1 K $X$X$X$X$X$XP 2 ..Q.W.W.W.+.W.",
"i.` ) ) ( X.( X.X.X.X.( ) X.X.X.X.X.i.N.N.N.a.a.O.O.` a.N.N.a.O.X.X.T 4 *.^ ^ ^ &.&.&.&.&.&.&.&.&.&.&.&.*.T Y 6 6 6 0 6 6 6 E T T R *.&.Q Q Q ^ Q &.*.*.T T 0 $ m ] ] ] [ [ q.{ [ [ [ [ e.r.} 7 X & & + & & & & & + & + + & + & +   2 6X7X7X7X7X3X3X3Xg.g.g.g.g.{ X X X & & & o o o o o o o o X X X X X X X o X o o o o o o o o o & o o + X o X o X X X X X X X . . . . . . . . . . X O o + 3 3 3 ; ; = q l M l q M p M M M M 1.M 1.1.:.1.:.:.M :.M 1.:.:.M :.M :.:.M :.:.,.M M q l q ].mXMX|.}.{.{.}.{.{.{.{.{.{.{.{.L.* s z [.F 2 &X&X&X&X&X&X&X@X+X&X@X&X&X&X9X9X9X9X9XCXCXCXCXCXZXZXZXAXZXAXAXAXAXAXAXAXAXAXAXAXAXAXAXAXAXAXAXAXAXAXAXAXAXGXAXAXAXAXAXAXAXZXSXSXAXZXZXAXAXZXZXZXZXCXCXfXdXdXdXdX&X&X&X1X&X&X&X X% *.*.9 8 e t t t e 5 % 5 r 5 % % 8 e t t u y t t t t t t e 9 8 8 4 4 # . f B B B B V F B B S V S B V S B S Z S k . f G.H.J.H.S.A.A.S.J D A.L S.L B.L S.H S.A.A.S.J S.A.J A.A.A.A.A.A.A.A.S.A.A.A.A.A.A.A.A.A.A.A.A.A.A.S.L J a < k k C v C G J P C , G H.H.`.`.'.'.P 2 b .X$X$X$XP 1 ,.$X%X$X$X$X$XA 8 +.W.W.+.W.+.",
"a.a.` X.X.) X.) X.X.X.X.X.( X.X.X.X.X.i.a.N.N.N.a.O.i.N.N.N.a.X.X.O.&.0 6 ^ &.^ ^ &.&.&.^ &.&.&.o.&.&.*.Q T T E 6 6 0 6 6 6 E E Y T R *.*.^ ^ &.&.R *.*.R 0 % ] ] ] ] ] [ [ } [ ] ] ] [ [ w.{ n . & & & o & & & & & & & & + & & O . t.7X7X7X7X6X3X3X3X3Xg.g.g.%.8 X o & & o o & o & o o o o X X X X X X X X o o o o o o o o o o X o + o + o + + o o X X X X . X . . . . X X . . . . O O o @ @ = = : ; 3 q l q q M l M M p M M M M 1.M :.M :.1.:.M :.:.M :.M M :.,.M :.M M M ,.,.q M l ; l [.{.{.{.{.{.{.{.|.}.}.{.[.g = z G x C.{.3 I &X&X+X&X+X+X&X+X+X+X+X&X&X&X&X9XDXDXDXdXCXCXCXZXZXZXAXAXAXAXAXAXGXAXAXAXAXAXAXAXAXAXAXAXAXAXGXAXAXAXAXAXAXAXGXAXAXAXAXAXGXSXSXSXSXSXSXAXZXZXCXZXCXCXCXdXdX9XdX&X9X&X&X&X+X&XT.2 *.*.9 8 9 t t t e % 4 9 9 9 5 4 $ 5 t t t t t t y t t t t e 8 8 5 0 $ # + k B B B V S B F B F B S F V F K.Z Z Z , . B H.H.H.S.A.L J J D S.L D A.H H A.S.H S.H J S.A.J J A.J A.S.A.A.A.A.A.A.A.A.A.A.A.A.A.A.A.A.A.A.B.L S.J d * k z C v C G J K L k 1 P `.`.`.'.'..XK = G XX.X$X$Xv d ].$X$X$X$X$X.Xj h +.+.+.W.W.",
"a.a.a.` X.) ) X.X.( X.X.X.X.X.X.X.X.X.X.i.N.N.N.a.a.a.N.N.a.9.X.X.X.X.&.$ T *.^ &.^ &.&.&.&.&.&.&.&.&.R *.R Y 6 6 6 0 0 6 E E E T T R *.R *.^ *.R &./ R 6 2 m ] ] ] ] ] [ [ [ ] ] ] ] ] [ } } } o + + & & o & & + & + & & & & o   e 8X7X7X7X7X7X3X3Xj.g.g.g.g.{ X o o & o & o & o o o o o o o o X X X X X X X o o o o o o o o o o X o o + o + o o X X X X X . . . . . . X X . . . . X O O + & @ 3 3 : : < l l M q M p l l M p 1.p M M 1.1.:.M M M 1.:.M :.:.:.M M :.M :.,.K K K r v ,.v ; 3 l [.[.[.[.[.[.L.L.z ; & ; k G F k V.mXz : XX9X&X&X+X+X+X+X+X+X&X+X+X&X&X&X9X9XdXdXCXCXCXCXZXZXZXZXAXAXAXAXAXAXAXAXAXGXAXAXAXAXAXAXAXAXAXAXAXAXAXAXAXAXUX(.CXAXAXAXAXSXSXSXZXSXDX9XZXZXZXCXCXCXDXdXdXdX&XdX&X9X1X&X&X&XU.8 *.' 9 8 8 t t t r $ 5 5 e t e 9 % # 7 t u t t t n u t t t u e 8 8 7 4 $ # & B B B B B B U B B S B B F B V A A Z B & $ L H.H.S.A.J A.S.J D J J H H S.H H S.A.H S.A.A.A.A.A.A.A.C.A.A.A.A.A.A.S.A.A.A.A.A.A.A.A.A.A.A.A.L L A.V = < j k V C C G J L J 2 v P H.`.`.'.'.'.c 2 `.$X.X#X.Xq G XX$X$X%X$XXXH.< ' Q.W.W.+.",
"a.a.a.a.` X.X.) X.) X.X.X.X.X.X.X.X.X.X.O.i.a.N.N.N.N.N.N.a.O.O.X.O.X.O.Q 4 Q &.^ &.&.( &.&.&.&.&.&.^ *.R R E E 6 6 0 0 6 6 E E Y T *.Y R ^ ^ ^ ^ *.R 9 2 ] ] ] ] ] ] [ [ ] ' ] ] [ ] ] ] } { q.> o & & o & o & & + & & & & &   @ f.gX7X7X7X3X3X3X3X3Xg.g.g.%.% X o o o & & & o & o & o o o o o X X X X X X X X X X X X . X X X X X o o X X X o o o o & X o X X . . . . X X   X X . . . O @ + 3 3 = ; = q q q l M l l M l M M M :.:.:.1.M :.M M :.M M 1.:.M M :.M :.M ,.M ,.M ,.q v I K M q : # @ & & & @ O @ + @ l G G G Z - [.MX[.: : OX&X&X+X+X+X+X@X+X+X@X*X&X&X&X9XdXdXdXdXdXfXZXZXZXZXAXAXAXAXAXAXAXAXAXAXAXAXAXAXAXAXAXAXAXAXAXAXAXSXAXAXSX&XI SXAXAXSXSXSXSXSXSXZXI  XZXZXCXCXCXdXdXdXdXdX9X&X9X&X&X&X&X&Xe.2 ' *.h 8 7 t t u 8 % 8 5 9 t 9 t 9 % # 4 t t t t t t n t t t t e 8 5 5 4 $ # : B B B V B V V V V V S V V S Z V Z S k # 1 D.G.H.A.L J S.D S.D D H B.L L H A.J S.L S.L S.J A.S.L S.A.A.A.A.A.A.A.A.A.A.A.A.A.S.A.A.A.A.L L A.A.J < * k k v v C Z K J P v , P H.`.`.`.'..XH.2 c .XXX$X$XP < G.$X$X$X$X$X%X,.< ..Q.+.W.",
"a.a.a.a.a.` X.X.X.X.X.X.X.X.X.X.X.O.X.O.X.X.O.a.N.N.N.N.a.9.O.O.X.O.O.O.X.Y 0 Q R R *.^ ^ &.*.R *.^ *.^ R Y E E E E 0 6 6 6 E E Y T T Y Y R R R R R E % m ' ' ] ] ] [ [ [ ] N [ [ } [ ] ] [ } { h X & o & & & & + & & + & & X   ' yX7X7X7X7X7X3X3X3Xg.g.g.g.W   o o o & & o o & o & & o o o o o o X X X X X X X X X X . . . . X X X o o X X X o o o o o o o X X . . . . X X X X   X . X O O @ @ = = ; = l l l l l p l l p M p M M p 1.M 1.M M 1.M :.:.M M :.M M M :.M M M M M ,.j M ,.K K G C c q q < < < j v v j 1 k G G k , {.MXMX].@ 2 e.&X&X+X+X+X%X+X+X+X+X+X+X&X9X9X9XdXdXDXCXCXCXCXZXZXZXZXAXAXAXAXAXAXAXAXAXAXAXGXAXAXAXAXAXAXSXAXAXAXAXIX&XI SXAXAXSXSXSXSXSXZXe.A CXAXZXZXCXCXCXdXdX9XdX&X9X&X9X&X1X&X9Xe.5 T *.9 9 7 t t e 4 % 9 u y y u u t 9 % # $ e t t t t u u t t t t e 8 8 4 4 #   < B B B V V B V V V B B S V B S V Z A , . B G.G.G.A.S.J S.D D S.L D D L S.D D S.L B.S.J J S.L L A.A.A.A.A.S.A.A.A.A.S.A.A.A.J A.A.A.S.A.A.A.J A.B * s l k z C C G J J P < l G.H.`.`.]..X.XJ : G .X$X$X$Xv b XX$X$X$X$X$X].K 8 ..W.+.",
"N.a.N.a.a.a.` ` ` O.) ) X.X.) R 9 Q ) X.X.X.O.O.a.N.N.N.i.O.X.X.O.X.O.) X.X.9 T ^ R ^ ^ *.^ ^ R R R R *.R T E E 6 6 0 6 E 6 E E E Y E Y Y R R R ^ E 0 m ] ] ] y ] ] [ ] ] ] [ [ [ [ [ [ ] ] [ { n   & & & & & o & & & & & o   2 6XgX7X7X7X3X<X3X3X,Xg.g.g.o.#   o o o o o & o & & o o o o & o o o X X X . . X X . X . X X X . . X X X X X X X X o o o o o + X X . . X X X X . X . X . . . O + + & = = 3 q l j q q l p M M p M p M M M 1.1.1.1.M 1.M :.:.M ,.:.M ,.M :.M :.,.M ,.q M K M G G G G H G G G G G G G G l < q C : V.}.}.MXmX'.3 @ N XX&X+X+X+X+XXX+X+X+X+X+X&X9XdXdXdXDXdXZXZXZXZXZXZXAXAXAXAXAXAXAXAXAXAXAXAXAXAXAXAXSXAXAXAXAXAXSXAXGX XoXSXAXAXSXSXSXSXSXXXb 9XAXZXCXCXCXDXCXdXCX9XdX9XdX9X&X&X&X&X&X} 4 *.*.8 9 4 e t e % 5 t t y W ] m y u t 5 $ # 2 t t t t u t t t t t t 5 7 5 4 # # d B B B B V B V V V Z B F S B Z Z S B & & D G.S.A.J J L D D D D H H B.H A.J J A.A.J S.A.L L S.A.A.A.A.S.J A.A.A.A.S.A.A.A.S.A.A.A.J A.S.J A.A.J s < k k z B C F K J L Z - J H.`.`.`..X'..Xc : H.$X$X$X].q G $X$X$X$X$X%X].k h +.+.",
"N.a.N.a.a.a.a.a.a.a.i.i.X.X.) W 6 0 4 0 5 5 T W / _ i.a.i.O.O.O.O.O.O.O.X.X.) Q *.^ R ^ ^ ^ R R R R R R T Y E E 6 E 0 6 6 6 6 6 E E E Y R R R R Y > h } ] ] ] ] ' [ ] ] ] [ ] [ ] [ [ [ [ ] [ } ' @ & & & o & & & & + & & .   t.gX7X7X7X7X7X3X3X3Xg.g.g.j.8   o & o o o o o & o & & o & o & o o o o X X X X X X X X X . . X X . X X X X . . X X o o o o o o o X X X X X . . .   .   X . X X @ + 3 3 ; = < j j j l l l l l M p M p M p M M M M 1.M M M M :.M M :.M M M K M M K K d M K K K G G K G G G Z G H Z G G G C j : > [.MXMXmXmXmX[.<   3 M XX+X+X+X+X+X+X+X+X+X+X&XdX&XdXdXCXCXCXCXZXZXZXZXZXAXAXAXAXAXAXAXAXAXAXAXAXAXAXAXAXAXAXAXAXAXAXZXL &XAXAXAXSXSXSXSX+X8 *XAXZXCXZXCXCXCXdXDXdXdX&XeX&X&X9X9X9X&X&XU $ 8 5 9 8 7 e t 9 4 5 u u t ] ] ] W y y u 8 % # % r t t t t n t t t t e 8 7 4 % # # k B B B B B V V B B F B B S V V A S k X < Z.G.G.S.S.L L S.D S.H D S.H H S.H S.H S.A.J S.B.A.A.A.A.A.A.A.A.A.A.A.L S.B.A.A.A.S.A.J A.L A.A.J A.k * j k k z V C G J K P j j P G.`.`.`..X].`.1 j '.$X.X$XP 1 ].$X$X%X$X$X$XJ.1 m +.",
"0.a.N.a.N.N.N.N.N.N.N.a.9.O.O.X._ / Q W W 9 0 4 $ % 4 6 Y Q Q W Q W Q ) ) O.O.) &.^ ^ Q ^ &.^ R *.R R R R E E E E E 0 6 6 6 E E E E E R R R R Y % t [ [ ] ! m ] [ ] ] ] [ ] ] ] ] [ [ [ [ ] ] [ [ 2 & & & & & o + & & & +   e 7XyX7X7X7X3X3X3X3Xg.g.g.g.W # X + & o o o o o o o o & & o o o & o o o o o . . . X X X . . . X X X X X . . . X . X X X X o o o o o X X X X X X . X . . . . . X + + = = : = q j j q l l l M l M M M M M p M M M M M M :.M M M M M :.:.M M M M M M K 1 K K K M G G M G G G Z G A Z G Z G G G - V.}.}.}.mXnXnXnX*X,.< + 3 r I  XOX+X+X+XXX+X+X&X&X9XdX9XCXCXCXZXZXZXZXZXAXAXZXAXAXAXAXAXAXAXAXAXAXAXAXAXAXSXSXAXAXAXAXCXN 9XSXSXSXSXZXSX&X1  XSXSXZXZXCXCXCXCXCXdXdXdXdX&X9X9X9X&X&X&X9Xb 5 9 9 9 7 7 e 9 r 5 5 y ! m t ] [ ] ' y y u 9 4 # $ 8 t t t t t t t t e 5 8 5 4 % # @ d B B B B B B B B B U B B V S Z S V , O x G.G.G.L L S.J D H H B.D S.H H L L B.H H A.A.J A.A.A.A.A.S.A.A.A.A.A.A.A.A.A.A.A.A.H J S.L A.A.A.A.S > , l k l V C G G J P G , A G.`.`.`.]..XXXP : G $XXX$X.Xb b XX$X$X$X$XXX$XP 2 ..",
"N.N.N.N.N.a.N.a.N.N.N.N.a.i.O.X.X.O.X.O.X.) X.( / W T 4 # # #   #   # # % 6 9 6 9 6 6 E T R ^ R ^ R R R Y Y E E 6 6 0 6 E 6 6 E E E Y Y E R Y 4 t [ [ ] ] m ' [ ] ] ] ] ] m ] [ [ [ [ [ [ ] ] ] [ e X & - & & & & & & +   @ ;XyXgX7X7X7X7X3X3X3Xg.g.g.f.$ . & + & o & o & o & & o & o & o & o o o . . . o X . . X . . . X . . . X X . . . X X . X X X o o o o o X X X X X X . X   . . . . . o o @ = = = < s j j q l l q l p p l M p M M p M M M M M M M M M M M M M M M K M I M 1 M G G G G G G K A Z Z C G Z Z A Z G j d {.}.|.MXMXMXMXnXnXmX*X`., : @ = 1 b n I +X+X+X&X&X9XdXdXdXdXCXCXZXZXZXZXZXAXAXAXAXAXAXAXAXAXAXAXAXAXAXAXAXSXSXAXSXAXSXdXG CXSXSXSXSXSX&Xj P ZXZXSXZXZXZXCXCXdXdXdXdXdXdX9XdX&X&X9XdX9X9Xb 8 4 9 9 % 8 t e e 4 8 y ' [ ] u ] [ ' ! W n u e 4 # $ 8 u t u u t t t e e e 8 4 % $ # $ h c B B B B B B V B B S V B V V S B & $ D S.G.A.L L J S.H H D L H D S.L D A.A.S.L B.A.S.J A.A.S.J A.B.A.A.A.A.A.A.A.A.A.A.A.A.A.A.J J S.J A.j & d k k z V C G G J A.c 1 P H.`.`.`..X]..Xv : `.$X$X$X'.< P $X$X$X$X$X$X#XA 2 ",
"N.a.a.N.N.N.N.N.N.N.N.N.N.a.O.O.O.X.O.X.O.O.X.X.X.X.X./ Q W T 9 Y 9 9 9 6 9 6 0 0 4 4 $ $ @ $ $ 0 E E E E E E E E E 0 E E E E 6 E E E Y R Y 0 n [ [ ] ] W ] [ [ ] ] ] ' ] ] ] [ [ [ [ [ [ ] ] ] [ m O & & & & & & & & o   N gX7X7X7X7X7X3X3X3X3Xc.g.g.9   o + & o & & o o & & o & o & o & o o X   2 8 e ] 8 . X X X X . . X X X X . . X . . X X X X X X o o o o X X   X X . X   X . . X . . X o @ @ = ; < q q j q l l b q M q M p p M M M M M M M M M M M M M M M M M M M M K G 1 G G G G G G G G G Z C G Z G Z G C V < [.}.}.MXMXMXMXmXmXnXmXbX*XA } I $ b b v e.OX+X@X+X&X&XdXdXdXDXCXCXZXCXZXZXZXZXAXAXAXAXAXAXAXAXAXAXAXAXAXAXAXSXSXAXAXAXSX&XI SXSXSXSXSX&X1 } ZXSXSXZXZXZXCXCXCXCXdXCXdXdXdX9XdX&XdX&XdX&X+X1 t 7 $ % 4 r r 9 e 5 9 y ] [ [ ] t ' [ [ ] W W t t 5 # $ r t n t t t t t t 9 8 7 4 % $   $ c B B B B B B B V V V V S Z V A S d X d L G.G.S.L S.S.D D D S.D S.D L S.H J S.L S.A.H S.J A.A.A.S.S.A.S.A.A.S.A.A.L S.A.A.A.L S.J S.L A.S.S & , k k z v v F G J L K < v H.H.`.`..X'..X`.1 l '.$X$X$XK 1 '.$X$X$X$X$X$X.Xc ",
"N.N.N.a.a.N.N.N.a.a.N.N.N.N.i.O.X.O.X.X.X.X.O.X.X.X.X.O.) O.O.O.X.X.` O.) ) X.X.&.( ( / Q T Y 9 4 . # + # # # $ # $ # # $ $ $ 0 E E T T E 0 h ' ] ' ] m ] [ ] ] ] ] ] ! ' ] [ ] m e m [ ] ] ] ] [ ] $ & - & & & & & + X % <XgXgX7X7X7X5X7X3Xg.g.g.g.o.o X + + & & & o & & o o & & & & & & o X X $ m w.[ [ N X . X X . . . X . . X X . . X X . X X X X X X o o o X X X X X X X X . . . . . X . X + + = * < < d l l l q l M l l M M M M p M l p M p M M v M M M M G M M M K M G M 1 G G M M A G v C C G C C Z C C Z C < z }.}.MX}.MXMXMXNXmXmXbXmX*Xb XX Xq } +X+X+X+X+X%X+X&X&XdX9XdXdXCXCXCXZXZXZXZXZXAXZXAXAXAXAXAXAXAXAXAXAXAXAXAXAXAXAXAXAXZX&XI SXSXSXSX+Xd ,.SXSXSXZXZXZXZXCXZXFXCXCXdXdXdXdXdX9XdX9XdX9X&XOX: 9 7 8 8 r 9 e e e 4 8 y ] [ { { ] r m [ ] ] y y u 9 5 $ $ r t t u t t u t e 9 8 5 4 4 # # % x B B B B B B B B B B B V A V Z S : # A G.Z.G.S.J J S.S D D H J S.D H D S.L S.D A.J A.A.A.J A.L S.L A.A.S.J A.A.A.S.L B.J S.L S.L B.A.H L < + d j k k C C G H K L v 2 P P `.`.`.'.'..XK : P XX#X$X.Xc b $X$X$X$X$X#XXX.X",
"N.a.N.N.a.a.a.a.` i.a.N.N.N.a.O.X.X.X.O.X.O.O.X.X.X.X.X.X.O.X.O.O.X.X.X.O.X.O.X.X.O.O.X.X.X.X.O.u.! W u 5 0 4 $ 0 4 0 4 $ $ $ # # # $ $ #   : $ $ % % $ % % % $ % % % 7 7 7 9 5 4 W W ] ] ] m ! ] [ 8 . & & * & & & &   } 7X7X7X7X7X7X7X3X3Xc.g.g.g.9   o + & X + + & o & + o & & & & & .   # q ] [ [ [ [ } % O o X X . X . . X X . . X X . X X X X X . X X . X o o o o X X X   . . . . . X X o + & = * < q s j j j q l l l l p p M p M b M l M M M M v M M v M M M M M M C G v < G G G M G v G C A G C C Z C A Z d a [.MX}.MXMXnXMXMXMXMXbXMXbX$Xc @X@Xb 1 +X+X+X+X@X%X+X+X&XdXdXdXdXDXCXCXZXZXZXCXAXZXAXAXAXAXAXAXAXGXAXAXAXAXAXAXAXAXAXAXAXAX&Xv &XAXCX} 2 } ZXAXAXAXAXZXZXZXZXCXCXdXCXDXDXdXdX9X9XdX9X9X9XdXe.% e 8 7 9 8 r 5 t e 5 5 y ] ] ] [ { ] 8 m [ [ ] ' y t 9 5 @ $ e t t t t t t t t 5 8 5 4 % # $ f B x B x B B B B B S B B B S B S x + * Z.Z.Z.G.S.J S.H D D D S.D J S.D S.S.J S.S.L L L S.J S.A.A.A.A.A.A.A.A.S.L S.J A.A.S.J A.L S.D S.H V @ , k k k k z G G J K L 1 c G.G.`.`.]..X.X'.c 1 ].$X$X$X`.1 ,.$X$X$X$X$XXX$X",
"N.N.N.9.9.O.O.O.X.X.O.a.N.N.a.` X.X.O.X.X.X.X.X.O.X.O.X.O.X.O.X.X.O.O.X.O.X.X.O.X.X.X.X.X.X.X.i.a.a.a.a.8.) ) / ( ( / &.( _ p.6.3.! 9 7 0 4 0 0 4 5 4 0 0 4 4 0 0 0 0 9 W 9 u T / ` u.{ ] ] ' ] ] ] y # & - & * & & . 8 7XgXgX7X7X7X3X3X3X3Xg.,Xg. .# X + & + & + + o & + & & & & & + O   7 N [ } q.q.] N q.8 . o o X X . X X X . X . . . . X X X X . X X X X X o o o o X X X X . . . . . X o X O 3 ; : < < s q j q j l l q l M M l l M p l M M M l l M M M v M v M M v M C M v 1 G G M C C G C v G v C A C C C z - [.}.}.MX}.MXMXMXMXMXMXbXbXbX[.l +X&XI + I +XXXOX@X+X+X@X+X&X9XdXdXDXCXCXZXCXZXZXZXZXZXAXZXAXAXAXAXAXAXAXAXAXAXSXAXAXAXAXAXAXAX} b G 8 j XXAXAXAXAXZXAXZXZXZXCXZXCXCXCXqXdXdXdXdXdX9X9XdX9XdXI 0 9 8 7 e 5 8 5 e r 4 t ! ' m m y [ w.] 8 n [ [ ' ! y u e 5 $ % e t t t t t t e e 8 5 5 4 % # $ f B B x B B B B B B B B S F B V S f X d Z.G.G.S.A.H H J D D H S.D H L J J D S.L B.S.L L S.A.A.A.A.H A.A.A.A.J L A.S.L J A.S.S.L S.S.J A.H > & j l k z v C F G H P A > G `.`.`.'.'.`.XX`.: A $X$X.X$XG j .X$X$X$X$X$X$X",
"N.N.9.` X.O.O.X.O.X.O.i.N.N.N.a.O.X.O.O.X.O.O.X.O.X.X.X.X.O.X.O.O.X.O.O.X.O.O.X.O.X.O.X.X.X.` a.N.N.N.a.O.) ) ) X.X.X.( ) O.a.N.a.a.Q Q ) ) ( ) ) X.) X.X.X.X.X.X.X.O.a.9.O.X.O.O.a.a.u.y ] ] y ! ] N % X * * * & & @ t.gX7X7X7X7X3X3X3X,Xg.j.g.g.0 . + & + & o + & & & & & o o + + O # 8 ] } q.[ q.} ] ! [ n . o o X X X . X . . . . . X . X X X X X X X X X X o + o o X X X X . . .   . . X + o + = = < < < q j j j j l l l b l l l p M l M p M l M M M M M z M v M v M M C c q C G v C G C C C v A G C A A v g L.}.}.MX|.MXMX}.MX}.MXMXbXMX}.[.l *X&X+X2 b OX+X@X@X+X+X+X+X&X9XdXDXdXdXCXCXZXZXZXZXZXZXAXAXAXAXAXAXAXAXAXAXAXAXAXSXAXAXGXAXAXGXCXXXU XXDXSXAXAXAXAXAXZXAXZXZXZXCXCXCXCXCXDXdXdXdXdXdXdX9XdXdXb 0 6 9 7 5 8 9 e r 9 4 e W ! t [ y t [ { ] r y [ [ ] ' y u 5 5 # % t t t t t t t t t 5 7 4 4 $ . % h k x x x B B B B B B B B U Z V V * @ A D.G.G.A.J A.S.D D H D B.L H H S.J S.A.A.A.A.S.A.L A.A.A.A.A.A.J A.A.A.L A.A.L S.H A.A.B.S.A.J J B + s k k k z v Z G H J P j j P `.`.`.'.'.'.'.A 2 `.$X.X$X.Xj A $X$X$X$X$X$X",
"N.0.9.` O.X.X.O.O.O.O.` a.N.N.a.O.X.X.X.O.X.X.O.X.O.X.O.X.X.X.X.X.X.X.X.O.X.X.X.X.X.X.X.X.` a.N.a.N.a.9.) X.X.X.X.X.X.X.X.O.a.N.N.9./ X.X.X.X.X.X.X.X.X.X.X.X.X.X.O.i.N.a.) X.O.i.a.N.! 4 ! ] m ' ' ! t . & * & & . m 7X7X7X7X7X7X3X7X3X3Xg.g.g.{ # o & & + & + o & + + & & & & O   @ u [ [ q.[ q.[ [ ] N ] ] @ o o o X X X X X X . . . . X X X X X . X X X X X o o o o X X X X .   . . . . X + o & = = , < < j s q s q l l l q l p M l M l l M l M M l l b M v v v M M z v G j q G G C V M M G C G C C C C S x L.}.}.}.}.}.}.}.}.}.}.}.}.}.}.}.].v &X&X&XI $ } OXOXOX+X@X%X@X&X9X9XdXdXdXCXCXCXZXCXZXZXZXZXZXAXAXAXAXAXAXAXAXAXAXAXAXAXAXAXAXAXGXGXGXGXSXSXAXAXAXAXAXAXAXZXZXZXZXZXZXCXdXCXdXDXdXDX9X9X9XdX&X&X2 8 9 9 7 8 5 8 9 8 r 4 e ] ' t { [ y 8 ] { [ 8 u [ [ ] ] W t t 5 # % t u t t n u t e 5 7 7 4 % $ # a x x x B x B B B B B B B B V B S k o < A.G.G.S.S.H S.D D D D H D L H H A.H H S.J H J A.A.J H A.A.A.S.A.A.A.L A.J A.S.L L B.H A.H J S.H S > * j k l k v C G G J J G : G G.G.`.'.].XX'.].< b $X$XXX$XP 1 `.$X$X$X$X$X",
"a.a.O.X.X.X.O.X.X.O.X.O.a.N.N.a.O.O.O.O.O.X.O.O.O.X.X.X.O.X.O.X.X.X.X.X.X.O.X.O.X.X.O.X.O.i.a.N.a.N.i.X.X.X.X.X.X.) X.X.) X.a.N.N.i.) X.X.X.X.X.X.X.X.X.X.X.X.X.O.9.N.a.O.O.X.9.N.N.N.3.4 ' ! W y ] ' ! % O * & + : 1XgX7X7X7X6X7X3X3X3Xc.g.g.g.1 X o & o & o + + & + + & + @     : N [ [ q.q.[ q.N q.[ ! ] ] 2 X + o o X X X X X . . . X X X X X X X X X o o o + + + o X X . . . . . . . . X X X + + * < < s q j q s j j j l l l l b l M q M l M M M b v M z b v M M v v M A q j G C v G M C C C C V V C V ].{.}.}.}.}.{.{.}.{.{.{.{.{.{.{.{.{.V.v &X&X+XXX2 b XXXX+X+XOX+X+X+X&X9XdXdXdXCXCXCXCXZXZXZXZXZXZXAXAXAXAXAXAXAXAXAXAXAXAXAXAXAXAXAXAXAXAXAXAXAXAXAXSXAXAXAXAXZXZXZXZXCXZXCXZXCXCXdXCX9XDXdXdXdX9XOX% 0 4 9 4 8 8 8 8 9 8 7 t ] ' ] [ { ! ' 8 ] q.[ 8 u [ [ ] W N t 9 4 # 5 e t t t t t t e 8 9 4 % 4 # $ 1 B x x x B x x B B B F B V V Z Z , O c P A.G.S.L J J D B.D B.D D S.A.H S.S.L S.S.S.A.L A.A.A.J A.A.A.J L L A.J S.L S.S.J S.J S.H B.H A.d o s k j k z z C G G J P c 1 P G.`..X`.`.]..XL : ,.$X.X$X$Xv b .X$X%X$X$X",
"N.a.O.X.X.X.O.X.X.X.X.X.i.N.N.a.` O.X.X.X.X.X.X.X.O.O.O.X.X.O.X.X.X.X.O.X.X.X.X.O.X.X.X.9.a.N.a.N.a.O.) X.X.X.) X.X.X.X.X.` a.a.a.9.X.) X.X.X.X.) X.) X.) X.X.X.9.N.N.a.O.X.O.i.N.a.a._ 5 u m y y ] y ] t . * * +  .yX7X7X7X7X7X3X3X3X,X3Xg.g.{ . o & o & + o & + & + & & .   # 8 ] [ [ N q.[ q.q.q.[ [ [ i ! r X o o o X X X X . X X X X X X X X X X o X o o + + o + o o X . . . .   . .   . X X o = & ; < < a < j j j j j q b l l l l l l l M l p l M M l M l v v l v v v G j j G M C C M C v v V V C C k , ].}.}.}.}.{.{.{.{.{.[.{.{.{.{.{.{.z K dX&X+XoXN 3 e.OXoX@X+X+X%X+X+X&X9XdXdXCXCXCXCXZXZXZXZXZXZXAXAXAXAXAXAXAXAXAXAXAXAXAXAXAXAXAXAXAXAXAXAXAXAXAXAXAXAXAXAXZXZXZXZXZXCXZXCXdXFXdXDXCX9XDXdX9XDXI % 6 $ 6 4 4 5 7 8 5 r 5 t ] ] [ [ [ y [ m 8 ] { [ 9 t { { ] ] W u t % # 7 t t t t e t e e 8 8 7 4 $ # $ k x x x k B x B B B B B B V V V V & $ H G.G.A.S.S.J D D D H H S.H H H H D L J S.J J A.L A.A.A.A.L A.S.A.A.L A.L S.D J S.J S.D S.L H S.Z & , j j k k v v S G H J K < v H.P `.`..X.X.X.X1 j .X$X$X$X`.< K %X].$X$X",
"N.a.O.X.X.X.X.X.X.O.X.X.i.N.N.N.i.O.X.O.X.X.O.X.X.X.X.X.X.X.X.X.X.O.X.X.X.O.X.X.O.O.X.O.a.N.N.N.a.i.X.X.X.X.X.X.X.) X.) ) ` a.a.a.O.) ) X.X.X.X.X.) X.X.X.X.) O.N.a.a.i.O.O.O.a.a.a.i.) 6 e ] i y ] ' m ] $ & + e 7X7X7X7X7X7X3X3X3X3Xg.g.g.%.4 X + & & & o & & & + + .     % i [ [ [ [ q.[ [ ! N q.[ q.q.] N u o & + o X X X X X X X . X X X X X X o o X o o + o + & o o o X . . . . . . . X X o + 3 & < < < < j q q j s l q l l j l l l b q M l M M l M v v M l v b v v v M d l G C v C v v C v C B V V C s & z L.{.{.{.[.[.{.{.[.{.{.}.[.{.{.z P dX&X+XXX X: b oXXX+X+X+X+X+X+X&X9X9XdXdXdXCXCXCXZXZXCXZXZXZXZXAXAXZXAXAXAXAXAXAXAXAXGXAXAXAXAXAXAXAXAXAXAXAXAXAXAXAXZXAXAXZXZXZXCXCXCXCXCXdXDX9XdXdXdXdX9Xh 0 9 4 0 4 5 7 5 7 8 5 8 u ' ] [ [ [ m { [ ] 8 m [ [ r t [ [ [ ] W u t % $ 7 e t t t e t t 8 8 4 4 % $ $ f x B k k B B x B B B B B V V A A d . d S.G.G.A.L D J D D D D J S.H A.H H S.L L S.S.J A.A.A.J A.A.L A.L S.J L S.L L A.H S.J L S.D L J H < & g k k k z C C G G J L v < P `.H.`..X.X`..XP : K $X$X$X$XJ q ].$X$X$X",
"a.a.X.O.X.O.X.X.X.O.X.X.9.a.N.a.9.O.O.O.i.9.a.i.9.O.X.O.X.O.X.X.O.X.O.X.X.X.X.X.X.O.O.a.a.N.a.a.9.` ) X.) ) ) ) ) X.) X.) i.a.a.a.X.) X.( X.) ) ) X.) ) X.) X.a.N.a.a.i.X.O.9.a.a.i.X.X.W 7 ' m W y ! m ] 9 . & ;X7X7X7X7X7X3X7X3X3X3Xg.g.g.' . + & o & & & & o & o     @ e ] [ [ [ [ [ [ q.] ] :.q.:.q.q.] ! y & + + + + X X X X X X X X X X X X X X o o o o + & o o + + o . . . . . . . . . X + + & & - < < < < < a s s q j j j l j l l l M v l l l v l v l l v M l M v v C 1 j G v v v C v v C v B v V V V k - - g L.[.{.{.{.{.{.{.[.{.{.{.[.j `.nX&X+X X XN : ,.oXOXXX@X+X+X+X+X9X9XdXdXdXCXCXCXCXCXZXZXZXZXZXZXAXAXAXAXAXGXAXAXAXAXAXAXAXAXAXAXAXAXAXAXAXAXAXAXAXAXAXAXAXZXZXZXZXZXZXCXCXCXDXdXDXdXdXdX%X& 8 6 8 0 4 4 7 5 r 5 8 8 y ' ! ] [ [ ] [ [ { ] 8 y { [ e t [ [ [ ] m u 9 $ $ 7 e t t t t t t 9 8 4 0 % $ & k k B k B B k B B B B V B B V V V > @ A Z.G.G.S.S.J S.D D J D D D L B.S.H L B.A.H S.A.J J A.A.A.J S.A.L A.S.H S.B.S.A.J S.H H L D J J z o g k j k l k C F G G L G < c H.P H.`.]..X]..Xc 2 ].$XXX$X.Xl M $X$X$X",
"N.a.O.X.O.X.X.O.X.X.X.X.O.a.N.N.N.9.a.a.N.N.N.N.N.a.9.X.O.O.X.O.X.X.X.X.X.X.O.X.) O.a.a.N.a.a.a.O.) X.X.( X.X.X.X.( X.X.X.` a.a.a.O.) ) ) X.X.X.( X.( X.X.X.9.a.a.a.a.O.O.X.9.a.a.) ) X.Q 7 y W m W N ] ] m @ N 7X7X7X7X7X7X3X3X3X,Xg.g.g.h.% . & + & + & + & + o     7 N [ [ [ [ ] 2.[ i :.! [ q.:.[ q.q.q.i N % @ 3 + o o o o o o o o o X X X o o o o o o o o & o o o o o X X X X X X .   X X o + & + - ; , < < < j q j j s j j j j q l l l l l v b v l M b l M l v v v v v q k A v v v v v C B B B B B B B B B f * o & g f z L.L.L.[.C.C.L.- & $XnX9X@XoX Xe.8 r XXoXOX@XXX+X+X+X&X&XdXdXdXdXZXdXCXZXCXZXZXZXZXZXAXAXAXAXAXAXAXAXAXAXAXAXAXAXAXAXAXZXAXAXAXAXAXAXAXAXAXZXAXZXZXZXZXZXZXCXCXCXUXdXCXdX9XDX} $ 9 0 % 0 4 2 8 4 8 8 8 8 y ' ] ] [ [ [ [ { { y y 8 u { [ t e [ [ [ W y y 9 $ $ 7 t u t e 9 r 9 5 5 5 % % $ > k c B k B x x x B B B B B B F V k + a K.G.G.Z.L L D D D D D D L H A.H A.H A.A.S.H J A.A.J S.A.J S.A.L S.J J A.B.H A.B.L L H D D S.S.S & * j j k k k v C C G J J C : K G.`.`.`..X.XXXH.: A XX$X$X$XG.< P $X$X",
"a.a.O.X.X.X.X.X.X.X.O.X.O.a.N.N.N.N.N.N.N.N.N.a.N.N.a.9.O.O.O.X.X.O.X.O.X.X.X.X.O.a.a.N.a.a.a.` ) ) ) ) X.X.X.( X.X.( X.( O.a.a.9.X.) X.) ) X.( X.X.X.X.X.` a.a.a.a.9.X.O.X.O.a.u.X.) X./ 4 y m y m y ! ] t 8 2XyX7X7X7X3X3X7X3X3X3Xg.3Xj.W   & & & & & + & + .   @ n [ [ [ [ ] ] q.[ N ] ! ] ] 2.N 2.] q.N [ ] r # & + & + & o & o o o X X X X o o o o o o o o o & o & o X X X X X   . . . . X X + & & - , q < < g a a g q q s j j j l l l b l l b l l k l v l l v l v l v v q j C v v v V v v B B B B B B B B B B B f > +     o o o & o . o * < *X&X&X@XXX X XI $ I oXXXOX+X+X+X+X+X&X&XdXdXdXdXZXCXCXZXCXCXZXZXZXZXZXAXZXZXAXAXAXAXAXAXAXAXAXAXAXAXAXAXAXAXAXAXAXAXAXAXAXZXAXAXZXZXZXZXCXCXCXFXdXCX9XCXdXb 4 0 % 4 6 4 4 4 8 4 4 8 8 u ' ! ' ] ] [ [ [ [ y ] [ e e [ { t e [ [ [ ] y u e $ $ 8 t t t t t r r r 7 5 % $ $ a c k B x x x x x B x B B B B B V , . B A.G.G.L L D D D D B.H D D S.S.H L B.J S.A.A.A.J A.L L A.A.L A.S.S.S.S.L S.J D L D S.S.J H H J d + d d k k k z C C G J K J j j G.G.`.`..X]..X.XG : P $X$X$X$Xv b $X$X",
"a.a.O.O.X.O.X.X.O.X.X.X.X.i.N.a.N.N.N.N.N.N.N.N.N.N.a.a.O.O.X.O.X.X.X.X.X.X.X.X.9.a.N.a.N.a.9.) X.X.) ) X.( ( X.( X.X.X.) ` a.a.i.O.) X.) ( X.X.X.( ( X.) 9.a.a.a.N.9.) X.X.O.O.X.X.X.X.X.5 t ! ! y ' y m 7 | 7X7X7X7X7X7X3X3X3X3Xg.g.g.| @ X & + & & & & .     8 ] [ [ q.[ ] ] ] ] ! ! N i 2.q.q.q.q.q.] 2.N i u 3 + & & + + & o o o o o o X X o o o o o o o & & o & o o X o o X X X . . . . X o + & & - < < < < a < a < j j < < j q l p l l l l l b c l b l v c v v v k v v 1 j v v v v v v v B B B B B B B B B B B V k f f , & & o & & a c f l nX9X&XOXXXoXe.e.b :  XOX+X@XOX+X@X+X&X&XdXdXdXdXCXCXCXCXZXZXZXCXZXZXZXZXAXAXAXAXAXAXAXAXAXAXAXAXAXAXAXAXAXAXAXAXAXAXAXAXAXAXZXAXZXZXCXCXCXCXdXCXCXdXCXDX&X% 4 0 4 6 6 $ 4 4 4 4 7 4 % 9 y ! ] ] ] { { [ { ] [ { [ 8 t [ { e t [ [ ] W y t 8 $ $ 5 e t t r t r 9 e 5 4 4 $ & d B k x k x x x x B B B B B B z k & * D D.A.A.S.S S D D B.D D S.J D J D L D S.S.L S.J A.A.L A.J A.L J L S.L S.S.S.J S.S.D D J S.H J A & , g k j k k V C G G J J G : G `.G.`.`.'..X.X.X1 j ].$X$X$X.X1 K $X",
"N.a.` X.X.X.X.X.X.X.X.X.X.i.a.N.N.N.a.N.N.N.N.N.N.N.N.a.O.X.X.X.O.X.X.X.X.X.X.i.a.N.N.a.a.9.) ) ( ( X.) X.( X.( X.( ( ( ( ` a.9.9.X.) ( ( X.( X.( X.X.( 9.9.a.a.a.a.O.) ) X.X.X.X.X.) X.X.5 9 m m y ' ] 9 n 7X7X7X7X3X5X3X3X3Xg.c.3Xg.f.5   & & & & & & .   @ n [ [ [ [ [ ] ] ] i N i ] 2.q.2.N ] ! N ] q.N ! ] N % X & + + & & & & & o o o o o o o o o o o o o o o & o o X o o X X X . . . . . o + + & - - , < , - g q j q g j s j j j l l l l l j j l l c l v l l l l l b z < c v v c x x x x B B k B B B B B x B B B d f B x B k k z x x B , G &X9X&X@XoXy.XXXX} 3 n oXXXoX+XOX%X@X+X&X&XdXdXfXCXCXCXCXCXCXCXZXCXZXZXZXZXZXAXAXAXAXAXAXAXAXAXAXAXAXAXAXAXAXAXAXAXAXAXAXZXZXAXZXZXZXZXZXCXCXCXdXdXdXdXDX} # 4 5 0 5 4 $ 0 4 4 4 5 5 $ 8 y y ] ] [ ] [ [ [ [ [ [ [ t t e [ [ t y [ [ ] W y u 9 $ % 5 e r u 9 9 r 5 7 5 4 4 2 & f x k x k B x x B B B B B F B K.a . k L A.S.A.S S D D D S.D D H S.S.D L S.J L L J A.S.J S.A.J A.S.J S.L L D J J S.D L L S.H D H J D > & k k g k k l z C F G J P k < P `.`.`.`..X]..XP : K $X$XXX$XH q XX",
"N.a.9.X.X.X.X.X.X.X.X.X.X.X.i.a.a.N.N.a.N.N.a.a.N.N.N.N.a.O.X.X.X.O.X.X.X.X.O.a.a.N.N.a.` X.X.( X.( X.( X.( ( X.X.( ) ( X.X.9.a.i.` ) X.( X.X.( X.( ( X.9.a.a.a.a.i.X.X.) X.X.X.X.X.X.X.( 4 $ 4 4 7 8 8 e l.7X7X7X7X3X7X3X3X3X,Xg.c.g.W   & & & & & + .   % ] [ [ [ [ ] ] ] ] ] i ] ] ! q.! :.! [ ! i ! ] ] ! ] ! 8 O & & + & + o & & o & & o o o o o o o o o o o o & o o o o o X   X   . . . X o o & & * , < ; < < , s q s j < s s q l l q l l l l j k k k c l k c k k k v v , k x x x x B x k B B k B B B k B x x B x f f x x k B B B k B B > ].dX&X*XXXXXoXe. Xy.b = e.XXXX@X+X+X+X@X+X&X9XdXdXdXdXCXCXDXCXCXZXCXZXZXCXAXZXAXZXAXAXAXAXAXAXAXAXAXAXAXAXAXAXAXAXSXAXAXAXAXAXZXZXZXZXZXCXCXCXCXdXDXDXdX9Xj $ 4 % $ $ # % 4 4 4 4 7 7 % $ 9 W m ' ! ] [ [ [ { [ { ] t [ t e { [ e t [ [ ] W y u 8 $ $ 8 t t t e t 8 8 7 4 4 % > > k x x k x k B x B B B B B B B B = @ D A.S.L L D D D S D H D L D S.L S.H S.S.B.S.A.J A.J S.J A.S.H A.L H S.J S.H J H S.D D D L J J k + g j k s k k z C F G G J K , v G.`.`.`.]..X.X.Xb < `.$X$X$X].j A ",
"N.N.i.X.X.X.X.X.X.X.X.X.X.X.O.9.9.i.a.i.9.9.i.i.a.N.N.N.a.9.X.X.X.X.X.X.X.O.a.a.a.a.a.9.O.( X.X.( X.( X.( X.X.( ( ) ( ) ( X.9.a.a.` ( ( ( ( ( X.X.( ) 9.9.a.a.9.9.O.( ( ) ) ) ) X.X.X.( X.Q % n t m m N ;X7X7X7X3X3X7X3X3X3X3Xg.j.g.$.@ + & & & & o   # e [ [ [ [ [ ] ] N [ ] ] ] i ] N N 2.i i i i i N ! ! m ] ! y @ + & + + + o & o & o o o o o o & o & o o o o o o o o o o o X X X X . X X X o + & & ; , , , , < g q < a , j s q l j j j j l l j j j l l l k c l l b c l b < l B l x k x k B k B B k k k B B B x x x d f x x B k k B B k k , ].&XdX+X+XoXoX X Xe.e.= M oXoXoX@XXX+X+X&X+X&XdXdXdXCXCXCXCXCXCXCXCXZXCXZXZXCXZXAXZXZXAXZXAXAXAXAXAXAXAXAXZXAXAXAXAXZXAXZXZXAXZXZXZXZXZXCXCXdXCXCXdXdXCX Xo 4 4 4 % $ 0 4 4 4 4 4 4 7 4 % $ 8 y W ' [ [ [ [ { [ [ ! y [ [ t e [ [ e t [ [ ] m u u 5 $ % 8 t t e t e t 8 4 4 4 4 & , k k x k B k x x x B B B B B V d O 1 L A.L L D D S D D H D D H H D L L L H S.J J S.J A.L A.J A.H A.B.S.S.J J H S.L H D S.L D J J C + < j g k j k k z C S G J L v < J P `.`.'..X]..X`.2 v .X$XXX$XP < ",
"a.N.a.O.X.X.X.X.X.X.X.X.X.X.X.X.X.) ) X.X.X.X.X.i.a.a.N.N.a.9.X.X.X.X.O.9.a.a.N.a.a.i.O.X.X.X.( X.X.( ( ( ( ( X.( X.) ( ( ) 9.a.a.` X.( X.( ) ( ( ( X.i.a.a.a.a.9.X.X.) ( X.) X.X.) ) &.X.Q n 8XyX7X7X7X7X7X7X7X7X3X3X3X3X3Xg.3Xg.j.8 X & & & & o   @ m [ [ [ [ ] ] ] ] [ ! y i ] q.q.! ] i i i i ] i i N ! N ! N y % @ & o + & & & & o o & o o o o & o o o o o & o o o o & o o X X X X X X X X + + & & * - , < , < < , < < < < s < j s s q j j j j j j l c k j l c l k k l v , k x k B k k x k B k k B B k k B k x x x k f x x k k B k k B f f &X&X&X&XoXoXoXe.e.oX Xb 2 e. XoXXXOX+X%X+X&X&X&XdXdXCXdXdXCXCXCXCXZXCXZXCXZXAXAXZXAXZXAXAXAXZXAXZXAXAXAXZXAXAXAXAXZXAXZXAXAXZXZXZXZXZXCXCXCXDXCXdXdXDX&X8 # 4 4 4 4 4 5 4 4 4 4 7 4 7 7 5 % $ 4 t m ] [ [ ! [ [ [ [ [ [ [ [ t t { [ e n [ [ ] W y u 5 # % 9 e e e t e 8 8 5 4 % % & a x k x k B k x B B B B B B V V > O V S.L L D D S D D S.D B.H D H B.D S.J A.S.A.A.S.S.A.A.J S.S.S.S.H A.S.J S.A.H L D S.D B.H H J - = k k k j k k z C C F K G J 1 b H.H.`.'.]..X.X.XG : P $X$X$X.Xv ",
"N.N.a.` X.X.X.X.X.X.X.X.) ) X.X.X.) ) ( ) ) ( X.` a.a.N.N.N.a.i.O.O.O.9.a.N.a.a.a.9.O.( ) ) ( X.( ( X.( ( X.( ( ( ( ) ( ( ) i.9.9.9.( X.( ( ( ) ( X.` 9.a.9.9.a.O.( ) ( X.X.( X.) X.X.X.X.X.e 8XgX7X7X7X7X7X3X5X3X3X3Xg.3Xg.,Xg.g.{ O & * & &     2 ' [ [ [ [ [ ] ] ] ] N ! m ] ! N ] ] i i y y y i y i i ] ! m ! y 8 O o & + + & & & o & o o o o o o o o o o & o o & o o o o o X X X   X X X X + + & * - - - , - , , < < a < s < s q j s j j j j q j j j l l j k j k k k c k : k c k k B B k x k k B k B k B k x x x k f f x k k B k k k > + B &XdX&X+X@XXXy.XXoXe.XX} = n oXoXoX+X+X@X+X+X+X&X9XdXdXdXdXCXdXCXCXCXCXCXCXCXCXCXZXZXZXZXZXAXAXZXAXAXZXAXAXAXAXZXAXZXAXAXZXZXZXZXZXCXCXDXCXDXdXdXdXdXDX} # % 4 4 4 4 % % 4 4 4 4 4 5 4 4 7 7 % $ % t W [ ' { ] [ [ { [ { [ { [ e t [ [ 9 m [ ] ] y y t 5 $ 4 e t e 9 9 9 8 8 4 % 4 % & f k k x k x x k B k B B B V V c O : D S.L A.H S S D D D D J S.A.H S.J S.D A.H J A.J J S.S.J S.L H L B.L D H H B.D J D H H B.H F j + g k g k k l l C C G G J P C , K H.`.`.`..X.X.X.Xj q .X.X$X$X`.",
"N.a.a.9.X.X.X.X.X.X.X.( X.( X.X.X.X.( X.( ( X.( ( ` a.a.a.N.N.N.a.a.a.a.a.N.a.N.9.` ) ) ( X.( ( ( ( ( ( ( ( ( ( ( X.( ( ( X.` 9.9.a.` ) ( ( ( ( ) ` 9.a.9.a.9.` ) ( ) ) X.( X.X.X.X.X.X.X.) 9 -X7X7X7X7X7X7X3X3X3X3X,Xg.3X3Xg.g.j.% + & * &   # e [ } [ [ [ ] ! ! ] ] m N i N [ ] ] ! y y y u y u 5 y y i i ! y y ] u # & + + & o o & & o & o o o o o o o o o o o o o + o o + o . X . . X . o + & & = & * - , - , - ; , < s < g < < s q j s j s j l j s j j j d d k d j k k k : k k k k k k k c k B k B k k B k k x x k f f k x k c c k < : : I DX&X&X@XOXoXXXe.oX Xe. Xb @ e.XXoX@X+X+X+X+X+X&X9X9XdXdXdXdXdXfXCXCXCXCXCXZXCXCXZXCXZXZXZXZXZXAXZXAXAXZXAXAXAXZXFXZXZXZXZXZXZXZXCXZXCXCXdXdXdXdXdXdX&X2 $ 4 4 4 4 4 4 4 4 4 4 4 % 7 4 4 4 4 7 4 % $ 7 ! ] ] [ [ { [ [ ] { [ ] m e t { [ 8 ] [ ] ! m y y 4 # 5 e u e e e 5 e 5 5 4 % $ & d c x k k B k B x B x B B B A a . c S.L L L H S D D H D D B.H S.S.J J A.B.L A.S.J L L S.A.S.J S.H A.H S.S.H L D D D D L D D S.B o < j s k k k k v C F G G J P 1 c H.H.`.`..X.X.XXXP : G $X$XXX$X",
"a.a.N.N.9.) X.X.X.X.X.X.X.X.X.( ( X.( ( X.( ( ( ( ) 9.9.9.a.9.a.a.a.N.a.a.a.a.a.` X.( ) X.( ( X.X.X.( ( ( X.( ( ( ( ( ( ( ( ` i.a.9.9.O.( ) ) ( ` 9.a.9.a.9.a.` ( ) X.( ( X.X.( X.( ( X.X.X.9 t.7X7X7X7X7X3X7X3X3X,X3X3Xg.g.g.g.W . & : $   % n [ [ [ [ [ ] ] N ] [ ] ! ! ! ] ] N ! ! y u y y u 7 $ e u y y ] i y ! N $ o + + + & & & o & o o o o & o o o o o o + o & o + + + o X X X X X O o + + & 3 & * - - , , - g , , - < < < j s s < j q s j s s s d j d j j j k k l k j > k k k k c k k k k k k k k k k k x k k x a f k k k k k : 8 1 3 XXdX&X&X%X@XXXoXoXe.oXXXy.e.@ 8 oXXXXX@XXX%X+X@X&X&X9XdXdXdXdXdXdXCXCXDXCXCXZXCXFXCXZXCXZXZXZXZXZXAXCXZXZXZXZXAXZXZXZXZXZXZXZXZXCXCXCXdXCXdXdXdXdXdX9XI # 4 4 4 4 % 4 4 4 4 4 % 5 4 4 4 4 7 5 7 7 5 % $ 4 ' ] [ [ [ ! [ { { [ y [ [ e t [ ] 8 [ [ ] W y y u % $ 8 t e t r t 5 8 7 4 % 4 $ , d k k k k B x k x B B B V B B @ = D L Z.L L D D D D B.H H H H H D S.D H S.H S.A.B.S.L D S.S.J A.H S.H D L H B.J S.H D D D D Z = - s j s k g k k v C C G G J C : G H.`.`.`..X.X]..Xb 1 `.$X$X$X",
"a.a.a.N.a.X.X.) ) X.X.X.( X.( X.( ( ( ( ( ( ( ( ( ( ` 9.9.a.9.a.a.a.a.a.a.a.9.` X.( X.( X.( ( X.( ( ( X.( ( X.( ( ( ( ( ( ( ) 9.a.9.9.9.` ) ( ` 9.a.9.a.9.a.` ( X.( ( ( ( X.X.( X.X.X.X.X.X.9  .7X7X7X7X3X3X3X,X3X,Xg.g.g.g.g.d.$ @ < % O 8 [ [ w.} [ [ ] N ] [ [ N y N ] [ ] ! ! N y y y y u r # . # u y i ! ] y ! ] 7 . & & + & o o o & o o o o o o o o o o o o o o o o o o o X . o X O O o + 3 & & & * - - - < - , < , , < < < < a < j < < j s s j s s d d d d j j k k k j > k k k k d B k k k k k k k k k B k k k k a f k k k d , 2 2.: 2 &X&XdX&X@XoXy. X XXXe.e.oXe.b # I OX+X+X+X@X+X+X+X&X9X9XdXdXdXdXdXCXdXDXdXCXCXCXCXCXCXCXZXCXZXZXZXCXZXZXZXZXZXZXZXZXZXZXZXZXZXCXCXCXdXdXdXdXdXdXdX9X+X@   % 4 4 4 4 4 4 4 4 4 4 4 4 4 4 7 4 4 7 4 5 7 5 % % ' ] [ [ { [ [ [ [ W [ [ [ r y { N 9 [ [ ' m y y t $ $ 5 t t t 9 r 8 5 4 4 % % & , k x k B k x B x x B B B B V f . d A.L L L S S S D D H L S.H J S.L S.S.D S.S.A.D J S.S.L L B.S.L H S.S.J H H D S.B.D H D D D , = s s g k k k k z v F G S J P q c P `.`.`..X].'..X`., v $X$X$X",
"a.9.N.a.a.i.X.) ) ( X.( X.X.( ( X.( ( ( ( ( ( ( ) ( ) 9.9.9.a.9.9.9.9.9.9.9.O.( ) X.( X.( X.( ( ( ( ( ( ( X.( ( ( ( ( X.( ) ) ` 9.9.a.a.9.i.` 9.i.9.9.a.9.9.) ) ( ( X.( ( X.( X.X.( X.X.X.X.W [ qX7X7X3X7X3X3X3Xg.3Xg.c.g.g.g.t O 1 $ = m [ } { [ [ ] ] ] ! [ [ i ! ! N q.] ] ] i y u y i u 5 # + @ # e y u y i y m ] t # X o + & & o & o o & o o o o o o o & o + + o & o o + o o o o X o o + + & & & & ; - , < , , , , < , , , < < < j g j q j s s q j s j s s j j d d k j j > k k j k k d c d k k k k k k k k k k k k a d k k x d + ! p.% A 9X&X&X&X+XXXXXoXoX Xy.XXe. Xe.2 :  X+XXX@X+X+X+X@X+X&X&X9XdXdXdXdXdXCXdXCXdXCXCXCXCXCXCXCXCXZXCXZXZXZXZXZXZXZXZXZXZXZXCXZXCXCXCXCXCXdXdXdXdXdXdX9X9Xb   @ # $ 4 4 4 4 4 % 4 % 4 4 4 4 4 4 4 4 4 4 7 7 7 8 $ 4 ] W ' [ [ ] [ [ ] [ [ { ] r y { i e ] [ ] W y y e $ % 5 t t e t t 8 8 5 4 4 % @ f k k k x x k x x x B B B B V & @ U S.S.L D S S D D D D D J H D D L J S.A.J S.S.S.J H S.L A.H B.L H L D S.H D D D D B.H D D k + s j k s s j k l C C F H J J A > L `.`.`.`..X.XXX.XA , ,.$X$X",
"9.a.a.N.N.a.9.9.X.X.X.( ( ) ( ( ( ( ( ( ( ( ( ( ( ( ( O.9.a.9.i.9.9.` ) ( ( ( ( ( ( ( ( ( X.( ( X.( ( ( ( ( ( ( ( ( ( ( ( ( ( O.9.a.9.9.9.a.a.9.9.9.9.a.9.` ( ( ( ( ( X.( ( ( X.( X.X.X.X.X.Q m 7X7X7X3X3X3X,X3X3Xg.g.g.g.g.{ $ 2 % 8 [ { [ } [ [ ] ] ] ] q.[ ] ] N ! [ ] ] i i y u W y u 9 # # + + o 2 y u y ! ! y ! m $ O + & o & & o o o o o o o o o o o o o + + o & + o + o + + o o o + + + & & & & - - , < , ; < < < < , a < < a < s q j < j < s j s j j j j j d k d k d : f k f k d k k k k k k k k k k k k k k k > f k k k > 4 p.p.$ ,.9X&X&X&X+X@XoX X XoXXXe. XoX XI # b OX+XXXOX+X+X%X+X&X+X&XdXdXdXdXdXdXdXCXdXCXCXCXCXCXCXCXCXCXZXZXZXZXZXZXZXZXZXZXZXCXZXZXCXCXDXDXdXdXdX9XdX&XdXdX%X@ > f : # $ 4 4 4 4 % 4 4 4 4 4 4 4 4 4 4 5 7 4 7 7 5 8 $ 7 ] ] ] [ { ] { [ { [ { [ ] 8 ] { m t [ [ ' W n y 9 $ % r u t e e 5 8 7 4 % % $ & f k k k B x x x x B B B B V f . d L L L D D D D D D D D D H H B.S.H S.L B.H L S.J L L S.H H S.H H J H S.D L D D D D D D D B + < s g k g k k z z B C G G J J j j P G.`.`..X'..X.X].1 j .X$X",
"9.a.a.a.a.a.a.9.O.( X.X.X.( X.( ( ( ( ( ( ( ( ( ( ( ( ` 9.a.9.9.9.` ( ( ( ( ( ( ( ( ( ( ( ( ( ( ( ( ( ( ( ( ( ( ( ( ( ( ( ( ( ( 9.9.9.i.9.9.9.9.9.a.9.9.` ( ( ( ( ( ( ( ( X.( X.( X.( X.X.X.Q m 7X7X7X3X3X3X3Xg.g.g.g.g.g.g.5 $ 7 n } { q.e.{ ] ] ] ] ] } q.N i i [ [ ] ] i ] y y y y u t $   O + & + $ y u u y m y W ] 8   @ & & o & o o & & o o o o o o o o o o o o o + + & + + + + o o + + + o 3 & = - , - - , < q < ; < < , , < < < a s < < q j q s s j j j j d d j j k d , k k k k x d k k k k k k k k k k f k k f a d k k d & ! N.p.$  XdX&X&X&X+X+XXXoXoX Xy.oXoX XoX Xb O e.+X+X+X+X+X+X+X+X&X&X&XdXdXdXdXdXdXdXdXdXdXCXDXCXCXCXCXCXCXCXCXCXCXCXUXAXCXCXCXCXCXdXdXDXdXdXdXdX9XdX9XdXdX&Xb . f d f > . $ 4 4 4 4 4 4 4 4 4 4 % 4 2 4 4 4 4 4 5 7 7 5 $ 8 ] ' [ ] [ [ ] [ [ [ ' ! ] e ] [ y y [ ] ] m y u 5 # 5 e t e e t e 8 7 4 4 0 $ > f B k k k x x x B B B B B V * + A S.S.D D D S D D S.D B.S.D L H S.H L A.A.B.J S.S.D D S.A.H A.S.S.D H D D D S.S D D D B.S & * d s j j k j j l z C G F K P C , P H.`.`.`.]..X.XXXP : P $X",
"9.a.9.N.a.a.a.9.O.) X.( ( ( ( ( ( ( ( ( ( ( ^ ( ( ( ( O.9.9.9.9.` ( ( ( ^ ( ( ( ^ ( ^ ( ^ ^ ( ( ( ( ( ( ( ( ( ( ( ( ( ( ( X.( ( ) ` a.9.a.9.9.a.9.i.a.9.) ( ( ( ( ( ( X.( ( X.X.X.X.X.X.( X.( 9 3X3X3X3X3X3Xg.3Xg.g.g.g.g.' # 8 ] w.{ } } { [ ] N ] [ } [ i i N ] q.[ i y ] i y y y u u % . * * & + & # e y y y ! y i N t # @ + o & & o & & o o o o & o o o o o o o o & + + + & + + + = + + @ & + & = = ; - , ; , ; - , , < , < , , < g < a < j s < j s s q d s s j j j k d f > k f f k f k d k k f k k k f k f k k k f a f d k , @ p.N.w.$ e.9X9X&X&X+XXX@XXXe. XXXoXXXoXoXoXI @ 1 oX+XXX+X@X+X+X+X&X+X&XdXdXdXdXdXdXdXdXdXCXdXCXCX9XCXDXCXCXCXCXCXCXZXCXCXCXCXCXCXCXCXdXdXdXdX9XdXdX9XDX9X9X} # > d d d d , # # 4 4 4 4 4 4 % 4 4 5 4 4 4 4 4 4 7 7 4 7 5 % # t ! ] ' ! { [ [ [ [ ] ' [ ] e ] [ t m [ ] W y y u 4 $ 7 9 t t 9 8 9 8 4 4 % $ & > k k k k x k x c B B B B Z d . a L L L L S S S D D D L S.D D S.D S.A.H S.J S.J B.L A.H H S.D J S.D B.D B.D D D D D D D D , & d g k k g s k z z C G G J P J 1 k H.`.`.`.'..X.X.X.Xj 1 XX",
"a.0.9.a.a.a.a.a.O.( ( ( X.( ( ( ^ ( ( ^ ( ( ( ( ( ^ ( ` 9.9.9.9.` ^ ( ^ ( ^ ^ ^ ^ ( ( ^ ^ ( ^ ^ ^ ^ ^ ( ^ ( ^ ( ( ( ( ( ( ( ( ( ( ) 9.9.i.9.9.a.9.9.9.( ( ( ( ( X.( ( ( ( X.( ( ( X.( X.X.X.( 9 6X7X7X3X3Xg.3Xg.,Xg.g.g.o.% 4 } e.{ e.w.} [ ] ! ] [ [ [ ] i ] [ q.[ ] i ] i y u y u u 7 . - a < a - = # 4 u u u y ] i y ] % . + & o o & o o o o o o o o o o o o o o o o + + + + & = + + & & & @ & = * * , - - , - , , , , , < < < < < < , a < s a s < j s s d j j j j d d d a a f k k f k k k d k k f f k k k f k f k k a f k f O % w.N.q.3 K dX9X&X&X+X@XoXoXoXoX XoX Xy.XXoXoXN # M XX+X+XOX%X+X+X+X&X&X&X&XdXdXdXdXdXdXdXdXdXdX9XCXCXCXCXCXCXDXDXDXqXCXCXCXCXCXdXdXdXCXdXdXdX9XdX9X9X&X&X+X: + f d f d f d f # # 4 5 4 4 4 4 4 4 % 4 4 4 4 4 4 4 4 7 4 7 5 $ # y ' ! ] ' ] [ [ [ ] [ { [ m 9 [ [ y y [ ] ' y y u % % 5 t t r 8 9 8 8 0 4 4 $ & f k k k x x x x x x B B V Z > @ V Z.L S.D S S D D D D J D L H J J H A.H S.D S.S.A.H A.H H S.J D L D L H H D D D D D D D d @ a k g g k k s j k z C F H J J G 2 P P `.].'.].'.'..XG.: A ",
"9.9.9.N.a.N.a.9.` ^ ( ( ( ( ( ( ( ^ ( ( ( ( ^ ( ( ( ^ ` 9.9.9.9.` ( ^ ( ( ^ ^ ( ^ ^ ^ ^ ^ ^ ^ ^ ^ ^ ^ ( ^ ^ ^ ^ ( ^ ^ ( ^ ( ( ^ ( ( ` 9.9.9.9.9.9.9.) ( ( ( ( ( ( ( ( ( ( ( ) ( ) X.) X.X.X._ 9 f.7X3X3Xg.,Xg.g.g.g.g.i.9 4 [ } r.} e.[ [ ! m ] [ } ] ] i ] [ q.[ N y y e % % % % % % # @ , < s s a < > $ u y y y ! y y ] e   @ & o o & o o o o o X o o X X X o o o o + + & + + & & + & & & & + @ * = = - - > > , , , < < < 2 ; , < < , , < < < < s s j s s s j s j d d j j s > f k f f k k f k f k k f z k k f k k f k , f d a   2 3.N.N ; r &XdX&X&X@X+XoXXXoXoXXXoX@XXXoXXXoXoXb @ e.@X+X+X+X*X+X@X*X&X&X&X&XdXdXdXdXdXdXdXdXdXdXDXdXdXdXdXZXdXdXCXdXZXdXFXdXdXdXdXdXdXdXdX&XdXdX9X9X9X&Xb . a f f f f f f f a $ # 4 4 4 4 4 4 4 4 4 4 4 4 4 4 4 4 2 5 4 4 7 # % y ' ] ] ] ] ' [ [ [ { [ { y t [ [ y ] [ ' W y y t $ 4 e t e 9 r r 5 5 7 4 % $ $ f x d B x k B k B B B B V k o , L L S.D D S D D D D J D S.S.H S.D S.J D S.H A.H A.H A.H H J J D H H J D D S.H D D D H v O < g k k g j k g k v C C G K J P j c G.`.H.`.`.'..X.X.Xb : ",
"9.a.9.a.a.9.a.9.` ( ( ( ( ( ^ ( ( ( ^ ( ^ ( ^ ( ( ^ ( ` 9.9.9.9.) ^ ( ^ ^ ( ^ ^ ^ ^ ^ ^ ^ ^ ^ ^ ( ^ ^ ( ` ( ^ ( ^ ^ ( ^ ^ ^ ^ ^ ( ^ ^ ` ` ` 9.9.9.( ( ( ( ^ ( ( ( ) ( ( ) ) ( ) ( ( ) X.X.) _ 6 f.3X3X3X3Xg.g.g.g.g.h.{ $ ' t.} | q.{ ] ] ] [ [ { [ ] i ! [ [ q.i i ! N % $ % % : $ @ @ O . O + & : : , 3 2 i y u y y y W y $ . o & o & & & o o o X o o X X X X o o o & + + & & & + & & & & & o & = + O & = - , ; , < ; < < < < < < < < < < s s s < < 1 < s 1 s s s d s j s s , f k f k k f k f f k f k f f f k f k k f g f f & O 1 [ N.i < % %X&X1X+X&X+XOXoXoXXXy.XXoXoX@XoX@XOXXX2 2 XX+X+X+X@X+X+X+X+X@X&X&X&XdX&XdXdXdX9XdX9XDXdXdXdXdXCXdXdXZXdXZXdXdXdXdXDXdXdXdXdX&X9XdX9X&XdX&X9XI   > f f f f f f f f d a $ $ % 4 4 4 4 4 4 % 4 4 2 4 4 4 4 7 4 4 7 4 4 # : W ! ' ' ] ! { { ] [ [ [ ] y m [ { ] [ [ ] i m ' 8 $ 7 e t t e e 5 8 5 4 4 4 $ * d k k k x k B k B B B V V , # B L L L D S D D D B.H D H H H H L S.L S.J A.H S.H S.D B.S.D D S.D B.D D D D D H S S S Z @ > s s g k j g z k k v F G H J P C : P `.`.`.'.'..X].XX`.< ",
"a.9.a.a.a.9.a.9.( ( ( ( ( ( ^ ( ^ ^ ( ^ ( ^ ( ^ ( ( ^ ` 9.9.9.9.) ^ ^ ( ^ ( ^ ^ ^ ^ ^ ^ ^ ^ ^ ^ ( ^ ^ ( ` ` ^ ^ ( ^ ( ^ ( ^ ( ^ ^ ^ ^ ( ( ( ( ( ( ^ ^ ( ( ` ^ ` X.) ( ( ( ( ( ( X.( X.) ) ) _ 9 r.7X2X3X,Xg.g.g.g.g.o.5 e } { w.} } ] ] ] ] { } [ m i ] [ q.[ i ] i ] y % % j C S A c B c j 1 : @ @ # .   # % r u u y y n ] 7 # o & o o o o o o o & o o o X o X o o o + + & + & & & & & & & o ; < < - & O . O 3 - , , , , , < < < , < < < < g < < < a s j < s s j s s j d j a , f f z f f z f k k f k f k f k f k f k d > f f   : q ] a.N 1 @ e.9X&X&X&X+X@XoXoXe.oXoXoX+XXXOX+XXX+Xe.= b OX+XOX@X+X+X+X+X&X&X&X+X9XdXdX&XdXdXdXdXdXdXdXdXdXdXdXdXdXdXdXdXdXdXdXdXdXdXdXdX9X&X&X9X9X&XdX X@ o a f f f f f f f f f f f $ # % 0 4 4 % 5 4 4 4 4 4 4 4 4 4 4 4 4 7 4 % # 4 m W ] ] [ ] [ [ [ [ { ' ] ] ] [ { [ [ [ ' W ! m 7 % 8 t e r 9 r 8 7 5 4 4 % $ > d k k x k B x k B B B B c @ , L L S.S.D S S D D D S.L D H B.L H L L S.H A.H J S.L S.D S.D L H H B.D D D D D S H S S > & s j s s g k k k z C C G G J J P 1 c G.`.`.`.`..X'..X.XG ",
"9.9.9.9.a.a.9.` ( ( ( ( ( ( ( ^ ^ ( ^ ( ^ ( ^ ( ^ ^ ^ ` 9.9.` 9.` ^ ( ^ ^ ^ ( ^ ^ ^ ^ ^ ^ ^ ^ ^ ^ ^ ^ X.` ` ( ^ ^ ^ ^ ^ ^ ^ ^ ^ ( ^ ^ ^ ^ ^ ^ ^ ^ ^ ( ` ` 9.` 9.` ` ` ( ( ( ( ( ( ( ( ( ( ( ` 6 { 3X3Xj.g.3Xg.g.g.g.W % [ t.e.{ [ ] ] ] [ e.{ [ ! m ] [ [ [ N i i ] ! e $ < j G H D U S J G D A v v l q 2 $ # # $ % 7 u u m y # o o & o o & & o X X o o o o o o o o o & & + & & & & & & + + < l k l s a q , + . O = > ; < ; < < < , < < < < < < < s a s q s d 1 s j s d s d a , f f f f f f f f f k f k f f z f f k f f , f -   1 1 b a.q.1 = b &X9X&X+X+X%XoXXXoXoXXX@X+X@XXX+X+X+XoXr O I +X@X+X+X+X@X+X+X+X+X&X&X&X9X9XdX9XdX9X9XdX9XdXdXdXdXdXdXdXdXdXdXdXdX9XeX&X9X&X9XdX9X9X&XdXoX: . a a f a f f f f a f f f f f % # $ 4 4 4 4 4 4 4 4 4 4 5 % 4 4 7 7 4 4 7 % # 4 m ! ] ] ] ] ] [ [ ! y [ { [ [ [ [ { [ ] ] m W u % 5 t t 9 r 9 e r 7 5 4 4 4 = a k x k x k x x x B B B V 1 . x L L L D S S D D D D D B.A.H D L D B.H S.D S.J J L H J H S.D D S.D D D S S D D S S H a O s g j g j g s k l x C C G J J P A < K `.`.`.`.].'..XXX].",
"a.9.9.9.9.a.9.) ( ( ( ( ( ^ ( ^ ^ ^ ( ^ ^ ^ ^ ( ( ^ ( ` 9.9.9.9.` ( ^ ^ ^ ^ ^ ^ ^ ^ ^ ^ ^ ^ ^ ^ ^ ^ ^ ` ` ` ( ^ ( ^ ^ ^ ^ ^ ( ^ ^ ^ ^ ^ ^ ^ ^ ^ ^ ( ` 9.` ` ` ` 9.` 9.` ` ( ^ ( ( ( ( ( ( ( ( Y ..3X3Xg.g.g.g.g.g.&.$ ] w.e.} [ ] ] ] } w.{ [ N m ] [ [ [ ] i y m ] i 5 : < c Z S.S S B.D S S Z K J K K M M M r % @ # $ % 8 y 7 o & & + o o & o o X + o o o o + + + & + + & & & & & & + = j V v v k c l j k j : @   . & : < < < ; , < < < < s < < s a s d s s s j j s s d s s < f f f f f k k f k f f f k k f f d d d k , a + @ 8 j b w.w.b < 3 oX&X&X&X+X+X@XXXXXoXXXOXOX%X@X+X+X+XXX1 : # I +X+X@X+X+X+X+X+X&X@X+X&X&X&X&XdX9X9XdXdXdX9XdXdXdXdXdXdXdX9XDXdX9XdX9X&XdX&XdX&XdX&X9X+X1   - a a f a a a a f a f f f f f f % # $ 4 4 4 4 4 4 4 % 4 4 4 4 4 4 4 4 4 4 5 % # 4 m ! ] ] ] ] ] [ [ W [ { [ { { w.} ] ! ] ] ' ] t $ 9 u 9 t r 9 5 5 8 5 4 4 % * f k k k x x x B B B B V B X > L L L L D D D D D H D H L B.S.H L H S.J L D S.D S.J S.D D D L D D D D B.D B.S S S H k X g s f s k g k s l z C C F G J L P d c G.H.`.`..X'.'..X.X",
"9.9.9.9.0.9.) ( ^ ( ^ ( ( ( ^ ^ ( ^ ^ ^ ^ ( ^ ^ ^ ( ^ ( ` ` 9.` ` ( ( ^ ^ ^ ^ ^ ^ ^ ^ ^ ^ ^ ^ ^ ^ ^ ^ ) ` ` ^ ^ ^ ^ ^ ( ^ ^ ^ ^ ^ ^ ^ ^ ^ ^ ^ ^ ^ ` ` ` 9.` ` ` ( ) ` ` ` ` ( ^ ^ ( ( ( ( ( ( R ' 3X3X3X3Xg.g.g.i.9 8 e.} { ] ] ] ] [ w.} [ ] ] ] [ [ [ ] i N ! ! i y 2 < d c B Z S Z Z S D D B.S S D H P P K K K M 2 3 @ # % 4 & - - - & & & o + + + o + o + o + + + + & & & & & & @ = k C A C V v v v k v l l j : = O . = ; < g g , < < < < < < q < < q s < s s 1 s s s d a , k f f k f f f f f f k k f f k f d d d d , ,   : j d r n p.t 1 @ I &X&X+X+X+X+XOXoXoX@X+X+X+X+X@X+X+XXX2 1 = @ } %X+X+X+X@X%X+X+X+X&X+X&X&X&X&XdX&X9X9XdXdX9XdXdXdXdXdXdX9X9X9X9X&X9X9X&X9X&X9X&X9X&Xb   o , a a a a a a a a f a a a f a a f % # $ % 4 4 % 5 % 5 4 4 4 4 4 4 4 4 7 7 4 7 % # 4 m ' ] ] ] [ [ ] ] [ [ [ [ [ [ { m [ [ ] ] y y 7 % r t r 9 e e e 8 7 4 4 4 % - d B k x k k k B B B B Z a # c S.L D S.D S S D D D S.D H D A.H S.S.D L D J S.D J H D S.J D J S.D D D D S S S Z H V & - s s s s g k k k k v C Z G K J P A : L `.H.`.`.'.].XX.X",
"9.9.9.9.9.` ( ( ( ( ( ( ^ ^ ^ ( ^ ^ ^ ^ ^ ^ ^ ( ( ^ ( ^ ` ` ` 9.9.( ^ ^ ^ ^ ^ ^ ^ ^ ^ ^ ^ ^ ^ ^ ^ ^ ^ ( ` ` ^ ^ ^ ^ ^ ^ ^ ^ ^ ^ ^ ^ ^ ^ ^ ^ ^ ^ ` ` ` ` ` ` ` ^ ^ ^ ( ` 9.` ` ^ ( ( ^ ( ( ( ^ R y 3X3Xg.g.g.g.g.{ % } { [ [ ] ] [ } r.[ [ ] y ' [ [ [ ] i y y ] m y u $ f k c B V Z S S S S K.F S D H H H J K I K M l q 2 : O @   o & - - & & & o o + o + + + & + + & + + & & & & @ > c Z Z G A C V V C C v v v l l k q = O @ @ ; , < < < < < < s q j < s < 1 s 1 s a d s f s < f f f f f f f f f f f f f f f f d d d f , &   p b 1 j 8 4.[ 8 , 2 &X&X+X&X+X@XXXoXXXXX@X+X+X%X@X+X+XoXr r 1 @ : e.@X+X%X+X+X@X%X+X+X+X&X+X&X&X&X9X&X9X9X&XdX9XdX&X9X9X&X9X&X&X9XdX&X9X9X&XdXdX&X@Xb   o > a a a a f a a a a a a a a a a a f f % # $ 4 4 % 4 5 4 4 4 4 5 4 % 4 4 4 4 7 4 8 % # 5 m ! ! ' ] ' ] [ ! [ { [ [ [ [ t [ { [ ] ] y y % 4 u r t 9 r 5 e 8 5 8 4 4 : > d k k B k x x B B B V x @ & D L L D D D S D S D H D L H H H S.J J H S.B.H S.D H S.D H B.D D D S D D S S S Z S F * & s s s s j k g k k z V F G H J P P d c P `.`.`.].'.'..X",
"i.9.9.9.` ( ( ^ ^ ( ^ ^ ^ ( ^ ^ ^ ^ ^ ^ ^ ^ ^ ^ ^ ^ ^ ^ ^ ` 9.` ` ` ( ^ ^ ^ ^ ^ ^ ^ ^ ^ ^ ^ ^ ^ ^ ^ ^ ( ` ` ^ ^ ^ ^ ^ ^ ^ ^ ^ ^ ^ ^ ^ ^ ^ ^ ^ ^ ` ` ` ` ` ` ^ ^ ^ ^ ^ ( ` ` ` X.^ ^ ( ( ( ( ( ^ t 3Xj.j.g.g.g.%.8 n w.[ ] ] N [ } | } [ ] y ] ] [ [ [ m y ! ] ] W y t $ d k x B B Z V V Z S S V S Z S S H H G J J P I I G q 2 = & . + & & - - * & & + + + + + + + + & & & & & * + = v A G G G G M C C C M v C v v v v v l j ; O . + * ; < < < < < < s < < s s s j s s a f s a a f f f f f f f f f f k f f k f f d f f f > . 7 a.p.! q j u ] j 1 3 e.&X&X+X*X+XOXoX@XOX+XXX+X+X+X+X&XXXr e 1 < @ * XX+X@X+X+X+X+X+X+X+X@X+X&X+X&X&X&X&X&X&X&X&X&X&X&X&X9X&X&X9X&X&X9X&X&X9X&X&XOXq   X - a a a a a , a a a a a a a a a a a a f f % # $ % 5 4 4 4 % 4 4 % 4 5 4 4 4 4 4 5 4 4 $ # 8 W ' ] ] ] ] ] ] [ [ [ [ [ [ t [ { [ [ ] ' ] u % 5 t t e t r 9 8 8 8 4 4 4 : , k k k B k x x B B B A f # k S.L A.H D D D B.D H D D H S.H J D S.L D L S.J H L H D D D D D D D D S S D S S Z H a & s s s s g j k k l l v C F G J J P A 2 K H.P `.].'.'.'.",
"9.9.9.` ( ( ^ ( ^ ^ ( ^ ( ^ ^ ( ^ ^ ^ ^ ^ ^ ^ ^ ^ ^ ^ ^ ^ ` ` 9.` ` ^ ^ ^ ^ ^ ^ ^ ^ ^ ^ ^ ^ ^ ^ ^ ^ ^ ` ` ` ` ^ ^ ^ ^ ^ ^ ^ ^ ^ ^ ^ ^ ^ ^ ^ ^ ^ ` ` ` ` ^ ^ ^ ^ ^ ( ^ ^ ` ` 9.` ( ^ ( ( ( ( ( ^ 9 c.3Xj.g.g.g...r [ [ ] N [ [ r.w.r.[ N m ] [ [ [ [ ] y y ! m y u y r 3 k x B B F Z F Z S S Z S Z Z Z S S S B F S S S J I K K p 1 @ : < : & & = = & & + + + + + + @ & & & & & + = v G G G G G G C C C v M C C M M v v M v v c q : + . O = < < < < s < s < s s s q a s a a a a a a f f f f f f f f f f f f f f f f f f f =   ! N.N.a.N q j 8 j j = b +X&X+X+X+X@X+X@X+X+X+X@X*X+X&X&XXX1 1 2 q y 7 3 e.+X+X%X@X+X+X+X%X+X+X+X+X+X&X+X@X&X+X&X&X&X&X&X&X&X&X&X&X&X&X9X&X&X9X&X X: X & > a a > > a a a a a a a a a a a a a a a a f 1 4 @ $ 4 4 4 4 4 4 4 % 4 4 4 4 4 4 4 4 7 4 7 $ # 8 W ] ' ' ] ] [ [ { ! [ [ W t { [ { [ ] ' W y e % 9 e r 9 r 5 r 5 8 5 4 4 2 : a f k x x x x x B B B B & * D S.L L D S S S D D S.D D S.H H H S.H B.D S.D L L D D S.D D D D B.D D S S S S S F d O < j s s s k k k k l z C Z G G J L P j c P H.`.`.'.'..X",
"9.9.9.) ( ( ( ( ( ^ ( ^ ^ ^ ^ ^ ^ ^ ^ ^ ^ ^ ^ ^ ^ ^ ^ ^ ^ ( ` ` 9.` ` ^ ^ ^ ^ ^ ^ ^ ^ ^ ^ ^ ^ ^ ^ ^ ^ ^ ` ` ` ^ ^ ^ ^ ^ ^ ^ ^ ^ ^ ^ ^ ^ ^ ^ ^ ^ ` ` ` ` ^ ^ ^ ^ ^ ^ ^ ^ ( ` ` ` ` ^ ^ ^ ^ ( ^ ^ 8 j.3Xj.g.g.u.9 [ [ ] ] [ { t.[ } [ ' ] ] [ [ [ [ ] y u y ] y y u y 5 = d x x B B Z Z V V S S S S Z Z F S B K.F V Z A A D H K K G b : > < 3 O + & & & + + + + + & & & & = = + = v J J J L G G G Z M G C v G v V C v v v v v v z l j : @   O = ; < < q s < < q s s s a a a a a a f f f f f f f f f k f f f f f f f f f f @ # 6.N.a.N.p.b d r j 8 1 @  X+X&X+X+X%XoXXX+XOX+X&X@X+X+X+X+X2 2 2 ! p.6.% @ I +X+XOX+X+X+X@X+X*X+X+X@X@X+X&X+X+X&X+X&X&X+X&X1X&X1X9X&X&X9X&X9X&XI #   & > a > a a a a a > a a , a a a , a a a a a f a f d 2   # 4 4 4 4 4 4 4 4 4 4 4 4 4 4 4 4 7 5 7 # # e m ! ] ] ] ] ' ' [ [ [ n y [ { { [ [ ! m y y 5 % e 9 e u r t 5 r 8 7 5 4 2 > f k k k x x x B B B V f . d S.S.S.J S S D B.D H D D S.H S.H H A.H L H J D D B.D D D D D D D S D S S S S S D V + - g s s s g k k k z k v C Z G J K P C , L H.H.`.`.`.'.",
"9.9.` ^ ^ ( ( ^ ^ ( ^ ^ ^ ^ ^ ^ ^ ^ ^ ^ ^ ^ ^ ^ ^ ^ ^ ^ ^ ^ ` ` ` ` ` ( ^ ^ ^ ^ ^ ^ ^ ^ ^ ^ ^ ^ ^ ^ ^ ^ ( ` ` ^ ^ ^ ^ ^ ^ ^ ^ ^ ^ R ^ ^ ^ ^ ^ ^ ` ` ` ( ^ ^ ^ ^ ^ ^ ^ ^ ^ ` ` ` ` ( ^ ^ ^ ^ ^ ^ 4 m ' y y ' u m [ ] ] [ r.} e.{ [ ] y ] } [ [ [ ] y y y ' y y u u y % : d k x B B B V Z V S F B Z S Z Z S S Z S F B V Z B V C Z G K b q b 1 @ @ O + & = & + & & & & & & & o : C L J L G K G G A C G Z M G C M M v M M l M v M v v l l s > 3 . . 3 > a q j s < < < s a a a a a a a a a f f f f f f f f f f g f f f f f f   $ p.a.N.N.N.[ 1 j q d d @ b +X+X&X+X@X+XXXXX+X+X+X*X+X+X&XOX< : r 3.! 4.e & # b  X&X+X%X@X+X+X@X+X%X+X+X+X+X*X&X@X&X+X+X+X&X&X&X+X&X&X&X+X&X&Xn   . * g , a a > a a a , , a , , a , a a a a a , a a a f f : : @ # % 5 4 4 4 4 4 4 4 4 4 4 4 7 4 4 4 7 5 # # t m ] W ] ' ] ] [ [ [ e ' { [ } { [ [ ] m W u 4 5 e t e e e 8 5 9 8 5 4 4 > > f h k x x x x B B V V & : U L H S.D S D D D D B.D H L D S.H S.H J J S.J S.H H D B.D D D S S D S S S S Z S Z = = s a s s j s k k k k v v F G K J J A.q c `.G.`.`.`..X",
"9.9.) ^ ( ^ ( ( ( ^ ( ^ ^ ^ ^ ^ ^ ^ ^ ^ Y R ^ ^ ^ ^ ^ ^ ^ ^ ^ ` ` ` ` ` ` ^ ^ ^ ^ ^ ^ R ^ ^ R ^ ^ ^ ^ ^ ` ` ` ( ^ ^ ^ ^ ^ ^ ^ ^ ^ ^ ^ ^ ^ ^ ^ ^ ` ( ( ^ ^ ^ ^ ^ ^ ^ ^ ^ ^ ` ` ` ` ` ( ^ ^ ( ( ^ 4 8 9 8 e 8 t [ [ ] [ } } w.{ } ] m ] [ { [ [ ] y u y ] y W u t y y $ : f f d d k x B B B B B F V V Z Z S S B S V Z Z Z F Z V B v G v q v G v q 3 O X + & & & & & & & @ O , Z L K L K L G G G G G K C C M v C C G v v M v v v l v v c l j < , @ . . & < < < < s 1 a a a a a a a f f a a f f f f f f f f f a f a f f f g   u N.a.p.w.] i d r d r r 1 + } +X&X+X*X@X+X+X+X@X&X@X+X+X&X@X1 % i ! r 3.! 1 :   : I XX+X+XOX@X+X@X+X+X%X+X+X+X&X+X+X&X+X&X+X&X+X&X&X+X&X&X X1 . @ > , , , g a > a > a , a , a , a , a a , , a a a f a a : % j 2 $ # % 4 4 4 4 % 4 4 4 4 4 4 4 4 4 7 4 7 4 # # e W N m ! ' ! ] ] ] 9 ! [ [ q.[ { [ ] W m y t % 9 r 9 t t t 8 r 8 7 4 5 0 , , f k k x k x x B B A f . k L S.S.H S S D D H D L D D B.H H D D S.H D D D D D B.D D D D D D S S S S Z S Z S , & a s g s s j k k l k z v C G G J J P A , K H.H.`.`.`.",
"` 8.( ^ ^ ( ( ^ ^ ^ ^ ^ ^ ^ ^ ^ ^ ^ ^ ^ ^ R Y ^ ^ ^ ^ ^ ^ ^ ^ ^ ` ` ` ` ` ^ ^ ^ ^ ^ ^ ^ ^ ^ ^ ^ ^ ^ ^ ^ ` ` ` ( ^ ^ ^ R ^ ^ ^ ^ ^ ^ ^ R ^ ^ ^ ( ` ` ( ^ ^ R ^ ^ R ^ ^ ^ ^ ^ ` ` ` ` ^ ^ ^ ^ ^ ^ 0 N r.} w.} [ ] ] [ q.} e.| [ ] ] ] [ { } [ [ y y y W N y u y y y 9 $ , s a f f f k k x x x x x B B F V V S V B V Z S B S B K.F V B V C v K K M v q = . + * & & * & + O 1 H P P G L P K G G G G M G C G K v F M v M v C M v v M v v v l c l k j a * O O = < s < s < a a a a g a a a f a f f a a f f f a f a a f f g f - X [ w.n q d 1 8 j j j d d 1 = 1 +X+X+X+X+X%X+X+X+X&X+X&X&X&X+X< : ! i ! 3.! < 1 1 @ @ 1 ,.+X+X+X+XXX+X@X@X+X+X+X+X+X+X+X&X+X+X&X&X+X9X+XR.V & o > > , , , , , a a > a a a g a > a a a > g > a , a < s a < 3 p N 1 2 # # $ 4 4 4 4 4 4 4 % 4 4 4 4 4 4 7 4 7 4 # $ t m ! ' ' ] ] [ m e [ [ { { [ [ { ! [ ! y y 8 8 t t t t r 5 e 5 8 7 7 0 : f > k k B k x B B B V B & = D L S.L D D D D D D J D L H S.D H H S.S.J D D D D H D D D D D S S S S S S S S F d @ a s s s g s j k k z k z v Z F G J J P j b P P `.`.`.",
"` ` ( ( ^ ^ ( ^ ( ^ ( ^ ^ ^ ^ ^ ^ ^ ^ ^ ^ ^ ^ E ^ ^ ^ ^ ^ ^ ^ ^ ^ ` ( ` ` ` ` ^ ^ ^ ^ ^ ^ ^ ^ R ^ ^ ^ ^ ( ` ` ` ^ ^ ^ ^ ^ ^ ^ ^ ^ R ^ ^ ^ ^ ^ ( ` ( ( ^ ^ ^ ^ ^ ^ ^ ^ ^ ^ ^ ^ ` ` ` ` ^ ^ ( ^ ^ 5 ' } | { [ ] ] [ {  .w.t.[ ] ] N [ { } [ [ m y u y ' y u u u y y 8 @ , a f f d f f f k f f k k k k k B B B B B V Z Z Z F S B S F Z Z V C G G K G M v 2 @ & * = = & O j J P L P P P L G K K K G G G K M M G M C M C v M v z v v v v v v v v v c l j < : @ @ * < s s < a < a a a a a a a a a a a f f a f g a f a f f f & % w.b 8 d r j 1 j 8 8 j 1 b 2 @ N &X+X+X+X@X@X*X+X+X+X&X&X+X+Xq 2 ! ! ! u 1 2 1 1 u 3.5 @ 8 } %X&X+X@X%X+X+X+X%X+X+X&X@X+X+X+X+X&X@Xe.b o & * , > > g - g > > > > a > g > a > a , a a a a a , a a s a q @ r N N b f , $ # $ 4 4 4 4 4 4 4 4 4 4 4 4 4 4 4 5 7 % # 4 y W N W W ] ] u t [ [ [ [ [ [ [ [ [ ' m W u 7 9 8 t e 9 t 8 9 r 7 5 4 4 8 f k k B k c x x x V A d . d Z.L L D S D D D D D D D H D J L D D D J S.D S.H H S.D D F S S S S S S S S Z Z x + , s g s s j j k k l z l C C S G J J P A , J P H.`.`.",
"` _ ^ ^ ( ( ( ( ^ ^ ^ ^ ^ ^ ^ ^ ^ ^ ^ ^ ^ ^ ^ ^ R E R ^ ^ ^ ^ ^ ^ ` ` ` ( ` ` ^ ^ ^ ^ ^ R ^ ^ ^ ^ ^ ^ ^ ` ` ` ` ^ ^ ^ ^ ^ ^ ^ ^ ^ ^ ^ ^ ^ ^ ^ ( ` ` ^ ^ ^ ^ ^ ^ ^ ^ ^ ^ ^ ^ ^ ` ` ` ` ` ( ^ ^ ^ 0 m w.[ [ ] ] [ } } r.e.[ ] ] ] [ { } q.[ ] y u W y y y u t W y u 4 # a a a f d k f f f f f k f f x k x k k B B B V Z B B B B B B B V B V V v A A G M v l < @ & & + j G L L P P P G I G K G K M G G K M G v C M M C M C C M v v M z M v v l v v x v k l j < > = * < a a a < a a a a a a a a a a f f f f f f a f f a g o 9 i q j 1 1 b b d 8 j j 1 1 b < &  X&X+X+X+X+X+X+X&X+X+X+X&X+Xj % ! ! r 2 : 2 < < 2.a.p.! % # 1 I  X+X+X&X+X@X+X+X&X+X&X+X&X&X+X} q     & - - - > > - g , > a > > g > > a > a > > a > a a > g , < < < > 3 i N i n < a < $ # $ 5 4 4 % 4 4 4 4 4 4 4 4 7 4 4 7 4 $ # 4 y y m ] ] ] e y [ [ [ [ { { { [ [ [ ! W y e 5 t 8 u e e r r 8 5 7 4 4 , f k k k k x x x x B V B & * D L A.L D S D D B.B.D D D S.D D L D S.D S.H H D D S D K.F S S S S S Z Z S Z S V & - s s s s j g j k k k z l V Z F K J K P d k H.H.`.`.",
"` ( ^ ^ ^ ^ ^ ^ ^ ^ ^ ^ ^ ^ ^ ^ ^ ^ ^ ^ ^ ^ ^ ^ ^ ^ Y E Y ^ ^ ^ ^ ^ ` ` ` ` ` ` ^ ^ ^ ^ ^ ^ ^ ^ R ^ ^ ^ ^ ` ( ` ( ^ ^ ^ ^ ^ R ^ ^ ^ ^ ^ ^ ^ ^ ^ ( ` ^ ^ R ^ ^ R ^ ^ ^ ^ ^ ^ ^ ^ ` ` ` ` ` ^ ^ ^ 6 N } [ N ] ] } w.} } { ] ] N [ [ [ [ [ ] y y y m ' y u u y u t 9 # + < a , f f f k k f k f f k d d f d f k k B k x B B B x B B V B B B B V B v B v v v v v < O   , G H L P P P K P K G K G I G M G G G M K G M C M v M v M v M v b v v v v v v v x v k v k k j < - > < a a a g a a a a f a a a g f g f f f a a a f > & 2.i j q b 1 1 1 r d j 8 b 1 1 1 & r +X+X+X&X+X+X*X@X&X+X&X+X&Xr % e 5 % ; 2 2 , q 3.p.a.a.! :   # 3 r e. XXXoXXXXXXXoXoX XI b : .   O = - > - - - & & - > , , > > > a a g > > a > > a > , g , < < a < @ r N N N n a g , , $ # $ 4 4 4 4 4 4 4 4 2 4 4 4 4 7 4 7 5 $ @ 8 y W y ] ] 9 m ] [ ] [ [ [ [ { [ [ ] m m u e t t 5 u t 9 5 e e 5 4 4 0 , k k k k k x B B B B V f # x L L Z.D S D D D D D H S.H H B.H H H D D D D B.D D D S S S S S S S S S Z S Z F * * a s s g s k k k k k k z V C G G G J L A 2 K G.P `.",
"` ( ^ ^ ^ ^ ^ ^ ^ ^ ^ ^ ^ ^ ^ ^ ^ ^ ^ ^ ^ ^ ^ ^ ^ ^ _ ^ W 0 0 Y ^ ^ ( ` _ _ ` _ ( ( ^ ^ ^ ^ ^ ^ R ^ ^ ^ ^ ` ` ` ( ` ^ ^ ^ ^ ^ ^ ^ ^ ^ ^ ^ ^ ^ ^ ( ( ^ ^ ^ ^ ^ R ^ ^ ^ ^ ^ ^ R ^ ^ ` 9.` _ ^ ^ ^ 6 m ] ] ] [ } { r.} } ] ] N [ } { } [ ] y y y y W W u 9 t y u u $ . o a , , a a a f f f f f f f f f z f k f f k k k k B x k k B B B B B B B B k k d x x v x @ O @ > A K P P P P P K K K K K K I K K K M G M C M G M C M M v v C M z C M v v v v v v v v v C v x B f a , , a a a > a a a a a a a a a a a a a a a a a = 3 4.i j 8 j 8 r 1 1 b b 1 j r b p r @ I @X&X+X%X+X&X@X+X+X&X+X+Xb $ = : : : : 2 : 1 3.p.a.p.e j = + & . # @ = $ $ & & $ = @ O . + & - & > - & - - & o X X + - > > > > > , , > > a > > , , > a > a , a = : i N N i n a , a a , $ . % 4 4 4 2 4 4 4 4 4 4 4 4 7 4 7 4 7 $ $ t y y N ] u y ] ] ] { [ [ [ { [ [ ] ' ! y u 9 t 9 t e 9 e t 8 8 8 4 4 4 d k k k B k B B B B F z & > B.K.S.L D S D D D D B.D H S.D L H D D D D D D S.S S S D S S S S S Z S S S V Z , & a s s a s k s k s k k l z C C H G J K L j c G.G.`.",
"` ` ^ ^ ^ ^ ( ( ^ ^ ^ ^ ^ ^ ^ ^ ^ ^ R ^ ^ ^ ^ ^ ^ _ 9.9.9.~ Y 0 0 Y R _ ` ` ( ` ` _ ` ^ ^ ^ ^ ^ ^ ^ R ^ ^ ` ` ` ( ` ( ^ ^ ^ ^ ^ ^ R R ^ ^ R ^ ^ ` ^ ^ ^ R ^ ^ ^ ^ ^ ^ ^ ^ ^ ^ ^ ^ ` ` ` ` ^ ^ ^ 0 n ] ] [ } w.e.} { [ ! N [ { w.} [ [ y y u ' ' y u u u y u u 5   X + > , > , g , a f f f f f f k f f f f f k k k k f k k k k k k k x B x k x x x k d d k d O > - = V P P P P K P K I K K K K M K M M K K M M G M C M v C M M v M v v v v v M v v v v V V v V v B B f f f , > a a a a a a a a a a a a a a a a a a a & O 4.w.b d 1 j d j 1 1 1 j q ] p.a.a.i 2 oX@X+X@X+X+X&X+X&X+X&X+Xb @ = : $ : : : 2 7 w.p.a.q.1 8 1 O , > > & + O o o & * & * - - - - - - - - - & - - - o X . X - > g > > , > , > g > g > , g , a > < , @ r N i :.N e & a a , , , $ # % 4 4 4 4 4 4 4 4 4 4 4 4 4 7 7 4 4 $ % y y W y y m ' ] ' ! [ { [ [ [ [ [ ] m W y e 8 r r u t e 5 t 5 8 4 4 % d x k k k k k B k B f K.> & F B.H L D D S S D D D D D D D B.H S.S.D L D D D D D S S S S S S Z S Z Z S S S d @ a a a a s g k s k k k k k v C Z G G J P v 2 P P G.",
"_ ` ^ ^ ^ ( ^ ^ ^ ^ ^ ^ ^ ^ ^ ^ ^ ^ ^ ^ R ^ ^ ^ ^ 9.` ` 9.` ` ^ Y 0 $ 0 W _ ` ` _ _ ` ( ^ ^ ^ R ^ R ^ ^ ^ ^ ) ` ` _ ` ^ ^ ^ ^ R ^ ^ ^ ^ ^ ^ R ^ ( ^ ^ ^ ^ ^ ^ ^ ^ ^ ^ R ^ ^ ^ ^ ^ ` ` ` ` ^ ^ ^ 6 u [ [ } { } | { [ ] N ] { } [ { [ ] y y y ! y y t t u y 9 t # X & X & > , - > > a a a f f f f f f f k f k f f f k k k k k f k k k k x k x d x k k d f k a + < * : C J P P P P K K P K K K K M M K K M M M K M M G G M M C v M v v M M v v v v v v v v v C v V B B B k f f a > > f a a > f a a a a a a , a a a a a - & ! p.q.q j 8 8 j j 8 8 j n a.N.a.N.a.5 M +X+X+X+X+X%X@X&X+X&X&XM @ % = = : : 2 2 2 2.2.2.u d j d : # , , - , > , , > , - > > - - - - * & - & & - & - & & X   X + > , - , g > > > > g , > , , , , , - 3 i N i i N n : > a a , a , $ . % 4 4 4 4 4 4 4 2 4 4 4 7 4 4 7 5 % # 4 y y W m ! ' ' ] [ ] ] [ [ { { [ ] ] m y t 5 5 t t e t 9 8 r 8 8 4 : f k k k k B B k B B B B c . a S.L L S.D S S D D D D D D D H D D D H H D D D D D S S S S S S S Z S V Z Z Z c & , a a g s s z j k l z j z v C C G H J J L < v P G.",
"( _ _ ^ ^ ^ ^ ( ^ ^ ^ ^ ^ ^ ^ ^ ^ ^ ^ ^ ^ ^ ^ ^ ^ ` ` ` 5.` ` ` ^ ^ R 0 # $ 6 Q _ ` ` ( ^ R ^ ^ ^ ^ ^ ^ ^ ^ ` ` ` ` ( ` ^ ^ ^ ^ ^ R ^ ^ ^ ^ ^ ^ ` ^ ^ ^ ^ R ^ ^ R ^ ^ ^ ^ ^ ^ ^ ^ ^ ` ` ` ` ^ ^ 0 n } q.{ e.q. .[ N N [ { }  .q.[ ] y y y ' m y u t t W t u %   & * o X & & * > > - > , g a , a f f f f f f f f f f f f f f k k k k d d f d f k k d f a j f & d : = v G P P K I K I K K I K K I I K M K K M M I M M G M M v M v M v v v v M C v v V M v V v V C B F F B x f , a > a a g a a a a , a a a a , , a a a ; 3 i N.p.! b j d r d j d p p.a.N.N.N.a.4.% P &X&X+X+X@X+X+X+X&X+X} % r : @ : u ! ! u i 3.i 1 d 8 q r 2 3 < , - , > , - , - > - > - - - * - & & - & & & & - & X .   o - > > - > > , > > , , , g - , , @ r N N N N N N 2 - a , a , , > $ X $ 4 4 4 4 4 4 7 4 4 4 4 4 5 4 8 4 % # 8 y y y y ' ! ] ' ] ! [ ] { { [ [ ] W y y 7 4 u t t e r t 5 4 4 4 % f k k k k k k B B B B B B > + A S.Z.H D S S S D D D D S.D D S.D D D B.D D D S D S S S S Z Z F Z S S S V A B & , a a s < j g j k j k z k z C Z A G G J L v < P G.",
"` ` ` ^ ^ ^ ^ ^ ^ ^ ^ ^ ^ ^ ^ ^ ^ ^ R ^ ^ ^ ^ ^ ^ ` ` ` ` ` 5.` ` ^ ( ^ R Y $ # 4 Y ~ _ ^ ^ ^ ^ ^ ^ ^ ^ ^ ^ ( ` ` _ ` _ ^ ^ ^ ^ R ^ ^ R ^ ^ ^ ( ( ^ ^ ^ ^ ^ ^ R ^ ^ ^ ^ R ^ ^ ^ ^ ^ ` ` ` ` ^ ^ 0 N { e.{ } w.[ ] ] ] [ { e.[ [ [ m y y N W y u t 9 y u u 9   @ - & & & X & > > > > > > > , g , a a a > a f f f f f a a a f f f k k k k k f k k k f a a k < & k < & v G P K K K K K K K ,.K M I M ,.M M M M M K M K K M M M G M v M v M M C v C C v v C G v C C Z V Z V B f , a a g a a a a a a a a , a a a , a , , , & 7 4.a.p.3.q b 8 8 d j ] N.N.N.N.N.a.N.i 2 OX+X+X+X&X+X%X+X+X&XoXr u $ 3 % ! ~ 2.u 3.6.w.u n p n 2.p.5 = < > , - - , - , > - - * * - * & & - & & & & & & & & & X   X & > - g > > > > , > , , , g 3 3 i N :.i N N N 8 = , , , , a > a & X % 4 4 4 4 4 4 4 4 4 4 4 7 4 7 8 5 % $ 9 y W m ] ' ] ' ] ] [ ] [ [ [ [ ! ! t t 7 2 t u t t r 5 e 8 4 4 % f k k k k k B B B k k B V k # k U S.L D S S S S D D H B.H H H D D D D D D D S D S S S S S S Z Z Z K.F B C C & - g a g a g s j k k k k k k C C C C K J K K < v G.",
"_ ^ _ _ ^ ^ ^ ^ ^ ^ ^ ^ ^ ^ ^ ^ ^ ^ ^ ^ ^ ^ ^ ^ ^ ^ _ ` ` 5.` ` _ ^ ^ ^ ^ ^ ( T 0 $ # 0 Y R ^ ^ ^ ^ ^ ^ ^ ^ ^ ` ( _ ` _ ( ^ ^ ^ ^ ^ ^ ^ ^ ^ ^ ( ( ^ ^ ^ R ^ ^ ^ ^ R ^ ^ ^ ^ ^ ^ ^ ^ _ ` ` 5.^ ^ 5 ] r.[ } w.} ] ] ] [ e.} { [ [ y y y ] ] y y u t u 9 u 9 $ $ . & - - &   . & > > > - - - , - > > > > g , f , a f f f f a a a a a f f f f k f f d f a s k , > k < @ c G K K P ,.,.,.I K M K M ,.I K K K M ,.K M M M M M K M M v M C M v C M v M v V G v v A v C F V Z Z z f , , > a > a a a > a a a a a a , a , a a a - # ! 0.p.u s [ [ j q r u.N.a.N.a.N.a.N.p.7 M +X+X+X@X+X+X&X+X+X+Xu e 3 % u ! ! W r 2.6.4.3.p.a.p.a.N.2.# , , > - - - - - - - - - * & * & & & & & & & & & * & & & X     & - > > > > > > > - , , ; @ q N i i N N i N e & , , a , , a a > & # 4 4 4 4 4 4 4 4 7 4 7 4 4 4 4 7 4 $ $ t y y y W ] y ] ] ] { ] [ [ [ ' ' t y 9 4 7 t e t e t 5 8 8 8 $ f k f k k k k k k B B B B B & * D L L D D S D D D D S D D D H S.D B.D D D B.D D S S S S V Z S S Z B S F Z Z , & s < s s s s g k j k k k l x v C F G G J P c 1 P ",
"^ _ ( ` _ ^ ^ ^ ^ ^ ^ ^ R ^ ^ ^ ^ ^ ^ ^ ^ ^ ^ ^ ^ ^ ^ _ ` ` ` ` ` ^ ^ ^ _ ` 8.9._ ~ Y % # # 0 Y R ^ ^ ^ ^ ^ ^ ( ` ` _ ` ` ` ^ ^ ^ ^ R ^ ^ ^ ^ ^ ( ^ ^ ^ ^ R ^ R ^ R R ^ ^ ^ ^ ^ ^ ^ ^ ` 8.` ( ^ 0 N } [ } [ ] ] ] [ { q.} [ [ ' y y ] ] W m u u t u u u 7 @ n 8   X & & & X   X o - - > - > > > a > > > > > > a , a , a a , a a , , a , f f f f f f f d k > , j < & c G L P K ,.K I K ,.I M K K K M K M K M I M K K M I M M M M M C C M v G C M v M v G C G G v Z Z V Z B f - & > > a a > a a a a a , a a a , a , a , &   3 i e q i p.a.u j M p.a.N.N.N.N.a.N.a.3.% I &X@X*X+X+X%X&X+X+Xn $   4 ! W ! ! r ! 6.2.2.p.p.N.a.N.[ : # , , - - - , - - - - - - & * & & & & & & - & & & & & & & o     & - - - > > > g , , , = @ u M N N i n N m n & > > a , , a > a > # # % 5 4 4 4 4 4 4 4 4 4 7 5 8 4 5 4 $ % y n W m W ] ] ' ] ] ] ] { [ ] ] y u 8 7 5 e t e 9 t 5 9 8 4 * f f k k f B k k B k B B B V f . x L L S.B.S S S D D D D B.D D D D D D D D D D S S S S S K.F S V Z Z Z Z Z Z s + < < < g s f j s j j k k k l v C C G G H L G , V ",
"^ _ ` ^ _ ` ^ ^ ^ ^ ^ ^ ^ ^ ^ ^ ^ ^ ^ ^ ^ ^ ^ ^ ^ ^ ^ ^ _ ` ` 5.9.( ^ ^ ` ` 8.` 9.7.9.^ R 6 % # 0 0 E ^ ^ ^ ^ ^ ` 5.` ` ` 9.( ^ ^ ^ ^ ^ ^ ^ ^ ( ( ^ ^ ^ ^ ^ ^ ^ ^ ^ ^ ^ ^ ^ R ^ ^ ^ ^ ` ` ` ^ ^ 5 ] } w.} [ ] ] [ } { } [ [ ! m y ] ] y y W 9 9 u u u 6 @ e N N :   X & * & X   X X X & * - > - > g > a > > > > > > > > , , > g > , > , a a f f a a d k j @ a k < @ l G K P I K ,.K K K ,.,.K ,.K ,.M M ,.I M K M M M M M K M C C M M C M M v C G v G v G v v A Z Z V Z F g - - a a > a a a g a , , a , , , a , , , a & @   @ 2 e p.2.p.[ 1 i a.N.N.N.p.[ i ! p.N.! 2  X+X+X&X+X@X+X+X&XI q 2 3 i i ! ! r e ! u 4.p.a.p.a.p.e 1 $ O < : - - - - - - * - - * & & & & & & & & & & & & & & & & &   X o - > > > > > > > , @ 2 N i N n N N i m h & - a > a , > a > a 2 $ # % 7 4 4 7 4 4 4 7 4 7 4 4 7 7 5 2 $ 7 y m i y y ' ! ' ] ] ] ' [ ] W y u e 4 e 8 t t t e r 8 8 8 - f k f k k k k k k B B k B B x @ , L L L L D S S S D D D D D D S S.D D B.D D S S S S S S Z F Z S Z Z V F Z Z j + , g a g s g g k k k l k k k z v C Z Z G G L j 1 ",
"^ ^ ` ( ` _ ^ ^ ^ ^ ^ ^ ^ ^ ^ ^ R ^ ^ ^ ^ ^ ^ ^ ^ ^ ^ ^ ^ 5.` ` ` _ ^ _ 5.` ` ` 9.5.` ` ^ ^ ^ R 6 $ # $ 6 T Q ^ ^ ( ` 8.` 9.^ ^ ^ ^ ^ ^ ^ ^ ^ ^ ( ^ ^ ^ R ^ ^ ^ ^ ^ ^ ^ ^ ^ ^ ^ ^ ^ ^ ` ` _ ^ ^ 0 N { } [ ] ] [ } { q.[ { ] y y ] ] y ' y u t t u 9 9 % 4 N N } N 2   . & & * & o X       X + - > > g , , , > > > > > - - g > > , , > a a a g a , f f f s @ s j , & l G I K P P K K K K ,.M ,.K M ,.M M M K K M K M ,.M M M M M M C M C M C G G v A C G G v G C V Z Z Z v f @ > a > a a g a a > a , a > a a > a , , g & : @   = e w.r ] p.p N a.N.N.p.i j q j w.a.a.u q y.&X+X+X+X%X@X+X+X+X+X: % ! u % 2 r u r 3.p.p.a.a.2.q b 1 @ @ < > - - - - - - - & & & & & & & & o & & & o & & o & & & & X X . + - - - , - , - @ M i n i N i N n N n : - a > , > a > a g , : $ # 4 4 4 4 4 7 4 7 4 4 4 7 4 7 5 7 % $ 9 y W m m m ! ' ] ] ] ] ] ] W y u 8 % t t t t 5 t 8 5 8 5 % f f k k k k k k k B B B B B B , # A L L L D S S S S D D D D D D S.Z S D S D S S S S Z Z Z Z Z Z S Z Z F S V B + , g < < g s s j s j k k k k z k V C G G H K G : ",
"^ ^ ^ _ ^ ` ` _ ^ ^ ^ ^ ^ ^ ^ R ^ ^ ^ ^ ^ ^ R ^ R ^ ^ ^ ^ ` ` _ ` ` ^ _ ` ` 5.` ` ` ` ` ( ^ ^ ^ ^ ^ T 6 $ # # $ 6 Y ~ ^ ^ ^ ^ ^ ^ ^ ^ ^ ^ ^ ^ ( ` ^ ^ ^ ^ ^ ^ ^ ^ ^ ^ ^ ^ ^ ^ ^ ^ ^ ^ ^ ` _ ^ ^ 4 ] } [ ] N [ [ [ } } [ ] N y ] ] ' ' y u u 9 u t u 5 $ u ] ' I } N 8     o * & * & & X X       & - & - , a a , > - > > - > > > > , > > > a > a , f , a > + < j : : v G K P K ,.,.,.,.I K ,.K ,.,.K K ,.M :.M M :.M M M K M K M M M K M M v M C G M G v C A A G A S Z A x , + a f > a > a > > a a , a > > a a > , , > @ 2 :   # r 3.i ] p.n i N.a.p.u j 8 d n p.N.a.0.% 8 XX+X+X+X&X&X+X@X&X&XI # % 3 % 3 u 3.3.i p.a.p.{ r 1 1 r 1 # @ , - - - & - & - & - & & & & & & & & & & & & & & & & & & & X   . o * - - , - O r n i N N N M p N y u : * > > g > > a > > , a : # # 4 4 4 4 4 4 4 4 4 4 7 7 4 7 4 8 % $ t y y W m y ] ' ] ] ] ] ' N y u 9 $ e t t t t t 5 8 8 8 $ a k k f k k k k k B k B B B B k o f D L L L D S S S S D D S D D D S S U S S S S Z S S F Z Z Z Z V Z Z B V S V + * a a a g a s s j k k g k k l z v C C G H J G d ",
"^ ^ ^ ^ ( _ _ _ ^ ^ ^ ^ ^ ^ ^ ^ ^ ^ ^ R ^ ^ ^ ^ ^ ^ ^ ^ ^ _ ` ` 5._ _ ` ` 5.` 5.5.` ` 5._ ^ ^ ( ^ ^ ^ ^ ^ Y T 5 % # # $ % 6 Y R R ^ ^ ^ ^ ^ ^ _ ` ^ ^ ^ ^ ^ ^ ^ ^ ^ ^ ^ ^ ^ ^ ( ^ ( ^ ( ` _ ^ ^ 4 ] [ ] ] [ [ [ [ { [ [ m m y ] ] ] y y u 9 u u t 9 % 8 N ] N ' ' [ } e #   o & & * & & & & X . X X X . X & > a a a , - > > > > > > > > , > > , g > > a * @ < f * < v K P P P K K ,.K K K ,.,.K K ,.K ,.K M M :.M M ,.M M ,.M M M C M M M G G M Z M G M G C G A Z D S Z x * & f a a g a > a g a , , a a a g a > , , ; % q ; @   3 ! 3.p.p.i n a.a.N 1 d j r w.N.a.p.N.4.4 b XX&X@X+X+X+X&X+X&X+Xr   3 % : i 3.3.u u ! i q d j 1 d 1 r $ : > - - - - & - - & & & & & & & & & & & & o & & & o & & & & X     X - - - = @ u i N i N i N i n M n 2 = > a , > a > a a , a > > @ # 4 4 4 7 4 7 8 4 4 4 4 7 4 7 7 7 $ % y y y y y y W ] W ] ] ' W y y 9 % t e t t t 5 e 8 8 7 $ a f f k k k k k k k k B x B V B * $ D L L D D S S S S D S B.S D D S S S S S S S S S K.F F F Z Z Z V K.B B Z V - & a , a a g s s g j k j j k k z V C C G G H J G ",
"^ R R ^ _ ^ ` _ _ ^ ^ ^ Q ^ ^ ^ ^ ^ ^ ^ ^ ^ ^ ^ ^ ^ ^ ^ ^ ^ ` ` ` ` ` ` ` ` ` _ ` ` 5.` 9._ ( ^ ( ^ ( ^ ^ ` 8.9.5._ ~ 6 5 $ # # $ % 5 E R ^ ^ ( 9.^ ^ ^ ^ ^ ^ ^ ^ ^ ^ ^ ( ^ ^ ^ ( ^ ( ^ _ _ ( Q $ y ' ] [ } [ [ [ [ [ ] y ! ' ] y y y y u u u 9 u 5 % y N N } N } I } } N =   + & * & & & & & & o o X X     . X & - a , > > > > > > - > > > , , - > > > * + < f = < C K K ,.,.K ,.I P ,.,.M ,.,.,.M ,.M ,.,.:.K ,.K K M M M ,.M M M M G G M G G G G G A G A G A S D D Z k @ , f a a a > a > a > , , a > > a > > , < 3 q q 2 %     2 ! 3.q.b e p.p.b r j d e p.a.a.N.p.N.3.% b @X@X*X+X+X+X+X*X@X X3 # : % i 3.3.u < < q j 8 1 r 1 b w.3.# : ; * - & - & & & & & & & o & & o & o & & o & & & & & & & & &     X & - @ q n N i M n n n n n u u 2 = > - a g > > > g a > a > : @ @ 4 4 7 4 4 4 7 4 7 7 4 7 5 7 5 5 # % t y W y ' N y ] ' ] ! N y y t % 5 t r e r t 8 9 8 7 = f f k d f k f k k B k k x x B V f . c L D Z.D D S S S S D S D D S S B.S S S S S S Z B S Z K.B Z F V F S U Z A > & a a g a , a s k k g k k k l k z v v C A G G L ",
"^ R ^ R ^ ^ _ _ ` ^ ^ ^ ^ R ^ ^ ^ ^ ^ ^ ^ ^ ^ ^ ^ ^ ^ ^ ^ ^ _ _ ` ` ` 5.` _ _ _ ` ` 9.5.` 9._ ^ ^ / ^ ( _ u.9.9.8.9.9.9.9.( R Y 6 5 $ # # $ $ 5 Y W Y R R ^ ^ ^ ^ ^ ^ ( ^ ^ ^ ^ ^ ( ^ Q ( ^ ( Q # $ N [ [ [ [ [ [ [ ] m y ] ] ] ! y u 9 9 u T t 9 $ e N N N ] } [ } } } } N %   X & & * - & & & & & & & X o X     X & - , , , - > - - - - - , > - - - > & & a a 3 j A K K P ,.,.,.K P P I K ,.,.K ,.,.,.M ,.,.M M :.M K M ,.M K K M K M K M M G G G G G G C G G G H Z A a & d a f g a a a > g a a > > a a g a > , , = q q : : 3   O 2 1 1 1 q w.w.r d 8 q i a.N.a.N.a.a.a.3.% M +X+X+X*X+X+X+X+X+XI . @ : e 3.3.u < 1 1 1 ! N 1 r ! a.a.! # % : & - & - - & & & o & & & & & & & o & o & o & & & + & & & & X   . @ 3 u M n N i N n n n u e n 2 3 > > a > > g > , > , , , , > # $ 4 5 7 4 7 4 7 4 5 4 4 7 5 7 7 4 $ 4 t u y y y m m ! y ' ' y y t $ t t u t e r 9 7 7 7 $ a d f k k f k k k k k B x B B B B @ > D L D L D S S S S D D D D S S S S S S S S S Z Z Z Z F S V S V Z B B F S , + a , a < a g a g k j s k k k k z v C C A G H J ",
"^ R ^ ^ ^ ^ ^ _ ` ^ _ ^ ^ ^ ^ ^ ^ ^ ^ R R ^ ^ ^ R ^ ^ ^ ^ ^ _ ` _ ` ` ` ` _ ^ ^ ^ ^ ^ 9.` 8.9._ ( ^ ^ _ 9.7.9.7.9.9.u.7.9._ ( ^ ^ ^ ^ 6 Y 0 0 % $ # # # # # $ 0 6 E T R ^ ^ ^ ^ ^ ^ R 0 Q ( ( Q 0 4 7 [ [ [ [ } [ ] m y ' ] ] ] m W u u u u 9 t 4 % m N N } } } e.} e.} } } } 2     & & & & & & & & & + X & & & o X .   . o - , > - - - > > > > > - - > & & a a = l G K P P P P ,.,.,.,.,.,.,.K ,.K M ,.,.I :.,.:.K M M M K M M M K K M M G K G M G G M G G G G J J D V > > f d f f > > > > a > > a g > > > > > , > 3 q q 2 2 % #   : : 1 1 1 e e 1 1 j j i N.a.N.a.p.p.a.p.3.% N OX+X+X+X&X+X+X&X+XM   : 7 ! 3.i < < 1 r p.q.q b w.p.N.N.! # : - & - & & & & & & & o & o & o o & & o & & & o & + & & & & & X .   2 i M i N N n M N n r e n 2 + , > - > , > , , , , , , , , > . $ 4 4 7 4 4 4 7 4 7 7 4 4 7 5 7 % $ 4 t y y y W y y ' ! y y y e $ e e 9 e t 8 e e 5 7 $ a d k d f k f k k k k B x x B B B , o A H L D D S Z S S S S S D S S S S S S S D S S Z Z Z Z S V V S S B Z V S f X a a a a g < a s s s k s j k j k v v C Z G G G ",
"R ^ ^ R R ^ ^ ^ _ ` ( ` ^ ^ R ^ R ^ ^ ^ ^ ^ ^ ^ ^ ^ ^ R ^ ^ _ ` 5.` ` ` ` _ ^ ^ ^ ^ ^ 5.9.9.` ` _ ^ ( 7.9.9.7.i.9.i.7.9.9.7._ ^ ^ ( Q 6 R 6 ^ ^ R ^ T T W W 9 4 0 # # # $ % 0 $ 0 0 $ $ 6 Q ( T 0 Q $ e [ [ [ [ [ m y y ] ] ] m y u u 9 u u u 5 $ t m N } } } } e.e.t.e.e.} } [ 7   X o & & & - & & & + X - & & & + + o .     & g a > - > - - - > > - g & & a a = b G P K ,.,.P P ,.P ,.,.,.,.,.,.,.M ,.,.:.M ,.:.K ,.,.M M M M M K M K K K I G G G K G G G G J G L G c @ f d d f f a > g a a > > > a > > a a > , * 3 p r i ! 2 =     : 2 1 1 1 q j 1 j 1 w.a.N.a.4.4.2.p.a.0.! $ I %X+X*X@X+X&X+X&XXX2 # 2 ! 3.! 2 < 1 i w.3.n r p.p.N.a.a.t X - - & - & - & & & & & & & & & & o & & & & o & o & & & & & & & X # e N i i i M i i n n r q u r + > > > g > > , > > , , , > , , * # % 4 5 7 4 7 4 7 7 4 7 7 4 4 7 7 % $ 4 9 t y y y y i m m W W e $ e e e 9 r e 5 8 8 8 3 a d d d k k f k k k k k k B x B B k # d H L D D S Z S S S S D S S S S S S S S Z S S F U Z Z V S S S B Z V V Z f X a a a g , a g g s k s k k l k l x v C V Z G H ",
"Y R R R ^ R ^ ^ ^ _ ` ( ` ^ ^ ^ ^ ^ ^ ^ ^ ^ R ^ ^ ^ ^ ^ ^ ^ _ 5.` 5.` 5._ ^ ^ ^ ^ ^ ^ ^ _ 8.5.9.` ( _ 7.i.7.9.7.` _ 9.9.0.9._ ( / ( W Y Q 0 ^ ( ^ ( ^ _ 8.9.9.8.^ R R Y 6 6 % 0 5 4 0 6 Q Q _ T 6 ( T $ ] [ [ [ ] y y ' ! N m W y u 9 u u 9 u % % n N } } }  X} e.t.OXOXOXoXe.} } d X X & & & & & & & o   & & & & + + o .       & > a a , > - - > - - > & - f > = v G K ,.P P P ,.,.,.,.P P ,.,.,.,.,.,.,.K ,.:.K :.,.M :.,.K :.K M K M K M G M K G G G G G G G L G Z < > k d k f a a a > > > g > a g > > g > > 2 3 ; i 2.3.3.r : @   # , 1 1 1 b n 8 1 r w.N.N.w.! w.u p.p.p.p.! $ ,.+X&X+X+X+X&X+X&Xe.@ @ r 3.2.r 2 < ] p.p.e N p.p.a.w.p.{ & X - - & & & & & & & o o & o o & & & o o o & o & o & o & o & & X 2 i i n n N n N n i n 2 7 u 2 + > > > > > > > , > , > > , , , > & # % 8 4 8 4 7 4 7 7 5 7 7 4 7 7 7 $ $ 7 9 t y y y m W m y y e % 5 t t t 5 t 5 8 5 5 % , d d d f k k k k k k B x k x B B B * & S D D D S F S S S S S S S S S S S Z S S S B F S V Z Z V V B S V V Z B k . > a , a a s s g s g j s j k k k k v v C C A G ",
"E Y ^ R R ^ R ^ R ^ ^ ` ( _ _ ^ ^ ^ ^ ^ ^ ^ ^ Q ^ ^ Q ^ ^ ^ 5.` _ ` 8.` 8.^ ^ ^ ^ ^ / ^ ( _ u.8.9._ 8.i.8.i.7.) / / ( _ i.9._ ( / ( Y Y / 5 Q ^ / / ^ ) 9.7.i.9.i.) ( ( ( ( / / / / / ) / ) _ Q W ) / 5 7 [ [ [ y y m ] ] ] y y u u 9 u 9 u 5 % 8 m N } } e.oXt.OXOXOX@XOXOXOXt.} } 8     & & & & & & & X o - - & & X o O   . - > & + @ > , > > - * - , & * s * : v K K ,.P P ,.P ,.P ,.,.,.,.,.,.,.,.,.:.K ,.:.,.,.M ,.:.M K M M I M K M K M K G G G G G G J G J G v = d d k B d f g > > , > , , , > > , > > g > + r w.6.4.~ 1 : : @   @ 2 2 1 y ] d r d p.a.p.n q.q.j w.a.p.p.6.r # I @X+X+X*X+X+X+X&XM # : ! 3.e 2 < i p.[ 1 2.p.p.p.2.p.2.1 : O : = & & & * & + & o + & & & o o o & o & o o + & + & & 3 3 @ r y i N i N n n n n p 2 7 r 7 O ; > > > > > , - g > > > > g > g > - o > 4 7 4 5 7 8 7 4 4 7 4 4 8 5 4 $ $ 5 8 t y y y y W m m e $ 8 t e 5 t 8 e 8 8 0 $ f f f f f k f k f B f B k k B x B B f X x K.J D D S S S S S S F F S S S Z Z S Z Z S B S F U V S B Z Z Z A C C x + - a , , a , < < s s s j j k j k k z z v C G G ",
"E 0 Y ^ ^ R R ^ R ^ ^ ^ ( ` _ _ ^ ^ R ^ ^ Q ^ ^ ^ ^ ^ ^ ^ ^ ` 8.8.9.` 8._ ^ / ^ / ^ ^ ^ ^ ) 9.9.8.9.9.8.9.9.) / / ( ( ( _ 0.` / ( ( 6 W ( 0 Q / ( ( ( / 9.9.9.7.7.8.( / / ( ) ( / / ) / X.( o./ ( X.X.Q $ y [ y y m ] ] ] y m y u 9 u u 9 9 % % t N [ } e.t.oXoXOX1XOX+X@XOXOXOXe.} } 8   . & & & & & & . & > > - & & o O   - V A c , & O & > , , , , , & ; 1 & < G K I K P ,.P ,.P ,.,.,.K P ,.,.,.,.,.,.,.,.,.,.,.:.,.M ,.,.M ,.M K K K K I K K G I K G J K L J G 1 = d x d d d f , a , , , > > , , , g > , > > & i 4.p.w.u 2 : : : #   = < 1 i 3.8 j r w.N.w.8 w.! 8 w.p.! 0.p.3.@   I +X+X+X&X&X+X&X+X2 . 2 i i 2 < r u r 1 w.p.p.4.[ a.i j 1 : @ > & & & & & & o & o o o & o & o o & & & o + + + o + & . % n M i n i n n y n n u 2 % r 7 3 > > > - > > , > > > g > > a > a a > & X 4 8 7 7 4 4 8 4 7 7 7 4 7 7 7 8 $ % 4 9 9 u u y y y W 8 % e r 9 t e e 5 8 8 8 & f f f f f f k k f f B k k B x x B B k & , F D D D D Z Z Z S B K.S S Z S S S S Z Z Z S B B V S V Z Z B V V V V B + & a g a g a g a a s j k s k g k k k l C v C G ",
"1X' 0 Y R ^ R R ^ ^ ^ ^ _ ^ _ _ _ ^ ^ R ^ ^ ^ ^ R ^ ^ ^ ^ ^ ` 8.8.` 8.` ^ ^ ^ / ^ ^ / ^ ^ _ 9.8.7.8.9.8.i._ ^ / ^ / / / / u.8.( / / 5 Q ( 0 W ( / ( / ( ) 8.0.i.0.9._ / ( / / ( ) / / ) ) / ( / ) X.X.X.9 2 ! y y ] ] ! ! m y u u u u 9 u 5 % 7 n N } } e.e.OXOXOX+X1X+X+XOX@XOXoXt.} } r . + & & & & &   + > > - & o + & @ B D D S A x a * + > < a a < @ > s 3 q C K P P ,.P P P ,.,.P ,.,.,.,.,.,.,.,.,.:.,.:.,.,.K ,.,.M K M M K K M I M K K K K K G K L G P I A & < x d k d d d a > g > , , > , > > > > > > = 3 4.4.6.i < < 2 : : 3     : 1 N w.r q q q.a.i q w.m q 3.p.y w.p.w.r + # I &X+X+X+X&X+X&X X+ & : r 2 1 < 1 1 b 4.a.q.w.w.p.b 1 1 1 : + > & & & & & & + & X o o & o & o & o o o + + & & & o   r n i M i M N i M i b u 2 2 u r O - > > > > g - > > > > > > > > > > > > @ # 4 7 8 7 8 5 4 8 5 4 7 4 4 7 4 4 $ % 4 8 t t y t y W 8 % 8 r 9 e 5 8 8 8 8 8 & a f f f f k k f z f f B k x x x B B B > + A D D D S Z Z Z S Z S Z S S S Z S Z Z S Z Z S Z F S V Z B Z V Z B V V : & a g g , , g < g s j g k s k j k k v v C C C ",
"9X9X*.0 E R ^ ^ R R R ^ ^ _ ` ^ _ _ ^ ^ ^ Q ^ R ^ ^ ^ Q ^ _ 8.` 8.8.8.5.( ^ ^ ^ ^ / Q ^ ^ ^ _ 7.u.8.9.i.8./ ( ( ( / ( / ( ) ( / / / 6 Q ( 9 T ( ( / / ^ / / 9.0.9.p.O.( / ( / ) / ) ) &./ X.o./ / / _ &.Q $ 8 i ] ] ' m m W y t 9 u u u 5 % 4 u m N } e. Xt.OXOX1X+X+X+X1XOX@XOXoXe.e.} } r . & & & & & . X > g - * + & : & V J L D D Z V c f > & , a s @ , < 3 k G K P P P ,.,.,.P P ,.,.K ,.,.K ,.,.,.,.,.,.,.,.,.,.:.,.,.,.:.M ,.:.I K K M K K G K G G I P L H d * d k k k k d f a > > > , > > > g > > > g > & r 4.p.4.t r < < : : : @   O : i 6.e j 1 n p.n q u.n 1 q.p.r q.a.p.r 2 @ # I +X*X+X+X+X&X&XN O : : 2 < 1 1 1 1 3.a.w.0.p.p.r 1 r d r r 2 - & & & & & & o & & o o o & o o o & o + + + + + X 3 n i M i n n i N n n n u : 2 r 2 O - - - > - > > - > > g > > > g > , , > > . $ 7 8 7 4 7 7 4 7 4 8 4 7 4 4 7 5 $ % 5 5 t y y y m 4 4 e 5 r r 9 e e 8 4 , - g f f f f f f k f k k B k k x x B B B f . d D D D S Z Z Z Z Z Z S Z Z S Z S S V V S V V Z V V V Z V V V V V V C > & < g a a < a g < a s j s k j j k j z v v C C ",
"9XCXqX .5 Y R ^ ^ R R ^ ^ ^ _ _ _ _ _ ^ Q ^ ^ ^ ^ ^ ^ ^ ^ 5.8.8.9.8.9.( ^ / ^ Q Q ^ ^ / ^ Q _ 9.9.9.7.9./ / / / / / / ( / ( ( / / Q 5 Q / 6 W ( / / / ( / / _ 9.a.i.8.( ) / / / ) ( ) / / ) ) / X.&.8.p.a.! 3 u ] ] ] m W y t u u u 9 9 4 4 7 n m } } e.t.e.OX+X+X+X+X+X+X1X+XOXoXt.oXe.} } r O & & & & . + > a - & & & > & B J L D H D Z C B c < = = < = , , : v K K P P ,.,.P ,.,.P ,.K ,.,.K K ,.:.,.,.,.,.:.,.,.,.,.M ,.:.K K I K ,.M K I K I K K G J P G G H > , c k k k d f f g > > , > > > a > > , > > > @ i 4.4.0.4.3.8 2 8 r % 3 #   @ i w.u 1 d 1 e b q w.n 1 q.w.r 2.p.p.r 1 < # # I +X+X@X&X&X&XOX2 @ 2 < 2 1 1 1 1 i [ w.a.a.2.1 b 1 j e 6.r $ * & & & & & + & + + & & o & o & o & o + + & 3   r n n M i n n M i n e n e : 2 r r # - - - - - - > > > > - > > g > > , > , > > o $ 0 4 8 7 7 4 7 4 4 4 7 4 5 4 4 4 $ % 5 5 t t y y 2 4 8 r 5 e 5 8 5 8 5 7 $ a f f f f k f k f k k f k k x x B B B k @ > S D D S A Z S Z Z S B S S Z Z S Z Z V Z V S V Z B Z Z V V B V V Z V < o < , , a < a , g a s s s j j k j k k B V V C ",
"qX9XdX9X .5 E R R ^ R R R ^ ^ _ ^ _ _ ^ ^ ^ Q ^ ^ Q ^ ^ ^ 5.` 9.` 8.5.( ^ Q ^ / ^ / ^ ^ / ^ ( 8.9.8.8._ / ( ( ^ / ( / / / / ( / / Q 0 ( / W 6 ( / ( ( ( / ( ( u.9.0.9./ / / ) / / &./ ) ) / / o.) 8.0.a.a.0.5 5 ] N ] W m u t t u u u 9 4 % e n N } } e.t.OXOX+X@XwX1X+X+X+X+XOXOXoXoXt.e.} } 7 . & & & . + , , - - o & - & V A.H S.H L D D A V x k , = O : : < G G P P P K K ,.P K ,.,.,.K ,.,.,.,.,.,.,.:.,.,.,.:.:.,.,.,.K ,.,.M K M I K K K K G G I J I L P v @ j k k k k d f f , > , > g > > > > > > > > - 3 2.4.6.p.0.4.r i 3.3.r : :     r p.n 1 8 j d q r w.u d i u 1 [ p.6.r < 1 2 @ # I +X+X+X+X&X&XI O : 2 < 1 q 8 1 ! ! y p.a.i 1 1 1 1 q.[ 1 < @ & & & + & & + + + o o o & & o & o + + + & O 3 e u n i N n i N n n n p r % 7 r 2 # * - - - - - > - - > g > > > > > > , > , > * . % 8 5 7 5 7 4 7 4 7 4 4 4 4 4 5 % $ 4 5 8 t u u $ 5 e 9 e 8 e r 9 8 8 7 $ f f f f f f f f k f f B k k k k k x B B , # x D D S Z Z Z Z Z Z K.Z Z Z S B Z Z Z V Z V Z V V V V V V F V V V V s o < a < g g , a < g s s k g k j k k k l v C C ",
"9X9XdXdXdXOX9 6 Y ^ ^ R R ^ ^ _ _ _ _ _ R ^ ^ R ^ ^ Q ^ _ 5.9.8.8.9._ ^ ^ / / Q ^ / Q / / ^ ( 8.8.9.8.) / ( / / ( ( / / / / / / / W 6 ( ( W 9 / ( / ( / / ( / _ a.0.7.( / / / ) ) / _ &./ o./ ( u.a.a.a.p.a.2.3 y ] ! m W u u y u 9 t 4 4 7 y m N } } e.oXOX+X@X+X@X1X9XwX+X+X+XOXOXoXe.e.} [ N 4 X & &   & a , - - & & , @ A J S.H S.L J H H Z A V v k ,   @ c G G P I I K P P ,.K ,.I K ,.K ,.,.,.:.,.:.,.,.,.K ,.,.,.,.K ,.,.M K K ,.M K K K G K K K K P P J < > c c c k k c f f , > > > - > > > - , > , > & % 4.4.6.6.p.3.w.p.p.3.i : : :   # ! ! r n q 8 d q [ N 8 q d d ! a.p.r 1 1 1 7 7 . n %X&X+X&X&X&X2 @ 2 < r 3.w.i p.p.w.q.w.j 1 1 q d i p.b 8 2 @ o & & & & & + & & o o o o o & & + + + & O 2 u n p n i n n n i M t e e % 7 r 2 # - - - - - - > - - > > > > > > > > > > , > > * X 4 7 8 7 4 5 7 4 4 4 2 4 4 4 4 4 % % 4 7 9 t 9 $ 5 5 e 5 e r 5 5 7 8 4 @ f f f f f f f z k k f k k k k B x x x B d . f S D S D Z F V Z Z z F S Z S B K.F V V Z S Z V V V Z B B B B Z B V s X , , , , a a , , g s s k k g k j j k z c v C ",
"9XdX9X9XdXdX;X9 E R ^ R R R ^ ~ ^ _ ~ ~ ^ ^ ^ ^ Q ^ ~ ^ _ 5.` 5.8.8.8.^ / ^ ^ ^ / ^ / ^ ^ / ^ _ 9.p.i._ / / / / / &./ / ) ( / / / 6 W / ( W 6 ) / / / / / / / ) 9.0.u./ ) / / / / / ) / ) / ) u.a.p.a.p.a.a.0.r 7 m ' m t t t u t t e 4 2 e m m } } e.e.oXOXOX@XOX+X+X+X+X9X1X+X+XOXoXe.e.} } N N 2 . + . + a , > - & & ; 3 C J H L L D J J H H H A C V v s 1 G P P P K P ,.,.K M I M K ,.,.M ,.M ,.K ,.,.,.:.,.:.,.,.,.,.:.,.M ,.,.K M I K K I K K J I L P K G : d c c k k k d f a a g > > > > > g - - - - > + p 4.4.3.p.p.p.p.p.p.w.i : : : 3   # u i ] 1 d r e q.6.N 1 1 1 i p.4.1 1 1 < 1 ! r   b @X+X&X&X9XI # : 1 ! p.0.! w.3.a.i r q 1 b d 8 q { q.j 1 1 & X + & & & & & & & & o o & o o + + & + O r n i N i i M n n n n n e p $ 2 r 7 # & * - - - - - > - > > > > > > > > > > > > > > & # 7 5 7 8 7 4 7 7 4 7 4 4 4 4 4 4 4 % 4 7 5 4 % 8 8 8 e 5 9 8 r 8 8 4 & f f f f f f f f f f k k k k k k x x x B x * & V D S D Z Z V Z Z Z Z V Z B S F B Z Z V V B Z B Z V B Z Z B B V V j . , a g < , g g < < a s s s j g j k j k k v v ",
"dX9XdX9X9XdXdX;XE 6 R R R R R ^ _ _ ^ _ ^ ^ R ^ Q _ _ 8._ 9.9.u.9.9._ / ^ ^ / ^ ^ / / / ^ ^ Q _ 7.9.7._ / / / / / / / / ) / &./ / 5 Q ) / W 6 / / / / / / &./ ) 7.i.9./ / / / / / ) / &._ / 9.a.p.N.p.N.0.N.p.4.$ y W n u t y t u t u 5 4 m m N } } e. XOX@XOX+XOX+X@X+X+X+X1X+X+XOXt.e.e.} } ] N N % .   & a , - - & & : 3 A H S.D L D S.L J D H G Z A G G G P P K I K I P P M ; < b K ,.,.,.K ,.,.,.,.,.:.:.K ,.,.,.,.,.,.M ,.,.K M ,.K I K K K I P K P P J 1 - x B k k k k k f , , > > > > > > > > > > > > # i 4.4.6.p.p.p.a.a.p.4.r 2 : : : $   # r 2.1 1 ! a.a.a.w.r 1 q m a.[ r e r < q e 3.5   q oX&X&X&X&X1 @ r 3.p.w.! w.i a.! 1 b 1 j 1 b 8 b w.t 1 q 1 : . o & & & o & & + & + + & o & + + @ 3 u n M i M i N n n n e p r r $ 7 7 2 # - - - - - * - - - - - - - - > > > > > > > - - - @ $ 7 7 7 4 7 7 4 4 4 4 2 4 4 4 4 4 % % 4 4 $ 4 r 5 5 e 5 8 8 e 8 7 4 & a a a a f f f f f f f k k k k x k x x B B d . d D D D Z Z V S V S V F Z V Z Z F B S B Z Z B V V V V V B B V B V d o , < , g g < , g < g s s j s j j k k j k z V ",
"9X9X9X9X9X9XdX9X;X' 6 T R ^ ^ R ^ ~ _ _ ~ Q ^ ^ _ ` 8._ 8.8.8.8.8.8.( Q Q / Q / ^ / ^ Q / / ^ _ 8.7.i.8./ / / / / / / / / / / ) Q 5 Q / / Q 9 &.) / ) / ( / / / 8.0.u./ / ( / ) / / ) / / _ p.p.0.p.a.p.a.p.a.a.r 7 m y t y u u 9 t t 5 8 n m I } } e.oXOXOXOX;XOX+X1X+X+XOX+X+XOXoXe.e.} } ] N N ' j     & a , - - + & < @ V L J S.J J J J L L L H H J G J L P P P P P ,.K l l q ; 3 < M M ,.,.M ,.M ,.,.M ,.,.,.,.M K ,.,.,.,.,.I K K K K I K K K K P P P A : f B k B B k k k a a a , > > > > > > > > > - & $ 2.4.4.p.p.p.p.p.a.p.y 1 < : 2 r : %   # ! r 1 2.p.[ 4.3.j q 1 ] p.i q.0.w.u 1 1 i 6.u # 2 XX&X+X&X X# u 4.6.p.2.3.q.p.! 1 1 1 1 1 1 q d ! w.[ b 1 1 : @ . & & & & o & & & & + + & & @ O r e i i n i n n M i n n u u r $ 7 r 4   o & - - - - - * - - - - - - > > > > > > > - - - - # % 7 8 7 4 4 7 4 4 5 4 4 % 4 4 4 4 % # # $ 7 5 8 8 8 e e 5 5 5 7 % & a a a a f f f f f f k k f k f k x k x x x c @ > Z D D D V F V S Z Z B U S Z V Z S B Z B U B V V V V V V V B V B c O - , a < , g g < < < g s s s s k j j k k l V ",
"9X9XeX9X9X9X9X9X9X9X} 9 E ^ R R Q _ _ _ _ ^ ^ ~ _ 8.8.8.8.8.8.7.7.8./ / / Q / ^ / Q / Q ^ ^ / / u.9.u.9./ / / / / / / / / &./ / W 6 / / / Q 9 ( / / / / / / / / u.0._ / / / / / / _ / _ &.8.a.a.N.p.p.N.p.N.a.p.3.$ u u t y u 9 t y t % t n N } } e.e.OXoXOX+XOX1X+X+X+X@X+X+XOXoXt.e.e.} } N N m N 2 + . * a > - - + & ; 3 A L D D L S.H L J L L H J H L P P P P P P P K K = < q l q ; : q p M ,.K :.,.,.:.M :.M ,.,.:.M ,.,.I M K I ,.,.K K K P P P P P K d : B B B k k k k f a g , , > > > > > - > > - > o 7 4.3.3.6.p.p.p.a.p.3.r < 1 : r 7 : u u   % r 1 [ 4.1 ] p.e 1 1 n 3.i w.! w.6.u < q i 3.u   :  X&X&X&Xb 4 3.6.p.! p.p.p.N w.e q d 1 8 j 1 N p.3.i b r 1 1 & O + & o & + + + + & & + + + @ t n n i i n n i n n n u t r r # q 7 2 # X X * - & - * - - - - - - > - > > > > > > > > - & * O 4 5 7 7 5 4 7 4 % 4 4 4 4 4 4 4 2 % % 4 7 5 7 5 8 5 8 8 8 8 r % & a a a f f f f f k f k f k k k k k k B x x B , . x Z Z D S V B U V V Z V B Z B B B Z B Z B B B F B V B B B V B B x + & a < - g , < a g g s s s j g k s k k k k z ",
"9X9X9X9X9X9X9X9X9X9XdXoXE E R R R ^ ^ ( _ ^ R _ 5._ _ _ 8.9.7.8./ / / ^ / / ^ / / ^ ^ ^ Q / / / 8.7.7.7./ / / / / ( / ) / / / _ T t / X.( W 5 ( &./ ) / / / / / 8.9.) / / / / ) &./ / / / p.a.p.p.a.p.N.p.p.p.a.0.4 7 u y y u t u u 7 8 m m ] } } e.t.OXOX@XOXOX+X+X;X@X+XOXOXOXoXe.e.} } N N m m 8 = c = * a > - & & = 2 @ V H S.J L D S.D L J L J L L L P P G.P J c K K v 3 < q q l r q : 3 ; q M M ,.K ,.,.K M ,.,.,.K ,.,.M K ,.K M M K I K K I K K P A : j x x B k B k f f a , , , > > > > - - - > > - o y 2.4.5.4.4.p.a.p.4.r 1 1 1 1 i r : i 2.5   @ 2 i p.2.w.a.[ 1 q e r q.m 1 q ! 3.r 1 1 r 1 : . : } &X&XOX2 i 7.p.! 2.w.i 2.p.p.i q d 1 1 1 i ! n p.p.! b 1 1 i r $ & o & + & + + & & & + : n p i M M i n N n y n p e e r 3 7 7 2       X & - - - - - - - - - - > - > > > > > > > > * & & $ 4 7 7 4 4 4 4 4 4 % 4 4 4 4 4 4 5 4 5 5 5 8 r 5 8 8 8 5 8 5 $ : a a a a f f f f f f f k k f k k k x k x x B k # f Z D Z S B F V V Z V Z V V F U B B Z B B F B B V B V B V B B B x + + < g a , < a - , < g s s s s j g k k l k k ",
"9X9X9X9X9X9X9X9X9X9X9X9XOX8 6 R ^ R ( _ _ ^ ^ _ _ _ 8._ 8.8._ / Q ^ Q / ^ / ^ / / / Q / Q / / Q 8.7.7.9./ / / / / / / / / ) / / 9 W ( / ( W 9 / / / / / / / / / i.7.&./ / / / / / _ / / 5.0.p.N.N.N.p.p.a.p.a.a.7.W $ u y y t t u u 4 t n N [ } e.e.t.OXOXOX+X+X+X1XOX+XOXOXOX Xe.} } } N m m m 7 : B S & & a , - - + & ; 3 A L D S.D L D J D L L L L P G.P G.G.P j c K z < 3 q < q l q q l q q q q q M M ,.M ,.,.M ,.,.,.M ,.K I K M K K I K K K I P P L j : v B x x x k k k f a a , > > > > > > - > - ; 3 # 2.4.4.2.u 2.p.p.p.N d 1 1 1 8 ] 2 2 i ~ r .   O q 3.p.a.a.q.j d 1 q ] r 1 1 1 ! y 1 1 1 2 1 : O @ N +X&XI 3 3.p.[ r r i a.N.p.p.2.i b n r i i w.a.p.a.i < 1 p.p.1 & + + & + + + + & + @ r p u n M i n n n n n u M n e r 3 2 r % # o       & - - - - - - - - > - > - > - > > > > - > * & + $ 7 7 7 5 4 4 4 4 % 4 4 4 4 4 5 4 7 4 7 7 7 7 7 8 5 8 8 0 8 $ > a a a a f f f f f f k f f f k k k k k B x x B & $ A S Z S V V Z B Z B F V Z B Z B V V Z B S B B B B B B B B B B z = . , < < , g < , g g , s s s j s j s j k k k ",
"9X9X9X9X9X9X9X9X9X9X9X9X9XOXe 0 Y R ^ ~ _ ~ Q _ _ 5._ 5.8._ / ^ / / / / / Q / Q ^ Q ^ / / ^ / ^ ` u.7.u.) / / / / / / o./ / / ~ 5 Q / / ( W 9 / _ / / / / / / _ 8.8./ / / / / / / / / &.8.a.p.0.0.p.0.N.p.a.p.p._ / $ e t 9 t u y 8 7 n m N } } } t.oX@X+XOX1X+XOXOXOXOXoXoXy.e.e.} } N m m m 2 < A D D > & a g - - + * < @ A H J D L D J L J L L L L P P G.P I 1 l G v q q 3 1 q q q q q q l q q q l p M M M M ,.,.M ,.,.K K ,.,.,.K K K K K I P P P P G : k v x B x x k k f f g a a a > > > > - - - - - 3 % 2.2.3.r r 6.p.a.p.r 1 r 1 1 e ! 1 2 ! ! 2 : #   @ r ] q.! e 8 1 1 b t 1 1 1 1 r w.3.r < < 2 1 2 @ # r XX&Xr 7 6.! 1 e p.p.p.N.N.a.p.p.p.r q.m w.p.] p.q.q 1 ] ! 1 g + + o & o + + + O 3 e N i i i i M M n M n u e r r r $ 2 r 7 # & & X   X + * - - - - - - - - - - - - > > > > > > > * & + $ 8 4 4 4 % 4 4 4 4 4 4 4 % 4 4 4 4 7 7 7 7 5 7 7 7 7 8 8 & , a , a a f f a f f f f k k k f k k k k k x x x < o c Z Z S B V V Z B F B Z B B B S B B B V B B B B B B B B B B B x *   = , g < , , g < , , s s s g k s k j j j k ",
"&X9X9X9X9X9X&X9X9X9X9X9X9X9X+Xn % Y R ~ ~ _ ~ _ 8._ _ / ^ Q / ^ / Q Q / Q / / ^ / / / Q ^ Q / / _ 7.7.7._ Q / / / Q / / / / / Q 0 / &./ / W 6 / _ / / / / / / / 8./ Q / / / / / / / / / 8.p.a.p.N.p.p.p.a.p.p.8.) / 6 2 y 9 y u t 2 e n n } } } e.oXOXOX+X+X+X+X@XOXOXoXt. Xe.} [ N N m m n 2 2 Z L H D > + a - - & & & ; = V S.J D D L D J D L L A.D.P H.P P d j G v q < < & < q s q q q q q q q q q q q q l ,.M ,.,.,.K ,.,.I M K I ,.K K K P P P P P b : v v v V c x k k f a a > a > > - > > - - - - - o p 3.3.! q ! p.p.p.2.1 d d 1 1 b ! 1 2 ! ! 7 : : #   @ 1 q 1 r j s 1 b e j 1 d 1 t p.p.3.8 < 1 1 1 i i # : e.XX3 7 r 1 i p.p.p.p.p.a.p.a.p.n q.e 6.w.e p.w.1 1 r d 1 a * & o o o o + + O 7 u i N M i n n n n y n e n r r r # 7 7 2 . + & & X     o - - - - - - - - - - - - > - > > - > > > * & O % 8 7 5 4 4 4 4 % 4 4 4 4 4 4 4 7 4 7 4 7 7 5 8 8 8 8 2 + , a a a , f f f f f f f f f k k k k k x k c x B k . f Z Z Z Z Z B B V B U V B Z B Z B V V B B B B B B B B B B B x x > . & , g , a < , < < < g s s s j j s d k k k ",
"9X9X&X9X&X9X9X9X9X9X9X9X9X9X9X&Xi 0 Y ^ _ ^ _ _ _ 5.~ ^ Q ^ Q Q / / ^ / / / / Q ^ Q / ^ / / Q / _ 8.9.u.) / ~ / / / / Q ) / / 9 W _ / / / Q 9 / ~ &./ / / / Q / / ( / / / / Q / / / / ( u.p.p.p.p.p.0.N.p.7.o./ &./ T $ u y t y 9 4 n n N } } e.e.OXOX+XOX1XOX@XOXOXoXe.e.e.} } } N m m t % < H L L J D : + a , - - + = : @ V D D L L D L L D L L P G.G.H.P j d G v 1 a j ; 3 q < q q q q q q q q q q q q q q M ,.,.K M ,.M K K ,.K K I K K P ,.P I P J : d V V x x x c k f f f a a > g > > > > - - - - * O i 2.3.u r 3.p.p.p.r 1 8 j 1 q e 2.1 < i ! 2 2 : =     = 1 1 ! ! r r q.p.! 1 q < u p.q.3.! 1 1 2 1 2.4.~ % $ I I @ : 1 b p.p.N.p.a.a.p.a.! ] ! r p.4.! a.2.1 1 s 8 d , o o & & o + + @ 3 r M u p n u u N n n M u u u r r r @ 7 7 2 X + + + & X   . o - - - - - - - - - - - - > > - - > * > > & + # % 8 4 5 4 % 4 4 4 % 4 4 4 4 4 4 4 4 7 5 7 8 8 4 4 8 4 + , , , a a f f f f f f f f k f f k k k k k k x x x & & V A Z S B B Z B B Z B Z B B B B B B B B B B B B B B B x B B v , o & - < a - g , , , < , g s s s s j j s j l ",
"+X9X9X+X9X&X9X9X9X9X9X9X9X&X9X&X9X} % Y ~ / _ _ 5._ ^ ^ Q ^ Q Q / ^ Q Q / / / / Q / ^ / Q / ^ ^ _ u.p.8._ / / / Q / / / ~ / Q 9 Q / &./ / Q 9 / / / / Q / / / Q / Q / / / ^ Q / / / / ~ u.p.p.a.p.p.a.p.u._ / _ ~ / Q % 9 y y u 8 8 n N } N } e. XOXOXOX1X+X1XOXOXoXe.e.} } I ] m m m e % < D L L L L D * + a , > & & & : @ C H L D L L D L L L G.P Z.G.P j 1 A v < < q s < 3 < q < q q q < q < q q ; q q ; r :.,.M ,.:.K K K ,.M I K K K K I P P P P b > v v v x x x c k d s a a a , , > > - > - - - - & $ [ 3.2.2 i 6.p.p.N 1 q d 1 1 1 e w.8 1 i ! 2 : : % 3     @ 2 q i ] N p.3.4.b 1 1 t p.i ! w.8 < 1 r w.p.6.4.u # M b @ 2 8 4.a.p.p.a.a.p.w.e q.r e p.a.p.a.N 1 1 1 1 1 2 X o + + + + 3 O 3 u i n i n n n n n M u e n p r r 5 $ 7 7 2 # # o + & & X     + * - - - * * - - - - - - - - - - > - > > - & . % 8 4 4 4 4 4 4 % 4 4 4 4 4 4 4 7 4 7 7 7 8 5 8 8 % @ , a , a a a a a f f f f f f f k k k k k B k k B B a o k S V A V V V V V B B B B B B B B B B B B B B k B k B B B k B , & & - < , , , g g ; g < a s s j g s j j j k ",
"9X&X9X&X&X9X9X+X+X9X&X9X9X9X9X&X9X&X} 8 T / ~ _ _ _ ~ ^ ^ Q Q ^ Q / / / / Q / Q / Q ^ Q / ^ Q / _ 6.8.7.u./ / Q / / / / / / Q 6 ~ / ~ / / W 5 / / / / / / / / / / ^ Q / / / / / / Q / / 7.p.p.0.0.a.7._ / / / &.&./ / 0 4 y n t 4 n m m } } e. XoX+X@X+X+XOXOXOXoXt. X} } [ ] N m n e % < L Z.L L L D S : + a > , & & & ; @ C H D D D D H H L L G.G.G.P j < A c 1 < < < < < O q < q < q q q q ; q ; q q ; 3 M K I ,.K K K I K K K K K ,.K P ,.P P P K < j A v v v x x c k f a a a , a > > > - > - - - - o 4 2.2.u r 3.p.p.w.r 1 d 8 j 8 q j 3.b 1 e i < 2 e u r 2     $ < 1 r ! w.r ~ ! 1 1 r w.p.p.3.q < 1 r 6.6.p.p.6.u # 1 : = 1 ! a.p.a.a.p.p.n i q.1 b p.p.p.w.r 1 1 1 3 2 2 O & + + + + & @ r n p i n M u p N i n n n n e r r r # q 7 2   O 3 + o o & o     o & * * * * - & - - - - - - - - - - - - > > + . % 8 4 4 4 4 4 4 4 % 4 4 4 4 7 7 4 4 7 4 7 4 7 8 % & , , a a a , a a a f f f f f f f k k f f k k B B k f o a V V S Z V B B B V B F B B B B B B B B B B B B B B B B B B B f & - & g g , , < , , g , < a a s j s j s s k ",
"+X+X9X9X9X9X+X9X9X&X9X9X+X9X9XwX&X9X9XoXr W ~ _ ~ 5.Q Q Q ^ ^ ~ Q / Q / / / Q / / / Q / / Q Q ^ / 6.8.8.8.~ ^ Q / / / / / / W W &./ / / ( W 6 / / ~ / Q Q Q / / / / / ^ / Q / ^ / / / _ p.0.0.p.p.p.o.~ / ~ / / / / / t 4 y y e 7 n N } } } e.oXOXOXOX@XOXOX@XOXe.e.e.} N N N m n e $ 1 L L L L L L D D : X a , > * & & ; @ V H D L D D L L L L D.P P d < A v d < < < < 1 < @ < q < < q ; < q q ; ; q q 3 b K K K M ,.K M K I ,.I K K K K P ,.P ,.P v - v A v x v x x k d f s s a g , > > > - - - - & - # u 4.2.r ! 6.p.p.u 1 d 1 1 1 1 d 1 [ ! < 1 r 1 e i u i 7 :     @ 2 1 u p.! ! w.q s 1 u w.p.i 1 1 1 u p.p.p.p.3.e :   3 @ : r w.p.a.p.4.e 1 [ t 1 r w.a.4.e j 1 1 2 O 2 , O & + + + & 3 3 u i n i p n n n N i n M n e e r r 5 $ 7 7 2 # X + X + + & & o     X * - * * * - - - & - - - - - - - - - - > - & . $ 4 4 4 4 4 4 4 4 4 4 4 4 4 4 7 7 7 4 7 7 7 4 $ & a a a , , a a a a a f f f f k f f f k B f k k k B B & & B V S B V B B B B B B B B B B B B B B B k B B B B k B B k B f o - + ; g , , g , , , < , g s j s s s j j j ",
"+X9X&X+X+X+X9X&X9X+X&X+X9X&X1X&X9X9X9X&XoXt W _ _ _ ^ Q ^ Q R ^ / Q / / Q / / Q Q Q / Q / Q / ~ 8.8.u.7.8._ / / Q / Q / / Q Y Q / / / / / W 9 / / / / / / / / Q ^ Q / Q / Q / 8.6._ Q &.7.p.0.i.p.p./ / / &./ / Q / ( W % y y 8 e m N } } e.t.OX@XOXOX@X+XOXoXe.} } [ ] N m n m e $ f L L L L L H D D Z * X a > > & o & : @ V D D D L D S.Z.A.G.G.P d < A v d < < < q a < ; 3 < < ; q < q q ; q q q < 3 q M ,.I ,.K M ,.,.K K I K K I K I P G.P P L 1 1 G v x v x x c k d d a a a a a , > - - - - - - - 3 ! 3.i u 3.p.7.2.q r e r 1 1 d 1 q n 3.r 1 1 u ! q : : : : =     @ < 1 ! p.p.w.8 1 1 1 r t 1 1 1 u q.p.w.p.p.u 2 1 i %   O < r ! w.2.e q r 2.b 1 1 i q.u 1 1 1 1 2 @ < 2 O o o & & = + 2 n n p M i n n n n n n u e n e p r 2 3 7 7 4 # + X X + o o o & +     . & * * * - - - - - - - - - - - - - - - > > & X & 4 4 4 % 4 2 4 4 % 4 7 4 4 4 4 4 4 7 5 7 8 $ * , , , , a a , a a f f f f f f f k k f k k k k k k B a X k S B A B B B B B B B B B B B B B B k B B k B k B B k k B B f + > o - , < , , , < ; , , < s < s j s s s j ",
"+X&X9X+X&X9X+X9X&X9X+X9X9X9X&X1X+X9X&X9X9XOXt W _ ~ ^ R R ^ R Q ^ Q / Q Q / / Q ^ Q ^ Q / / _ 8.8.7.8.6.8._ Q ^ / / Q Q / / 9 Q / Q / Q / W 6 / Q / / / ^ ~ ^ / Q / Q / Q _ 8.u.p.8./ / u.p.0.p.7.p._ / / / / / &./ / W % y y 2 n N ] } } e.oXOX@XOXOXOXOXoXe.e.} [ N N m m n 8 $ d L S.L L L L D D D D : # a > - * o & ; 3 B H D D L L L G.D.L L d < A V d < < < < < < < ; 3 < q < ; q 1 ; q q q q 3 ; M M ,.K K ,.M K I K K K M K P K P ,.I P P v : v A x v x x c k k d f a a , a a - - > > - - - * % % 2.3.i 3.w.6.4.! q.p.4.4.[ n q 1 1 r w.2.y ! 3.i 2 2 : : : : 3     O 2 r ! w.w.c 1 1 1 q e 1 1 ! w.3.p.0.p.[ q 1 r p.3.%   @ 1 q 8 j 1 1 n [ 8 1 1 s 8 1 1 1 1 1 : @ 2 2 O o & + = 3 @ r p i i n M i n n i n n n b u r r r % $ 7 q 2 O o o o o o + + o o & X   X & * * - - & - - * - - - - - - - - > - > > & X & 4 4 4 4 4 2 4 4 4 4 4 4 7 4 7 8 8 7 5 8 + - , > a , , , a a a a a f f f f f k f k k k k k k x x f o , B U Z B B B B B B B B k h B B B k B k B k B B k x k x x x k o , & & < , - g g g g g , < s s j s s j j s ",
"&X+X+X9X+X+X+X&X9X+X9X+X+X&X&X9X1X&X9X+X9X&XOXt W _ ~ ^ Q Q Q ^ Q Q Q / / / Q / Q / Q Q ~ _ 8.8.8.8.8.u.u.8./ Q Q / / / Q Q Q / / / / / / W 9 Q / / / Q ^ / Q Q Q Q / Q _ 8.7.8.7.7.~ &._ 0.p.p.p.p.o.Q Q / ~ &.~ / &.Q % t e 8 n N } e. XoXoXOXOXOX@XOXoXoXe.} } N N m m n 7 $ c U L L L L D D D D D S * + < , - & & & 2 @ B H D D L L L Z.P L d 2 Z V d < s < 1 < < < < < @ ; < < < 1 ; < ; 2 ; ; 3 b ,.K ,.K K ,.K I K K I K K I K K P P P P P < 1 G v v x v c c k d a d s s a , a > > - - - * - * 3 5 2.3.2.3.3.p.2.6.p.p.a.a.p.p.3.y 1 q u w.p.w.! t < 2 : : : : : :     # , 1 8 r 1 1 r r 1 ! r u ! e ! p.p.6.e 1 1 u p.w.u .   3 1 1 1 1 1 ! i q 1 1 1 1 1 q 1 1 < @ @ < : O + o & @ @ 3 u y n p i u n n n N n n u n e r r r % % 7 7 %   + X X o o o o o o + X X     & * & - - - & - * - - - - - - - - - * > > * o + 2 4 4 4 4 4 4 4 4 2 4 4 4 4 4 4 4 7 0 @ > > a > a a > a , a a a a f f f f f k f k f k x k k x k - - B B B B B B B B k B B B B B k B k B B k B k k B k x x x x f + > - + , , g g - ; - , g g < a < s s s s s ",
"+X+X+X&X&X+X+X&X9X+X+X9X+X9X9X+X&X9X+X9X+X&X9XOXu W ~ R Q Q Q Q Q ^ / Q Q / ^ Q Q / Q / _ 6.8.5.u.6.8.8.6._ Q / ^ Q / Q / Q / Q ~ / / / ~ T 9 ( / Q / Q Q / Q ^ ^ / / 8.8.8.6.6.u.8./ Q _ 0.7.p.p.p.u./ &./ / Q / ~ / / 0 e 8 e N } } e.e.y.oXOXOXOXOXOXt.e.} } N N m m n % & c L L L L L J D D D D D A : o , > - & + = ; + B H D L P G.G.L L c 1 A V d < < < < < < < < < < @ , < q 1 1 1 < < ; : # < M M ,.M I I K K I I K K I K K I I P ,.P P A : v A v x c v c c k d d f a a a , , > > - - - * * 3 # u 4.2.3.3.p.2.3.p.p.a.p.p.a.p.a.p.i f 1 r n r i r < 2 , 2 r 2 : : 3     # 2 2 1 1 ! ! ! N ! ! ! r 1 ! p.p.3.q 1 1 y p.e 2 r 5   : 1 1 1 8 q.e 1 q d q d 1 ] u 1 r % = : : @ o + + @ O 7 n i p i n n n M n M n p n e n p r r % % 7 r % # o X o o o o o o + + & + X   . + - - - - - - - * & > - - - - - - * > - - - o $ 4 4 4 4 4 4 4 4 4 4 4 4 7 4 7 7 7 > + > > > , , , a a , a a f a a f f f f k f f k k f k k k k > o x B B B x B x x B B B B k B B k B k B B k B k k x k x k k k & - ; + - , , - , , < , , ; < s s s s s s j ",
"+X+X+X+X+X+X9X+X+X&X+X&X+X+X&X+X&X+X9X+X1X&X+X9Xt.u W ^ R R ^ R Q Q Q / Q Q Q / / Q _ 5.5.8.8.u.8.8.6.8.8.8./ Q Q / Q / Q / / Q Q / Q / / W 6 / / Q / / Q Q Q ^ Q / 5.8.8.8.8.u.8._ Q Q _ u.6.p.7.p.8.~ / Q / Q Q / / Q 4 4 7 n m } } e.oXoXOXOXoXoXoXe.e.} } N N m m t $ = V L L L L L H D S D D D D S * O , > - * + = : @ v H L L L L Z.L B > x A d a < a a < < < < < < < @ ; < ; < ; < ; < ; 3 3 M I K K K K M ,.K K K K K K P K K P P P P P 1 < G v c v x x c c d d d a a a a a , - > - - * - * 3 3 i 2.3.3.6.3.! p.p.p.p.p.p.p.p.a.p.w.e 1 1 < 1 i 1 1 < 2 i 3.u % : : : $   O : , r q.r u ~ 2.! 8 < 1 ! p.p.2.1 1 < u w.r 1 2.6.u   @ 2 1 b q.r 1 d 8 e s 1 i 3.2.~ % : : : @ + o + & @ e p n n N M u u n n u n n e n e e r r % 3 7 7 %   o X X O . X o o o + + X & X     o - & - & - - * - - - > & - - - * - - > > * + + % 4 4 4 4 4 4 4 4 4 4 7 4 4 7 4 - - > a > , , > > a a a , a a f f f f f f f k f k f k k k k f & f B B B x k x x k B k k B k k B k B k k B k k B k x k x k k & - , & & a - a , , , , , , , g < s s s s s ",
"+X&X+X+X+X+X+X&X+X&X+X+X+X&X&X&X+X+X&X+X+X+X&X+X1XoXt W Q R Q Q ^ R Q ^ Q Q ^ Q Q ~ 8.w.8.3.8.6.8.8.8.6.6._ Q Q Q Q / Q Q / Q / / Q / / / Y W Q / Q / Q Q ^ ~ Q Q _ 8.8.8.5.5.5._ Q Q / ~ 6.p.p.p.6.8./ Q / Q / Q 8.6._ 6 % 8 m } } e. XoXoXoXOXoXoXt.e.} } N N m m e : : A L L L A.J D D Z D D S D S Z > + , > - & + = ; @ v J L L Z.L L V : B A d < a a a a < < < < < < ; + > < < 2 ; < ; 2 3 O l K K K I K I K K I K K K K J I K I P P P P A = v C v v v c c x c f f d f f a a , , - > > - - * * + % 2.2.3.3.3.i 4.0.p.p.a.a.a.p.a.p.p.p.3.r < 1 1 e 1 1 1 ! 3.3.! 7 % 3 2 u       : r i 2 2 7 i q 2 2 1 ! p.p.! 1 1 1 t ! < r 6.a.p.i     : e 2.1 1 1 r ] 8 1 r w.6.! $ $ : : @ . o + + % p i u i n p n t n n n n n n e e e r 7 % % 7 7 %   o X X . X X X X X + + X & & X     o * * * & - * - - - - - & > - - - - - > - - + o 4 7 4 4 2 4 4 4 7 7 4 4 7 4 7 & & , > , , > a a > > a a a a a f f f f f z f f k k k k B k f & a B B B x x k x x k x x B k k k B k h k k x x k k k k k x k & - g - + , , ; , , - g ; , , < < j s s s s ",
"+X+X+X+X+X+X+X+X+X+X&X+X+X+X+X+X+X9X@X9X9X9X+X&X&X+XXXt W R Q R Q R Q Q Q ^ ~ Q / _ 8.8.8.u.8.8.8.8.8.8.8./ Q / / Q Q ^ Q / / Q Q / Q Q / 9 T Q Q / Q / Q Q ^ Q ~ 5._ 8.8.8._ _ Q Q / Q / o.u.6.7.u.u.~ / Q Q ~ u.p.6.6.y # b } } } e. XoXoXoXe.oXe.e.e.} ' N m m 8 $ , A L L L L U D S Z S S S S S S Z = X , > - & o & : + C J L L L L S < d A d a a a < < < a < < < < < < 3 * ; , < , ; < * O 2 G I K K P K K K K K K I K I K K K K P P P P j : G v c c c v k x d f d f f a a a a > > - > * - - * O e 3.2.3.3.2.2.6.0.p.4.3.3.6.p.a.p.a.p.p.2.q 1 1 1 1 2 e 3.3.3.3.r : 3 2 5 3       % q : , 5 3.r 2 2 < ! p.p.! 1 1 1 1 1 1 r w.p.p.! e 5 # 2 ! 1 1 1 b 4.u 1 1 [ 6.! @ 3 % : @ X o + O 2 i M M u p n n n M n i e n p t e r r r 3 % 5 q %   . X . X X X X X X X o + o + + o     X & - - - * & > - & > & > - - - - - - - - & + # % 4 4 4 4 4 4 4 4 4 7 4 7 4 o - > , , > a , > a a a a , a a f f f f f f f f k f k f f B k - & x x x x k x k k x k x k B B k k k k B k k k k k x k x k k & * ; - o - , g g ; g - g , , , < < < j j < ",
"+X+X+X+X+X+X+X+X+X+X+X+X+X+X+X+X+X+X+X+X+X+X&X+X@X+X&Xe.n T R Q Q ^ Q Q Q / Q Q _ 8.8.8.8.8._ 8.8.8.8.8.8.~ Q Q Q ^ Q / ^ Q / Q Q / / Q / T Q Q Q / Q / Q ^ Q Q / 8._ 3.~ / Q ^ Q Q / / Q / 5.6.6.6.7.{ Q / Q o.6.6.6.u.W $ N } } e.e.e.oX XoXoXe.e.} [ N N m n 8 $ 1 H J L L L L D D S D S D Z S S S A : . , > - & o = ; @ V L Z.L L D 2 f V k f a a < a < < , < < < < , , & = : , ; : > : X 3 A K G K G K K G K I I K K G J K K P P P P P G : c C v v c c c k c d f f d a f s a , > > - - - * * * # i 2.3.3.3.3.6.p.p.p.! e t e ! 4.p.p.p.p.p.u 1 1 1 2 < u 6.3.3.3.i : 3 2 r : = @     $ : 2 ! 3.i % 2 < u 4.p.i 2 1 1 1 1 1 r p.p.p.! 2.7.! % @ : 1 1 8 p.3.r 1 p 3.u # = : : @ . + @ @ u n u u u n n n n i M n e u n r e p r 5 3 % 7 4 $   . . . . . . . X X X o o o + o & o .   . & & * - - & - - - - - * - - - - - - - - * o . % 7 4 4 7 4 2 4 4 4 5 4 % & - , > > , > , a > a > , a a f f f f f f f f f f k f k k f k f o k x B x h x k x k k x k k k x k k k k k k k x k k k k k k - & , , + & , - , , - , , , , ; g s < s < s ",
"OX+XOX+X+X+XXX+X+X+X+X+X+X+X+X+X+X+X&X+X+X+X+X+X&X+X+X9Xe.t T R R Q R R Q Q Q / ~ 8.8.8.3._ 3.8._ 8.8.w._ Q ^ Q Q Q Q Q Q Q Q ^ / Q Q / Q T W / ^ Q Q Q Q ^ Q Q ~ 8.8._ Q Q Q Q / Q Q Q ~ Q / 6.p.6.6.8.Q Q _ 6.8.6.5.5.W % N I } e.e.oXoXt.e. Xe.} } N N N m 7 @ d H J H L H L S S Z S Z Z S D D A S A * . , > * & + & : @ A J L L D 1 < V k a a a a a < a < a , < < , , , = = , , ; , ; @ O b G K K J I G K I G K K G I G K G G P P P P I j : G v c c v c c k d d d d f f a < a , > - - - * - * 3   u 2.3.3.3.4.6.4.p.p.w.3.2.! i 2.p.p.p.p.p.3.1 1 2 < 1 ! 4.5.4.3.! 2 : % 5 $ @ 2 5     @ u ! 2.2.7 2 , r 3.p.i < 1 1 1 1 1 e p.p.p.p.p.p.p.! %   @ 2 1 q.p.! 1 1 u 5 @ = : : @ X 3 & % p p u M M i y n n n u n n M e n e e r r % 4 7 q 3   . X X . . X X . + X o X o o o + & o .   X & & * - - - & - & * - - - - & > & - - * > + O * 4 4 4 4 7 4 7 4 7 4 % - > > > > , , , > a > a a , , a f f f f f f f f k f f k k f k f X > x k x k k k k k k k k k k k k k k k k k k k k k k k k k > & , , = & , , , , , , , , - g < < < s < s ",
"+XOX+X+X@XOX+X+X@XOX+X+XOX+X+X+X+X+X+X+X+X+X+X+X+X+X+X+X+X Xn T Q Q R Q Q Q Q _ 8.8._ 3.5.8.5.8.3.8.8.8.~ Q Q ^ Q Q Q Q ^ Q Q Q Q Q / Q Q Q Q Q Q Q Q Q Q Q ^ ^ _ ~ 5./ Q Q Q Q Q Q / Q / / Q o.6.6.6.5._ Q ~ 8.6.3.8._ W % N } e.e.t.e.e.e.e.e.} } N N m m 7 @ c H D L L D L S Z Z S S S Z S Z S S A Z & O , > * & + & : + C L L D d < x k a a a , a a a < a < < , , < , ; ; * ; > , ; = . 1 G I G G G K J K K G K G I G K K I I P P P P G : j G c c c l c k j d d d f f a a a a , > > * > * * * + # r 2.! ! 3.6.p.p.6.p.p.p.p.p.0.p.4.p.0.p.6.p.i 2 < 2 y 6.3.! ! 3.2.2 3 % r % $ % u 7     % ! ! ~ r : , 2 2.6.N 1 1 < 1 2 1 p p.p.p.p.p.p.! r 2 : # # & ! 0.p.e 1 2 + @ : $ : : . @ 3 r i n i n p n u n n u n e n n n e e p 5 r $ % 7 2 @ . . . X . . . . . X X X X X X o o o + + X     & & & - - & - - - - & > & > - - - - - - * * & @ 2 4 4 4 4 4 7 7 4 $ - - > > g > > a > > a g , , a a f f a f f f f f f f k f k f f f X + k x c k k k k k B k k k x k k B f B k k f k k k k f k h - & - g - + - , - g , , , ; , , , g s < s s ",
"XX+XXX+XOX+XoX+X+X+X+X+XXX+X+X+X+X+X+X+X+X+X+X+X+X+X+X+X+X+X Xe T Q Q R R Q ~ 8.8.3.8.8.~ 5._ 5.8.8.3._ Q Q Q Q Q ^ Q Q Q Q ^ Q ^ Q Q Q Q Q ^ Q Q Q ^ Q Q Q R ~ 5._ _ Q R Q ^ Q Q Q Q Q Q Q Q ~ 5.u.u.5.~ Q 8.8.8.8.8.~ T % [ } } e.e.e.t.e.} } } N N m n 8 $ c H H L D L D S S S Z Z Z A S Z S A S S A : O > > - & o & ; @ V J L d : x k a a a a a a < , a , < , < < , - g - * , > : = O = A G G G I G G K K J K J K J K G G J J P P P P j : C v k c c c k c j d d f f f a a a , > - - > * * - * O 3 q q 5 3.5.3.p.p.p.p.p.p.p.p.p.0.p.p.p.p.p.p.w.r < < ! 3.2.2 2 ! 3.r : : r % 3 3 u u 5 #   % W ! i 2 : 2 e 3.i 1 2 1 r 1 1 e p.p.0.p.0.2.r 1 1 1 1 : # % ! p.w.u : @ 3 = : : : . = 3 r p n M u u n n n n M n n n p r r r e r q 3 % 7 7 # . o . . . . . . . X X . X X X o o + o & & X     o - & - & - & & * & - - - & - - - * * > * & + @ 4 7 4 7 7 4 4 4 $ - > > > > > > > > a > a a , , a a a a f a f f f f k f k f k k k & . d c k k k k k k f k f k f k k f k f k k k k k k k k k k > & g - - + - , , ; > , - g - g , < a q < s ",
"OX+XXXOXXX+XOX@XoXXX+XOX+X+X%X+X+X+X+X+X+X+X+X+X&X+X+X+X+X+X+X Xt T R Q Q Q _ 3.8.3.~ 8._ 5.~ 5.~ 8._ Q Q Q ^ Q Q Q Q ^ Q ^ Q Q Q Q Q ^ Q Q Q Q Q ^ Q Q ^ Q Q _ ~ _ ~ Q Q Q / Q Q Q / Q Q Q Q Q _ 3.3.u._ ~ 8.w.8.3.~ Q W $ N } } } e.e.e.} } } N N m n 8 & c Z H H H L S D S S Z Z Z S Z S Z Z S Z A A = O > > * & & + : @ V H d : c c a a a a a a a , a < a < < < , , , , - = : - - + . c G G G J K J G G G G G I G G G G G G P L K L G : j A c l c c c j k d f f f f f a a a , > > - > * > * & . : 2 q i 3.4.3.3.p.p.p.4.w.p.p.p.p.p.p.p.p.p.6.4.i 2 : i 3.3.u 3 W 2.7 2 3 r 4 3 3 5 u u 5 #   % u ! 2 : : 2 ! ! < r [ ! r 1 e p.p.p.p.p.r 1 1 1 1 1 1 1 : = u 6.4.i @ 3 : 3 : : @ % u n n n i n n n n n n n n n e n b e e r r 7 $ 2 2 4 @ . o . . . . . . X . . . . X X o + o + + + & +     + * * * * & - - - - - - > - - > - - - - - * @ O 2 4 4 4 4 4 % $ > - > > > a > > > > > a , a , a g a a a a f f f f f f f k k f f >   , k k k k k k k k k x k f k k f k k k k k f f k k k k k , & ; g , + & , , , , > - , - - - , a < a < ",
"OXOX@XoX+XoXXX+XOX+XOX@X@XOX@XOXOXOX+XOX+XOX+XOX+X+X+X+X+X+X+X+X Xt Y R R Q ~ _ ~ _ 3._ 5._ 5.5.8.3.Q Q Q Q Q Q Q Q Q Q Q Q Q Q Q Q Q Q Q Q Q Q Q Q Q Q R R R ~ _ _ ~ Q Q Q Q Q Q Q Q Q Q / Q Q ~ 8.5.8.3._ 8.~ 8._ Q Q T 2 N } e.e.e.} } } I ] N N m 7 & c D L L D D S A A A A Z Z Z Z Z Z Z Z Z Z S V & + > > * & + @ ; O v c > c k a a a < a a a < a , a < , , , , , , - - = - ; =   < G G G G G G G G I J G J G G G J K J I K J I P c : C v c c k c k k k d f f f f f a a a , - - - - * * * & # 2 q 7 i ! 5.p.p.p.3.! e u 3.p.p.p.p.p.0.p.6.6.p.u < 2 u 3.3.3.u ! 3.r 2 ; 7 7 3 3 5 5 5 p 5     4 u r ; : 2 r e 2 ! ! q.i < r w.p.p.p.3.1 1 1 2 < q 1 1 2 2 % 5 2.6.u $ : : : : @ : p u p u n p n e p n n u n p n u e r e r r 7 $ % 7 2 # o o X . . . . .   . . . . X X o o + o + + o & + . . X & - * * & - - & & - - & - & * * * * * - > & @ 8 8 4 7 7 $ : > > > > > > > > a a > > > , a , a a > a a a a f f f k f f f k k a   > k k k d k f k f x f x k k k k k f f x f h f k k k f k , + , , , * + ; - , , , - , g ; , , , a < g ",
"oXoXXXoXXXOXoXoXoX@X%XOXoX+XOX@X+X+XOX+XOX+X+X+X+X+X+X+XOXOX+X+X+XoXe T Q ~ 5._ ~ _ _ 3.5.~ 5._ _ ~ R Q Q Q Q Q Q Q Q Q Q ^ Q Q Q Q Q Q Q Q Q Q Q Q Q Q R R ^ ~ 3._ ~ R R Q Q Q Q Q Q Q Q ~ R ^ Q 5.5.~ 5.5._ 3._ ~ Q Q 6 : N } } } } } } } I N m m 2 $ c S H D S S Z S Z Z Z Z Z S V Z Z Z Z Z A Z Z V & # , > > & o & : @ a : f k f a a a a a a a a , a , a a < , , , > > * = - * . = A D D G G G G G G G G G G G G G G G G L L I J G : d G c k c c k j k d d f d a a d a a , , > > - - * * > # 3 2 2 r r i 3.p.6.q.e 1 r ! p.p.6.p.p.6.p.p.p.6.q.q 2 < 7 2.3.3.! ! ~ u 3 : 2 r % $ 7 u p 5 5 #     % % 3 : : 2 2 e ! 1 r ! r q 3.p.p.p.! r [ [ 8 i 3.! 1 1 1 2 2 % u ! 2 : : : < : % e t i n n n n n n i b M u n M t e p e r r 2 3 % 7 % # O O X O . . . . . . .   . . X X o + o + + + + & + .   . & * * * * - & * * - & - - * * * * * - * - & & 0 8 8 4 $ - > > > > > > > > > , , , , , a a a a a , a a a a f f f f k f k f f # + k k k k k k f k k d k k d f k k k k f k k f k k k f k f * - g - - o - , , > - g - , ; g , < < g < ",
"oXoXoXoXOXoXoXOXOXOXOXOXoXOXOXOXoXOXOXXX+XOXoX X X XXX+X+X+XOX+XOX+X} 8 T ~ ~ ~ ~ ~ _ ~ _ _ ~ 5.5.~ ^ Q Q Q R Q Q Q R Q R Q R Q Q R Q Q Q R Q Q Q Q R Q Q R ^ ~ _ ~ Q R Q Q R Q R Q Q Q Q Q Q Q Q ~ 5.5.5.~ 3._ ~ Q Q R 6 % I } } } N N N ] N m n 7 : c A L D S S Z Z Z Z Z V Z Z V S Z V Z Z Z Z Z S V & . > > > + o & : . & d h f f a a a a , a , a a , a , , , , > , > > * = * O # c G G G G G G G G G G G G G G G D H G G I P J P c * V v c c k k c k d d d d d d a a a a , > > > & - * * &   % ; q ! 2.3.6.3.! 1 1 u 3.0.p.p.p.p.p.p.p.w.6.! r 2 , : 2 u 2.2.2.~ 2.u : : 2 u 3 3 2 u 5 u 5 3 #     # 3 @ : : 2 i r 2 < y e 1 2.p.p.p.i 2.! e i p.0.6.i < 2 1 < , : @ 3 : , 2 2 2 : p M u p p u p n n n u n n e e n e e r r r 7 # 5 7 2 O O 3 X X . . . . . . . . . . . X X o o o o + o & & +     . & & * * - * * * * - * & * * * * * - - * - & $ * : : * - - - - > > > > > > > , > , , , , > , , a a a a a f f f f f f f f d > . f k k f f k k f f k k d d k f f f k f f k k f k f k f a & ; , < - + * , - , ; , - - , - - , < < < ",
"XXoXoXoXoXoXXXe.I N m n b b b b b b b b n b b M I }  XOX+X+X+XOX+X+Xe.v 8 ~ ~ _ Q Q Q Q ~ ~ ~ 5.~ ~ R Q Q R R Q R Q R Q Q Q Q Q Q Q Q Q Q R Q Q R Q R R R Q ^ 5.~ _ Q R Q R R Q Q Q Q Q Q Q Q Q Q ~ ~ 5._ 5.~ 3.~ R R Q 4 2 N } } I } } N N m n 2 = b D D L D Z S V V S V Z Z Z V Z Z Z Z Z Z Z Z Z A B & . > > * & + & :   < j a a a , a , a a a , , , a , a , < , , , , : > * @ . 1 H G G G D D G G D J D G H G G G G G G G L L L G < 1 A c j k k j j j d a d d a d a a f < , > > > > * - * &   ; ; i 3.3.w.6.i r r ! 4.p.6.p.p.p.6.p.p.p.p.i 8 < 2 2 2 2 1 u ! 2.2.! r % : 2 u % 3 2 u 5 5 5 # @ #       $ : 3 r u : 2 < r i 1 ! p.6.3.u i 1 p p.w.2.p.! 1 1 r u i r : : @ $ : < 1 : b u n e u p n n u e e n n n e e e r r r 7 5 3 5 4 4 # O + o X O X . . . . . . . . . . . o o + X o o + + & & .   X & - * & - & * & - * * * - * * - * - - - - & & * & - - - > - > > > > > > > > , , , , , a , , a a a a a f f f f f f f f d f X , k k d k f k k k f k d x f k k f f k k f f k f k f k f & , , , - + & ; , , , - , - - - , - < < g ",
" XoXoX X} v 8 7 1 b b b n b b n N N I N I }  XoXOXOX@XOXoXOX+XOXOX+XoXN 2 5 ~ / R R R R ~ _ ~ _ _ 5.~ R Q Q Q Q R Q Q Q R Q R Q Q R Q R Q Q R Q R R ^ R R ~ ~ _ ~ ~ R Q R Q W R Q R Q R R Q Q R Q ^ ~ 5.~ ~ _ ~ ~ R Q R % 2 } } } } I ' N m m 7 : c D D D S D Z S A F B U V V Z B Z Z B S V Z V A Z Z B @ # > > * + + + ; . < f a a a a a a a a a a a a , a , , < - , > - - > & . = A J G U G A D A A G G G Z G G G D G G G L G I G c = v c c c j c j k j d a d f d a s s < , > > * > > - - * + # 2 7 ! 3.3.3.6.i i 3.p.p.p.u.p.p.6.p.p.6.4.i 1 < 1 < 2 < : : 2 5 ~ ! ! 2 : 3 3 7 r % % i u p 5 @ O @ # #     3 % e 2 : 2 : < u r u p.6.w.r 1 1 y 6.! 1 3.2.1 1 2.w.3.2.t 2 , : @ 3 : d q u u n n n n e M n n n p n n r e r r 8 q 5 3 2 2 %   3 + + o X X X   . . . . . . . . . X o X o X X o o + + & X   . & & - & * * - & - - * - & * * * * & & > - & * > * - - - > > - > > > > , > > , , , , > a a , a > a a f f f f f f f f f f + & k f k f f f f f k f d d f f k f k f f h k f k f f f f + , , - , = + - - > - - ; - g ; - ; , , g ",
"N n A 8 7 b I }  X XoX XoX XoXoXoXOXOXoXoXOXoXOX@XOXXX@XOX+XOX+X+X+XOXXX} 2 W Q R Q W R ~ ~ ~ 5.~ 5.~ ^ Q Q R Q Q R W Q Q R Q Q R Q R Q R Q R R Q Q R R R ~ _ ~ _ ~ R Q R R R Q Q Q Q Q W Q R Q R Q 5.~ ~ 5.~ ~ R R Q W $ 7 } N N } N m m m % : x S D D D U S Z B S V V Z V Z Z Z Z Z B U F B Z V A Z B & . > > * & + + : . > a a a a a f , , a , a a , a , a , , < - , : * & O O c G H D D A G A G G D G G Z G D D G G A J I L H G < 1 v c j k k j k k d d f d f a d a a a > > > * * * * * * . @ : u 2.3.3.4.3.p.p.6.p.p.6.p.4.p.p.4.p.w.6.e r 7 < 2 < 2 , : : 3 u ! r 3 = % 5 5 u ; % u u u 5 @ # O 3 % #     3 7 : : : : 2 < < 8 3.p.! 8 1 2 u p.[ r 3.w.8 7 3.! e 3.3.r < 2 2 2 < 1 2 e n p n e t n n n M u n p n e e e r r r 2 $ 5 2 % . + + + o o o o . . . . .   . . . . X X . X X X X X o + & & X   . & & - & - & - - & & - - * - * * - * * * * - - - * - > - - - > > > , > > , > , , , , , , f a a , , f a a a f f f f f f & + f k f f k f k f d d d d k f f k f f f f d d d d k f f & - g - g - X - - > - , ; - - , - - , < < ",
"N M b N e.e. XoX XoX XoXoX XoXoXoX X XoXoXoXoXoXXXoXOXoXXXOXOXoXOXOXOX@XOX} 4 T R W R R Q _ ~ ~ 5.~ 5.Q R R W Q Q R R Q R Q R W Q R Q R Q R W Q R R W R R ~ ~ ~ ~ ~ R R R W Q R W R R R Q Q R Q ^ ~ ~ ~ _ ~ ~ Q R R R W # r } I N N N N m 2 > x D D D D D Z Z V V V V U V Z V V Z B B U V A V Z V A V B & . > > * + + & 3 # , < , a a a a a f a , a , a a , , , , - , - > > &   1 H G H D D A D G A G A Z G G Z A G G A S L L G L c : c v d c k k k d d f f f f d a a a a < > > > > > * - * & # : : i 3.3.3.3.p.3.p.p.w.p.p.p.p.6.p.p.6.p.p.3.3.! r 2 : 2 : : : 3 % % : % 2 u i i p 5 % u i p 5 @ @ @ # % 5 #   # % $ : : : : < 1 < u p.! < 1 < u 4.6.3.4.3.r < 3.2.r 2.6.! < 2 < 2 2 1 < r e n u b n p M e e n n n e r r r r r 7 5 3 % 2 %   + + + + o o o . . . . . .   . . . X . X X . X X X o o X & + X     & - - & * - & - & - & * - & * * & - * - * - * - > > - - - > > > > > , > > , , , , , > a , a a a a a a f a a a f f f > # a k h f f f f f d f d d f f f k k f k f h f k f d k f $ ; , - - ; + * - ; , - - , - ; - - , < , ",
"e.oX X Xe.oXe.oXoXe.e.oXoXoXe.oXoXoXoXoXoX XOXoXoXoXoXoXoXoXoXXXXX@XoX+XOX@XI % Y R R R R ~ ~ 5.~ 5.~ ~ Q R Q W Q R Q R Q R Q R R Q R R R Q Q W R R R Q R ~ ~ ~ ~ ~ R R R Q R R R R Q W Q W W R ^ ~ ~ _ ~ ~ Q T T W R 6 # n N N N N N n % : b G A D D D S Z A V Z V V V A V S V Z V B Z A V V A A Z A B @ # - * * o o @ 3 . , < a a a f , a , a a a , < , a , , , > - - > &   : V D D G D Z A S A D A D G A G A G A A G D G G J G 1 , V c k j c j d j d f d a s f a a a < , > > * > * * * * & . : : ! 3.3.3.4.6.p.6.6.p.4.6.w.p.w.p.p.3.4.6.p.6.3.1 < 2 2 , : : % : ; : : r ! ! ! 5 3 % 5 i i 5 @ # # 3 $ 5 5 #     @ 3 : : : : 2 < r w.i 1 1 2 r 3.p.4.6.2.2 , i 6.3.! p.i < 2 r r 1 1 1 q b u n t u n u n n u e n M t e r r r q 2 3 4 % % . + + + + o o X X . . . . . . . . . . . . . . . . X o o X + + & X   . & & - - & * * - & - - * & - * - - - - * - * * > & > > - > - - > > > > > > , > > a a > a , a a a , a a a a f f f f > . > f k k f f f k d d f d f f f f f f k f f f d k k d f & - , , > - * + ; - - ; - - * - - - - , < ",
"e.e.e. Xe.oXe.e.e.oXe.e.e.oXe.oX X Xe.oXXXy.oX XoXoXoXoXoXoXOXOXoXoXoXOXoXOXoXq 5 R R R R ~ ~ _ ~ ~ 5._ 5.Q Q R R Q R R R R R R R R R W R R R R R R R R R R ^ ~ _ ~ ^ R R R W R R R Q R R R Q R ~ ~ ~ ~ ~ ~ ~ T R R R 6 % N [ N m m n : 2 B D D D D D A Z V V V V B F V V V B V V V F B V Z V V V V V V & . - * * & O + : . > a a a , , a a a a a , a , < , , , , , > * & O O c Z D Z D Z Z A A A A A A A A A U A G A D D I G G v = c c d c k d d k d d 1 a d a f a a a a > > * > * > * * * # @ ; % ! 3.3.3.5.w.3.4.p.6.p.p.6.p.p.6.p.p.p.p.3.6.! 2 < : 2 : : : ; % % : % u W i ! u % 3 5 i i 5 @ 3 # # 3 5 w 5 #     @ = % : : : 2 7 2.! 2 < < 1 y ! ! 3.e r i r ! p.6.3.e 2 1 ! p.i 2 < 1 r n e M b n n e e M M e e e e r r 2 7 5 3 5 2 $ . + + + & o o X X X . . . . . . .   . . . . . . X . X X + + + o + X   X & & & * & * & - - & * * - * * * & * * * * * > & - & - - - - > > > > , > > , > > > a > a > > a a a , f , f f a f a # & f f f f f f f f f d d f k f f f f f f f f f f f f f & - ; - > - * X ; , - - , ; g - - - - ; , ",
"e.e.e.e.e. Xe. Xe.e.e.t.e. X X Xe.oXoXe.e. XoXe. XoXoXe.oXoXe.oXoXoXoXoXoXoX@XI % 6 R R R Q ~ ~ ~ ~ _ ~ 5.~ ^ R R R W R R R R W R Q R W Q R R R R R R T R R ~ ~ ~ ~ ~ R R R R R Q R Q W R R W R ~ ~ ~ ~ ~ ~ Q R W R T 0 8 U N m U n % 2 B Z D S S S A A V V V V B V V V V V V V V V A V A V V V V V A V @ . > * * o O & =   > < a a , a , a a , a , a , a , , > > > * = +   a Z S S A S A A S A A G A Z A A Z A D A Z A G G D D < : x c d c d c j d d a a d < f a a a < , > > > - - - * * =   % : 2 u ! ! i i u ! 4.6.p.! ! i u i 3.6.p.4.w.6.6.i < r r : : 2 : : : : 3 % i i p u i % 3 2 i i 5 @ @ @ @ @ 4 5 5 5 $     @ = @ : : : 2 r r 2 < 2 2 1 i r r < r i r r ! 2.u < < 2 q.6.p.! 1 1 1 e n e p n M n e n t t e e e r r r 7 4 3 q % $ . + + + + + o o o o . . . . . . .   . . . . . . . . X o o o o o + & +     & * & & * - & - - * - - & * & - - * - - * * - * - * - - - > - > > > > > > > a a > > a > f a , a a a a a , a a a + + f f f f a d d a d d f d d f f f d d f f f d d f d d = - > > ; - , O & g - - - - - ; - ; - - , ",
"e.} e.e.e.} e.e.e.e.e.e.e.e. .oXe.e.e.oXoXoXe.oXoXe.oXoXoXoXoXoXoXoXoXoXoXoXoXoXp 4 T R Y ^ ~ ~ ~ _ ~ 5.~ ~ ~ R R R R R R R R R R R R R R R R W R R R R R W R ~ ~ ~ ~ R R W R T Q T R R R R R ~ ~ ~ ~ ~ ~ ^ R T R R T % n N N N t : , B Z Z D Z Z A A V V V A V V V V V S B V V V V V V V V V V Z V A B & . * * * o O + 3 . > a , a a a , a a , , a , , , , , , > > * +   * V Z S S A A Z A V S V U Z Z A Z A A A A D G D J S x : c c k c d k d k d f f a s f a a a a < , > : & * - * - * & O 3 : : 2 2 % 7 r i 3.6.3.i t i ! ! ! i 3.0.6.p.p.3.e 2 r ! 2 : : : 3 : : % 5 W i 5 u u 5 $ 3 u i 5 & $ : @ 3 5 5 5 5 5 $     # @ 3 : : : : , < 2 1 < 1 u 2 2 : 2 , : - 2 2 2 2 2 1 ! 3.! 3.u 2 : r e n n n e e n u n e n p e r r 7 r % % 4 % 3 . + + + + X o . . o . . . . .   . .   .   . . . . . X X o o o o o o + o     & * * * & * & & * & * - * - & * * & - * * * - * * - - - - - > > > , > > > > > > a > a > , a , a a , a a a a f @ # , d f f a a f f a a d f < f d s a a d f f f f d f f * - ; , - - - & + - ; - - ; - - - - - ; , ",
"} } e.} } e.e.} e.e.e.e.e.e.e.e.e.oX Xe.e.e.e.oXe.oXe.e.e.oXe.oXe.oXoXoXoXoXoXoXe.2 6 R R R Q ~ ~ _ ~ ~ ~ ~ ~ ~ R R R R W R R R T R R R W R R R R W R R R R T ~ ^ ~ ~ Q T R R R T T R W R R R ~ ~ Q ~ ~ ~ ~ Y R T R 6 2 n N m n : < v V U A D A U V V V V V V V V V V V V V V V V V V V V V V V V A A B @ . - * * o o & 3 # > < , f , f a a , , , a , a , , , > > * & O   c Z Z S A A V A A A A A C A A A A A A A A A G G G D d : x c d d j c d d d f 1 a f < d f a < , > > > > - * * * * o # 2 : 2 u u ! ! 2.3.p.w.w.! w.6.4.6.6.p.3.w.p.3.6.3.r : 7 ! r : : : : % 3 3 4 i u % 5 i 5 3 3 5 i u = 3 : @ @ 5 5 5 5 5 5 3     # @ 3 : : : : : < 2 < 7 y < < 2 , 2 : r r 2 : < < 2 u 4.i ! q.8 : 2 M t n e u b e M e u r e r r r 7 r % % 2 5 3   O X X + + + . . . . . . . . .   . .     .   .   . X . X o o O O o + & o     & & * - * & - & - & - & - - * * * * * * - * - * * - * - - > > > > > > > a > a a > > a , , a , , , a f a a , & + : d f f a a f a d a a a a f a a f a f f f f f f d f = - - - , , - * X - - - ; - - * - - - - - ",
"} e.} e.e.e.} e.e.} e.e.e.e.e.e.} e.e. Xt.e.e. Xe. Xe.oXoXe.oXe.oXe.oXoXoXoX XoXOXN % Y W R R ~ ~ ~ ~ ~ ~ _ ~ ~ ~ ~ R Y R R W R R W R T R R R Y T R T R Y R R Q ^ ~ ~ ~ R T R W R R T R Y R W ~ ~ ~ ~ Q ~ R R Y T R 9 8 N N m : 2 B A Z Z D D A A V B V V B V B V B B V V B V V V V B V V V V A A A A B @ . & & & o o + 3 . > a a , a , , a a a , , , a , , > > = & o   < A Z D A S V S A A V A A A A A A Z A A A A S G D A v % d k d d c d d j d d a f a a < a a a , , > > * > > - - * *   3 % u ! ! ! 3.4.6.6.6.6.0.6.6.p.6.p.4.6.p.3.4.p.6.q.1 2 : u ! 2 : : : : 3 3 4 i u % 5 i 5 3 3 % u u $ : @ @ $ r 5 p 5 w 5 $         @ @ @ : : : 2 < 2 2 i 2 2 : : 2 u 2.3.r 2 2 , 2 8 3.! r 3.e < @ r e e t M u n r M e b r r r 1 r 7 % % 2 % # # # + X o + o o . . . . . . . . .   .   . . . . # . . X X X O o O o o + + o     & & - & - & - & - & - & & - & - & * * * * - - * * - - - > > > > > > > > > > > > a > a , , a a a a , a a a * @ * f f f a a a a a < f a a f < f a f a f f f f f f f = - , - - - ; - X * - - - - - - * - ; - - ",
"I e.} I } e.} e.e.} e.} e.} e.e.e.e.e.e. . Xe.e.t.e.T.t.e.oXe.t. XoX Xe.oXoXe.oXoXe.r 0 R T R ~ ~ ~ ~ ~ _ ~ ~ ~ ~ ~ ~ ^ R R R R R Y R R R R T R R T R T R Y T R ~ ~ Q ~ R T R T W T T R R T ~ ~ ~ ~ ~ ~ ~ Q T R T Y 5 y m n : 2 B A A Z Z S A V V V B V x V V B B V B B B V V V B V V V V B V A Z Z V k .   & * & + o + & . > < a 8 , f 1 , a , a , a , , , > > & o . & B Z A A Z V Z A V A A Z A A A A C A A A A A D A A Z f : x k j d j d d d d d a a d < a a < a , > > * * > * * * * 3   7 i ! u r e 3.3.3.6.w.6.6.4.3.p.p.6.p.6.6.6.6.3.p.! 1 : < r 3.u : : : : 3 = 5 i i % 5 i 5 3 # % 7 i % 3 3 = % u u u 5 p 5 % 3 #       @ @ 3 : : : : 2 q y 2 : 2 2 5 ~ 3.3.! 2 2 2 < 1 ! 3.i 3.u 2 3 q n b u p n t n n r e e r r 7 r r % % 5 % # . X X X + X o . o o X . . . . . . . . . . . . . . # . . . X X X X X o o + + X     & & - & - & * & - - & - & - & - * * * * - * * - * - > - - - > > > > > > a > a > > , , , , , a , a , a a > o & a f a a a < a a a f < a a a a a a a 1 f f a f f f = ; - - ; ; - ; + & - - - - * - - * ; - * ",
"[ } } e.} } } } } e.} e.} e.} } e.}  .e.e.e.e.e.T.e.e.e.e.e. X Xe. Xe.oXe.e.oXoXe.OX} % Y R W R ~ ~ ~ ~ ~ ~ ~ ~ ~ ~ ~ ~ ~ ~ ~ R ~ ~ T Y Y R R T T R T R T R T R Q ~ ~ Q R R T R R R T R T Q ~ ~ W ~ Q ~ ~ W R T R Y 7 N m 2 < c A A A Z A A A V B V B B V V x V B B V B V B B B B V B V B V A A A V x >   . = & = + o + 3   > < , a , , , a , a , , , , , > > & + . # d A A A A V Z V V A A V V V V A V A V A V A A A D Z V : f c d d k d d d d a < a a 1 a a a a a > > > > > > * - * > # % ! i r r u i 3.3.4.6.3.p.6.p.p.6.4.6.3.4.p.w.3.p.3.! 2 < : 1 ! ! 7 : 3 : = $ % i i 5 u u 7 # 3 5 % 5 5 3 3 $ 5 u u 5 5 5 5 % $ # .       @ @ : : : : : r i : 2 ; 2 ! 2.2.3.2.i 1 2 : : r 3.3.3.u 1 3 @ e r n b u n e p n e e r r r 7 7 2 % 2 4 # X + X X X + o o . . . X X . . . . .   .   .   .   . .   . . X . o . X X o o + X     & & - & - & - & & - & * * * & * * * * & * * * - - & - - - - - > > > > > > > > a , , , a , , a , a , a , + + , f a a a a a < a a a a < a a a a a a a a a a a a : - - - - - - - + + ; - - - - ; * * * * * ",
"} I } } I e.} } e.} } } e.} } e.e.} e.e.e.e.e.e.e.e.e.e.e.e.e.e.oXt.e.e.e.oXe.oXoX X Xb 5 Y R R R ~ ~ ~ ~ ~ ~ ~ ~ ^ Q ~ ~ ~ ~ ~ ~ Q Q R R T T R Y R T R R T Y R R Q ~ R W Y T R Y R R T Y R R ~ Q ~ Q ~ T Y R T R 6 n n 2 : c V A A A A A A B B B B B B x V V B V B B B B Z B B B V B B V U A Z Z V > $ . . & * & + o + &   > , a , , a a , , , , , , , > > * + +   > V Z Z A V V V V A V V Z A V A V A A V V A Z D Z A Z d = c c d d d d d d d a < < a a a < a , , > > > * > * * * * * # u u % i ~ 3.3.3.3.3.6.3.6.6.6.3.3.6.w.3.p.3.6.6.6.3.u : 2 2 ; i ~ u % : = = = 5 i i u i u % 3 3 5 % % 4 3 $ $ p i u u u 5 % % % # O #         3 $ 7 r : 2 i 2 : : r 3.2.~ ! ~ 3.u : 2 < 2 ! 3.3.i : < + 2 e b n b e e b e r r r r 7 r 7 2 % 2 % . X X X X X + o o . . X . . . . . . . . .   . .   .   . . . . . . . . X X o o + + X   . & & & - * - & - & & - * - - & * * * * * - * * * - - - - - - > > > > > > > > > > , , , , , , a , , a , @ + , a a a a a , a a , a a a a a a a a a a a a a a f * * - - , - - - & X - - - - - - * * * ; * ",
"[ } N } } } } I I } } } e.I e.} } e.} } } e.} } e.} e.e.e.e.e.e.e.e.e.oXe.e.oXe.e.oX X} % 6 R Y R R ^ ~ ~ ~ ~ ^ ~ ~ ~ ~ ~ ~ ~ ~ ~ ~ ~ ~ ~ Q R Y R Y R Y R Y R Y W ~ W ~ Q R Y Y R Y T Y R Y W ~ ~ W ~ ~ R T T T T 5 r : , h V V A A A A V B B B B B v V x B x B B B B B B h B B B B B B V V A Z V < & > . X & & & + + + @ # > , , , a , , a a , , , , , > * & o . + k V A V V V V V V V A V h V V V A V V A V A Z Z Z Z A : a c d d d j d d d d < a a a < < a , , : > > * > * - - * * = $ r 3 5 2.2.3.3.3.3.6.4.p.6.4.w.3.p.6.6.w.3.p.6.4.w.2.8 < 2 : % r 2.! 7 = : = $ % i u u u 5 3 # 3 q % 3 $ 3 3 % 5 i i i u u 3 % % @ # O #       # % u u 2 % i 1 : 2 i 3.2.i 7 ! ! ! 2 , : : r 3.! r , 2 3 % ! u r r n n t e r r r r r 2 7 4 2 4 % # X X X X X X . o o o X . . . . . . . . . . . . . .     . X   # . o . X o X o + + + X   X & - & * & - & - * * & & - - * * & * * * * * - * * - - - - > > > > > > > > a , > , , , , , , , , , a & . : a a a < a , a a < a < a < , a < < a a a a < a f * * , ; - - > - = . * - ; - & ; * * * * - ",
"I N } I } } I I } } N } } e.} } I } } } e.} e.} e.} e.e.e.e.} e.} e.e.e.t.e.e.e.t. XoXe.n % T R R T ~ ~ ~ ~ ~ ~ ~ ~ ~ Q ~ ~ Q Q Q ~ Q ~ ~ R Y Y R Y R Y R R Y R T ~ Q Q R Y R Y Y T T R R T ~ ~ W W Q T T R Y Y T 5 $ , c V V A A A A V B c B B b B c B B B h x B B B B B B B B B B B V U A A V f & > , . . & & & + X o @ . > , a a , , , a , , , , , > > & + + # , V V A V V V V V V V V V V V V V A V A V V A A Z A A k $ k d d k d d d d f 1 a a a , a , a a > > > > * > * * * * * + % t : u ~ 3.2.3.3.3.4.3.3.4.3.6.6.p.3.w.6.6.3.p.3.w.u 2 2 < 2 : 1 ! ~ r : = $ $ % u i u u % 3 $ 3 7 $ @ $ @ = % u ! i i u 5 @ $ 4 3 # # O # #     3 5 i % 3 u r ; r ! ~ ! 2 p ~ 3.! ! q 3 % 2 r r : 2 , : @ i i % e u e b t e e r r 2 7 7 2 2 % % # O + O O O O O O O o o . + . . . . . . . .   .   . . .   . . . . . . . . o + . o + o o     & & * - & * & - & - & - & - & - - - - & - - - - & > - - - > > > > > > , > , , > , , , , , , , a , & . * a a a a , a a , a a , h a , a , f , h > , , f f - & > > > - ; > * @ & ; * * * * = * * * - ",
"N } I [ N } } [ } I } } } I N } } } } } } } } e.[ ,.} } } e.e.e.e.e.e.e.e.e.e.e. X Xe.oX} 2 6 R T R Y ~ ~ Q ~ Q Q ~ ~ ~ W ~ ~ ~ ~ Q W ~ Q ~ R Y Y R T Y Y Y Y Y R W ~ W ~ T Y R R Y T Y Y W ~ R Q Y T Y T T T R 6 $ 2 c x V A A V A V B B B c B B B c B B B B B c B B b B c B b c V b A V A A d $ > > : . # & & & + o o +   : , , , a , 1 , , , , , > > & & X # & c A V V V B V V V Z h V V V V V V V V V V A A Z A A V : , k d d d d f d 1 a a a , < a a , 1 , > > * > > * * > * * * o $ W % r ! 3.3.3.3.3.3.5.6.6.6.4.3.3.4.6.6.4.3.3.3.! 1 2 2 : , : 2 ! ~ i 2 3 = = 3 7 u i 5 % @ 3 $ 5 3 3 @ = 3 7 u i u W i % 3 3 % $ # # # # O #     $ r 4 3 5 r % r ! ! 5 % i ! i 2.~ 5 ; % : ; : : 2 2 2 # 7 2.% r b e p e r r r 7 r 7 2 7 q 4 3 . O O o O O O O O . O . . . . o . X . . . . . . .   . . .   .   . . . . + . X + X + + + o     & & & * & * * * - & & - & - - & & - - & - & - > - - * - * > * > > > > > , > > , > , , , , , , , * # & a a , a , , , a , , a > > a , f , a , a , 8 a , > > > - - - * - * o & - * * * ; * & * ; & ",
"] I [ N } N N } N } } } } } } } } } } I I e.} } } e.e.} } e.} e.q.e.} e.e.e.e.e.e.e.t. X Xn $ T R T R W R ~ ~ ~ ~ ~ Q ~ Q ~ ~ W Q ~ Q ~ ~ T Y R T Y R R R Y R Y R ~ Q W R Y R Y T Y Y T Y Q Q ~ ~ Y T T T T T E % 3 b V V V V A A V B B c B c B b B B B B c x x B c B c B v B c B V V A Z Z d @ > > > > . . & & & o . @ @ . > < , , , , , , , , , > > & + + . . f A B A V V V V V B V V V V B V V V V V V V V U A A A k & k f d d d d f f f a , a , a < , a a , > : > * > * > * * - * . $ u r 7 p 3.2.3.3.3.4.4.6.3.3.6.4.! ! 3.3.4.w.6.y 2 2 < < < : 2 % u ! ! r @ : & 3 : 7 5 % 3 3 @ % r 3 $ $ @ @ r W i i i 5 3 3 $ @ 3 3 # # # # # #     # % 3 3 3 3 5 2.u ; 5 ! u ! ~ 2.u 7 3 2 2 , : : , < @ @ ! u 2 r e e r e r r r 7 7 7 5 % 5 %   O O O X X X o . . o o + o . . O . . . . . . .   .     . . . . . . . . . + + X X + + + + X   . & & & * & & * - & & * * - & - & - - & - - & & * - - * * > > > > > $ > > > > , , , , > , , , , > . & , , , a a , , , , , , a , , f a a a , , a a , f > * > - - - - > * + + * * * * - * * * & * ",
"N N [ I N } U N } N N I N I [ I N } } [ } } I } I } } } } e.} } } } e.} e.} e.e.e.e.T.e. X} % 6 Y R Y T T ~ W ~ Q ~ W ~ ~ ~ Q ~ ~ W ~ R Y R T T R Y Y Y Y Y R Y Y Q W ~ W Y Y Y Y Y R Y Y R W W W ~ R T Y T Y 4 3 b B V V V A V V x x B B c B c B c B c c x x x c B c B c B c B V V A V A d $ * > : > *   . & & & + O + @   : , , a , , , , , , , > * $ + .   > c A V B V B B V B V V B V V B V V V B V B V V V A V B > , k d f d d f f f f 1 a < a a , a , , > > * * > * * * * $ > & X 3 r ! u 5 2.3.3.3.5.5.3.w.6.4.3.6.3.i e ! 3.! u < 2 : 2 2 : 2 : % u ! ! u : $ 3 & $ 3 @ @ $ @ @ % r @ @ @ @ $ r u u i u % 3 3 3 3 % 5 @ 3 # # #   #       # @ 3 3 5 ! 5 ; 5 ! W ! ! ~ ! ! u : : : 2 2 : 2 3   u i 3 % r u b r e r r r q q % q % % . o O O X X . . . . . . O o . o . . O O O . . . . . . . .   .   . . . + X X . + X + X o o + o     & & & * * & & - & & & & - & - & - - & - - - * * * - * > * > > > > > > > > > > , > , , > , , , # + , , a , , , a , , a , , a , , , , , a , a a , a > $ > > * ; * * * = O = * = * * * * & ; * ",
"N } U ] I [ N } } N U [ } } I [ } I [ } } I N } [ } I e.} } ,.} } } e.} ,.} } e.e.e.e.e.e.e.n 4 T R T R Y R R ~ ~ ~ Q ~ Q ~ Q ~ ~ R Q T Y T T Y R Y R Y Y R Y Y Y Q ~ Q ~ Y Y T R Y R Y Y ~ ~ W ~ T Y T T Y 0 > h B V V V V V V B x x h x B x x c B x x h B x x c B B c B x x V B V V V d $ * > > > > > # . & & & O O + @   > > , , , , , , , > > > & + +   + k V V V A V V V B V B V B V B V V B B B V B A A V V A k $ f d d d f f f f f a , a , a a , a , , > > * > * * * > * = * @ # % r ! ! i ~ 3.3.3.4.3.3.3.6.3.6.3.3.3.u 2 8 1 < 2 < 2 < 2 : : 2 ; r ! ! i % 3 % = $ 3 $ @ 3 $ @ 7 7 3 @ 3 @ % u u i i 4 $ 3 3 3 @ 5 u % % % $ 3 O # O #     . @ @ r i 4 % u ! ~ i 5 i 2.! ! r % : : 2 : : 2 # % ! q $ % r b r r r 7 r 7 5 4 q % % # O O o . . X . . . . O + . o o . O O O . O . . . . . . . . .   . . . . O . o X + X O o + + + .   . + & - * & * & & - - & - - & - - & & * * * * * - * > - - > > > > $ > > , > , > > > > , , > > + . , , , , , a , , , , , , , a , , , , a , a , f , > * > > * * * * ; = . & * * * = * ; & * & ",
"U m N N N N } I N N } I N N } N N } } I ] } } } I } } } I [ } } } e.} e.e.} e.} } } e.e.e.e.} $ 6 T T T T Y Y W W T ~ ~ ~ W ~ ~ W Y Y R T T R Y Y Y Y Y Y Y Y Y R W T W T Y T Y Y Y Y Y Y T R ~ ~ W T Y Y 5 % c x B V A v V V b x c x x x x k x c c x x x x x x c c c c x c x B V V V k & * > > > > > > . . + & & o O o o . > , , , , , , , > > > & & + . . , x B A V B V V V V B B B B B B c V B B V b B V A V A V > > k f f 1 f f 1 f a , a , a , , a a , > > * * * * * * $ > * * @ # 3 u 2.~ 2.3.3.3.3.3.5.3.4.3.4.6.3.p.w.3.r < 2 2 2 : < 2 2 r 2 ; % 2 W ! ! 7 $ 3 3 3 @ @ = @ 3 @ 5 2 @ @ $ @ 5 u u u 5 3 3 3 % 3 r u i 5 3 % % % 3   # #       # 3 5 p 7 % i ! ! q 5 W ! ! ! 2 2 : : ; 2 % q 7 3 ! 3.! @ : r r r r r 7 2 2 q 4 % 3 # O . O o . . . . . X . . . + o . o O O X O . o . . . . . . . . .   . . . . X . + O o o + o o + .   . & & & * & - - & & - & - - & - & - * * * * * * * & - - & - > > > > > $ > > > > , , > , > , & . > , , a , , , , , , , a , , , , , , , a , a , a > * > * > * * * * * X & * & * * = & * & * ",
"N N N N N N N ] N I } N N } N I } N N } I [ } I } [ I } } e.[ } } } } } } } e.e.e.} e.} e.e.} r 4 Y R T R T R T Y R W W R Q W T R R Y T R Y R T Y Y R Y Y Y Y Y T ~ ~ W R Y Y T Y Y Y T Y W ~ W W W W Y % : c v B x B b B B B c x x x x c B x h c B x x c x c x B c c B B B B V V V d * = > - > > : > *   X + & + O X o @   - , , , , > > , > > & & @ X   & c B V b V B B V A B B B B B B B B B B B B B A A V V B k & d d d f f f 1 a 1 a , , a , , a a , , : > > > * * * * * * & * # 3 % i ! 2.3.2.3.3.3.3.5.4.3.w.6.3.3.4.3.3.! 1 r u 2 , : 2 ! ! r : 2 % i ! ! 5 3 2 7 r % % $ $ & % r % 3 $ @ $ r i i u % $ $ = 3 5 u i i 5 $ # % q % #   # # .       % 5 7 5 i ! u % u ! ! ~ r 5 u 2 : : , 3 u ! # u W e :   % r r r 1 7 r 5 2 4 % % 3 # O o . . . . . X . . o . o o o o o o o O o . . . . . . . . . . . . . . . X X o + X o o o o O + .   X & & & & & * * - - & & & - & - * * & - * * * - > - & - - - > > > > > > > > , > > > , , > & . > , , , a , , , , , , > a , , , , , , , , , h > > & > > * * * * * * + o ; * * & * * & & * ",
"m N N N U N N N N ] N N N N N [ N I ' I [ I N } N } } N [ I I } } I } } } } } I } } } } } } e.U % 6 Y T T T Y Y R Y Y R Y Y Y R Y Y Y T Y Y Y Y R Y Y Y Y Y Y R T T R R W Y Y Y T Y T Y Y Y R W R ~ Y 4 % q c v V B V V B B c c x x c c c k c x c c c c c c c x c c c c h B V V v h $ * > > * > > > > & . X & & + + O + O # - > , > 2 , > > : * & + +   # f B B V B B x B U b V B B B B B b V B B B V B V V V V V : % d f f f f f f a a a , a , , a 1 , a , > > * * * : * * * * * & # 3 % ! ! ~ 2.2.3.3.3.3.3.3.5.3.3.3.3.3.6.3.3.i 2 u u q 2 i ! u i % : 3 u ! ! u 7 u 5 5 r r & @ @ 2 u 3 # 3 = 2 u u u % $ 3 = & 3 u W i i u 3 # % 5 5 # # # # #       # 5 7 % i i % 5 2.! ! ! u ! ! i 2 2 : % u 2.# r r : 2 3 # 2 r 8 r r 2 7 2 4 q % # . . O o o . . . . O . . O . o o o o o O . o @ X O o . . . . .   . . . . . X X O O O O o + + o o + .   X & & * * * & & & - & & - - & * & * * * * * * & - > * - - * * > > > > > > > > > > > > , & # > , , , , , , , , , , , , , , 8 , , a , a , , > > & > > : ; * * * = & X * * & ; & * & ; & ",
"U n m N N N N N N N N N U N N ] N N } U [ N I [ I [ I [ N } [ I } N } } } } } } I } } } } } } } 1 0 T T T T Y R T T R T T T R Y T T R T Y Y Y Y Y Y Y Y Y Y Y Y R W W R T Y Y Y Y Y Y Y Y Y T Q Q T 4 : k x B B x V B B c c c x c x k x k c x c c c c c c x x k c c B B B b V B c $ = * * > : * > > * & # . & + & O O o o   : > 2 > > > > > * & & + # . > c B B B V B V V V V V V c B B B B x x B B B B A V B V k $ a f a f 1 f f a a a , , a , a , , 1 a > > > - > * * > > * > & & # : r ! ~ ~ 3.~ 3.3.3.3.3.3.3.3.3.4.3.5.3.3.3.3.r 2 ! 2.! 2.r 2 u 2 3 : u ! W i 5 % 3 $ : % $ 3 3 5 7 3 @ = 3 r u u 2 3 @ : $ 3 5 i ! W i u % 3 5 p 5 % $ # # #   #     # % % u p % u ! W ! ! W ! ! W u u 3 ; r ~ 5 % p : < 2 % # 2 7 q 7 7 7 7 7 2 % @ O . o o O . . . . o X . . . O o o o + . X X + . X X X X . . . . . # . . . . . . . X . @ O o + o + o .   X + & * * * - & & - & - & - * * * & - - * & & > * > > & * > > * > * > > > > > > > : > * # & , , , > , , 2 , , , , , , , , , , , , a , , , > * - ; * * * * * * & O 3 & * & ; & * & * ",
"n n N n m n U m m U N N N N U N N N N N I N ] I ' I ] I N N } } I } N I N } N } } } [ I I } e.I m $ 6 T T Y Y R T T T T T T Y T T Y Y T R T Y Y Y Y Y R Y Y Y Y W R Q W Y Y Y Y Y Y Y Y Y Y Y W 9 $ > c x x B B x v B x c c c c x c x x c c x k c k x c c c k c c x x b B V B c * & > * * > * > * > : & . + + & + O O o # . > > , > > > > * & & + .   & d x B B B B V V c U V V B B c c c x B x x B b B B b V B > > d a f f f a f , , , a , , a , , a a , > > > > & : * & & * & & @ @ : r ! ! 2.2.2.2.3.3.3.3.3.3.3.3.3.3.3.3.3.3.3.i : 7 ! 3.~ 2 : r r 2 3 u ! ! ! q 3 3 3 @ : 3 $ % r 2 & $ @ # % 7 % $ & $ @ $ = 5 i i i u i 5 3 p 5 5 5 % # # 3 # # #     # % p 5 % u i i i i ! ! ! i u ! 5 : 2 ! u % 7 2 : 2 2.r   2 r r 7 q 7 % % % @ o o o O O O o . . . X . . O X . o o X + + . . . . O . . . . . . . . .   . . . . . . o o + O o o o + O .   X & & & & & - & & & & - & * & * & & - * - > & > & * > > * * > * > * - - > > > > > > * . & , , , , , , , > , > : , , , , , , , 2 , , 1 , , & - * * * * * ; ; & O & * = & & = = & = ",
"n n m N n m m N N N N N N N N N U N N N ] N N ] I ' N [ } N } N [ } [ } } I } I I [ I } N } I } } 2 0 Y T Y T T T T Y T T T T T T Y T Y Y Y Y Y Y Y Y Y Y Y Y Y Q W W R Y Y Y Y Y Y Y Y Y Y Y 0 $ < c x x x B h c x x c x k c c k x h x x c k x k x x k k c c c x c c V B V c > & > & * * > * * : > > & . o @ & + o . O . . * > > > > * * & & + +   . , c B B B B b A b V V b B b c B B B c x B B c B A V B B k & a f a f a 1 a a a , , , , , 2 , a a , > > , > * * * * > & & * & @ = = u ~ 2.~ ~ 3.~ 3.3.3.3.3.3.3.3.3.3.3.3.3.3.3.2.r : r ! ! u : r u : ; 5 ! W i 7 3 @ = $ @ 3 @ 4 u $ 3 : @ $ 3 $ & @ = @ = & % i i i u W i 5 % u u u 5 3 3 $ % 3 # # #     # 4 % 5 u i W ! ! W i q u p i 5 : : r ! $ 2 % : 7 2.3.5 # 2 7 q % 5 4 2 % @ O O O o O o O o o . . X . . . O O O + + o X . X . O . . . . . . . . .   . . . . . . o o o o O o + o + + .   X & & & & - & - - & & - * & - * * - * * & > & > * & > * * > * > > * > * > > > > > > . + > > > , > , > , , , > , , , > , , , , , , , , , * - * * ; & * & * * X & * * * * & * & = ",
"n n n n m n n m m m m n m N m N N m N N N N N U N I U N } N I ' N N I [ I ] N } [ I } N } N I [ N n $ 6 Y T Y T T T R Y W T T T Y R T Y T Y W Y Y Y Y Y Y Y Y R W W R W Y Y Y Y Y Y Y Y Y Y 0 $ < c x c c x x x c c c c c c c c x B d k k k c x k k k c c k k c c x c B B c > @ & > > = * * * > * > * &   + + + + O . . . . * > > > > * & & & + . . & d c B b B B V V V V B B B B B c B B c B k c B h V B V B > : f 1 a < a a a a f , , , , , , , , , > > > $ > - : * > & > * * & # : : r ! ! 2.2.2.3.3.3.3.3.2.3.3.3.3.3.3.3.3.3.3.3.e : 2 2 r ! 7 2 u 2 % 5 ! ! ! r $ $ 3 $ = $ 3 r r @ $ @ $ 3 @ 3 = @ $ : @ = u W i u 5 u i u % u u u u % 3 3 4 3   # O O #   # % 5 5 u u i i u % 5 W i 2.% : % 2 u $ # ; 2 % 2.3.! # # 4 q 7 2 2 2 % @ o . o o o O . O o O X . . . . X O O o X + o + O . o . + . . . . . . . . . . . . . . o o o o + o X . O o o .   X & * & & - & & - & > & * & - & & - & > & > > * > * > * * > * * > - > > * > > > > . . > > > > > > > > > > , , : , , > , , , , , , , > * ; - * * * * & * & o o & & & * = & * & ",
"n n n m m n n n n m n m n m N m n N N N n U m N N N N ' N N [ I N N N } [ N } N ' I N N N N I ' I } : 0 T Y Y Y Y Y Y W W R Y T Y Y T Y Y Y Y Y Y Y Y Y Y Y Y Y W W Q T Y Y Y Y Y Y Y Y Y 0 $ f c c c c k x c x x B x k k h d B k c c k d h c c x h d x h d c c c c c x h , + * * * * * * * : * * * * & . + + o + O X X   . > > > > * & & & + . # + a c c B B c B V V A V V B x c B B x x h x x B c V B B B k & < f a a f < f < , , , 8 , , , , , a , > > > > > * * * * & - & & @ @ 3 : 5 ! 2.2.3.2.3.2.2.3.3.3.3.3.3.3.3.3.3.3.3.3.3.i 2 ; : : i r : e i r 7 ! ! ! u 3 = $ $ = = : u % @ : @ = $ 3 $ = 3 & $ = % u i i 5 q i i i u u i i u 5 # % 5 5 3 #   #         4 p 5 u p 5 % % u ! W ! % : : : : @ O : : 3 r u 2 % 3 # % q 7 2 % % @ + O o O O X o o O O . . . . . o o O + + + o o . . . . X . X . . . . . o . . . . . # . X X o o X O O o + o +     + + - & - & - & & & & - - & * & - * > & > & * * * * * * > * - - * * > : > * > > + # > > > > > > , > > , > : , > > , , , , , , , , , & - - * * ; & * * * + O & * & * * & & = ",
"n b n t n t n n n n n n n m m n n U m m n N N N m N N I U N N N N } N U I N U N I N N N N N N N N N n $ Y T T R T R W ~ ~ Q Y Y T T T Y Y Y Y Y Y Y Y Y Y Y Y W T R W Y E Y Y Y Y 6 Y Y 0 $ d c c c c c x c x k d d h c x k k x c c k c B k k k x k x k k c k c c c c c , @ & * & & * & & * * * * > * & . + + o O O X O . . & > * & * & + & +   . * d c B c c B V V B V B B c x h B B x x c x x c B B V c c : : f < a a < f a < a , , , , > , , , , , > > > > * * * * & * * & * @ % : = 3 i 2.~ ! 3.3.3.3.3.3.2.3.3.2.3.3.3.3.2.3.3.3.! 1 : 2 , r u : : % : 5 ! i W u $ : = = & $ 7 u % = $ = @ % r r $ $ @ & $ 5 u i i 5 5 u u u i u W u u u $ % 5 5 3 # # # # # # #   4 5 5 4 3 3 5 ! ! ! i % : : : : :   3 : % ; : 2 u 2.5   $ % 4 4 2 + + + o o o o o o o o o . . O . . . . . X + + + o o . . . . X X . X . . . . . . . . . . . X o o + O O O o o + o .   + & & & & & & - & & & & > & - - & & > & > * * * * * * * * * - - - * * * > * > @ . $ > > > > > 2 > > > , > > , > , > > > , , , , : & - * * * * * * & & 3 O ; & & & & = = & ",
"8 n 8 n n b h n n n m m n n n n n n m n n N N m N m m N N N N N U N N N ] N N N N N N U N N U N N N N % 5 Y Y Y Y W ~ W W W Y Y T Y Y Y Y Y Y Y Y Y Y Y Y Y R W W W W Y Y Y Y 6 Y Y 6 5 $ d c c c c c k c c x c B x c k c k k x c k k k d B k c x k d x k k c j c c c a o & * & * & * * * * * * * * * + . o + O O X X X # . * * * * & @ + +   # & a c c c c B B B V V B B b x c x v x x x x c c c B b x B k $ < a 1 1 a a a 1 a a > > , , , , , , , : > > * > > * * * * * & = @ % 7 % : 3 5 ! 3.~ 2.3.3.3.3.3.3.3.3.3.3.3.3.3.3.2.3.3.2.u 2 ; % r u : : : 3 7 ! i ! i 2 @ : : $ % u 7 3 3 & 3 ; u i u 4 3 3 3 $ 5 i i W 5 % u i i u i u i u u % p 5 5 % # 3   # # % $   # % 5 u p u u W ! ! i 3 : : : : : # @ : : % 3 r ~ 3.3.5 # $ q % % + + o o o O o o O o O o . . . . X o o . o X + + + o O . o X . # X . o . o . . . . . . . . . o X o X X O O o + + + .   & & & - > & - & - & & & - & & & & & & * & > * * * * * > * * - - > * > > - > & # & > > > > > > > > > > > > , > : , > , : , , , , * - ; * * * ; & ; & & O & & & & = & & 3 ",
"n n 8 n n t e n m b b n n n n b n n n n n n m m n N m m m N m N m N N N N m U N N m N n m m n N N N N u 4 Y Y Y W W ~ Q ~ W Y Y Y T Y T Y Y Y Y Y Y Y Y Y Y R W T W Y Y Y 6 Y Y E E 5 3 f k c k k k c c k x k k c k k c k x k k k x k c k k k k k k k x c k k k k c a # & & & * & * * * $ * * * * > * &   @ + O O . . X . . & * * & + & + .   o > d x c c B b B b B B B B B x c c x x x x x c c c B B x x > * a a a a a < a , , , > , , , 2 2 , , > > > > > > > * * * & & * & 3 7 2 ; % 3 3 i ~ 3.2.2.2.3.2.3.2.3.2.3.3.2.3.3.3.u i 3.3.! 2 2 % r u : 2 : 3 7 ! ! W ! 7 : @ 3 3 7 u % 3 % 3 % 5 u 2 % % $ 3 $ # p u 5 i p % 5 u u W u i u i i 5 u u p 5 $ % $ 3 % % # # # # 3 5 5 u u u ! i 5 3 : : : : : @ # : = : % u ! 2.3.3.5 # 3 % : o & + o o o O o O o . O o o o X . . . + o X X + o + o o . . o . o . . . . . . . . . . . # . . o . + o O X + o . + o   X & & & & & & & - & - & & - & - > & > & > & * & * * * * * * * * * * > * - - & # + > > > > > > > > > > 2 > > , > > , > , : , > , = * * * * & * * & * & O 3 & * = & & = & ",
"8 n e b t n n e n t b n b t b t n n n n n n n m m n m m n N n N N m N m N N m N m m m m n n n m m N N N : 6 T W R ~ W ~ Y Y W Y Y Y Y Y Y Y Y Y 6 Y Y Y Y W Y W W T Y Y 6 Y Y 6 E 0 @ d c c c c c c c c k k h k d B k k c k k k k c c d x x k c k k k k k k k c k a @ + & & * & & * & $ - * * * * * > + # X + X o . . . . . * * & + & + .   + + 1 k c c c c B v v B B B c B c c x x c x c c c x B B x x d & < < a a , 1 a , a , , > , > , , , , > > * > > $ > & & * * & & & & + 5 : : = : : r ~ ! 3.3.~ 3.2.3.3.3.2.3.3.3.2.3.! 2 7 2.3.3.r % ; u e % : : = 5 ! ! ! ! 5 3 3 $ % u 5 3 : = $ % u % $ @ : @ = @ : u u 5 i 5 3 5 i i i i u u i u u u i u 5 3 % 5 % % # # O # O   3 5 u u u i 5 3 : : : : : : :   7 3 = 2 W ! ! 2.i i i # # @ + + + o o o o o o o O o O O O . . O o o O O O O o + o + . X o . o . . . X X . . . . . . . # . . . X X X o o o o o + o . . & & & & & & - & & & * & & - & - * & - * * & & - - - * * - - * * * > * : & # . > > > * > > : > > : > > > > > > , > , > : , > = * = * * = * * * = & o + = & & ; & = & ",
"b 8 9 b e e b e t b t t 9 n n n n 9 n t n n m b n n n n m n U n m N N m n m m n b m m n n n n n A n n N 8 % W W W ~ W W T Y Y Y Y Y Y Y Y Y 6 Y Y Y Y Y Y W W W Y Y Y Y Y Y Y Y % $ d c c c k c c k k c k c k k x d k c x k d h k k d h c d c d k d k k j k k c f @ + & & $ & * & * * * * & * - & * * + . X + X . . . + . # & * & + + X   . + > d c k c c x x x B c c B B c c c x x c x c k c x c c x c < : f , a , a , a a , , , : , , : > , : > > > > > > > & * * * & * & & @ $ : : : : : : ! ~ 2.2.3.2.3.2.~ ~ 3.3.2.~ 3.3.! 2 ; u 3.3.u : 2 i r % : : : 5 ! ! W ! u 3 $ 3 7 i 2 : 3 = 3 r u 3 3 : @ = $ 3 % i 5 p W 5 3 % u u u u u u u i i W u u u % 3 3 3 3 # O   #   #   # % 5 p 5 $ = : $ : : : : : # r 7 $ 7 i ! ! 2.u 2.3.i #   @ + + & o + o o O O O o O X X o X X O O o o X O o + o + o . X . o . o + . . . . o . .   . . . . X X + + . . + o o + + X     & & & & - & * & * & - - & & & - & & - & - * - & - - & & - * * * * * > * X . > * > > : > * > > > > > > > > > : > , > , : , * * * * = & = & & * = + O & & & & & & & ",
"9 e e e 8 b 9 e n e t b b t b e b b t b n n 9 n n n n n n n m m m n N n m n n n n n n n n n n n m m n U n % Y W W W W W Y Y W Y W Y Y Y Y 6 W Y Y Y Y Y E Y W Y Y Y 6 6 Y E 6 % : d c k k d c k k k c k k k k x k h c k k k k k k k k k k c k k j h k k h k k d @ . & & & & & & * & $ * & & * $ * * * + . + + . . . . o   . & + + + +   # + + a k k k c h x x x c B c c h c c c c x x x k k x c c B x d $ < a 1 1 a a , , 1 , > > > , > , : > > > > > * > > * * & * $ * & & + # * : $ : : : : 7 ! 3.2.2.2.~ 3.2.3.2.~ 3.2.3.3.2.r : 2 ! 3.! 2 2 i 2 : : : = r ! ! ! W u % 3 : u r $ 3 = : $ t 5 $ 3 $ : = $ & 2 u 5 u y u 3 % u u u i u 5 i u W u i i u 5 # 3 #   # # # O # # # #   3 3 3 3 3 3 : % : : : : @ 5 u % % 2 5 ! i 7 i ! 5.! #   + & + + + o o o O o O O o O o o O O O o o O O o o + + + . . . o . o X . . . . . o . . . .   . . . + . + + + o o + + X X . X & & & & * & & * & & * & - & & - & - * * * & - & * * * - * * > * * * - o . & > * * > > > * * > > > > > > > > > > , : , , & * * * * = * = & = & + O & & 3 & 3 & = ",
"r 8 e e e e e e 8 e e t e e t e 9 e n e e e t b e h n n n n n n n n n m n A m n n n n n b n h e n n n m N 7 5 W ~ W T Y Y Y Y Y Y Y Y Y Y Y Y Y Y Y 6 Y Y E E Y Y Y Y Y E E 5 $ j c k q c c c c k c k c k x k k k k k k k k k k k k k j k d k k k k j j d k d @ # & & & & & * & & & * * * * & * $ * * o   o + . . . . . . + + + + + . # + + * d k k k k B x c x b x c c d c k c c c c x c c c x c h c > & f a , < a < a , , , > > , : > > > > > > $ * > * * $ - * & - & & & + @ $ * : : : : : : u 2.3.~ 3.3.2.3.2.3.2.2.3.2.~ 2.r : 2 e 2.i : 7 i : : % : : r ! ! i ! u % 3 7 i % : : : = : u % 3 : : @ $ 3 $ 2 i % u i u 3 3 5 W i u u 4 u u i i i u i 5 3 # # # # # O O   # O # # # # # 3 @ $ : = : : : % 3 % ! 2 3 3 % r 5 % % i 3.2.2   . + + + + + + o o o O X O o o o o O o O O O o O o + + X . . o . o . + X + # . o # X . . . . . . . . + . . + o o o + + & o   X & & & & & * & & - & - & - - & * & - & - & * * * * & - * * * * * * > + # & : > > * * > > > > * > > : > > > : > > > > > = * = * * * * & & & ; & O 3 & & & & & & "
};
