/* XPM */
static char *wood[] = {
/* columns rows colors chars-per-pixel */
"500 500 38 1 ",
"  c #2F240E",
". c #30250F",
"X c #2F2610",
"o c #332710",
"O c #352811",
"+ c #3B2C14",
"@ c #3F3016",
"# c #3F3018",
"$ c #402E15",
"% c #453517",
"& c #483417",
"* c #473817",
"= c #453418",
"- c #4B361A",
"; c #473818",
": c #4A3919",
"> c #50371C",
", c #533C1C",
"< c #593E1E",
"1 c #5C3E20",
"2 c #57401E",
"3 c #5C401F",
"4 c #5E4120",
"5 c #634422",
"6 c #694724",
"7 c #674824",
"8 c #6D4925",
"9 c #6F4A28",
"0 c #714B27",
"q c #744C28",
"w c #794F2B",
"e c #77502A",
"r c #7C512C",
"t c #82552E",
"y c #865730",
"u c #885731",
"i c #875831",
"p c #895831",
/* pixels */
"+###########O############+#+###########X##+##+####+#################+#####+##############+##+###++##################+#####++#############+###+###+##############+####+##+#+############X##+#+###++#############X###++###+##+#################+####+#################++###+################+######+#+#################+#+###+#############+##+###++#################++####+###############+##+###+#+##################+####+###############++#####+##################+####+#############X####+####+#################+",
"################$$###+##+#######################+###############$$##+####+#########################+############$$##+####+########################O######################+#+##########################################################X####+####+##############X###+##################X#####+###################$$##+###+##############X##########+#################+#############################+#############$$##+####+#+##################################X######+##+##################+######+#################",
"################$$$$#######################$####################$$$$############################################=$&$#######################$####################$$$$#######################$####################$$=$#######################$####################$=$$######################=$####################$$$$#######################$####################$$$$############################################$$$$######################=$####################$$$$############################################$#$$",
"####=###########$-$$#########=###########==$########=###########=$$&####################==$$##########=#########$$$$####################=$=$##########=#########-$$$#########=###########==$########=###########$=$$##########=#########=#=$#########=##########$$=$#####################=#$####################$$-$###=######=#########=#=$##########=#########$==$####################==$$##########=#########$$-$#####################=#$##########=#########$==$####################=$$$##########=#########$=$$",
"=========#=###==$&&$&$&&======#=#######-$===&$&&####-##=>#####==&&$$&&&$==##-##==#=#####$===&$&&###-#-#=#>###=#=&&$$&&&&==##-##=>#=###===$==&&&$#=##-#########==&&$&&&&&==#===####=####>$===&$&&####-#==######>#&&$$&&&$#=#-##########=#$===$&&&####-#=########=&$&$$&&&#=##-#==######=#=$==&$&&####-##=######>#&&&$$&&$=###-#########=#$===&$&&#=#-#########=#=&$&$$&&&#=#-###=##=##=#>$===&$&&###-#-#=#####=#=&&&$&&&&==##-##=##=#####==$=$&$&####-#=#######=#&$&$&&&&=###-##-###=###>$===&$&&#=#-#########==#&&$&",
"-===--=->=>=#---&&&-&&&&===--==->>>#--#----=-&&&=---->-=>#>>##=>&&-&&&&&==----=->=>##>>>---=-&&&--#-#-==>#>>##=>&>&-&&&&==----=-##>=#=#>---=&&&&=->#->>=>>>###=>&>&-&&&&==-==--->#>==>>#---=-&&&=---->==>->>==#>&&--&&&&==--->>=>>>>>==>---=-&&&=---->=#>>>#>=#>&&--&&&&==----=->>>>>==>---=-&&&=-----==>>>>#=#>&&&&>&&&=----->=>>>#=>=>---=-&&&>=--=>>#>>>>##=>&&-->&&&==-----=>=>###>=--=--&&&--#-#-==>>>>##=>&&&&&&&&==----=->=>##>>>---=--&&==----=->>>>>==>&&--&&&&==-----#>>>#>=>=---=&&&&-=--->>=>>>>##=>-&-&",
"---=->>>>>>>>--->>>>>>>>>=>=>>>>>>>>>>>>>->>>->->>>>>>>>>>>#>#>>>>>>>>>>>-->>>->>>:>->>=-->>>->&->>->>>>>>#>#>>>>>>>&>>>>>->>>->2>=>>>>>>>>>->>>>>>->>>=2#>>>=>>>>>>&>>>>>=->>>>2>=>>=>>>->>>->->>>>>>>>>>>#2#>>>>>>>&>>>-->>>->>>#>>>>>--->->&>>>>>>>>>>>>>#>>>>>>>>>>>>-->>>>>>>#>>>>>>->---->>>>->>>=>>#>:>>>>>>>>>>>>>>->>>>2#>>:>>>->>>->>->-->>>>>>>#>#>>>>>>>>&>>>-->>>>>>>:>>>>>-->>>->&->>->>>>>>#>#>>>>>>>>>>>>>->>>->>>:>->>=>->->->>>-->>>>>>>#>>>>>>>>>&>>&>>->>>>->>>>=>>=->>>>>>&>>->>>>>>>>#:>>>&>>>",
"1>>1>>>>>>>>>1>>,,>>>>>>1>>1>>>>>2>>>>1>,>,>>>,,>>>>>>>>>22>22>>,>>>>>>>>1>>>,>>2>>>2>>11>>,>>,,>>>11>>>>2>122>>>>>>>>>>1>>>>,>>2>2>>>>1>,>>>>,,>>>1>>>222>2>>1>>>>>>>>>1>1>>>>>2>>1>>1>,>,>>>,,>>>>>>>>>2>2>2>2>,>,>><>1>>>,>>>>2>2>>2>-1,,>>,,>>>>>>>2>2>222>2,>,>>>>>>1>>>>>>>2>2>>2>>,><>>,,>>><>>>1>22>>>>1>>>>>><>>>><>>>>22>2>>>2,,>>>>,,>>>>1>>>>2>12>2>>,>,>>>>1>>>,>>>>2>>2>>>1>>,>>,,>>>11>>>>2>122>>>>>>>>>>1>>>>,>>>2>>2>>1>,><>>,,>1>>>>>>>2>2>>2>><>>>>>>1>>>>,>,>2>>2>>1<>>>,>,,>>>>>>>>>22>>>2>>,,,",
"<3<<<<<<2211>111<<<<<<<<<<<<333321221111,1,13<<<<<<<<<<<2211111><<<,<<<<<<<<<<<122221111,1,13<<<<<<1<<<<22111111<<<<1<<1,<<333<3212211,1,,1<3<<<<<<<,<<<221>111><<<<<<<1<3<3<3<<21221111,1,13<<<<<<<<<<<21111111<<<<<<><<1<<<,,<22221111,1,133<3<<<1<<<<21111111<<,<<<11<,<,<<><22221111,1,133<3<<<1<<<<22111111<<<<<<<<<<<<<<<<22221111,1,13<<<<<<1<<<<221111113<<<<<<<<<<1<<1,212111,1,1<,3<<<<<<1<<<<22111111<<<><<<<33<<<3,32121111,11,13<<<<<<1<<<4222211113<<<<<<<<<<1<<<<222211,1,,1,<<<,<<<<,<<,22111111<<<<",
"111111137111512151111151333533331111111144413333141144441127124235351135111111111111111144413333141114441142122115111115153333331111151115113333141114451111444435<51<11333533331111111111443333111514441111222155<3335111111515211151111414333111141444111124211535113355155<551111511141143333111414441142122135<51<1133353333111111114441333314114444114222413533513111111115111151114115333314111444114212213535<51133333333111111144144333314111441114424223533515<11111144111115114515333514441515112212213333",
"65656556777155755555655555555555477755555555555565655555717155775555555565556555477755555555655555655555719775745555565555555555177755555555655565655655717755756555655655555555777756555555655555555555777171775555565656555555717755555555555565655555777171775555565555555555717755555555555565655555717775746555656556555565177755555555655556555555717755475555555665555555777755555555655555655555717775746555565655655665777755555555555565655555771171775555555665555555777155755555655665555655717755746555",
"66666666777779776666666868666666777986668866868666666666799797976665888668666666977966868668666686666666777777798666666668668685997768866688666666666665977977976666666666668666777766666866666668866666777997776666666686686866797968668666668866666666777797778665666666666668779766966666668666666666779777796666666686666088977966668668666666668666779797976666666668668866777786668668668686666686779777796666666686666686777768666866866666666666779977976666666666668866779966668686666666668665799779796688",
"000000009999999900000606t588688899999999080000000000080000999999808806060880008099999998000000000000q80q9999999900666665t56860869999999909000000000000808q99999966868666068t00889999999800q0000008808q8q9999999980000000000099999999999908000800000090809999999908008888000099099999999900q000000000q8q09999999988860808866808809999999900q00000000008008q999999080000080000999q9999999900q000080000q8q89999999956868886088008009999999800q0000000009800899999990606006000009999999999999900088000000000909999990008",
"qqqqqqqqqqwqeew906t6t0t68t8tt0t89eee99wwqqqqqqqqqqq0wwqqqqqw9e9e08t00t00wwqwq0qwe9eew9qwqqqqqqqqqqqqqqqqwqqwe9ee06t0t0tt8t8tt00te9eew9qqqqqqqq00qqqqqwqwqqqweee9t6t8t6ttt8t8000te9e99wwwqqqqq0qqww0wqqqqw9wwe9ee08qqqqqqqqqqqqwwe9eee9wwqqqqqqqqqqqqqqqwqqqwe9ee00t0www0qqqqqqwqeeee9eqqqqqqqqqqqqqqqqqqwqqweee986t8t6t0qt0tqqqq99eew9wqqqqqq0q0qqqqwqqqqqqq9e9e00qqqqq0qqq0qqqqe99e9rqwqqqqqqwqqqqqqqqqwqqweee9t8t8t8t8t88t00qqe99e9rqwqqqqq0qqqqqqqwqqqwwweew9q6t0qqq0qqqqwqwqe99eeewwqqqqqqqqqq0wqwqqqqqqe99eqqqq",
"qttqwwwqwtrrrrrr0tt0t00tt6tt00ttrrrerrrrrwrwwwwwt0ttwwwwwrrrrrrr0tt0tt0ttqttwtwtrrrerrrrwwrwwwtqq0ttwwwwwwrrrrwr0tt6ttt6t6tt00ttereerrrwwwtqwwtwqttqwwwwrwrrrrwr8tt6ttt88tt8qtqtrerwrrrwwwrwwwtqt0ttwtwwwwrrrrwrqttqtttqqttqwrrrrrrerrrrrrrwwwwwqttqwwtwwwwrrrwwt0qttqqttqtwrrrwerrerrrrrrrrwtwwqttqwwwwwwrrrrwrtt8tt8t00tt0qwwttererrrwwwrwwwtwt0ttwtwwrwrrrrrrqttqttqttqttrrrwrererrrrwwwwwwwwt0ttwwwwwwrrrrwr8tt8tt8tt6ttqtqtrererrrrrwwwwwtqqttqwwwwrwwwrrrr0tt0tt0ttqttrrrwrrrrerrrtwwttwtqqttqwwwwwrrrrrrrwwww",
"ttttttttttrttryrttttttttttttttttttttyryrtttttttttttttttttyryyryrttttttttttttttttttttryyrtttttttttttttttttyryrryrttttttttttttttttttttryryttttttttttttttywyyrryryrttttttttttttttttttttyrtttttttttttttttttttyyrtryrtttttttttttytttyttttryrrtttttttttttttttwyyyryryrttttttttttttryryttttyryytttttttttttttttttyryrryrttttttttttttttttttttryrytttttttttttttttryyyryryrttttttttttttttttttttyrrytttttttttttttttttyryrryrttttttttttttttttttttyrrytttttttttttttttttttttrtrttttttttttttrttytrttyryrtttttttttttttttttyyryryrtttt",
"ttppptyyppyyyyppyyppyyttppyyyypptypppttpptppitiptytypyyyyyppyyyypyyyyypyyyuuppuupyypyyiitypptiipytpuuuutpuyuyypuuuppuyyyppyyyyppyyupyyyuyyppyyyytyyypptutupuuuyyppyyyypyyyytpuyyyyppyyyyyyypyyyyttuuuuuyppiyyyiiiippuuuupuuuuuuyyuupyyyiyuupyyyutytyuuuuutpuuyyyuuuyyuuuuuuypuuyuuuuuuypuuuuuuuitypuuuutppiyyypyyypiiiytpiyyyypyptppyyiiyyppyiiptyyyuuyyyypppyyyupppypyyyyyyppuyyyppyyiiyyypyyuuttuuuutupuuuutpuyypuuyyyppyyyypyptppyyyyyyupyuuutyytuuuuuyuuuuyypuiiiippyyyyppyyyyppyyyuypypuuiiyypuuutupittptppyypp",
"uupppppppppppypppppppppppppppypppppppppppppppppptyuuppppppppppuupppppppppppuppppppppppppppppppppuupppppppppuuupppupppppypppppyppppppupppppppupppyuuuppppuuppupuupppppppppppppppppppppppppppppppputppppppppppiippppppppppppipppppppppipppupppupppyuuupppupuppppuupppppupppppuppppupppupppppppppipuuppupupppppppppppppipppppppppppppppipipppppppppyyuuppppppppppuupppppppppppuppppppppipppppppppiputpppppupppupppppppppppppppppuppppppppppppppupupyuuuppuuuupppuuuppppiippppppppppppppppppppppppppuupppppupppppppppppp",
"ppppppppppppppppppppppppppppppppppppppppppppppppppppppppppppppupppppppppppppppppppppppppppppppppppppppppppppppppppppppppppppppppppppppppppppppppppppppppppppppppppppppppppppppppppppppppppppppppppppppppppppppppppppppppppppppppppppppppppppupppppppppppppppppppppppppppppppppppppppppppppppppppppppppppppppppppppppppppppppppppppppppppppppppppppppppppuppppppppppuppppppppppppppppppppppppppppuppppppppppppppppppppppppppppppppppppppppppppppppppppppppppppppppppppppppppppppppppppppppppppppppppppppppppppppppppp",
"ppppppppppppppppppppppppppppppppppppppppppppppppppppppppppppppppppppppppppuppppppppppppipppppppppppppppppppppppppppppppppppppppppppppppppppppppupppppppppppppppppppppppppppppppppppppppppppppppppppppppppppppppppppppppppupupppppppppppppppppppppppppppppppppppppppppppppppppppippppppppppppppiipppppppppppppppppppppppppppppppppppppppipppppppppppppppypppppppppuuypppppppppppppppppppppppppppppppppppppppppppppppppppppppppppppppppppppppppppuppppppppppppppppppppppppppppppppppppppuuppppppiiuppppppppppppppppppp",
"pyttppppuuuuyyytyyttppppttyyyyttpppppiiipppypiipppyyyyttyttyutyyyyiyyyyyyyttttttyyyyiiiypppypiipuuuyppuuyyypuuuupupppypyttuuyyytppupyyyyppyuuuuupppuuupyuuuupuuuyyyypyyypptyyytyppypypypppyptyyyytyyutttiiyippiiyuyyyyryryryyryyyttytiiipuuuppuuppyuuuuuuuuupuuyyyytypryuuuuuuyyutytyttryyyryyyyttuupuuuiiiiiipiiiiipiiiyiiipyyyppppiiiipyypiiiiuuyytyyyyyyypuytyyttryryyyttyyuupyyyiiiipuuuuuuuuuuuppuutptpuuytuuutpypyiiiiuuuuppppyyyyppypuuuuppyuuutuuyuupuuuiuuuuuyupyyyyypipyyyyyytytttryyytyyypuuuiiiiptppiiyy",
"ttttytttttttttttttttptttttttttttttttttttttttryyryyttttttwwtwttttryyrttwwwwwwwwwrwwrwrrryttttryyrttttutttttttttttttttyyttttttttttttttttttttttttttyyttttttttttuytttttttttttyttttttttttttttytttttttttttttttrrrrrrrrtrrrrwwwwwrrrrrrttrtttttyttttttttuttttttttttuytttretrrrrrrrryryrtrrrw9wwwwwrrrrrttttutttyryrttttttttiyttttttttttttttryyyytttyrrrttqtwtwtttttttttrwwwwwrrwwrrrrrrttttttttytttttttttttutttttttttttttttyytttttttttttttttttttttttttttuttttttttttuytyryyrrrrrrwrrrrrrttrtrrwwwwqwrrwwqtqtttttyrtttttttttt",
"tqtttttttqtttqtttqttqtt0tt0tt0ttwwwreeeeeeeerrrrtqtqqqqqqqqqqq0qwwwwqq9998688999990qqqqeeeeerrrrtqtqtttttwtwtwtqwttqqtttttttttttwttqwtwtqttqtqqttqtqtwtwtwtqqttqtqttt0ttttttttqtqttqtqtt0tttttttt0qq0w8899e9rreew999999999999999000qeeqrrrwwwwtwttqttwtwtwtwqtt09ee99e9ew9wwwww9qq999999999999990w0qqtttrrrrrrrrrrrrrrrrrrrrwttwrrerrrrrrrrrreww000000qwqqwwwq00q999996999q9wqqqeeqwrrrrrtrrtwwwtqtqqtttwtwttqtttqttqttqwrwtwwtwtwwtwttwqttqtwqttttqtwttwwtwqttqeerewq99qqqqw9rwwwwqq999699999960q00qqqtrreeereewrrr",
"00006006008q00000000000000000000qqq0qqqqqqqq000q000060865655666689886655151111115555668888qq000000006008000qq0qq00qq0008088088q00qq000000000q0800000000000qqqq0000800000008880000000008000080080008665557779999999951111111154556888800000q0008q0000000000q0008899777547799999996651111111514777660600869e0000q00q0qqqqqq0q0qqqqq0qqqq0w0000998866655566968088651111111115555596880000008q00q0q800000006qq0q0000000q0000000q00000000000q0000q0000q000060000000009999977755579799999665111111144155660686000qqqqqq0qq",
"8686666868686666866666666866666677766777666666667774744411111444575544<<1>>>>>>>111114447776666666668688866668686666666686666666666686666665666668866686666866866666668688886668886666686668886665511111144445751111>>>>>>>>1>113355556666666686666666606888666544441141444577541111-1--:1:11>1151556665666676666768668686858666686686666667775444111111557555411>>>>>1--111111455585866866688686666666666866066868666666666668666566666666666688686666686666666777544411111445755511<,>:::>>111<<<54477759767667677",
"555555555555555555555355535535555545555555555555474441,11->>>,1444441,>-######====>>>1444445555555555535555555555555555555555555555555555555555553555555555555545355553553535553355555555555555511<<1>:>:>,41444111--&&$$$$-;;;-,,<<<445555555535555555555555353111>-;>,>111141111--$$$$#==----1,<<5455555555555555555555555555555555557557544111>->::11114111,,-==$$$$$===->:1133455555555555555553555555555555555555555555555555555555555535555555555555555555551111>>:-:111141111,--$@O=$$==;>>,>,444444755555545",
"33333<3333<3<3333333333333333333233333<33333234344411->:=====->,,11,,--=#OO++++###==:>-1<4<414243<333<<<333333<<3232333333333333233233223333<33333333<3333333333<33333<33333333333333333333333<3<,>>-====--,2411,>=$$+  +O++##==:-:,,<42333333333333<3332333333,1->==:==:>,1,<1,$-$++OoO++@##=;->,,<<334444233333233<3<<333333334423444444441,,,-=;==;-,>,11<,--=+OX+o++###===,,22333333333333333333<3<<3333333<33233333332333333332332333333<33<3<<3333233333331,1,:--;===-:11,11---$$+    O+##=-->>114414443333333",
"<,,,<,<,<,,,<,<<2222<<<<<<<<<<<<<<<<<<<<<<<<<<<214,4,->==#$==::>1,,,-&$+OXXXXXXX+##==:>>,<<<<<<<<<<<,<<,,3,,,,,,2222<,<,,<,,<,,,22222,<2<<<<<<<<<<<<<,,<2,<,<,22<<<<<<<,<,<,<<<<22222,,2<,<<,<,,,>>-==$===-->,,,,--$O.  XooOO+##%:>>,<<<3333<<<<<<<,<,,,222<<<,,>-==###=;:,,<,,--$+Oo...XXO+###;::,,<3<<<22<<<,<<<,2<,<,,<,<,,<,,,,<,,2,,,,4,,:-==###=-:,,,,,,-$#OO oXooX+##=;&-:2,3<3322,,,,,2<<<<3<<<<,<,,,<,,,,22<,<<<<<<<,<<22222222<<<<<<<,,<<,<<,<222332231,,>:-==##==;-,,11--&$+o    o+++#$=-:,::,411<<<<<<<<",
",,,,,,,,,,,,,,,,,,,<<<3<<<3<<<<<<<<<<<<<<<<<4,144,1,>>:==###=--,1,1,>-$+OX     XO###=:>2,42433<<,<,,,,,,,,,,,,,,,,,,,,,,,,,,,,,,,,,,,,<<<<<<<<<<<<,,,,,,,,,,,<,<,<,,,,,,,,,,,<,,<,<,,,,,,,,<,,,,--:%$$%+#=:>,11,,-$$Oo       X##==:,,1423333<<<<,<,,,,,,,<,<<<,,-;;=###=;>>1111,-$O .     oO++$&->,<<4<33<<,<,,,,,,,,,,,,:,>,,,,,,,,,,,,,,1,,>--=####==-><<<<>-=+XX    XXO+#%=&,,23333<<,,,,:2:2<<<<<,<,,,,,,,,,,,,,,,,<,<<,<,,,,,,,,,,2<<<,,,,,,,,,,,<<<<<<<3<<<,,,-==###=;-,,,<,>>$+O.     OOO+#=--111444242<<<<<<",
",::,>::,,::,,>,,,,<<<<33<<3333334<<4<33<<<<<22444141,,:=###==->1111,,-$OoX     XO##=->>41454433<<,,,,,,,>:,:::,:,:,::::,:,,>::,>:,,,,<,<<<333333<<<<,,,:,:,,,,,<<<<,,,,,:,,,,<<<<<,,,,,:,,:::,:,:-:%%%$+=-:>,441<>&$O.      X+##=;1:1445355333<<<,,,,,:,,,,<<<<,1-===#==->,4111:-$+       X++$&:>,<<445443<,,,,>,::,:>,>:,,,:::,:::,:>,,,::,,>>;===#==--<<44<>-&+XX    XO++#$:-,2344443<,,,,,:22,<<<<<,,,,,:::,::,:,,,,<<<<<<<,,,:,,,,,<<<<<<,,,,,:,,,,<<3<<33334,,,-===##=;-,1144,>-+O.     OO++=--:14444544332<<<<",
"::,::>,::::::,,,2,33<3333333333544444444<5444544444,,>>::===->245515<-$+      XO+#==:>4477655543<<,>>,::,:>,:,:,:::,:::>:,::::>::,:,,,3333355533333,,,,::,,,,<3<3<<,,,,::,:<,<<<<<<,,,:::::,:::::&&%+%$%=-,445551,-$+.      O+#=-:1155766665553<<,,,,::,,,<<333<::-;====:14415111$        OO%%&>,<45656554<<<,,>:,:,::,::,::,::>::>>:::,:11:,::-===#*&>,<55514>&X      XX++#:-,2355564332,:,:,22<333<<<,,,:,:::::,:,,,,<3333<<,,,:,:,,<33333<<,::,,,,,<<33355335411:1--===;->15555<>-$O.     oO$%=&:144557775533<3<<",
"::::::&::::,:,:<<3333355555555555555555555555575554441,>::=:>,4468855,+X    XXXO##=:244768086653<,,,>,,::::::::::::::,::::::::::::,,<<35555555555533,,,,::,,,<3333<<<::,::,,<<3333<,,,:,::::::::::&&*==*-,44779751>-+.      +##:-115788008666555<<,,:,:,,<33353311>-;=:>>44796511-       .+++=:><5569086755<<,,>,:::::::::::::::::::::,::1:1:1>>-=;;&>,1556961,>      XXO+#=-,<5568886532,,:,,22335533<<,::::::::::,,,<335533<,,,::,,,333553<<,,,:,:,<<35555565554411:--=;=1<558865<>$+.    .OO$==,11478996665554444",
":::::&:::::::,,2111155666666666666666666666666666661111>>>>,<35699w911>$$     o$$$-,1559qqqq066533<,,::,::::::::::::::::::::*::::,,,233558566666555222,:::,233335333,:,,:,,,233533322:,::::::::::::::--:>11699q981,>$o    .O$&&>11579qee0q00866114<,:,::223555531<<>>:>,<560qq051>-Oo    OO$%:,<476qqwq9865<<,,,,:,::::::::::::::::::,::,,:4,,:,::::>,<560qq9811$Oo    oO$=-><557eeee7742222@222555553232%2*2*%%::::223335653222,:,,,2335555332*:::22225556666866551<>>>--,<55800064,&$.     O$%&><35660t0t606665555",
":::::::*:&::::,,1155666866606880886868868868880008886111<>>><580wwww91>$+    oo$$>><550qwrtrwq6653<,,,,::::::*::::*:::*::*::::**::,,355588000008665522:2:2:,3355533322::::,,<335555322,::&*:*::&:::::::,1169qqtww61>$o   .OO$&-,4489eryrttt0q86651<,2::2,334666654<,,,<<56qwwwq91,$+o   oO$%::<479qrrrrw08654<,,:,::::::*:&::::*::::::,,,,1,1,1,,>>>,<55qwreq911&+o    o+$-><368errree77222*22225585773222**%**2::::223566665222,::,,33566655322:2::233566800888886551<>,,,568qtwwq5<-$o    OO%&><<586ttt0t0t0666555",
":*:*:**:**:::,221566668880000000000000000000000000886651<><<350twyyw911>$    o+$->>159qrttttrw07543,,,:::::**:*:&::::*:::%:*%::::::,355680000000865532:::,,2335555532:2:,:22336555532,::::*:*:*::&::-:>,1590ttttq81>$Oo   O$$&,,478eryyyttttt00655<,::::,3356886643<,,<<58qtttwq61-+    o+$&:,356wrryyyrw0854<<,2:::::::::*:*:::%::::::,,,1,4,1:,,,,<458wrttrq61>$o   oO$=-,256qriprree7222*2224588885322%2%%%**:::2:35566865322,:,:2355688653222::2225688000000088553<,,<356qttttq51>$+.  .O$%:,<56tttttttt00066666",
":*:*:*:***:::,2<15666880000000qq000q00000q0q000000086611<<<<566ttyyww91$$   oo+$-><579qyyypytwq75432,:,::::****::**:*:*:::*:**%:::,33558000qtq000865322::::23555655322:::,22355665332:::******::::::>>,<1599ttytt01,$$.   O$&:,<48qeriiiytttq008513,2:2:,35688886543<<<560wtyytq81-+    OO%&,,369wryyiyywq9554<,,,::::::**:*:**:::::::,,24444411,,,,<56qettttw61>$o.  o+$--,479errpprr77222*22355888855322****%**:::235568866522,::,235688865522:::22256800000t00886531<<<3680ttute01>$o.  oO$%:,35688tttttttt086666",
"***:******:::22<156688000000qqqqqqqqqqqqqqqqq00000066111<<<358qtyuutw11-$   oo+$&,4460rypppptwq0554<2:,,:::******:**:******::*:*:,,2356000q0000t006522:2:2:23556655322::::,23566655322::******:*:::::,,2570wttpyt05>&Oo  .O$&-,358eryipppppttqq8653,:::2224680886553<<<56wrypytw61-$oo  .+$::<469rruppppyqq5511<,,,,:::::*:**:**::::,:,,11444441<,<<348qrtpttr61>$oo ooO+*>,460erppprre722*2*225788878322%*%+%%***::2236880665322:::,3368086653::::2235688t0t000q888553<<3360ttuutt95>$$o  .O$%>,350ttttppptt8008666",
"*:**:*******::,25666880000qqqwqqtqqqqqqqwqqqqqq000066611<<<558qtuuutw61>$o  oo$$&:2460eyppppytq0654<,,::::*****:***:***:*:**%:::&,,2355008t0t0q00885222:::,233566653222:::,2555665532:2*:*******:::-:,,2160rtupuq06>%$o  .O$&-,378wryipppppywwq8543,,,:2235688008643<<456qrypptw61>$O   O+$&,<56qeyipppprwq861142,,::::::*:*:**:*::::,,<14444444<<,<358qttyptw81>$oo  o+$:,<550rripppr07222*222588087752%22*2%%***:2225680085532::2:235680065322:,:2235608800t0tq0085533<3560qtuutw85>$O.  o+$&><3580tttpppttt008868",
":**********::22<5566000qqqqqqqqw00qqqqt0qqqqq00000666611<<<358qtuuutw91$$o   o$$:,4480ryppppytw085442,,:::**********:**:*::*:::::,225568000t0t0t0065322*::,2335665552:::2:22356665332:2*********:::->,,<460rtppyt05>%O....O$&&,358erpppppptttqq864<,::::224680086554<4456qttpytw61>$O   O+$&,<469rrpppiyyrq965513<2,:,2::**::*:&::::,,22445555443<<<356qrpppyw91>$oo  o+%&,,470riippir072222*222880877222*%**%%***::2256880865222**22355800663222:2:23568t0t8t0tqq866533<3560ttuuut65>&O. .oO$&-3360ttppppptt0008886",
"***:*******:::,<15660000qqqqqqqqqq00tqq0qqqqq00066661111<,<3580tuuuy961-$   oo$$&,4560rrppppttw0855422,:::******:*:********:&:::,,,355806t0tqqq0086532:2:2:235666553222*::233556655<22::********:::::,,2560rtuuut061%+....O$&,,358ripppppptttwq8653,2::2225680088544<<<50qryppte91>$O  o.+%&,,56qeyipppyyrqq6661322,2::::::*:&:&::,,,224445775443<<<358qrtppyw85>$oo  o+$&><470rrpppire7422*22227808772222***%%%***22256800855222:2:23588006552::::223568608t8t8qq06553<<3550tttuut85>$$o  OO$&><350ttppppptt0t88886",
"*:********:::22255660000qqqqqqqqqqqqwqqqqqqq0006656553<<<,<358qtyuutq61-$.. .O$$-,<57qetppppytq085533,,::::*********:**:*:*::::,>><11560006t8t88006532*:*2*2355566532,2:2:,23556655332****%*****::::::<<16qwttpuw06>-$   .+$%:,378qryipppppiwqq853222:::,25688886554<<458qtyuytw61-$+. .o+$$,,569rrppppptt0q886553<<,,,::::&:&:,::,,<<51576666744<<<356qrtuuuw91:$O   O+$:,,55qwtippir0722:::225680887532:********:2235588086522:::2223688085522:::,<3568t6t60t8q006613<23560rtiuuw01>$$   o$$$>,350ttttppptttt68866",
"**:*:******:::,2156680000qqqqqqqqqqqqqqwqqq0066665513<<<,<<358qtyuutq61-$.  ..+$&,<47qetypppytt0085532,,:::*****:**:*****::::::,,<<156606tt0t68t0865322***223556655322::::,235566533222:*******:&:::,,,<560tttptt01>$$o ..O$%:,348erypppppiitq08652,::22233688089514<<<58qwtyytw61-$o.  o+$>:<459eryppppttqq08666353<<,,:,::::::,,,,<115576996554<<<<56qrtuutq91>$OO  O+$=:,46qwrippir0732222235580885322::***%***:::35588885522:2::235688886322,:,,<35685t6t800q006653332360rtiuuw96>-Oo   O$&-<3500ttyppputt008886",
"::*********:::2215668880q0qqqqq0qqqqqqqqqq0000665553<<<,,,<358qttuttq61>$....O+$&><47qetppppyttq0855322::::**********:*:*::::,::,<1156608t800t0008653222:222355655532,::22:23556655322*::******::::::,,<16qwtuuuw011$$   .O$%:,<48qrpppppiyrtqq85522::::,23680086554<<456qwtuytw91-$o. .oO$-><469eryppppttt0q086653333,,::,&::::,,,115568889886544<<<560rtuutw61>$O   OO$&-<460wtipirr0732:::235880087532*:***%%*::2235660886532:::2225688885522::,,<356868t00t00006553<23360ettutw01>$O   oO$$>,358qtyypppttt008866",
"***:::******:22215568880000qqqqqqqqqqqqqqqqq06655433<<,,,<<3560ttyytq61$$O...O$$&,,57qetpppptttq0865522,::::***:*::*****:%::::,,,,115660000t008t0865322*:*2233566653<:2:::22555665532:::*****:*:::::::,<160wttutw06>$Oo  .O+%:,<77erpppppyyywq085522:2:222568808654<4<<56qttyutw61-$o  .o+$-,<469ryyppppttttq0066555433,,,,>::,,:1<11556899908654<<<356qwtuutw91>$O.  OO%%:<450wriipire7222::235588887332:2****%**::23558808653222::22568888532:,:&,<3568tt80t00q066533<23560etyuyr96>$$o  o+$&>,350qttppppt00068866",
"***:*:*****:,>,<155668800000qqqqqqq0qqqwqqq00865544<<,,,,,23580tuuutq6<-$o..oo$$-><46qetpppppptq0885532,::::******:****::::::::,,<335560qqqq000q0085322:::22335665532,::2::2355655332:2::*****:*::::,,,,160wtyyyt911-$   .+$&>,<77eryyppppttwq0655222:::23468808855422446qryuytw61-$o.  o$$&><459eypppppyttqqq086665543<>,>>>>>>4:44555699000865141<1199rtuutw91>$O.  .+$&:<46qwtiiitr0732222224880885532**:**%****:223688086522::2:235688885522,:,,<35600qwt0t0q006553<23360rtyuyw91>$Oo  oO$->,368qttypppttt6t8686",
"*:********::&>,<<1556888000qqqqqt0qqqqqqqqq0086644<<,,,,,,<3580ttuutq6<-+.  oo+$:,<46qerppppyytw0085332,,:::::::::**:***::::::,,,<<556600qqwt0qq086533::2*:2355665532,,:::223556665322::*******::::::,,<160wtyyyw96>$$. ..O$&>,<48qrripppiytwq065322:::22256880865<<<,456qryyutq9>-$o  .o+$-><569rrpppppttt0qq0986655443<<,,>>114445568899q0086651<<116qrtuutw61>$O.  OO$&,<450wriiitre7322*:223588065332*:***%***:2225688886322:2::235680885322::,,<<5600qq0000q006533<23460rttytw91>$$   oO$$>,358qttpppptt6t68866",
":****:**&:&::,,<<5555688000qqqqq8qqqq0qqqqq0885544<<,,,,,,2358qttuttw6<-$o  .o$$:,<469etyppppttwt885552,,,:::::**::*:**:&:::,:,,><<556800qqqq0qq0865322::::2335666532:::::22355666332:::*****:*:&::,>:,<199wwupyt96>$$o  .O$$&,477qryipppyywwq96532,2:::2246880865532<4460rtuytq91-$o. .oo$-><459rppppppyttwqq8898666554<<><>11>44456689000q086511<<1669wtuutw91>$+. ..+%&:<370wtipitr0722*2:225888887532***%****:*:2236888865222:22233680886322:,:,<<56800wq0qq0086553<23460wtyytw96>$Oo  o$$$><3580ttppptt0tt58666",
"**:*****&&&:::>,<<55566800qqqqqq00qqqqqqqqq006614<<<,,,,,,23560ttuutq6<&$o  .o+$&><46qetyppppytw00865332,,::::*::*******:::::::,,<<356600qqqqtqq0865322:::2235566553222::2225556555322::********:::::,,<169wtupuw911$oo   O$&>,<58qryipppptww086522,::2:225688086554<<4590rtyytw61-$Oo .o$$-><469epppppptttwwqqq08060554<1111>114478689000qq09851111119qwtuuyw81-$O...OO$&:2370wriiitr85222*22355888873222*********2235588085522::::225688885522,::,115600qqqtqq0006553323468wtyuyr91>-O   oo$->,3580ttpptttt686t886",
"::********::::22<<<55566800qqqqqqqqqqwqqt0t0085544<,,,,,,,,350qtyyyt961$$o  oo+$&><160wtppppuytrt086553<,,&,:::::*******:*::,:,,,<<356600qqwqwqqq0651><>::2233565653322*:2223566655322**:*****:::::::,,<360rtyiyt91>>Oo  .O$&&,45800ppppytt0t086532:::::235660086553<<356qttpytw64&$O  ..$$&,<369eripppppptwqqqq000000611111111145669900qqq0006611<<1560tttytq81>$O. .o$$&><360rttpitr063222*2357888853222%%***%**::225588886522*2*2235688885322::2:235600qt0t008886553<<<460tttyyw05>$O   O$$&:<368qttippyttqq88866",
"**:***:*****::::,<<55566880000qqqqqqqqqq808086554<<,,>>:,,<3560ttuytw61>$o  oo+$&,<560wtppppuutr00086533,,,,,&::*::**::**::::::,,<<556600qqwwqqq006511>>*2:235566553222*:::23555655322::********&::::,,<550wttitr96>>Oo  .o$&&,<560tuppputtt008652222::2233668886513<<<56qttyytq6<>$O  .O$$&,<369rripppppprwqqq000000066611111117869900qqqqq008111<<<35tqttytt81>$O  .oO$&>,360wtyiptt07322**22388888753222+*%***:2:2355888855322**223568086632*,::2235680qqqqqqt086551<<<468qttyyw61>&O   .O$&>,368qrtppppttqq08666",
":**:*:*:::*:::,,,<<<5556880q8000qqqqqqqw000086554<<,,,,>:,<3580ttuyt961>$o   o$$&,1160wtppppuutrt0885553<,,,:,:::********::::>:,,<<355600qqqqwqq0065<<>>:::23555655322*2:2:235566553222*:****:*:&::,>,,,360wtyiyt96>$Oo  oO$&>>1560ttppputt00885332::,::223688086614<<3560wtyytw61&$O.  O+$::,369etippppptrwqqqq0qq000666161161676990qqqqqqq0066511<1350ttuytw81>$o  .o$$&,<360wttiitr08222*2*258888853222@2**+***::223680086522*22*225588885522:::22356800qqqqq00885111<<560ttyyyq05>$$.  OO$&:,358qtyupppttwq08886",
"::*::*:****:::,:,<<335568800t008qqqqqqqq8t00065541,,,,>>,<<3580tyuyrw61$$o  oo$$&,1160qtppppuytr00086533<,,&,::::*:***:*::::::,,,<3556600qqqwqqq08655,,,::223356655322**::,23566555322:********::::::,,<360wtyuyrq1>$$o. oo$$><158tttpppptttt085532,::2:225680086554<<3560ttyytw61:$O. ..+$&,<369rryppppptrwqqq0qqqq0006666111615690qqqqqqqq06611111115tttyytq61>$Oo .oO$&:,558wttiiyr8722*22225788087532%2+******::2256888855222**223568008532222::2356000qtq0t00865511<3360qtyytt05>$O   OO$&:,3680tyupppytw088866",
"::::::::**:::::2,,<335568880t80tq0qq0qqq080006554<<>,>-,,,2358qtyuutq61-$.  .oO$&<<560qtuppppttrt0066533<,,,&::::**:*:***::::,,,><<556000qqqqqq00665<<,&*:2:3556665322::2*2235566553,2::*******:::::,,,3360ettutrq11$$o  oO$$>>1580ttppppptt8866332::::223368808655<<<<56qwtuutq81>$O. ..+$&:,56qetipppptttwqqqqqqqq000001011066680qqqqwqqqq066535<<<550tttytt01>$O.  OO$&:<360eriiptre7222*2227588085532*2***%***22235668086522**2:225680866522::::335600080000t8866431<3550tttytw04>&OO  OO$&:,358qttuppytwqq08886",
"::::::::::*:::::,,<<335568000800qq0qqqqq0t0006554<,<,,,,,,,3580ttuutq61$$o  oo$$&>,560wtupppputrt0006553<,,:,::::*********::::,,<<<156600qqqqqq006653,,,*222355665532:::**22555655532::::*******&:&,::><460rttuyr06>$O   oo$$><1580ttuppptttt865532,2::2235688086514<<358qttuute61&$O   O+$&,,369eripppptttqqqqqqqqq0000001001668900qqwqwqqq00655<<<155ttttytq81>$O.  O+$%,,360eripitr07222*22238808873322***%%**:*:2336888855222**22355888853222:2:2356800t0t0t0086543<<<550qtyptr84>$$   OO$&:<358qtyuppytt0008086",
"::::,:::::::::,:,,<<<55566880008qqqqqqqq000005543<<,,,>>,,,3580ttuttq61-$o  oo$$&><580wupppppttt0t665553<,,,,:::*::*****::::,:,,<<1556600qqqqq0006633,,:2*2233565533222:*2223556653322::******::::::,>,<460rtuuyrq1>-$o   O$-->1560tyupptttt8885332,:,::225680086643<<3560ttuttq61>$O  ..+%&,<369eripppptttqqqqqqqqqq00001010106900qqqqqwqq000653<<<<550qtyytq81>$O. .o+$*:2460eiipiire722*22225588885532***********2255880865322*:222568088552*:2:,235680000t000086543<<<560tttptr94>$$   .O$&:,368qttuppyttqq06686",
"2:,:::,&:*:::::,>,,<<<556688000t0q0q00tq0t0000554<,,,>,,,,23580ttuytw61-$.   o$$&><38qwupppppttw00066533<,,,&,::::*****:*::::,,,<<5556600qqqq00086533,,:**223555665<22::*2233556655<22:::*******:::::,,<368qtuutr061$Oo  oO$-->1568ttupuutt8t066532::::2223688086553<<<580wtuute61&$O. .O+$&,236qerippppttwtqqqqqqqqqqq00000600000q0qq0wqqq008655<<<<560ttyytq81>$O. .oO%::2360rrippre07222**227888885332*****@****2225688885532:2::235588065222:::223566t8t000t0006653<<<550qttuur84>&O   O$$&:,368qttyppttttq00066",
",::,:,,::::::::::,,,<33566886000q0qqqqqq000006553<<,,,,>,,<358qttyytq61$$O  .O+$&,<560ttpppppptw0t066553<,,,,::::*******:::::,,<<155668800t8q00866552,::::22335665532:::::22356665532::::******:&::,:,,<550etypyw81>-+  ..O+&:,358qttipppttt0865532:::::22566808654<<<359qwtyytw61-$o   O+$&,,380qtuppppttwqqq0qqqqqqq00000000000q0qqt00t0q00866533<<560ttttt061-$O. ..$$&:<468qripipre72222*223788077522****%%**:::225588886522:::2235688885522,:::3556600t8t6tw886513<11169wtyutw01>-O. .O+$%:23580ttppppttt080666",
",,,,,:,::::::::::,,<<335566800000q0qqqqqtq0006553<<,,:,,,,<3580tyyytq61-+.  .O+%&,,5500tppppppttt0006543<,,&&,::::**:***::::,,,<1115668000000000855322,:,:,235565653222::2,23556655322:::****::*::::::,<360etyptt06>-Oo  .O$$:,3560qtippptttt8853<2,:2:2223688086551<<<569ttuytw61-$O  o.+$&,<360qtppppptttwqqq00qqqqqq00000000000qqqq0000qq08613<<<<560ttyttt61>$O. .oO$&,,360rrppipre7222*222278088752222****%**:2235580886332:2*2:35680065322,::,,3568008t6t6q086654<11169wtyptw91>$$.  .O$%,2358qttpppptt0088866",
"<,,,,,,:::::::::,,,,<<355666600000qqqqqq0q00665533,,,,>,,,<358qtyyttq61-$.. .O+$&>3350ttpppppptw0006554<<,,,,&:::*****:*:::,,,,<<55566800q00000085532,2::::2355666532:2:::,2355655532:2:*******:::::,,,,570etyytt651$+o  .$$&:,356qtippptttt8886532:2:::,23688886641<<4569ttyutq61>$Oo  .+$:,<360tppppppyttw00q00qqqq0qq00q000q0q0qq0q00qqqq086533<<<566ttyptq81>$O. .oO$&,,468wriiprre722*22225780877522****@*%***22338880863222:2:235688065332::,,<35580tt6t6tq006554<11199wyyuyw91>$O.  OO%%:2368qttpppptt0006666",
"<<<,,,,::::::::::&,,,<33156666000qqqqqqq000066543<,,,::,:,,3580ttyytq61-$O ..O$$&<<5600tppppppttt0006553<,,,:,::*::****:::::,,<3<156688000q00068685322::::,23555655322:*,:,23566655322*:********::&:,:,<360erypyt05>-Oo ..O$$,,358qttpppttt000653<22:::2225680086551<<<59qwtuytw81-+O   O$$&:,3600ppppppytt0t0t0qq0qqqqqqqqq0qqqqqqqqqq0qqqq006553<<356tqtyytt81>$O. .o$$&,,360wripirr07222*222478888752*2********:::35588866522::*2235588086532,::,<3568080t6t6q086514<><160rryutw01>$$.  .O$%:23580ttipppytt086655",
"3333,,,,,:::::::,:,,><115566660000q0qqq000866553<<,,,>:,,,<3580ttyyt06<-$O  .O+$:,,560ttpppptttt00886553<,,,,::::*::*:::::,,,,3355566600q0q0q0066653<22:,:,2<3565553322*:,,23556655322**:******::::::,<<370rtyitt61>%+. ..+$%&,3580etippputt0085532,2:::235580886511<<159qwtyutq61-$O  oOO$&><1600ttpppptttt00t8qq0qqqqqqqqqqqqqqqqq0qqtqwq0006533<<3560ttyytt81>$$   oO$%:,360wiipiir0722*2*2277888775222*****%*:::225688886522:2*222568006653:,:,,<<56800066t6q006653<1<169wyyuyw96>$$.. O$$&:23560ttpppt000086555",
"3333333,:::::::::::,>><11555666000qqq0000886553<,,,,:,,:,,,3580tyyytw6<-+.  .O+$&,<5600tppppytttt808655<3<,,,::::***:::::::,,<33556668800q0q00086655<,:::::23556665322:*::,235566553222:*******::::::,,<370etyptt86>%+.  .O+%:,3580tyipppttt0086532::::2235888086551<1166qrtuutq61-$O   OO$:><468ttypppptt0000080qqqqqqqqqqqqqwqqqqqqqqqqq0w00655<<<<556qtyptq83>$o.   $$&,<360wriipire7222*2227778077522*2***%%**:22255880855322:::225660865322:,::,35560008t00q086543<1116qwtyuyw91>$O.  .+$&:22688ttppptt00865555",
"5535332,2:::::::::>>,,111116666000qq00000665553<,,&,,::,,,2258qtyyttw6<&$O  .O$$::33800tppppyyt0t80865533<,,,,,&:::*:::::,,,<<33556688t8qq0q00066653<,:22:223556655322*22:22355655532:*::******::::::,,2470rryptt64,&O. ..O$%*23580tipppttttt86553222*2:225580086611<<116qryuytw61-$Oo  O$$&>,5680ttppputtt008t80qqqqqqqqqqwqqqqqqqqqqqqqw0008653<<<<55tttyytt63>$O.  .O$&:,360qripirr072222*22278087722*2***%%****2225588886522:::223558006633,::,,,356800008t60006543<<1469wtuutwq1>$$. ..O$%:23580ttpppttt065533<",
"555553322,::***:&,&>>,>11115666000000000665553<<,:,::::::,23580ttyytq6<&$O  .O$$:>,550qtpppppttt0t0865553<,,,::::*::*:::,,,,<<55556680680qq000088553<2::::,23356565322::::223556655322::******:*:::::,,2470etypytw1>&$. ..O$%*23580typpptttt08863<2:::::223688086611<<119qrtuutq61>$o   o$$&,<458tttppppttt0tt08qqqqqqqqqqqqqqqqqqqq0qqqw0q008655<<<3560qtyytq63>$O.  o$$&><360tripiir0772**2222680877222*****%%***:2256808863222:*222566086632,2,::><5568000t000086553<<1469wtuutwq11$O. ..O$*:2350tttppytt086553<,",
"65655533,::::**&::::,,,22335566600000088661542<,,:,::::>,,<<50ertpytq6<-$.  .o+$-,,57qwrypppppprw00066611111,,::::&::::,>,,<<3556668800000q000006653<::,*22235556553222:::223556655322::*******:&::::,,<360wtyytrq11$Oo  .o$&&,<56qttypppytww08553,,:::222558008664<<<356qttyytw6<>$o.  O+$%>3360rtyppppppwwqqqqq0qqqqqqqqqqqqqqqqqqqqqqqqqq086552<<156qrtyutw91:$O. ..O$&:,378rriipir07222*2235788885522*****%****2223788087522::22225688886332:::2223568868t6t660665<<<<360ttyytt61>$Oo. o$$$><358wrtppytwq75433,,",
"6666653322,::*****:::::22,3355668000006665113<,,,::::::,:,<<56wrtiyrq6<-$o  oo$$-><470wtppppppttwq006661111>,,:::::::::,,,<<355566880000w0wq00666653<22:***23556655322::2*223566565322::********:::::,,,360qtyyyr96>$$.  .o$&-,<50qwtypppttwq08643,,2:2:225588086544<<356qwtyytw6<-$oo oO+$*,,360qttpppppptwqqq000q00qqqqqqqqqqqqqqqqqqqtqq0006544<2116qrtuytw61>%O. .O+$&:2360eripire0722*22235780887532***********2237888875222:::2256888863222:;2:255668t86t6t00655<<<3366ttyytt85>&O. .oo$&>,350etyppytrq753<<,,",
"88866533,:::******:::,,,,33335668080886665112,,:::::::::,,<356wryiytq6<-$o  oO+$->,570wtypppiytrw0006611511>,:,::::::::,,,3333666880000q00000006655322::2*22355665532,::*:22355655332::::****:*::::>:,,<368ttyyyt96>>$o  oO$&-<158qwyppppttrq065432:::::,25688888544<<158qttyytw81-$oo  OO%::,568rttpppppttwqqqq0q0qww000qqqqqqqqqqqqqqq00qq08654<1,1569rtyutq91>$O.  .+$::2380rrppiire732**223368886733*22********2225788087522::2:225588886322:;::22356666tt66600653<<335560tyttq85>$O.  oo$&><378etyypytwq643<,,,",
"88866553222::*****::::::,,,333566888866651112,,,::::::::::<350wtyiytq6<-$o   o+$-,<470wtyppppttrw00006665111,,::::::::,,,<<355566800000q00000886853<2,2:::2233566553<:,:*223355665532,2:*******::::::,,<560wtyutrq1>$Oo  oo$&-,158qtyppppyrwq65533,,:2:2,2558008654<<<1580wtyttw61-$o   o+$&>3360qttpppputwwqqq0q0qq000wqqqqqqqqqqqqqqqqqqqq086553,1156qrtyytr61>$O  ..+$&22368erpipir07322*2*337880873322*********22255888875222:::22568888532:2;2:23356686688t0666655<33360ttyutt85>$$....O$&>,350qrtppprw0653,,:,",
"888865532,::::&&::::::,,:<<<335566686655114<,,,::::*:::::,<376ettyttq61-$o  oo$$-:<55qwrpppppytwwqq08661511<<>,::&::::,,,<31156688000qq0w000088665332:::2:22335666532,:,::22356665532::::******:::::>,,<360wtyyyrq11-O.  oO$$>>158qrtpppyywqq957332:::::233680886554<<<57qrtiitq61-$oo .OO$&:<550eryippptttqqqqq0qq0q0qqqqqqqqqq0q0qqqqqqqqq00613<<<118qrtuutw91>$O   O+$%,,360eriiptr0722222222680865522****%*%**2*225770887332:::2235688885322:::::233668t8800000651<<<<366ttuutt51>$O   .$$$>,356qtyipyteq743,,,:",
"888665533::::&&:::,::,:,,:,,33355566665545<<,,,::::::::::,,356eryyytq61-$o  oo+$-,,55qwtpppppyttwq0088865511<<,&:::::,,,,<31566680000q0q0000886655332,,:*::23556655322:::2:23556655322::******:*:::>:,,<388rttutr06>$$.  oo$->>158qrtpppyyrw985432,,,::2235688088544<<458qrtiitw61-$oo  o+$:,<460etyppppttt0qqqqqqqqqqqqqqqqqqqqqqqqqqqqqqt008665<<<1689rtuytw91>$O   .+%%,,370riipiire532*222227880875222*****%****2255880875222:2:2255808865222:2:2235668888t00086555<<3368tttutt81>&OO  Oo$&><370wrtipyre8743,,>,",
"0888655322:::*::::::,:,::,,,,<33555555554<<,,,>>:::::::>,,2358eryyytq61-$o   o+$&,,460wtpppppytwwq0086666551<,,,::&:::,,<<1156680000qqqq0008866553332:2:::22355665532:::::22355655532:::*****:*::&::::,<480wtyuyrq11$$.. oo$$>>156qrtpppiyrw97443,,:::,:223680086554<<<570ryiytw61>$o  .O+$&:<550etyppppttqtqqqqqqqqqqqqqqqqqqqqqqq0qqqqq08808654<<<116qrtuytw61>$Oo ..+$&:,380wriiitr05222%2225688866522*****%****22227888875322;::225788085332:::22236566tt88000865<<<<3558tttuut65>&O   O$$&-,378eryipyreq732,,>:",
"8888653322::*:::::2::,:,,::,,,<3445555354<<,,,>::::::::::,<358wryyytw6>-$o  oo$$:><56qwtpppppytwq00000866551<<>>:::&,>,,<35156680000qqqqq000866653322::::::23555655322,2::,23565655322::********::::,,,<368wtyutrw1>$$.  oO$$>>558qttpppirr087442,,::::222568808654<<<<58qrtiitq61>$o.  O+$&,<460eryppppttttqqq0qqqqqqqqqqqq0qqqqqqqqqqqq8t008655<<<1169rtyuyw91>$Oo ..$$&,,368wriipie0222222225580885522****%%%**2*223780887322:2:22356888863322:::2335666888t00086655<33355tttutt61>&O    O$&-,378qtyipytr9752<,,,",
"8t666553,,,&::::,:,:,:,,:::,,,,2<35535333<,,,,,:::::::::,,<476wttyytq91-$o   o$$:,<460qtppppppytwqq0008865611>>>:::::,,,23355668000qqqq0q0006661332,,:::::2,23566553322*::223566653332**:*****:::::::,,,360etyyyw85>-$.  .O$&-,358ertpppyteq97442,:2:::222558808855<<<458qttyytw61-$+   oO$-:<468tttppppttt00t000qq0qqw0qqqqqqqqqqqq0qqqqqqq00654<<<456qwtuutq91>$O.. .$$*:2350wrpiirre72222*2256888655322@2*%%%****2256708865322:::23558806553:::::22<368800t80000855<<<1568tttyyw05>$$o   O$%:,350eryipyte0643,,,>",
"886665533,::::::::,,,,::,::::,,,<3333<33,2,,,,:::::::::::,,<56wryyttq6>>$   oo+$&:<560wtppppppttwqqq00888661111>2::::,,<3355668000qqqqqq00066655532,,:::*22235566653222*:222<556655322*2********:::::,,3460rtyitt01>$+.   +$&-,358ertpppyreq7741,2::::::225580086544<<<46qwtyttw61-$o.  o$$-><458qtpppppttt00000qqqq0q00qqqq0q0qqqqqqqqqqqqq086544<<<560wtuutw61>$O  .oO$*:2580wrppiire7222*222268088653222+**%****2225588886522:2:2235680885422:2:2,23566880000000855<<<<565tttytw01>$O   O$$&:<350qtyiiyte0843<>>,",
"t8666553<,,::::,:,,,,:,::::::,,,,<<<33<<<,,,:,,::::*:::>>,<450qrtuytw6>-$o  oo$$:><46qqtypppyttqwqq000008665511>,::::,<<335566600qtqqqqq00086651332,,,,::::23356565322**::,2355666532::*:****:*:::::>,,,460etyiyt651-Oo  .O$$-,378ewtyppyreq7444,,:::::2225680086544<<456qwtyytw61-$o. .oO$-><460tpppppptttt0000q0qqq0wwqqqqqq0qqqqqqqqqqqqq08654<<<357qttuutw91>$O.  o$$**2360wripprr0722*2%222780865522%%%*%%****2225580887532:::223468006752:2:::,233668880000086555<<<368ttyyyq65>$$o  oO$&:,378wryipite0743,,>>",
"68886653<<:::::::,:,,::,:::::::,,<<<<<<,,,,,,::::*:::::::,,456wrtutt991-$o   o+$&,<550qtypppytttwqq000088865111>,::2,,<3355566000080wwqq0088655133,,:::::*223556655322*2::223556555322*2*******::::::,,3550etiitt05>$+oo OO$&-,356eryyppyre94441,,,:::::22558808655<<<456qttuytw61-$o  .oO$-,<4680pppppputt0t0t0q0q0qq00q0qqqqqqqqqqqqqqqqq008655<<<346qwtuutw91>$O   oO$%*2350wiiiiir07222*222268088552222********22256680873222:::225688885322:::22<35566886t0000655<<<<366ttyyyt05>$O   O$$&:,378eryipyte07432,>,",
"688866533,,:::::,,,:,:::::*:::,,,<<<<<<,,,:,:,::::*:::::,,<358qtyuytq6>>$o   o+$&,<460ttppppyyttwqqq00000865611>,:,,,2331556666qqqqqqwqqq086655533,,,,::*222355666532::::2223556655322:::*******:::::,,,360etyitt61>%O.  .+$&&,357qryypyyrq0654,,::::::223368008655<<2446qryyytw61-$o.  O$$&><5500ttpppptttt0t600qqqqqq0qqqqqq0q0ww0qqqqqqqqq8654<<<356qwtuutq91>$Oo  o$+222277eripirre722222225780866522%%**%%***2:225588887532::2:235780867532::::2233566800000006551<<355ttttytw06>$O   OO$%:,378ettppite0733,,,,",
"6t8886633<<:,:,::::,,::::*::::::,,,<,<,,,,,::::::*:**::::,,358qtyuyrq61-$o  oo$$:><560qtppppyytwwqqq00000886611122,,,23355666600qqqqqqqq0008655532,,::::***235565553:2:2:*:2356665332:::******::&::>,:,3560rryiyt86>&$.  .O+&-,376eryyppttr95541,,:,::2:23566808655<<24580ryyytq61-$o  .o+$-><160tttpppptt000000qqqqqqqqqqqqqqqqw000q0qqqqqq006543<<247qwttutq91>$O   OO++@237eeriipire7222*2225580885522*2***%%***22255808855222:*22356880864222::2:233355688000006611<<<5566ttyyw84>$$   oO$&:,350qrtpptte0643<,,:",
"888686653<,,:,:::,:,::::*:::::,,:<,<,,,,,:::::::**:::::::,,458qrtuytq61>$o  oo$$&,<360ttppppttttwwq0000000861111,,,,233355660000qqqqwqqqq0086553332,:2::*22235566553<:::*222355665532::::*****:*::::,,22360ettitt84,%O.. .O$&&,358ertpppyte08441,,,::::2225588886553<<4460rtyytw61>$o.  o+$-><1680ttppppttt008t8q0q0q0qqqqqqqqqq000ww0qwqqqq066544<<357qttuutt91>$O   oO%22257eerpiirre7222*22356888655222%**%*%***22255888855222*:*22766086643::::::,2355666880000655<<<<5688ttuyw04>$$o  OO$&:2340ertppyte0653,,>,",
"t6t6866533<:,::,:::::::*:*::::::,,,,<,<:,,:::::**:*::::-,,,450wtyuytq91$$    o$$&><558wtpppputtwwqqq00000086011122323355566660000qqqqqwq000865533<,2,:::*22233556553<22:*22335566533222:*******::::::::3370etiiit05>&$.  .O$&:,356ertyppyre07711,,::::::225680086552<<4590rtyytq61-$+  .o+$->,168tttppppttt0tt080q0qqqqqqqqqqqqq0ww000w0qqqqq86543<<347qwtuttw91>$O   O$++2237errppiir7722*2*233680887522%*%**%*****225688886522:2:22246700653222*::,2,3355688000006611<<355ttttuur84,$O   oO$&,2370qttppyte8753<,,,",
"t000066553<,,::,,::::;:;:;;::::,,,,,,,,:,::::*:::*:::::>,:2358eryuytq61&$.  .OO%&,<160etypppppttw0wq0qqq000061611111611666600000qqqqqqqqq00666113<<,,:,::,,23565655322::2:,23556655322:::*****:*:::>,,,,380etiiyr05,&+  ..O$%:,349errippire97422<,:::::2224708086633<<<56wttpytw6<&$O.  .+$&><368ttttpppttt000q0qqqqqqqqq0q0qqqq0w00qqqqqqqq00614<<<355qrtiitw91>$O   oO$&:<560trppprre7222222237880875322***%*%**2:223688886522:::22247088854324::::4:4415568800086544<2237qrryuyw911$Oo. o$$$>2258ettiiite0653222*",
"0000006653<,,,::::::::;;;;;::::::,,,,,,::::::****::::::::,,358qrtuyrq61&$.. .O+$:><560etippppptrww000q0qq000011611111161666000000qqqqqqqq000655533<,,:::::,,335665552:::::,23556655322:::******::::::,,<360etyitt85>$$  ..O$%:,379eriippyre97422,:,:::2:2257800865533,3560ttyytw8<>$O  .O$$&,<3680ttypppttt0tqq0q0qqqq0qqqqq0qqqw00wqqqqqqq000665<<<<570rtiitw61>$O   o$$&,,350qrippire7222**222880877522*2*******::2256888865222:2:225780886532::::::,,451666800088554<22578rtyutw91>$O.. oo$$>2358qtyipite863222*2",
"000000655<<,,:,:::::;;;;;;:;:::,,,,,:,:,:::::***:*:::::,,,2350etyuutq61&$.  .O+%&,<560qtyppppttww0qqqqqq00006661611166666000000qqqqqqqqqq00665513,,,::::::,2355565532::*2:223556655322*:*******:::::::,<380wtyyyr05,&Oo  .O$%:,<49eriippyre97422,,:::::,224788086513<<358qwtpytw61:$O. .O+$&,,360tttpppptttt0qqqqqqq0qqqqqqqq0qqqq0wqqqqqqqq066144<<<56qrtiitw81>$$    $$&,,360qrppiire722*2222558888752*2*%**%***:22256888865322:::23578888543:::::::11<45566800006654<3338qetyytw911>O. .o+$->2350eryiiyte07322%2*",
"0tt0066653<,,,:,::::;:;;;;;::::::,:,,:::::&:**:::::::::>:,2358qrtuutq6<-$O...OO%&,,460etyppppttrwwqqqqqq00006666166116666000000qqqqqqqwq0000665132,,,:::::,2355665532222::22355665532:::*******:::::,,,<380wtyytr05,$$. ..O$%:,<49errpppyre97422,,:::::,,25780886653<<3560wtyytq61:$O  ..+$&,<368tttpppptt000q0q0q0qqqqqqqqqqqqqqqq0qqqqwqq0000644<<<56qrtiytw81>$O   oO$&:,360wripprre7222*2225788885522%2**%%%**::225568086322::22,248800764322::::1:,<41166880088544<<237qetypyr91>$O.. oO$$>2358qtyiitte8752222*",
"00t6006553<,,,:::::***;;;:;;:::::,:::2:::::*:*:*:::::>>:,,,358etyuutw6<-+O  .O+$&,<550wtpppppttwwqqqqqqq0000006161666660060000qq0qqqqqqq000866113,,,,:::::223556565332*::2223556655322:::*****:*:::::,,,550wtuuyt06>&$   .O$&><379errpppyre97422,:::*:::235580086513<<<580rtuutq61>$O   O+$*:,3680typppptttt0000q0qqqqqqqqqqqqqqqqqqqqqqqqq006614<<<3570rtyitw81>$O   O$%&:<360wrppprr0722*2*2277888775222%%*%%+***2225680886522,:::,3578807542,::::,:11<44556000086554<<<478rtyyyw01>>o. ..+$--2350ettppire07322%2@",
"t8t006655<<<,,:::::::;;;;;;:::::,::,::::&:**:*:::::::>:,,,<358ertuurq6<-$.  .O+%&>,560qtppppuuttwqqqqqqq00000666666166660000q0q0qqqqqwqq000661113,,,:::::,:233566553222::::2556565332:2:********&::,:,,<360wtuutw05>&O. ..O$&&,149erippprre74222::::*::,235888086653<<3580ttuute81&$O. .O+$*,<568ttyppppttt00t000q0qq0q0qqqqqqqq0qqqqqqqqqqq00665<<<257qrtiytw91>$O   .O$&>,360wrippiee7222*2227680877322%****%2*:*22255888865222::22357808855222:::::,,<4456680000655<<<346qwriytw91>$O.  Oo$$>2358eripiyte8522@2@2",
"t06000655<<,,:,::::&*;;;;;;;::::::,::::*:::***::,::,::,::,,458qwyyytq6<&$O  .O+$:,<560wtpppppttwwqq0qqqqw00006666666606000000qqq0qqqqwqq008666113,,,,&:::2,23556655322**:2223556655<2::*:******::::::,,<550wttuut96>$O.  oo$&&,<49errppprr974222:::**::,,25588886513<<3580rtuutq61>$O....+$:,,368typppppttttt800qq0qqqqqqqqqqqqqqqqqqqqqqw00006143<<346qrtyitw64>$O  .OO$%><360wrppirr072222*222888887222****%%***:::33688886522::::,3558807743,2::::,><<55566600086554<<346qwtpyyw96>$O.  .$$$>2358ertpiytq8522%22+",
"06t0006555<,,,:::::&;;;;;;:::::::::::::::&*::::::::,,,:,,,<358ettyytq6<&$O  ..+%&,<160wtpppppttwwqqqqqqq00w00606666666000000qq0qqq0qqqqq00081611,,,,:::::::235566553222*::233556555<222:*******::::::,,,360wttutw96>&$.  oo$&&,377eryppprr9742**::%**:::235560086553<<3580rttute61&$.. .O+$&,2368qpppppptt00t0t0q0qqqqqqq0qqqqqqqqqqqqqqqq00006643<<357qrtyitw64&$$   O$$&:2460wriipir07222*222258807322222**%****:22355888863222:,,23578888553,::::-,,,<<5566000006553<<3478wttyyw01>$$.  .O$->2350ertppyrq85222%2%",
"0000086653<,,>,:::::;:;;;;;;::;:::*::::*:&::&&::,:,,,,:,,,<358qtyyytq61-$.. .O+$&,2588qtppppppttwq000wqqq00000066666000000qqq0qqqqqqqqqq00665111<,::::::**2233566553<::::2,2<556655322:::*******::::,:,<35qtttuur911>Oo  oo$&&,<58eryipirre7422*****::::225688086641<<359qwtyytw61-$O  oO+%&,,3600ttpppppttwt0000qq0qqqqqqq0qq0qqqqqqqqqqqqq006614<<<56qttyutq01:$O...OO$&,,<68triiiire722222233888085532::***%**:::235588886522::::23578088742,:::,::22<35566600086651<<<56qwtputt81>$$. ..$$&&2258etiipire732*%%*%",
"0tt0086653<<,>:,:::;;;;;;:;:;;:;:*:*:*:*:&:::,,:,,,,,,:,,,<358qwyyyrq61-$.  .O+%&>2460wtppppppttwww000qqq000006666066000q0qqqqqqqqqqqqqq00065511,<,:,:&:2*2235656553222:::223565655322::******:::::::,,<550qtuutt91>$oo  oO$&-,<49errppyrr9722******:::,23468008654<<<3569tyyytw61-$O   .+$*,,360ttypppppttw0000q0qqqqqqqqqqqqqqqqqqqqqqwqqq00611<4<<55qqtuutt81>%O. .O+$&,,368qripiir0722%@2235580885332::****%**::2256888865222:,223558087744,2:::>2,,233566060006514<<445qwttut081>$O. ..O$&>2358ertiprre72222***",
"00000866553<<,>::::;;;;;;;:;;;;;*:*:**:*::::::,:,,<,<,,,,,,358qttuytq6>>$.  .O+$:>2468wtpppptttqwqqqqqqqqq00066060666000qqqqqqqqqqqwqqqq00065511<:,,,:::**2235665653222:::22355665532:::*******:::::,,:<360tttuttq61$$o  oO$&&,178eryiiyrr9422***%**;::,245880086551<<1569wyuytq61>$Oo  .+$:,<360qttppppttt0t0000q0qqqqq0qqqqq0qqqqqqqqw0qqq006644<<<46qttyutw61:$O. .O+%&:<360wiipirr0722222235888887532*2*******:22256888865322:::22578808744,::::;2>2223556000086554<<<160wtputt66>$$. .Oo$&&2270ettpprre072*%*%%",
"00000866554<2<,,,::::;;;;;;;:;:;:****:*::::::,,,,<<<<<,,,,<358qttuytq9>-$O. .O+$&,3460qtyppputttwqqq0q0qq000000006000000qqqqqqqqqqqqqqwq00055511<,:::&&:*2223556655<2,:,:2:3355655532:2*:******:::::::<<566qtuuywq1>>O   oo$&>,158erripyre7722*****:::,,245788086641<<159qwyyutw61-+O   O+$&:,560qttpppptttq000000qqqq0qqqqqqqqq0qqqqqqqqqqq000144<<456qqtuutw61-&..  .O$%,,360wriiiire722%2%233588078322:*:**%%**::223688086322:2:222578887754,2::::>:2223556600806644<<4160wttutt01>$O.  .O$&,2270eriippre7222***%",
"00000886555532,,,:::;;;;;;;:;;;:**:::&::::::>,,<<<3<3<<<<,34580tyuutw61$$..  O+%&,<360wtppppuyttwqqqqqq0qq00006606000000qqqqqqqqqqqqqqqq00865511,,::::::**22355565532,::::22555665332:::******:*-::>:,,<358qtuutrq6>$$o  oO$$>>158eriipyrr944::;****::,,355880886611<<1669wyyutq61-$O   O+$&>2360wttppppttqq00000qqqqqq0qqqqqqqqq0qqqqqqqqq0006114<<1660ttuutt61>$o   .+$&>,368qiiiiir072222%223780885532****%%**::22236800865222:::235588887542,:,::;:2:22356608086554<<<160wtyuyt64>&O.  .O$%:2277rrrpppre7722**%%",
"0008888885554332:,::;;;;;;;;;;;;*:**:::::::,,,<3355553<<,<<358qwtuyww61>$.  .O+$:><560wtppppuytqwwqq00qqqqq0000060660000qqqqqqqqqqqqwqqq008655<<,,,:::*:*2:23556655322:::2:23565655322,::******:::::>>,<568ttyuur96>$Oo  oo$$>>178eryiiyre972,:;***::,22355580086511<<119qrtuytq61-$oo  .+$:,2460wtypppptttq0000000q0qqq0qqqqq0qqqqqqqqwqwqq06014<<<116qqtuttq61>$Oo .O+$%,2568rriiiree73222222378088532:2:**%****::223688886522:2:222568008754,22::>22>2*2355680008554<<<180wtyutw05>$$.  O$$&:2577erppprre7322***%",
"08808888868555322:::;;;;;;;;;;;;****::::::,,,<<35555553<,,2358qttuyt961$$.  .O+$&,<360ttpppputttwqqqqq0qqqq0060606000000qqqqqqqqqqqqqqqq008655<<2,,,::::::22355666532:2::222355666532:::*****:*:::::::,<3600ttutr96>-Oo  .o$->>148eryypyre8522::;:::,,<2558880086511<<169qryuutw61>$O  o.+%&:<460wttpppptqq00000000qqqqqqqqqqq0qqqq0qqqqqq0000015<<<<560ttuutq81>$O. ..+$:,,360rriiiir0722%22225788887532*********:2225668886522:::,,35580887544,:::2>;:22233568000655<<<1160ttyutw01,&O.  .O$&&2277erppppre7222****",
"088088888888554222::;;;;;;:;;:;;**::*::::,:,<<555666555<3223580ttuytw61>$O  .O+%&><560qypppputtqwqqq0qq0q0q0000006660000qqqqqqqqqqqqwqq00086551<,,:::::::::23555655322::::233556653322::********::::,,,<360tttuur911$$o  oO$$><178rrrypyre852::::::,,,<3555600086611<<116qwtyutq61>$o   O+$:>,460wttppppttt000080000qqq0qqq0qqqqqqqqqqqqqq0000015<<<1160qtuutt81>$O. ..+$%:2360eriiiir73222%2235588887332*2**%*****:225680866322,,::235688087444,42:;:::*22335580888554<11168qtyuyw81>$$   OO$&,227errrppree522*2**+",
"8060880808008611,,:::*****:*:*****:*::::,,,,3355668665531<<358qwyuutw91$$o   o$$&,,560wtyppppytqq0q000tt6800880060660000000wqqqqq0qqqqqqt666553<,,,::::::::<3555565332::::2235566533322%:*****:::::::,,<160wtuutt06>&$.  .O$&-,<49eryppiree7222***2*2244446990086543<<356qttyytw6<-$o   OO%%>346qwwuppuutww006000000qqqqq0qqqqqqqqq0qqqqqqqq006116111560ttuut001>$O   o$$&:,360wtyyptr06222*22258808853322@2+*****::223688886522::2:225660086553<:,,::::::<<25588088651<<<360qtyuyw91>$$o  o$$$&,<50qttypyre8522**%*",
"66068800000086613,,&*:****:****:*:*::::::,,<<355688086543<<358qttuuw96>>$o  oo$$&,<360qtypppuyttt0qq6t686t8t00060600000000w0qqqqqqqqqqqq0066533<,,,:::*:::,235566653222::2:235566553222*********:::::>,<160wtuuut011$Oo  .O$&-,358errppyre7722***2*2>444776990886554<<356qwtyytw61-$oo  O+$*,,360wttppputtw00066000qqqqqqqqqqqqqqqqqqqqqqqqq000111111560tttutt61>$$   oO$&,,360wtypptt07222%%22258088553222@*%*%**:22355888855322**2235560086653<<,::,:::::,25688086553<<1550ttyutw911$oo  oo$&><450qtyyptrq732:2**@",
"6866880000000661<,,::*******:***:**::::,:,,,<556888086541<<3560ttuutw61>$oo  o$$&,,560wtppppyttwtqqq000008000000600060000w00qqqqqqqqqqqq0886533<,,::::*:::22355665552:::::22555666532********:*:::::,:,<160wttutt65>&$.. .O$$-,358eryipyre7722***222,444476999q86544<<356qttyytw61>$o  oO+$&:,360wtuppputwq006600000qqqqqqqqqqqqqqqqqq0qqq000666111111800ttutw61>$O   oO$&:<360qttyyyr06222%2222588077532%*2***+*:*:223680086522:2:2225580086633<,,,,:::::,,255680065531<<560tttutw91>$o   o$$$><450qtypiytq8322**%%",
"86608800000006653<,:::*:*:*:**:****:::::,,,,<356600886543<<3560wtuytw11$$o   o$$&,3360wtppppytttqqqq06t0t600000600000000000wqqqqqqqqqqqq0886553<,,,::::::2:335565553222*::,235565553222********::::::,,<160wttuut85>$Oo ..$$$>,358erriiyre922**2***2144477699q88654<<<348qwtyttw61>$O   O+$&>3560wtppppuuw000006000q0qqq0qqqq0qqqqqqqqqqq0000661111>1580tttutq01>$O   o$$&,,360qttupye072222222288088752*22+******:22256888883222:::225680886663<<,::::&&&,,25688088653<<<360qtyuyw911$$o  oO&$-,<50qttyptrq732:**%%",
"86688880qqq006653,,:::::&:**:**:***:::,::,,,<556000066633<<3580tyuyt991>$o  oo$$&,,5600tpppppptwt0q0q0t8qqq000000000000qw0qqqqqqq0q0qq00886533<<&,::::*:::22355565532:2:2:,23556655322**:*******:::::,,2559wttutt01>&o. ..+$&-,348eriipyrr97222**2222244568899096554<<347qrtiitq61-$Oo  O+$&:<560wtupppptwwq00600600qqqqqqqqqq0qqqqqqqqq00000066111>1560wtuutw81>$oo   +$&:<360triiptre7222@22275808855222***%%***::235588886522:::2223680086653<,,,,::&:::233580006613123466qttyyw91>$o   oO$$>,468qttppire8722***%",
"888880000qq006653<,::::::*:*:******:*:::,,,<3356600006653<33580ttutt961$$o   o$$&,,560qtpppppptwt0qq8t000q0q0000000000q0w0qqqqqqqqqqqq0088655<<,,:::&&*::::23556655322::::,2355665532:::******::::::,>,,569wttuuq051&$.  .O+&:,378eryiiyre9722****#2224456600098654<<<358qrtiitw61>$oo oO+$*,<450qtupppptwqq066000000qqqqqqqqqqqqqqq0qq000006661111>1500wttutw01>$O   OO$&,,360qtipitr8722222223880887332*2***%***2:2256888865222:::2356880866533,,:::::::::35588888663<,3480ttuyyw011$$o  oO$-><<58qtypprrq7322****",
"68688800qq00006533<::::::**:**:*:*:*:::::,,,3356600006531<<356qttuutw61>$.  oo+$&,2360ttppppputw0qq00000qqq0000000000qqq00qqqqqqqq0q0000885533<:::::&:&::2223556655322::2,2235565533222*:******:&::,:,,116qwttuut011%O. ..O$$:,358erripyre742*2**2222244566800996544<<457qrtiytq61>$o   O+$&:<460qwuppputtwq06060000qqqqqqqqq0qqqqqqqqq00000016111111560rtuuuw81>$O   o$$&,<3600riiitre722@2223758888553*2*********2225588885522:::2235688086653<,,::::&::2225560086151<33550wttutw911-O   o$$$><458qttypire8322***+",
"88888800000006553<<,,,:::::********:::::&,,<335660006655<<<356qttuutw6>>$o  oo$$:,2560qtppppputtqqqq00t8qq000000q0q00q0q0wqqqqqqqqq00000885533,,:::&&&:*:*2235566553<:2:::,23556653222:********::::>:>,,560wtuutw05>%+. ..O$&-,348rriiiyre7422**2##2224456889098655<<<<58qrtiitw61>$o   .+$&,<460qtuppputwqq00600000qqqqqqqqqqqqqqqq0qq00000606111111160rtuutq81>&O    $$&:,550triiitr072222@233888885332*****%****:2255880865322:2::356800885533,,,,::&:::2336880886441,3460wtuuyr01>$Oo  oo$->,<60wttpprre722@2***",
"866888600qq0086633<,:,:::::*****&&:::&&,,,,<335660006653323358qttuytq61-$.  .o$$&,<550qtppppttttwwq0q00qqqqqqqq00qq0qqqqqqqqqqqqqq0q000066113,,,:*******:2:23555555332::*222355665532::::*****:*::::,:<<16qqttuut961$$  ..O$%:,377eryiiyre8422*2::,,<115666900086544<<458qttyytw61-$O...o+$-><460qwppppptwwq0060600000qqqqqqqqqqqqqqq00q000066111<,<156qrtuttw81>$O. .oO%&,,360etiiirre7222**223788075532*2*%%%**:22225560886322:2:2,35588886553<,,,::::@2%2355800065543<3550wtuyyw81>$$. ..O$&-227errppppre7222%%%%",
"68686600000q086653<,,,,::::*::**:&::::,&,,,<335660000661332358qrtuyrq9>-$o  .o$$&><560qtppppytt0wqqq0qqqqqqqq0qqqqqqqqqqqqqqqqqq0qq0000666663<:::*********2235566653222:**223566655322::*******::::::,,<16qtttutw91>$$  ..O$%:,378ertiiyrr7722**:&,,<11156880008654<<<<480wtyytw61-$O. .o+$$,<45qwtuppputtq0066060000qqqqqqqqqqqqqqqq000000066613<<<1560rtuutw81>$O.   $$&:2360etiiiire772*22222780887522****%%****:2256880865222:::2356800086533<,::::&2@2233580600653<<3480wtuyyt65>$O. ..$$&,2277rrrpprr077222%%%",
"6666680000q000665533<,::::::***:&:::::,,,,<3356660006651322358qryuytq61-$.. oo+$:,<360ttpppputttwqqqqq0qqq0qqqqqqqqqqqqqqqqqqqqqqq00000606113,,,:*******:*22355665532:2:2*22355665532:2:********&::::,,<18qwtuuurq11$o. ..O$%:,358eryyiyre842*2*:,,,115666990088655<<<<56qwtyytq9>-$o.  o$$>>,560wttpppuww00666600000qqqqqqqqqqqqqqqq000000666613<<<146qwtuutw61>$O   OO$*:3550ertiiire7222*22277808775222**********:33888885532::,,,35580886653,,2:::::@22223586066554<<<558rttytt61>$O.  OO$&:2277rrrpppre72222+%%",
"66666660000008666533<<,,2::*:***:::::,,,,<<3556800000653322338qrtuytw6>-$.. .o+$&><5600tpppputtqwqqqq0qqqqqqqqqqqqqqqqq0qqqqqqqqq0qq00006661<,,>:*******:2:23556655322::*2233556555322*::*****::::::::,<169wttutr06>$$o  .O+%:,<58eryiiyre8722**:,,,151666890008655<<<4560ttyptw91-$o  .oO$-,,450wtupppttw0006606000q0qqqqqqqqqqqqqqq0q0600666611<<<1460ttuutw01>$Oo  o$$%:2360rtipprr0722*22224788887522*****@****22255880855222:::23568808655332:2,:::%%2225580006554<<<360etuttt85>$$. ..O$&:227errpppire722*%2%%",
"55666666000000066555332,:::::***::::>,,,<3555668000006533323580ttuutq61-$o  .o$$&,<3600tpppppyttwqqqq0q0qqqqqqqqqqqqqqqqqqqqqqqqq0q00006665111,&:*******:::2355565532,2:*:223556653332********:*::::,>,<190wtyutt911-$.  oO$&-,376eryiiire9722*2::141566888q0009653<4,458qryuytw61-$o   o+$&><560qttpppuwwq066666000qqqqqqqq0qqq0qqqq0q0006066613<<<156qwtuutw81>$O  .OO$%,,468etipiir0722*2*2477808775222****%%**2*235788885532:::2<356800805552*2:2*2*22*223786066554<33370etiutt65>&O.  O+$$:2378rrppppee7722:*%%",
"555556600000000086655322,:::&::::::2,,333355688000q06653323358qrtuurq61-$o  .o$$:><566ttupppuyttwqqq0q0qqqqqqqq0qqqqqqqqqqqqqqqqqq00000066551>,&:*******::223556665322:::2:235566553222*:******::::::,,<169wtuuyw96>$$o  oO$&>,178eryiiyre7422*2:1,416668808q009655<,,456qrtyytq61-$o  .o+$&><160qtupppttwq066666600qqqqqqqqqqqqqqqqqqq0000601163<<<116qwtuutw01>$Oo  .$%%,,360eriiptr07222*2224780877522*2***%%***22357600865322:::,3556808655322*:%*%%%%*235780006554<23460rtyutt64>$O.  .+$%:2278rrrppree7722:*%%",
"5515566600000000886653322::*&&&::::,,<<3556688000q00065533,4580ruuutq61-$o  oo+$&,,560ttpppputtqwwqqq00qqqq0qqqqqqqqqqqqqqqqqqqq0q00000066611<>>:*******:222355655532,::::22555665532:**********::::::,<169wttuyt96>-O.  oo$&&,<48erriiyrr9422**::245668000qqq89655<4,4460ryyytw61-$o...o+$-><45qwwpppptww0616666600qqqqqqqqqqqqqqqqq0q000606611<<,<1660ryuutw61>$O   OO$&:<468wtiiiire75222*22278887722*2***%*%****2255888855222:2:,355800866532*2%2%2%%22233560006553323360ettttt81>&o. ..O$&,2358errpprre722*:*%%",
"115151656000000000886533:2::&&::::,2<<355668886tqq006654<,3458qrtuurq51-$o   o$$&><550tuppppttttwqqqq0qqqqqqqq0qqqqqqqqqqqqqqqqqq0q00000861511>>:*********233556655<2,2:::2235566553222*:******:::::,,,<169wtyuuw96>$Oo .oo$&&,376eriipirr972*2*2,4468800qqqq0896544<24580rtyytq61>$O. .o+$-><460wtupputw00661166000qqqqqqqqq0qqqqqq0q0006066661<<<<116qwyuutq01&&O  .OO$&,,460wripirr07222*2222788077222*****%%***2225580886322:::2<3566000655322222***%%%235586006553322560etittt86>&O.  OO$&:235qerppppee7222:*%%",
"1115555668000t0000008551,,&&::::,:,,<336668000qqq0008611<<<358qttuurw11>$.. .o+$-><460wtppppppt0wqqq0qq0qqq0qqqqqqqq0q0qqqqqqqqq08000008865522:2:****%**:22225666553322*::223566655322::**;;;;;;&:::,,,<360wttyyw91>$$.  oo$&&,<49rrrpprre974:::,,446890qqqqqq086533<<<56qttyytw64&$O.  .+$&><360wtuppytw08615555680t800t000qqqqt0q0000000068554<<<<<55qttyptq6<>$O. .oO$&,,380wriiprr0722*22225778887332**2*******2222288088322,::223368088665<<,,,&:::*:2223680006611333460wttitr04>&O.  OO$%:2278erypiiee7422@**@",
"11<<<5566000000tqq000651<<,,:,:::,,,<3356880qqqqq0006661<<<3580wtuutq91-$o  .o+$-><46qwtpppppyttwqqqq00qqqqqqqqqqqqqqqqqqqqqqqqq0t0000088653<22::**********22355665322:::2:23556555322:;**%%;;::::::::,,368ttyyyt96>$$o  oo$&-,<79erippire74422,2245880qqqwqqq086533<<<56qttyptw6<>$O  .O$$&><360wtuppytw06551155680080000t0q00q0qqqq000606666143<<<<56qttyytt63>$O. . $$&,<360wrippir07222*2225780887532*****%****22277888875222::2225680086655<,,:::&:**:2335660065533,<550wtuptw04>$+. ..+$&:,259erypiire84222**@",
"11111155686000t0tqq00665<<,,,:,,,,,,3356880qqqqqq0066511<<<356qtuuutq9>>$.  .o$$-><450wtpppppyttwq0000q0qq0qqqqqqqqqqqq0qqqqqqqq0t0000886653<2:::***%**::*223566655322:2::2235655552,,2::*;;;;;;::>:,,,<360wtyyyt96>$Oo .oo$&-,149erippirr9442:,224789qqqqwqqq08653<<<3560wtyytw61&$O.  O+$:,<560qttppptw065151156600000qq80qqqq00q0000006866554<<<<355tqttytt01>$O.  OO$&&<360wrpppire7222*2233688877332*2**%%*****222788887532::::23368000665<<,,,,:::*2*233580066611323460ettiuw01>$+.  OO$%,,379eryypirq7722@**2",
"11<<15556606000000qq00655<<,:,,,,,,<33568000qq0000066651<<<358qttuurw11-$o  .o$$-><56qwrppppuytqwqq0000qqqqqqqqqqqq0qqqqqqqqqqqq880000086653<22::*******:222355555552:::,:,2355666532:::**%;;;;::::::,,2360wtyutt911>$o .oo$&-,179rrripirr74222:224780qqwqqwq0086553<<3560ttyytw61:$O. ..+$&,,360qtuppyww06511115568000tqq00qq0q00q0006006865554<<,<3550tttytt61>$O.  .$$&,,360wrppprr07222**2356880873322***%%%***22277888865322::223566806665<<<>,::::***225660006653333460rtuutw01>$+.  .O$%:,35qeryypire84222**@",
"<<<<155566tt86t6t0t0086655<<<11>,,,<<355880qqq08888651112<<3560wtuttq11>$o  .O$$&,2460rruppptttw000000000qqqqqqqqqqqqqqqqqqqqqqq000000088653<2,,:*******:::2336665532:2:::,2<56656532,:::***;;;;::::>>,,360wtyyyrq1>$Oo ..O$$>,149erippirre74412245780qqqqw0q0006533<<356qwtuutq61>$O. .OO%*,,360wttuuttq855<<<<35680000qq0qqqqq00t60000666655<<<,<<<560ttuutt51>$O.  OO$&,,360wriiptr073222%223688887522*****%*****225588885522::::223600006653<,,::::&**2225588006653323360wtyytt95>$$.  Oo$%>,35qerypiyre953,*2*@",
",,<<<1556666tt6t0000000666551111<<,,<3568800000886655111,<<358qttuytw91-$o. .oO$&,,560eyupppyttq00000000q0qqqqqqq0q0qqqqqqqqwqqqt80000086655<2::::**%**:::223556655322:::2,2355665532:::****;;;:&:&,:,,<488rttytwq6>$$. ..o$$>>149errppipr97411,245680qqtqwwqq086533<<356qttuutq81&$O.  O+$%,,36qwtuputtq653<<<<35666000q0qqw0qq000006666665554<<,,<<558ttyut861>$O.  O$$&,,550qiipiir07322*2223780067522****%%%***222578808632222:2225660066553<,,,,&::***235580086533323550qtyutq95>$O. ..O$&>,276ettpiyrr95422*22",
",,,<<31566t66tt60000000886665111<,<<3355880000886655311<,<23580ttuut991$$.. .o$$&,2560rrypppyttq00000000qqqqqqqq0wqqq0qqqqqqqqqqt00t00088655322::***%***:222355565532,2:::223555655222::****;;;:::::>,,<460wtyuywq11-$o  oo$&>>149erippiree75441455680qq0qw0qq086533<<3580ttuute61>$O...O+$::<360rtupptwq853,,,,<56600t6qq0q0w0w0000606665555<<<<<,<<56tqtyutq61>$O   oO$&,,368qriiitr05222%222568888552*2***%%****2222788886532::2:22566006665<<,,,,::&*22233588006653<23460rttutw95>$$. ..O%&:<35qettppyre954,2@2@",
",,,<<3155655t66tq00t0000886665513<<<335580000086655531<,,223580tyuutw11>$o .oO$$&,2479rtpppptttw0000000q0q0qqqqqq0qqqqqqqqqqqqqq80060008665332:::****%**:*223556555<22:::2,2356665532:2::***;;;;:::::,,<468wtyuttq1>$$.  .O$$><177errppiire75541455680qqqqwqq0086633<<1180wtuut061&$.....+$&,<560wtuuutt083<,,,,<55666660qq0000000060666665154<<,,<,<560ttyytt81&&O   o$$&:,360triipir0522%222256608855222****%%+222225780885522:2::2256600066553,:,::::**2223580886653<22560etyutt85>$O. .OO$%>,376ertppyte974<22*2",
">,,<<33558000t88qqqqq0q00000665133,,<555600008865511<<<<,<<<58qttuutw9>$$oo oo+$&,<57qettppptttq000060000000qqqqq0qqw00qqqqqqqqq00t68t6666553,,:********::22<555555332::::2235565553222%:;***;;:&:&,::,<460etyiyt61>-O.  .O+&-,349erriiitt096111156680qqqt000000654<<<356qrtuytw61-+o. ..+%%,,38eeripitrq6322%22<356686t00006t000088866555444<<,,,,<156qqtuut061>$O. .oO+%*2270erpiprre7222222256808655322@2*%*%**222235708875322:2:223668088553<,,,::&&::,225588086651<<<460wtyutt611$o.  oO$&><368eryppyre975<2*2*",
",,,,,<355880888tqqqqqqqqqq00065533<3<355688008865511<,,,,,<358qtyuytw11>$o  oo+$-><379etypppttwq0000060000q0qqqqqqqq00w0qqqqqqqqt08688666653222:*********2:235566653222:2*2235666653222*;;***;;:::::,,,3360rtyitt911$$o  OO$%>,<49eriipittq98151516600qq00tq0008654<<<359qrtuytw61>+o  .O+$*,<360etiiiir052222**<355666500000000088666655444<<<<,,,<416qttuutt81>$O. . $++22370erppiire7222%+22258088653222+**%*****225788085532::*2225680088553<<,,,::::::,33588088551<<<568ttyuyt91>$$.  oO$&:,358ettppite96422*:*",
">>>,223558800t08qqqqqqqqqq00066533<<1355600088855411<<,,,<<<588tyuyww91>$o  oo$$:,<56qetppppyttq000600000qqqq0q0qqqq0w0qqqqqqqqq8t6tt88665533,:::********2:2355665532:::*:223556555322**;;**;;;;:::::,,,550etyiyt66>-Oo  OO$%-,<78eriipittqq8515556680qqqqqq0006644<<<<56qruyytq61>$O   O+$&:<360etipite0732*22*,<35666t0000006688866555442<<<,,,,,,<16qtttut081>$O   OO%*22570eripire0722%22222788065522%%%%*%****2225778888522:2:22256880866533,,:,&::::,2255680885531<<360wtuutq911$$.  .O$$>,568eryipyte065<,,2:",
">,>,,<<35560000t0q0qqqwqqqw0066553<3115666008865531<,<,,,,<3560ttuut99>>$o  ooO$:><36qetppppytww00606060q0qqqqqqqqqqqqqqqqqqqqqq8888688665332,,::*******::2235566553222:*223355665332*2*;;*;*;;;:::::,,<360etiitt86>$$   .O+&-,377eriippttq861515568000qqqqq00066543<<159qwtuytw61>$O  ..$$&,,38eeripiir08322**2,<356666600008t886665555432<<,,,,,,<456qqttutt81>$Oo  .$%%22270eiiipiee72222222278088552222%***%%*%22255880853222:::2256800886533<,,:,:::::,25688088653<<336qqttuuw81>$O.  o+$&>,358ertipyte8753,2,:",
"&,:,,,<355888000qq0w0wqwqwqq006533<<<5366t00866543<<,>,>>,<<500tyyut991$$o   o$$:><46qetppppptwq00060000qqqqqqqqqqqqqqqq0qqqqqqq00t8686655332,2::*******:::2355565533:2:::223566655322**:**%**:::::::,,2360etyiyw01>*O.  OO+=-,348erripitt0866151566000qqq000086611<<<156qwyyytq11-$O   .+%%22570etipite8722*2*2,,3556688080t588666555333<<,,,,,>,,,116qwtyytw01>$O  ..O+*:227eeriiprre7322@2225688067522%%*%*******225780087532:::22256808086553<<>>::::::2235800885431<3550tttutw91>$$o  o$$->,350ertppytw064<3,:,",
"&,:,,,<35558006t000wqqqqwqqq006553<5<5566600086541<<<,,,,,<3560tyuut961>$o  oo$$:><46qerypppyttq00606000q0qqqqqqqqqqqq0qqqqqqqqqt8686666553322:::*******::223556665322:::2:2355665332:::;******&:::::2,3460eryitt05<%+o  .O$=-,<77eriipittq86161566680qqqqq000865511>1156qrtpytw91>$Oo  .+$::2370etipite0722****,<355556688888866655555<<,,,,,:>>,,,156wttyptq61&$Oo  O+$*,,270eripiire72222222558088552222*******2*2237880883222:::2336880066553<<,,,::::2:33580806653<<<550qtuutw911$O. ..o$$><358etyppyte075<,,,,",
"&::::,,3358880000000qqqwqwqq086553<<33566800866541<<,,,>,,<<58qttyyww6>$$o   o$$&:<46qetypppytrq060600000qqqqqqqqqqqqqqqqqqqqwqq605866555332,::::*******::22355665532,::::2235555553222*;*****::::::,:23460etuitt64,%+.  oO$%:2358qriippttq061151566800qq0000866611<<<166qryyyrw91-$O  oO+$&:2370erippte07222:::,,<1555666888866665555<<<,,,::,:,>,,1580wyyytw81,$O.  O+$&:<77errppiree7222%223568888652*2%*******22222788087532:::2233688088655333,,:::::2235588088655<<3560tttutw91>$O.  oO$->,460etyipyte0754,,>,",
"&&::,,,335888000w0w0qqqqqqq00866535<55666000066543<,,>,>,,<<50qtyyytw61>$o  oo$$:><560etypppttrq00606000qqqqqqqqqqqqqq0qqqqqqqqq00t886553322,,::::*******2233556653<222:,:,23566663222:*:*****&::::::::3360etiiit05>&+o  OO+%*2348eriippttq06551556600q0qq008866511<<<116qrtyytw61>$O   .+%&,2570etipptrq722*:*2,><<1555668686666655<3<,,,::,:::::,<1180ttyptw81:%O  ..+$&,,270rrpiiie0722%2%225680865522%***%+*****2237888755322:2:,256800086653<<,:>,&:::233688006541<<<360qttuuw911$$.  oO$$>,358qrtppyrr9642<,,>",
"**::&,,<1566880000qqqqqqqqq0086651511566600088553<<,,,:,:,2358qryuytq61&$O  .O+$&,<470rripppyyr0006060000qqqqqqqqqqqqqqqqqqqqqqq000666554<<,,:,:::******:::235666553322:::225556555322**:******:*:::,:<<558tttytt911$Oo  oo$&&,456qttyppttq96555556680qq00088866533<<<356qttuytq8<-$O  .O+$%,,560qttpyte08222*2@:24444455776766655543<<,>2;::::::,,4456eryiytw61>$O. .oO$&&<550wtuiitr062222222588088752222****%***22357888855222:::,35690008665332,2::,***235668088554<<246qetyytt81>$O   OO$&,23580ttpyttt0633<,&,",
"****:,,<11668800qq0qqqqqqqq0086655555568800088553<<,,>,,,,2358ettuyrq61&+.  .O+$&,,569ryipppyrrw06060600qqqqqqqqq0qqqqqqqqqqqqwq000066514<<<,,:::**%****::,23455655322:::2:235566653222:******:*::::::,<566tttytwq6>>Oo  .O$&-,<50qwtypyttq065555566000qqq00886663<<<<<58qttuutq64-$O.  .+$:,<360ttypitr07222*%2:,,,1444577666655443<<,,:2::::::::,:2460rtyiyq91>$O. . $&&,<360wtypuyr06222@@222588087522****%******233588085522::,,,35598088665533<,,,::*2*23568086554<<<570etyytq66>$$.  .O$&>2350qtyppttq055<,,,,",
"**:::,,<165688000q0qqqqqqq000886655556680000065533<,,>,>,,2358eryyutq61&$.  .O+%&,2470rripppyrr0066666000qqqqqqqqqqqqqqqqqqqqqqqt00605554<<,,:::::******::22356665532:::::22356555532:**:****:*::::::,,<3600typyrq11$Oo  oO$&&<158qttpppytw09555566900qq00088666533<<<<560qtuutq61-$O   O$%&:<360wttiiyre732*2**:,,,,44455555655543<1,,,>::*;::::::4457ertiiyw81>$Oo  OO$&&<360wttuutr0822*22222888875522*****%%***22257888865222::,,35660009655332,,:::2*2223568886554<<<55qettutt61>$O.  OO$&:,350qtyypttq0553,,,&",
"**:::::<1566600000qqqwqqqq000088565566660000865533<,,:>>,,23580ttuutq6<-$O. .O+$&,247errypppyreq066660600qqqwqqqqqqqqqqqqqqqqwqq6068565143,,:,,:*******::,,234566553222:,:,235566553222:*******:::::,:,<360ttyytw96>>oo. oo$&-,156qttpppytwq9656666900000q088666533<,<3580ttuute8<-$O. .OO$&,,360wtypytr87522*@2:::2,4,45555555543<<,,,::::::;:::::12560ryiiyw81>$O   .$$&,,350wttuutr07222*2222580885522*2**++2***22356880855222::,2355980899655522,,::**2233568888544<<255qetyutt05>$$   .+$&:,358qttppytt0633,,,,",
"****,,,<15588800q0qqqqqqqwq00008866666000000865533<,,,,,,,,358eryuutw6<-$O  .O+$&><56eeyyppprrr9661666000qqqqqqqqqqqqqqqqqqqqqqq0008655533<,,,,::********2:2336665532:2::,,2<566655322:*:*******::::,,,<360qtyyyr91>$O.  oO$$>>150qrtyppyttq08666680q00q0000886554<<<<346qrtiite61-$O...O+%&:<550rttiiye0722*%**::::*222<5555544444,:,::::*:*::::,,,<59ertyprw91>$O   OO$&:<360wriiitre722222227788807322****%%+**2*223588887532:::2,4566000885533<,,::,:*:22356606655<<<3460rtyuyt64>&OO  OO$&:,368qttppyt08653,,>,",
"****&,,,155688000qqqqqqqqqqqq000886888000000866533,,,::,,,<358qttuurq6<-+.   O+%-,<460rryppiyre9666666600qqqqwqqqqqqqqqqqqqqqqqq0088665133<,,,:::******:*::23557665322::::,2355665332:::******::::::,:,<560qttytr061-$..  o$$>>156qrtppputt0q88896800qq00000888554<<<<358qrtiitw61-$O. .OO$%,<460wtypiyr07222%**;;:2;2*2<<44544414:4,:,::::*::::::,,<56qrtyyyq91>$Oo  O$$&,,360wtiiitre7222@2233888875522*2**%%2***22355880855322:::,455600088655<<<,,:::2*23356666654<<<<460wttutw84>$$   .O$&:23500tyypytt0633<,,&",
"****&,,<<56680000qqqqqqqq0q000000880806tt8t6065533<,,::,,,,358qwyyytq6<&$O  .OO%:,,560etyppiyrq9661666000qqqqqqqqqqqqqqqqqqqqqwq00886651332,:,:::*******::2235576553222*::223555655322:::******:*::::,,,360ttyuyrq11$$.. oO$->>156qwypppuytwq008990000q00008888554<<<<<58qttiytq61>$o.  O+$&,,460rtuiitr07222%***;*22;22<4441441:4:::::::*:**::::,,,<460ryyytw61>$O   OO$&,,3500riiite07222*22378888772222***%%****22356808885222::2,4168609866544<<2::::::22355666654<<<2560wtyuuw04>$$.  Oo$&:,550qttppytq063<,,,&",
"***:>>,<1566888000q0qqqqqqqqqq000000088866t6065533,,,,,,,,<358qttyytq6<&$O.  O+$:>,560etyppyrr986611160000qqqqqqqqqqqqqqqqqq0w0qt0066661322,,::::***%****2223557555<2,::2:22356665332:2:*******::::::,,<360qtyyyrw1>$$.  oO$$>>556qtypppuyttqq009000qq0qt008888554<<<<3560rtiitq61-$O.  o+$%,<550rttpitr0722%2*****;::2*,<<44<<<4:4::::::**:*:::,:,,156ertpytw91&&O    $$&:,560triiiiee72222@23358807722*2**********233588885322:::,,156890088655<<<:2:*2:::2356666654<<<2550wtyutr84>&O.  .$$&:,3580typpyt00553,,,,",
"**&:::22166688000q000qqqqqqqq0qq0000qqqq0000665533,,,,&,,,,358wttuytq61-$.   O+%:><46qwtypptteq86116610000qqqqqqqqqqqqqqqqqqqqqq0088665531<>,:::********::,235665653322:*222355665532::::*****:*&::::,,<550wtyiyw01>-$.. .O$&-,356wrtippppyrqqqq000qqqqq6008886653<<<<356qwyyytw61>$oo  oO$-><46errppprr07222******@*222,,,42222:,::::;;;;:;;::::,:,149qrtyptw91>$O. .oO%&,,550etiiipre72222*223880887332:****%***:22235888855322::222478008886144<<,::::::22235666653<<<<160wttutr911$O. .OO$%:,368wttyputt66533,,>",
"****:2:21116888000000qqqqqqqqqqq0qqqqqqq00t606553<,,>,>,:,<3680wyuytq6>-$O  oO+%:><57qwtyppitrq5611110100qqqqqwqqqqqqqqqqqqqqqqq0088653331<<,:,::******:::,23355665322:***223566555322:::******::::::,,<360wtiitt05>$O.   +$&-,376eripppppyrtqqqqqq0qq000808666553<<<<<59qrtyytw61-$o  oo$$-><46errppppre7222****@*2**@2:,222222:,::;:;;;;;;::::::,,475qryyytw61>$O.   $$&:2360rtiiirre7422*2222588085532::***%***::2255880865322::2,24788008866544<,,,:*22:2<55566553<<<<180wtyuyw91>$O.  .+$%,<358qtyypttt86533,,,",
"****:,221156668800000qq0qqqqqqqqqqqqqqqw0t0066533<,,,&,,,,,3580ttuyr961>$.   O+$&><470wtyppyre086166610000qqwqqq0qqqqqqqqqqqqqqq00086661<<<>,::::*******::223556655322:22*22355665532:2********::::,,:,<550wtyiyt651-+.  .O$$-,356qrpppppyyrwqqqqqqqqqq000666655333,<<<56qrypytq61-$oo .o$$-,<46eerpprpr07222***2@***2**1:2,2:2@2>::;;;;;;:;:::::,:4146wrtyptw91>$O  .oO$*:3360eriiipr0722*22227888887322*:****%**2*235688885332::::23578000886554<<,,,::::22<36565535<<<<160ttyuyw91>$$.  OO$%:,3680ttptuttt6633<<,",
"****:::,111566880000000q0qqqqqqqqqqqqwqq00t00555<,,,,,,&,,<358wtyyytw91$$O   O+$:><47qwtyppytr08111110100qqqqqqqqqqqq0qqqqqqqwqq00886615<<,,,:,::*******:2:2355565532:::*2233556655322*********:&::::,,2360wtyiytq1>$$.  OO$&-,357erpppppyyttwwqqqqqqqq00806665553<<,<<56qrtyytw61-$o  .oO$-><46eerppprre722****#******22::2:222::::;;;;;;;;:::::,:1446qryyytw91>$Oo  o$$%:2370etiiprre7222*2224580887532:2***%****22256880885322::2,35780000866554<<,,:::::22356665533<<1560wttutw91>$$.  .+$%:,350qttptttt666533<<",
"***::2:211156660600000000qq0qqqqqqqwqqwq000086633:,::,:,,,,358qwtuuww61-$.   O+$-,257qwtyppyteq66111610000qqwqqqqqqqqqqqqqqqqqwq00066511<<,,,&::********::223556655322::*:2235665553222*:*****:*::::,,,,360ettitt65>%+.  .+$&&,358qrtippppttrqwqqqqq00008666655542,<:1456qryyyyq61-$o   oO$-><46eerppprr7722*****#***:::::4:2*2*:::;;;;;;;;;::::::,,118qrtyutw91>$O  ..+$&>,468eripiir07222*2227888875532*:***%****:223568085522:2::2357000008865554<,,:::2:235566653333>1569wryyyw01>$$.  OO$&&2350qrtpputtt6655333",
"***::::2>1551166666000000qqqqqqqqqqqqqqqt0008653<,,,:&:::,2358qtyuutq61$+O  oO+$::<37qwtyppyteq6661666660qqqqqqqqqqqqqqqqqqqwqqqq0066511<<,,,::::********::2355566532:22:2:23556655322:*********::::::,2360ettiyt85>%$.  .O+&-,<58qrtippppttrwqqqqqq00q0006655514,<,11449qryyytq61-$o. .o$$&><467errppire7222******:**::::::*2@2:::;;;;;;;;:;::::,,<158qrtuutw61>$Oo ..+$&><360eripitr0722*2*227580085332*:**%****:22255808865222::2:3466000008685542<,::::223356665533,1116qwtyuyw06>$O.  .O$&>2358ettppuut8t666555",
"**&::::211116166660600000qqqqqqqqqqqqqwq00008653<:,::,&,,,2358qttuyt961>$o   O+$&:,57qwtyppyteq76111166000qqqqqqqq0qqqqqqqqq0qqq00065511<,,>:::::*******:222356655532,::::22355565532*:*:******::::,,,22380rtyiyt85>&O.  .O$&-,358qrtipppptrrwqqq0qq000080665513,1,1:4448qryyyyw61-$oo .o+$->,16erpppprre722*****#**:*:::::,2***::;:;;;;;;;;:::::>,,1199ttuutw91:$O. ..+$&:<460wtiiiire7222*2224888887532***%****:*:225668886522::2:23476q000088755422,,::::23556655533<11169wtyutwq1>$$. ..$$&>2278eryituttt6656555",
"**:::::,111116166666000000qqqqqqqqqqqqwqt0008533<,:::&:::,22780tyuytw91$$O  .O+%-,2570wtypptte07611616660qqwqqqqqqqqqqqqqqqq0wqqq0065511,,>>,&::*:******:*233555655<2,::2:,235666553222*******&::&::::,2360qtyyyt05,&O. ..O$&-,<58qriippppttwqqqqqq0t0088665551<42,,,,177wrryytq61-$oo  o$$&><46errpppre07222********:::::::@2*2::;;:;;;;;:;;::::-,,119qrtyutw61:%O  .O+$&:<460wtiiirr07422**2225888873222*********22355808855222:::234660qq0008887432,:2::222556655533<11169rtuutwq11$O. ..O$$>,3500ttpttttttt66655",
"***::,:,,2333356666600000000qqqqqqqq0qww000066112::::::::,,358qtyuut991>$o   o$$&,<550qttppute086111556000qqqqqqqqqqq0qqqqqqqwqqt08655333,,,:::::******:::,23556655332:*::223556655322::*******:::::,:,<360rtyiyr05,$O. ..O+%:,3180tppppputttwqq0qqq000086651111<,,,<<448qttpytw6<&$O. .O+$&,<36eerppprre7222***********2********:***:*:***:::::>:,,256qrtyptw8<>$O. .oO$&,,550wriiiie0722:2222578888532222%%*%**:::225660885532:::22246800qq000865533:::::2223556655<<<<<55ttttuyw91>$Oo .oO$&>,368eryippittqq88666",
"***::::2,,<33555566660000000qqqqqqqqqq00w00661112,::::::,,,350qttuttw91$$o  oo$$&,,560ttuuptte07611155660000qqqqq00qqqqqqqqqqqqq8086553<,,:::::::*:***:::2,235556653222::2:23566555322::******:*:&:::,,<370wtyyyt05,&$. ..+$%:,360qqppppptttwwqqq000000086555111<<,,,,458qwtpttq64&$O    $%&,<567eripppre722*****************2****:::****:**:::-:,,,256ertyyte65>$O. . $$&,,360wripitee7222::2357808855222@2%%****:22356888855322:::2255880qq000866532222:::2335666555<<<<556tttutw91>$$o. oo$&>,368qrtpppitrqq08866",
"***::::::,,,<5355666660000t8qqqqqqq0q00000066111,::::::::,<3580tyuutw11>$o   o$$&,,560ttuppure06611615666000qqqqqqqqqqqqqqqqwqwq88885533,,:,,::&:***::::::22355665532::::,2235566553,:2::******:::::,:,<570wttyyr05,$$.  .O+%:,358qtupppppttwqqq0qq0000866655111<,<,<<156qttpptq81&&O. .O+%&:,36errppprr77222*******************:*:******:*::*:::,,,357qrtppyw81>$O. ..O$&>,360qtiiiie87222:22255808855322%+**+****22355600865222:2:22568000qq008855322::::22355666553<<<<5688ttuyw96>$Oo  o$$$>2458qttppppttwq08868",
"****:::2,2233335666600000000qqqqqqqq000000666111,::::*:::,<3580tyuuww6>>$    o$$&,<560qtupptte866111556600000qqqqq0qqqqqqqqqqqqqt8865533,,,,::::*:*:&::::22333666553222*::,23566653322::*******::::::,,<370wttptr85,$$. ..O+%:,<660ttpppputtwwqqq000000086555111<,,,><116qrttptw61:$O   O+$&:<367erppppre722**********2**************::*****:::::>,,356qryyytw81>$O.  O$$&,,360qriiiire722:*2:25880887522%%2******:::33688886322:::223358000q0008865532::::22335666553<<<<368tttutw911$Oo  oO$&>,358eruipppitwq08886",
":**:::::,,,<<35566665t8800000tqqqqw000060665113<::::::::,,,350qttuutw61$$o  oo$$::<350qtuuputq8611111156880000qqqqqqqqqqqqqqqqqq85665533<,,:,:::::*::::,,,<3556665532:2::2,2<55665532::::*****:*&::>:,,,570wtyptt011&o.  oO$&>,3560ttpppputtqqqq00000086655511<<<,,,,,<50qryyytq61>$O. ..+$&:,36errpprpre7222***********2%******::**:*****:*:::::>,<<56ettyytw61>$O   OO$&:,550ttiiitee732222223580885522*2***%**:::2256888865222:::2346800q0q000665322,:2:222556665533<<<560tttytw91>$O   oo$->,358qtuippptww008886",
"***::::::,,<<33555666886000000q0qq0q0008665513<>,::::::::,<3560qyuut961>$o   o$$::<560ttuupttw865111165688000q00qqqqqq0qqqqqqqqq8t865533,,,::::::*:*::::,2<35556655322::::,23556555322::*******:::::,>,<360wtuuyw06>&$.  oO$&-,3560ttuppputtt0q0000000086655511<<<,,,<<56qryyytw61-$O.  O+$&,<56errppprr7772****************2******:***::**::::::,:<346qrtpytw61>$Oo  OO$&,,360qtiiiire5322**2228880873322***%*%**:2225588885522::2:2356800qq000866532,::::22<55666553<<<<560tttyyr011$$.  o$$$>,368qrtppputtq008686",
"*:**:::2,,,,<3355666688t00t00w0wqq00000656533<<>,:::&::,>,<358qttuuww6>$$.  oo+$%,2560qtuuuutq8651111156688000q0qqqq0qqqqqqqqqqq8686553<<,,:::::::::::2,,,3335666553222*::22355665532:::*****:*:::::::,<550wttutw05>&O.  oo$&&,1580tuuppputtt0t0q00008866651151<<,<,<<456ertyytw61>$O  ..+$&:<367rrppppre7222**********2***********:*:*:*:*:::::::,,356qrtyptr91>$O.  o$$&,<5600riiite0522*22225588885532****@*****222368888653222::2346800q00008855332::2::2<555665533<<<5500ttptw911$O.  oo$->,458qrtippyttwq08866",
"***:*:::,:,,<33356666080000000w0qqq000866553<<<,::::&::::,,350ttyuytw61>$o  oo$$:,2560ttuuptwq86111>1555680000q00qqqqqqqqqqqqqwqtt88553<<,,:::::*::::::,,,3355666553<::::2223556655322:::*******&:::,,,<360wttpyt05>&$. .oo$&&,<580qupppputwt00q0000686665555<5<,<,,,,<56wrypytq61$$O  .O$$&,<56errppprre722********************::***:******:::::,,,346wrtyytq91&&O  .oO$&:,350ttiipirq5222*2225888885332******%***:225660086532:::2,24680q0q0008665332::::2,<3566655<<<<<350tttyyr01>$$.  oO$$>,468ettppptttw008888",
"**:*::::-:,,,<<555666000000qqqqwtqq808665433<,,,:::::::::,2358qwyuurq6>-$.  .o$$&,<360qtupptt0655<<<151566880000qqqqqqqqqqqqqqqq688655<<,,,,&::::::::,&,,<3355666553322:::223556555322**:*****:::::::<,<360tttptwq11$$o. oo$&&,<580tttppputtt00008088866655<5<<<,,,,,<<59qwtuutw61-$oo  O+$&,,387erppprrr772********2********2****;;::*;;;:::::::::1156qrtpytw91>$O.  o$+%*2370eripitre7222%2227788075532*****%%*:::2256888865222:::2<55800qq0008865332:2::,23356655533<<<560tttutt81>-O. ..O$&-23580ttppputtqq08866",
":***:::::,,,,<<<3556666000q0qqqq8qqq8866643<<,,-:::::::::22358etyuutq61-$o  .o+$&,<5600tuputtt05<<><1155688000000qqqqqqq0qqqqqq0088655<<,,::::::::::::,,,,355556655322::2*2255566553222:********&:&,:,,<3600typtw01>$$o. oo$&-,<588tttppputtt000000088665555<<<<,,,,,<456qtyuurq61-$O   .+%%,,36eerppprre7222*************2******:*:*;;;***;:*:::,::156qttyytw91>$O. .oO+@22470eripiie072222*23378088752222*******:2235560886322::2,2<56880q00008655332:::::,335556533<,<<360tttutq05>$O. .O+$&,23580ttppputt0088866",
"***:*::::,,,,,<35555660000qqqqqq00q00865441<,,:,::::::::,,2258qttyytw61-$.. oo+$&,,560ttuuutt6865<<<115668880000qqqqqqqqqqqqqq00088655<,,:,::::&&::::,,,<<33556665532:::*:22355665532:**:****:*::::::,,3550tttpytq61$$o .oo$&-,15000ppppputttt000088888665<3<<<,,,,,,,456qwuuutw81>$O   O+$&,,36errppppre722********************;;;;;;;;*:*:*::&,:,1146wrtyytw91>$O.  OO%*22470etiiiir07222*2222780877522*****%****2233880086332:::2,<55800q000086553322:::2,245555533<<<<368tttttt81>$O.  .O$&:2368tttppppyt0008686",
":*:**:::::-:,,<<155566600000qqwq8tq08866511<,,,::::::::::,2358ewyuyrw61-$.. .o$$&><560ttuuttt065<<<1<151668800000qqqqqqq0qqqqq008865533,,,::::::&:::&,,,,<3355666553222**22335566553222:*******:::::::,,3600tyytwq1>$Oo .oo$&-,156ttpppppttt000000008866555<<<,,,,>,,<449qwyuutq81-+O  o.+%&:<56errppprr7722********************:*:*:*:;****:;:::,:1446qrtyptw61>$O.  o$+*22270etiiirr0722*2*22278888752*2***%****:::35568866522:2::235680000q008855332:::::,234555533<<,35500tyttt85>-O.  .+$&:23500qtpppputtq08866",
"*:*:*::::::,,,,<<15556600000qqqq0q00886553<<,,,::::::::,,,,350ettyytw61-$o  .o$$&,<3600tuuuyt8655<<<111666800000qqqqqqqqqqqq000086653<<,::::::::::::,&,,,,3356666553<:2:::225556555322*:******:*::::,,,<558qtyptrq1>-Oo  .O$$>,1566ttpppppttt8t808088866633<,,,,,,:,>>1690ttyyyw11-$Oo  O+%&:236eerppprre722*****************22*:;;;;;:*****::-:::,,116qwyyutw61>$O ..OO$*:2470rripiir07222*22257808775222*******:::2256888863322:2:,3358000t0088665322:2::2,,3453533<<,225500tyutt64>&$.  OO$%:2<580ttpppyttt888666",
"****:**::&:::,,,111556660000qqqwqqq088645<<,,::::::::::::,,358qtyyurq6>-$o. .o$$&,<566ttuuuyt086<<<<116668880000q0qqqqqqq0q0000086655<,,2:::***&&:::::,,,3355556665322:::2:2355665532::::******:&:&,::,<368ttypyr961$$o  oo$$>>1568ttppppptttt8800t88665533<,,>>::,:<<1190wtyytw91-$O   .+$*,346eerppppre7222*********2*********;;:;;;;****::::::,,<156wttuutw91>$Oo ..+$*:2370eriipiee722*22225778077522*2**@%%**:2225580086532:::2,356800600088665322:::::,2233553<<,<23580ttyytt64>$O.  .O$%:22588tttppytqq008886",
":*:**::&&::::,,,11151666000qqq00qqq088653<<,,,,:::::::::,,,358qwtuutq6<-$o  .o+$&,<360ttupuyt6053<<<115568880000qqqqq0qqqqq00000885533,,::::**::::::,,,,<3335566655322:::2223565655322::******:*::::,,,3560qtyptr96>-Oo  oo$&>>1566tpppptttt8tt66t68888553<,,,>,:>>>><169qttyytw91>$o   O+$&>2567rrpprpr7722*****@******2*******;;;:;;;;*:***:::-,,,156qwtyutw61:$O. ..+$&><470rrppirr07222@225578087722*2***%*%***22255888865222,:2,356600t8t008655522:2::::,,33333<<<,,3550ttyytt04>$O. ..+$%:23660typppttt0008886",
"**:**:*::&:::::,>11115666000qqqtqqq0066533,,,,::::&&:::::,<358qttuutq51-$o  .o$$&><560ttuuuttt853<<,111666800000q0qqqqqqqqq0000086553<,>::****&&::::&,>,,,355566653<2,2::::23556653<22:::*******:::::,,,350tttytrq1>$$o  .O$$><158ttypppttttt66t8888888553<,:,:&::>>><116wwyyyrw61>$O  o.$$:>,367rrppprre7722*******************;:;;:;;:**:*::::::,,1199ttuutw91:%O  ..+%&>,470rrpppir072222*222770877222*****%%***:225680886332::::,35580000008886532,2::::,,,<3333<<,,,3350qtyttt01>&O.  O+%&:2350ttyppptttt008866",
"*:*:***:**:::::2,23335666000w0wq68tt55653<<>,:::::&::::,,,,358qtyuur961$+o  .o$$->,57qwtyppyrq8532<<23555806000000qqqqqq0w000006666532,:::*****&::::::,,<<<4555656532,::,:,2<556655322:::*****:::::::,,<168ttyyyt05>&O.  OO$&-,<580ttyppppttt888t88866655<<,>:::&::>,,3580ttiytw6<-$O  .O+%&><36errippirq732::*:*******:*::*:**:;:;;;:;:;::::::::,,,3580wtuutw81-$+.  oO$&,,45qwrppprre7722**225688887332***********223778087522::222236880qt686666533,::::::223333<<,,,,3580wttitr01>&oo  oo$$>,3500ttpppptt0008666",
"***:*:***:*::::2:2,3355668000wqqt66886555<<,,:,&::::&::::,,3580ttuutw91>$o  oo$$-><17qrtypyyre8532,,<3455660800000qqqqqq0w0000068655<2,:::*****:&::::,:,,<<4556665532,:::2223556655322:::******::::>::,<169wtyuyt051&$o   O$&-,35800ttpppyttttt866t6666553,,,&:::::,,,3580rtiitw6<-$O.  OO$%>,36errppprrq852,:::**:*::*******:**;;;;;;:;:::::::,:>,,<58qttuutw91>$o.  o$$&>,460wripppr7722*22222680887532*2***%****22257888875222:::233680qq00t6888553<,::2::,,,<33<<<,<,3450wtuutr05>$+o  o+$&>23580ttpppptt0008886",
":*:********:::::,,,33556880w8tt00tt0t6555<,,:,,::::&:::::,,350qtyuut961$$o  .o$$-,<16qwtypytrq832,,,,<34555088000qqqtqqq00w00000665532,,:*******::::::,,,<<5556665532::,::223556655322*:*******::::,,,,<160wwuutt61>$$.  .O$&&,358ttpppppptt8t68005666553<,>:::&::&,,3350qttiitw61>$O  .o+$&,<369erpppirq852,::::*:***:*:**:*::*;;;:::::::::,:,::,,<<56qwtuutw91>$o.  o+$&><450qippprre7222*2224688067332**2*%%%***2225588087522:::2,236800q8000t86533,:,:::::223<<<<<,,23460rtuptw05>$+o  oo$&>2358qwtpppptt0008666",
"****:*:*****::2:,,,3<55660000qqq8t80566533<,,,:::&&:&:&,,,,350qttuurw61>$o  .o+$-><570wtypptrq8522,,,<3455658880qqqq0qqqw000000066533,,:::******:::::,,,,<<455666553222::2:3355665532:::********&:::::,<169wtuuyt66>&o.  OO$&-,3568typppptttt8t6006666553<,,:::&&::>>,3580rtittw61-$O.  o+%&>256qeripppre8522,::::*:*:*****:****;;;;:::::::2,:,,,>,,<56qrtuutw81>$o.  oO$&>,45qrrrippre722*222277888873322***%%*****2257708875222:::225680qqt000666533<,:::,,2,2<3<<<,<,,3460rtuptr65>$o   o+$&-2350wtypppytttq08886",
":*:*******:*::::,,,<3355880000t80t8006653<<>,>,&:&::::::,2,3580tyutt961$$o  oo$$-><56qwtiiiirq732,:,,,2455568800000q0qqq0q0q000886553<,:::******:::::,:,,<3355566553<,:::2225556655322:::******::::::,,<550wttutw05>&O.  .+$&&,3580qtpppppytt0006066655<22,2::::::::,,<580ryiitq61-$o. .O+$*:<559rrppiire844<,:::::********::**:;;;;:::::2,:1:,:,,,,<56qrtiitw61>$+. .o+$&:<580wrppprre722**2227680867332*****%%*2*2227780087532::22235680qqqqt0088653<,,:::,,<,<11<,<,,,3480wtpytw91,$$   o+$&-22580ttupputtq008686",
"*****:*****::::,:,,,<5556000t08t0t0800555<<,,,&,::::::::::23580ttuttw91>$o  .o+$&,,55qwtipiirq742,:,,,<33555668808tqqqqqqq00000866533<,,:*******::::::,,,<3555666553<,,::::2355665332:2*******:*:::::,,<16qwtyuyt66>&Oo  .O+&-,3560ttppppyttt0t00666555322,::::::::>,<458ertiite61-$Oo  O+$*,<469erippireq742,,,:::::*:*:*******;;;;;::::>,4:414,,,,<56qrtiitw81>$o.  o$$&,<450wrippir077222*224688087522****%%*****2227788873222:::225580qq0t000885532,:::::,,2<1<1<,,<,3550wttptw95>$oo  oo$&:23580tuupputtq008866",
"*:*::*:***::::,:,,,,<3556800080t000006553<>,>,&::::::::,:233580tyuutw91$$o  .o+$&,,46qrtiiprr9742:,::,,23555668000qq00qqq000000886653<:::******:&:::,:,,,<3355666653,,:::222355665532:2*:******:::::->><560wttyyr05>%$.  .O$&&,358qtpppppytt0t0066665<5<,,,&:::::::,:<<58qryiite61>$o  .O+$&,,46errpppirr0843<,,2:::******:**:**;**;;:::2:4:4::1,,,<<56qrtiitw64>$oo .oo$&:<370wrppprr07222*222778888752*2***%%%***2222788887532::::2256800q000000865<2,::::,,,213<<<<,,22460rtpytr95>$+  oo+$&-2358qtuupppttq088886",
":**:**:*:**&:::::,,,<35568000t08t00006655<<,>>,::::&:::::223580ttuttw11>$o. oo$$:><56qrtiipree732,:>::,,<445588000qq0tqqq000008666553,,:::******::::>,:,,<3355666553<,,:::23355665332,:*******:*::::>,,<15qwtyuyr011%+.  .O$&-,358qtypppttttt000066555<<2,,,::&:::::,,<58qryiytq61-$o.  .+$:><468rrpppirre873<<,:::::::*:*:**:*:;:;::::2>4:1414,,,,<<58qrtiitr84>$oo  o+$&:2370wriipire7222**2225808655222****%****22237808873222:2:223660qq0tt0q0865<2,,:::,:,2<<1<,<><23480rttptwq1>&+o  oo$%>23580ttuppppt0q08666",
":*::&&:&::*::::::,,,<<5566800000000066633,,,:,:::*:::::,:,,3680tyuytw9>$$oo .o$$*2247erriipie9722::::,,,<445668800qqqqqqqqq0008866553,:2:******::::::,,<<<445566655322:2:2,235556553322*********::::>,,,180wtuutt01>-Oo ..O+%:,3580ttpppppitt08086553322,,,:::::>:::,<456wtyuutq61>$O...oO$-,,569erpppprwq8553<,2::,::::*:**:***::::::,,221421,,<,,<<18qwtyyyw01:$O. ..+$*>,560wtiiitr07222::2256888855222%%**@*****225668086522,::2,336606tt6t6q0065332*::::,2,<<<<<,,,<<560wtputt61>$O   oO$%:,358qtuuppytt0008866",
":::::::::*:*::::,>,<<<55668880000086665332,,,::::::*::::,,,358qtyuuw961>$o  oo+$*2247eriiiprre722:::::,2<44558880qqqqqqqqq0008886553222::*******&::::,:,,<445566655322::::223556653322::******::::::>,,<160wtuuyr061$$o ..+$%:,3580qtppppptttq08665533,,,::::::::::,,,<56qwtyytw61-$o. .o$$$><45eeripppitq8654<<2,,::::::*:**::*::::::,,24444444<,,<456qtyyytw61,%O. ..+$*><450wriiiir0732:222356880855222%2*******2225580887522,:,:225566066t6tq0065322:::::2:2,<<,,,,,<<550wttutq66>$$.  o+$&:23500ttuppytttq08666",
":*:::::::**::::,-,>,>33456666808666655333,,,:::::*:*:::::,33580ttuut991>$oo .o$$*:247erriiiir8722:::::,,<4145888qqqqqqqqqqq0888665532,:::*******::::::<,<<445666655<2:::::223566655322*::******:::::::,<199rtuuyrq6>$Oo  .O$%:,<58qtpppppyttq0086553332,,,::::::::::,,456wwtuytq61-$o. .oO$>,,468erippprtq06553<,,,,,::::*::*:::::::,,,<24444441<,<>4560wyyytw61&$O.  .+$*:,360etipitr0732:::23568088553222+*%%****2225568085522,:::,236606tt6t6q08653222:::::2:,,,,,,,,,<550ttuutt61>$O.  oO$&:2<68qttuppytt0000686",
"::2:,::::::*::::,:,,<1355566666666665333,,,:,:::::*:&::,:,,358qtuutt991$$o   o+$:,2778riiiire8752::::,,2<15556800qqqwqqwq000888655332,2:::*****:::,:,,,<<<45555665532,:2:2:3355665532:::*******:::::,,,<169wttutr91>$$   .O+%:,<560tpppppttttq886533<<,2::::*::&:::,,,<56wtyuutq61-$o   o+$-:<569eiipppitw08554322,,,,:::::::**:::,:,,<244444441<,<<<560wtyytw81>$O  ..+$*><460wriipir07322::2357808655222+2***%***2225688886522,:,,,2356066t06tq0065222*::::::2,,,,:,,,,<560wtuyyt05>$$.  oO$&,2358qttuppttt0006066",
"2:,:,::::::*:::::,,,<<134555655665533322,,:,::::**:*::::,,<358qttuut99>>$o   o$$:><478erppprr872,:::::,<<41556680qqqqqqqq000886553332:::::******::::>,,<<<45666666532:,::222355555532::::*****:*:::,:>,<169rtuutt96>>Oo  oO$&-<<56qrtipppytt088865332::::::::::*::::,,256wrtpytw61-$o. .o$$&><450eripppitq8865543<3,,,::::::&::&::,,,<<345554544<<<<1190rtyytw91>$O.  O+$&:<460etiiitr073222222368888752%2%**%%***2*225588886522::,,<<3560008t860006532::::*::*:,,,:,,>,,3560tttytt64>&O   OO$%:2<580ttpppppqq000666",
"2::,:,:::::*:::,>>,,,<<31455555533333<,,,::&:*:**:*:::&,:,,3580qyuut961>$o  oo$$:-<57errppppee74,,:::>,,<41566800qqqqwqqqq00866553332,,::*******:::,,,,<1445556565532,:::::255566633222:*******:::::>,,,169wtuuuwq1>$$o  oO$&-,358qrtppppyttt066533222,::::*:*:::::,,<356ettyytw61-$o  .o+$-><56errppppittq86555443,2,,,::::&&:::2,,<<3445557444<<<,1160ryyytw91>$O.  OO$&:,460eriiitee7322*:223660885522%2********2225588086522:,::,<3556608t8tq086552:2::**:*2:-,:::,,,<360qtyuyw84>$$   .O%&,23580typpppytt000686",
",,,,,::,:::::::::,,,<<<<4445111133<3,,,,2:::::*:*:**:::::,<358tttuuww91>$o  oo$$:,<47erprpprr772,::::,,,<155566000qqqqqqqq06861653322:2::*:****:::::,,,<4145666665532:2:::22356656332:::*****:*::::>:,,<199wttuut961$$o  oo$&&,158qwtipppttq0086533<::::::*:*:*::::>,,356qrtpytw61>$o...o+$&>,168erppppitqq066555433322:,::::::,,:21<3455565755411<<166wrtyytw81>$O.  O+%*,<360etiiptr0722*2:2256888855222%**+***:*2225688086522::&,>3356600008tq0065522*:***:*::::,,:,:,<560qtuutw04>$$.  OO$&&2358ttyyppytqq006666",
",,,:,,,:::::*:::>:,,,,<111111111<<<,,,,:::::*:**:*::::::,,<3580tyuutw11$$    o$$:><57errpppree72<,::::><<151666800qqwqwq00006661332,2::::*******::::,,<<14555666655322:::2233556655222:::*******:::::>,<169wttuuw911$Oo .oo$&&,<56qttppppttt0886532,2:::**:***::::,:,,358eryyytq61-$O. .o$$-><160eripppittw08665544333,2,:,:::::,,,2<4555666755411>11160ryyytw81>$O.  OO$&:2450eripitr85222*2235788067522%%%********225588885522,,:,,,355660000000065522:::****:::::::,,,3560ttuuur84>&O.  .+$&:235000ypppptttq80666",
",,,,,::,::::::::,,,,,,,<3<3<33<<2,,,:,:,:::&**:*::&::::::,<358eryuurq61&$O  .O+$&:<47qrtipytr0722::::::233355660008t0tq00008665533<,,::::*******:::,2,2244557568655322:*::223566555322**:******:*::::,,,550tttutw91>>Oo  oo$&-,<58ertpppyttwq865532,:::******:::::,:,,358qttuutq64&$O. ..+%&><360erppppppieq887761111111>>>>&,,,121444476666665111<<<560tttutw81>$OO  O$$&:<360wttpytr063222*235888087522****%%***2:223688886522::::2235668000t00006533,,::%****&:::::>,,347qrttutw911$$o  oo$$>,368qttppppuqq000666",
"<,<,,,,::::::::::::,,,,<<,<<<,<,,,,,:::::::&:**:::::,:>:,,,356ettuutq61&+.  .O+%:><570wtypytr0732::::,,,,335556008000qqq0008655133<<,,,::******::::,:2<211555666655322*2:222<556655322::******:*:::::,,<360qttutt96>$$.  oo$&-,<58qrtpppyttwq87532,,,:::*******::::,,<358qttuutq6<>$O  .O+$&,3360eripppppreq8885616161111>>>>>,,2,444455666666551<<<<55tqttutw81>$O   .O$&,,360wtypyyr06322**2237708875222*2******::2256888865222:2::233568800800086553,:::::**:&&::::::,<57qrtpuyw91>$O.  o$$$>,3580ttpppitttq08606",
",,,,,,:,:::*:::::::,,,,2,<<<<<,,,,,,:,:::*:&::::::,::::,>,2376wrtuutq6<-$.  .OO%&,<46ewtypytr8732:::::,,<<35566680000000008665553<<,,,:::*******::::,,<44517666666532:2*:::235566553222*:****:*::::::,,<568qtuput96>$$o .oo$&&,159qrypppytrwq75532,,:::******:::::,:,,<56qwtuutw61&$O.  O+$&,,36eerpppppirrq088766611611>1>>,,,,,4445576688806651<<<3150tttutw81>$O.  O$$&:<360wttyptr08222*2225780885522*****2+*::2225588886532::2:22<5568000t000886533,:::**:*:::::,,,,<47qettuyr96>$o.  o+$->,368qttippitqq008666",
",<,,,,,:,::::*::::,::,,,,<,<,,,,:,:::::::::::::::::>:,,>,,2358qryuut06<-$O  .O+%-,<470rtypytee732:::::,,,<335666800000000806655533<,,:,::*:***:**::,,,,<115566666553222*::223556655322:********::::::,,<360ttuutt911$$o .oo$&-,156qrtppputrw0754322:::********:*:::>,,<580ttuutw61:$O  ..+$%,<368rrpppppyrre0088666661111>11,,,<44445766880886555<<<<35tttuutw61>$O.  .O$&,,360wttuutr0722*22*255888855222***%%%***:2256680855222:::,2<3668808800006553,,,::::%::;::::::,<57qetpuyw91>$$.  oo$$>,368qttippittt008866",
",,,,,,:,::::*::::::,:,,,,,,,,,,,2:::::::**:*::::::>,:,:::,<350qttuutq6<-$O  .O+$&,<46qwtipprre522::::::,,<33556688000800006665513<3,,::::******:::;2,:4415555666665322::2*2235566553,2:&*******:::::,,,,360wttutrq1>$$o  oO$$>,158qrtpppytrw96543,,:::********::::>,,<<58qrtiitq81>$O.  O+$%,,368erppppptttwq0066666616111<<><<<44557588800886653<<<356ttttutw81>$O  .o$$&><368rriiptre7222*222788888732*2%%*%%+***2225688886522::,:223358880000q008553<,,::::&:;;:::,>,<<46qetputw01>$$.  O+$&>,3688ttpppyttqq08666",
",<,,,,,::::::***:::::::,,,,,,,,,::::::***:**::::,,,:,>,,,,<356eruuyrw61-+.  .O+$:><45qwtippie972,::&:::,,<<355568888000866066551433,,:,::*******;::>,1,11517666665532:::**22356565332::::******:&:&,::,<360wttuur96>$Oo ..O$$>>159ertpppytwq67543,,::::******::::::>,,358qttiitw61&$O  .O+$&,,36eerippppttwqq0000666666111<1<<<345557688000086653<<<3556wttutq81>$O   oO$%:<460wripiyr07222*2223588077522****%%2***22255880865222::2:23556800000q0086533,,,::::::;;::::,,<56qrttptw91>$o.  .o$$><358qtuuppyytw008866",
",,,,,,,:::::*:*:::::::,,,,,,,,,,:::::**:**::::::,:,,,,,,:,<350qtyuytq6<&$O   O+$&><58qwtipirr873,,:::::,,,<3355666880600066655513<2,,,:::*******:::,,,1411156666655<222:*22335666553222*******:*::::,,,<560wtuutt91>$$   oo$&>>158qrtppptrw06532,,,,,::********::::>,,358ettiytq61>$O  ..+%&,,368erippppttww0008060666615511<<1355666688000008655<<<<55twtuutw61>$Oo  o$%%:2460wiippie0722*22225880877222*2%*%%***:::33688885532::::22336688000t000865532,,::::&:;::::::,247qetyutw96>$o.  .O$&>,358qtuupppytqq08866",
",,,,,:,2:::::***&&&&:,::,,,,,:,:2::*:**:*:*::::,,,,>,,:,,,<356qwtuurq6<&$O   O+%&,<480rtiiprrq73,::::::,,,<335566688066666666555332,,:,:::*****:::::,:4,11556567653222::*2233556653222:*:*******:::::,,,36qqttuuwq61$$o  .o$$><158ertyppytw06542,,,::::*****::*:::>:,,<580rtiytq61&$O. .O+$&,,568rrppppptttwq0000066660151515355555688890000088153<<<566ttuptw81>$O   oO%&:2360wrippree7222**2275808752222*******:2:2355888865222,::,,255688000000888533,,,:,:::;::;::,,,<560rtyyyw01>-$.   $$&>,358qttupppywqq08866",
",<,,,,>>,:::*******::::::,,:,,:,::::****::&&::,::,,,,,,:,,<156wtyuytq61-$.. ..+%@2277erriiprre722:**:::,>,<<355566666666666653113<<<,>,:::******;::222224444177755532:::::22355666532::::****:*::::>::,3360etiitt611$Oo  OO+&-<<58errppptre07322,,:::*:*****::::::::,,359qwtuytw61-$o  oO+$&,,3880tuppppttqqqqq0000066666161116156688880088008863<<<<560tttttt51>$O.  OO$&>,360wripipre72222*223888085532:****%*****235688886522,::,,,255666800000086533<,,,:::::::::::,,116qwtyutt66>$O.  .$$&&<350qtuuputtt0006666",
",,,,,>,,:::::*:*:**:::::::,,>:::::**:****&:::::,>,,,,,,,,,<158qwtuytq61-$O...O+$*2227eriipprre722:::&::,,,<<33356566666666555551<<<,,:::::*****:::::>2224444757765332,,::2,23556555322:::******:&:::,,,,360ettiut911-Oo  OO$%-,348erpppiire87322::2::::********::>>,,<<56qtyuytq61-$O   .+$:,,368ttpppppytttqq000000606666116616566888q00tt008655<<<<560ttttt861>$O.  O$$&,,360wrppipre7222*2222580885332::****%**:2225588086522,:::,,335666800qq0086653<,,:,::::;;::::,,<560ttyutq61>$O. .OO$&>,3500ttupytttt066656",
",,,,,,&,::::********::::>,::,::::::*******&:::,:,,,,,,,,,,,158qttuur96>>$.  .O+$*:257erriiiiee722:::::::,,,<33556566566655555533<<,,,::::*******;:>22>,44444577555332:::::,2555665532:2********::::::,,3468rtuiuw95<$$   .O$%-,<58erripitre7532:,::::::*:****::::::,,,359qttyutw61>$Oo  O+$&,<360tppppppyttqtqq00000066666166116668800000088088553<<3568ttuutt81&$O.   $$&-,360qriiprre722*22225788887532:2****%*:2*225588085532,::,:2234566800000088533<,,,:::::::::::,,<56qrtyutt61>$$.  .o$&&<3580ttupptt00066555",
",,,,,,:,:::**:*****::::::::,::,:::*****:*:&:::,::,,,,,,:>,<158wtyuytw9>-$.  .O+$*22588riiiire7772::::::,,,<<33<5555556555555333<<<,,,,::::*****::;::>,,,4444515553322:2:::2<3556653322**:*******:::::,,,560etuuttq5>-Oo ..O+&-,358eriipitr073322:::::;*:***:**:*::::,,359qwtuytq81-+O   .$$&:,3880ppppppttt00q0q0000000666666666688000q0t8t0886533<<<586ttuutt81>$$.   O$&,<360qripirr07222*2224780878322:****%****:225688886522,:::,,,24566880800086553<,,:,::::;;::::,,1160wtyuyt06>$O....O$&,,350qttuppttt0065555",
",,,,,,,&::::*******:*:::::::::::::*:**:**:*::::,>,,,,:,,><<1199ttuuww61-$..  O+$*><57eerpppre772,:::&:,>,,<<<<15555555555351333<<,,,::,::*:*****::>22:244444455533<,,:::,:,235566533322********::::::,,2550rtiitt85<%+.  .O$=-,358ertipite0742,,:::::********:::::>,>1169qttpytw11-$O  oO+$&><360qttpppptt0tqq0000000006666666668800000w800008655<<<356tttuutt61>$Oo  O$$&,,550tiipiir0722*2*227780885532**:**%**::2225588886522,::::,,<4555668q00066553<,,,>:::::&:::,,<<160wtyuyt64>&O   OO$%:,3580tyuppyt00665553",
",,,,&,,,::::::**:***:**::::::::&*:**:******:::,:>>,,,,,,<><169wwyuutq61$+O.  O+$::<47eerrpppre772::&::&,,,,,<<5<<1553553553333<<<,<,:,:::******:;:::>2,2144444443322,,2::2,23565655322:*:*****:*::::,:,3360ertuuw01>&OO  .O+=-,<58erippite0732:::::**::*:*:*:*:*:::>>>1160ttyytw91>$O   OO$&,,568tttppppttt0qq0qw00000000666666688000000t08t086553<<<5580tuutq01-$O   OO$&:<360qriipire7222*2227780885322*:***%***::223688086522,::,:,,<1455688800006553<,,>,::&:&:::>&,><56qwtyutt65>$$.  .$$&:,550qttpppttt0553533",
",,,,,,:,:::****:**:**::*::::::&&:**:*****::*::::,,,,,,>,>>1119wttuyt961>+O  .O+%-,<47errpppre772,,:::,>>,,<<<<<5<5311333113333<,,,,:,:::::******::2;222414444444332,:::::222355666532*:*******&::::::,22460etuutt81,&O....O%*-2258erriiire8532::****:*:***:**:::::>>,<169qwyyyrw91-$O   O$$&-<558qttpppptt0ttqq00q0000006066606006000w0w880008653<<<<566tttut051>$Oo  O$$&,,3600ripirr072222*222688887532****%****:2225688885532,::::,,<145558800006655<<,,::::::::::::,<<160ttuuuw81,$$.  OO$&:,358ttyuuttt88655333",
",,,,,,,:2:::*:**:*:**:*:**:*:&::*:***::****:::,,:,,,,,,>>111199tyuytw91$$O  .O+$::<59errppprre72,::&&&>>,,,><<<<<<513533333<<<<,,,:,::::*******:::;22>2244144414332,,:::::,235665553222*******:*:::>,::3360qtuuutq5>&+.  OO+*::458eripptte0422:*********:*****:*:::>><116wrtyytw61>$oo  O$$&,,368tttpppttttt8qqq0q000000060060600000qqw00t0008655<<<<56t0ttutt0<>$O   OO$&:,550tripiir0772**22225888873322*********:225588086532,::::,,,<315668800086553<,,,,::::::::::,>1560wtuutw81>&O    +$&>,3568ttuutttt8653<33",
"3<<,,,,,&,::&&::*:***::***:*:*;*;:********::::,,,,,<,<,,,<,358tttuuwq9>>$o   o$$-><55qwyrpppre722;;;**2*2222:22,<<<333333<<<2<,,,,,::::::******:&::,,<<333<5<5533,2:,:::::223555655322:::******::::::,,<368tttutt911$Oo  .o$&&,356qttypyrre722;****************2::,:,,356qttyytq64-$o. .oO%&>3360rttppppppwwqqqqq0q0q00000000000000qqqqqtqq0086552221169rtuytw91:$O. ..O$&:,378rriipir07222*22358880755322%*%%2+**::2256888865322**:2:22<<55558999996551<<,>>,::&::::::,,<380wtyyyq83:&O. .O+$%:,368qttipitr08643<<<",
"33<<<<,,,,:&&&***:*:****:*:***;:;*****;*:**:*2:,,2<<<<,,,,<3566tuuutw11-$   oo$$->1560qypppree772*2;***22*:22,,2<<<33<<<<<<<,,,,,,::::::*:******&:,,,<33535<1<<<32,2::::::223566565322::********:::::,,<366tttutwq6>$$o  .O$&>,<50qwtyyyre772;******************:::,,<<56wttyytw61-$O. .O+$%>,360qtupppppptwqqqqqqqqqqq00000000000qqqqqq0qqq006144<,156qrtyutq61>%O. .O+$&:2360eripire0722*2223558088733222**%%%**:2235588086532*2***::,<45556899q896651<<,,>:::::&::::,<<560ttyytt85,$$.  .O$&:,368qruipute00743<<,",
"533333<,:::::**&****::*:*****:**;;;*;;;;**::::22<<<333<,,,<3560ttuttw11-$o   o$$->1160wyppprre722*********2*,,,2<<<<<<<<<<<<,,,,:,2:::*::*:****:::&,<<3535<55<3<,,,::::::222556655332:::*******::::::,,<550qtuuut96>$$.  oO$$-<<58qttupyrr7722******;2******2***::::,,<58qwtyytw61>$o.  o+%&,,560ettppppptrwqq0qqqqqqq00000000000qqqqqqq0qqq08665<,1156qrtyutw91>$O.  .+$::2380rrppiire732**2233888885532*****%****22235888855222**2,:2,<<45568890086651<<<,,::::&::::::,<360wtyptt85>$O. ..O$%,<368qttuputr08533<<,",
"553533<<,,::*:****:*****:*:***:::*2*:;;;**:::2:2<33533<<<<<3560ttuutw91>$o  oo$$->1160wyppppr77222****2**2*2,,,,<,<<<<<<<<,,>,,::::::::::*******::,,<333555553<<<,,,,:::::23355665532,2::*****:*:::>:,,<360ttuutwq1>>O.  oo$&>>158wtyuiyre7422*******;****2*****::>,,,3580tyyytw61-$o  .OO%&>2360qttpppputtqqqqqqqqq0qq0000000000qqqqqqqqqqq08655<11156qrtuytw91>$O  ..+$&22368eriipir07322*2*3358808752*2*****%****223888086522*2**::,,<411668800096655<<>,,,::::&::,,,,3568ttyytw83>$$. ..O$%:,358qtypputr07743,,,",
"5655533<2::::**********:********;:;:;;;;**::::233353533<,<,3580ttuutw91-$o   oO$&,446qrrppprr7722******2::>:,,,,<,<<,22:,,,,,>>,:,&::*:******:*:::,,<3555155333<,,,:,:::::22355665532:::*******:&:::,,,<560wttutwq11$O.  oo$$>1158qttipyrre72*2***@*************::::,,<56qwtiitq61-$+.  O+$&:<460etyippptttqqqqq0qqq0ww00000q00qqqqqqqqqq00008653<<<1689rtuutw91>$O   O+$%,,360eripitr07222222228888855222**%*%***222356888865322::::,,,<<45568800088651414,,::::::::::,,3360ttyytq84>&$. .OO$&&,350qtyuppte06533,,,",
"6666553<22::********::***:*****:;;;;;;;;*:*::223355555333,33560tuuurq11>$o  oo$$&:,460ryrppree742*******:::,:,,,,,,<<,22,,,,,,>:::::::*::**:****::,,<3556655533<,,,,:::::2225556655322:::****::*:::::,,,350qttuut96>-$o  oo$->>158qwtpiyre7722******************:>>,,<<50qttiitr61-$o. .OO$;,<550eryppppttttqqqqqqqqq00q00q00qq00q0qqqqqt0t000655<<<1169rtyutw61>$O   .+%%,,370riippire532*22222580888322*2********:235588085532:,:::,,,<<4566600008866144,,,:,:::::::::,<566ttyytt84>$O.  .O$&>,350qttuptte07532,,,",
"666655332::*:******2**:*****:***;:;;;;;***::2:2355555533<,33560ttuutq61$$o  oo$$:,1480rrppprre742*******:::::,,,,,,<,,*2,,,,&:,::::::*:*:*******::,2<5556565333<,,::::::::22355655532:::*******::::::,,<360tttutr01>$$.  oo$$->158qttipyrr8422**************2*2*:::,,,458qrtiitq61>$o.  O+$&><460etyppppttqqqqq00qqq0qq00000qq0q0qqqqqqq0t0008654<<<156qwtuytw61>$Oo ..+$&:,380wriiitr05222%222578808533******%****22255880865322::::,,,<41156880000665541<,,::::::::::,,<360qtyytt65>$$. ..$$&><360qttppttwq753,,,>",
"6686655<222:*:*******:**2****::*;;:;;;*;*::::23356665553<<33560ttuut961>$    o$$&,4479rypppre9722*******::::::,:,,,,,,22,,,,,:&::*:****:**:*****::,,<5556655333,,,:,:::::,:23566655322::********:::::,,,360qtuuurw6>$$.  oO$-->1580tyiiyre7222***@*******2******::::,,<580ttiitq61-$o  .O+$&,,550eryppppttttqqqqq0qqqqq00wqqqqqqqq0qqqq0000008654<<<1169rtuuyw91>$Oo ..$$&,,368wriipie022222222568888553222***+*****225688886532,::::::244155660800886654422,,,:::::::,:,3560ttyutt01>$O. ..O$&&,366qttuppte0752,,,,",
"888865552::::****:***:*:***:**:*;;;:;;;;;;;::22356665553<<<3560ttyytq61$$o  .O+&&,146qrtypptr9742;;*****::;:::,>22222%2*@22**22*****:*:*:******:::,2<356666553<,,,>:::::::223556653332**:*****:::::::,,,560rtuitw01>-+.o  O$&>>358qrtppire032****%*****:**2*****::,,,,4580tttptw61>$oo .oO$$,,568tttppppttt00t00q0qqqqqqqqqqqqqqqqqqqqqqqqqq00655<<<456qwtyytw91>$O. ..$$*:2350wrpiirre72222*225780077532*%*%*+*****235560887522:::::,,,3335566099q99975444,,,::::::::,,23570wtyutt61>$$   o$$$>,359ettppttw8752,,,:",
"0886655322,::******:***:::**::**:;;;;;;;*;:::23355666553<<<3580tyuytq51-$o  .o+$&,,57qetypytee7422;**@***;::::::%2@2%2*222*2**%**::***:*********:::235566555533<,,,:::&::2223556655322*2********:::::,,3458rttuut85>$+.  OO$&-,358qttiiirr87222%%*%%*:*******2*2:>:,,,<580ttpttw61-$o. .o$$>><458qtpppppttt000000qqqqqq0qqq0qqqq0qqqqqqqqqqq08655<<<<560wtyptw91>$O  .oO$*:2580wrppiire7222*2222778777522*2*******:22356880855322::::::,,33455600q995775414:,:,::**:&:::2337qwtyuyw811$$   oO$&>,379ertippteq55<,,>,",
"088865532,::******:*::*****:*:*::;;;;;****;2:23356666553<<<3580ttuttq61>$.  .o+$&:<57qetypyte9742*;*@*%*;*:;::,:2%%22%2%2@2@2%%*:*:******:******:,2235566665533,,,::::::::2235566653222*:****:*::::>,:,,468wtuutt651-O.  OO$$-,378eriiitre8722***%***:*:****@2*2:,:,,,456wwtpttq61-$o. .o+$>,,560tpppppptttt0000qqqqqqqqqqqqqqqqqqqqqqqqqqq008654<<<256qwtpttw91>$O.  o$$**2360wriiprr0722*2%2226880875222%********22235888865322::::,:,,<3456608q69967544112>>:::::::,,:2580ttyptw01>$O.  oO$&>,478qripppte06432,:*",
"08886553,,:::**********:*:*:***:;;;:;;******:23555666553<<<3560ttyytq91$$o...O$$-,<47qrtypytr9742;******;:;:::::%2*2%2%2@2*2**2*****:*:**:*****::::235556665533<,,,:::&:::225556555322*********::::::,,<568rttuut05>$$O  .O$&:,348ertipire9322***%****:*2*2*2*2*:,,:,,<58qttpptw61-$o  .oO$-:<4500ppppppttt0t0t00q00qqqqqqqqq0qqqqqqqqqqqqqq086544<<346qttyptw61>$O   oO$%*2350wiipiir07222*2222680877522****%%*****2255888875322::::::,,<34566680999654441:2:2::::::::,22360wtypyw811$O. .oo$&><358ettppttw865<2:22",
"8886655322::******::*:**::***:**;;********;:2223566665332233580ttyytq6<-$o  .o$$&,<47qetypitrq742;***%***::*::::%*2*%2%222%%2***:******:**********:235556655533,,,,::::::222355665532::::*******:&:::,,<360ettiut81>&O.  OO$&&,378eriipiie87222%*****::::::,*2*2:,:,,,<58qwtuytw61-$o  .o$$-><4680ttpppptttt0t880qqqqqqqqqqqqqqqw0qqqqqqqqqq006543<<357qtttptw91>$Oo  o$+222277eripirre7222222376888775222*********2235788887532::::::,,,<<3566000088555444,:>2#:&:::::,,2550wtyytr01>$$. .oO$&>,468eripppteq75<22**",
"0886653322:****************:*:*:;:****;**;%22:25556665332223580tyuytq61-+o  ooO$-,<47qrtypiteq442*;**%*****:::::2*%*****%%%2*****:*:*:**:*:*****:*223356666533<<,,:::::::*:235666533:2::******:::::::2,3460rttitt86>%$.  .O$&-,358ertiptre7522***%*%***:::::2*2;,>,,,<258qttyutq61-$o. .o+$&><460tttpppptt0000t00q0qqqqqqq0qqqqq0qq0qqqqqqqq006543<<347qwtuttq91>$O   oO++@237eeriipire7222*2233780877522*2**%*%**2*2257600875322::::::,,,<355608q00896744242:;2:::&:::,,2580ttpptw91>$o  .oO$$>,358qttpptte974<2*2*",
"088665532:2::****::*:******::***;;;**;;;;;;:*223566655332,23580ttyytq61-$O  .o$$-><57qrtypyte0742;;******::**::******22%*%%****2*:**:*:*:******::2223356665553<,,,:,::::*222555655532:2*:******::::>,:23460etuiut64,&O....O$&&,358eryipyre8522*******::::,:,:,::>,>,,<458qwtuytw61>$o. .o+$&>,1680ttppppttt00888q0qqqqqqqqqqqqqq0wqqqqqqqqqq066544<<357qwtuutw91>$Oo  OO%22257eerpiirre72222223568807722*2***%%%****223688886532:::;::::,,<3156600099574444::22#:::&:::,,2360qtyptr01>$$o  oO$--,45qertppytq0652222*",
"6806555322:::*:*****:****2****::;:;2;;;;;;:::22255565553<333580wyyytq6>-$O. .o$$&><46qetypytr07422;*********:**:%2**%%***%2*******:***:**:*:****:*233556666553<<,:,:::&:*2233556665322::*******::::::::3360qtuutt05>&$.  .O+&-,358qrtipiie8722****@**::::::,,2:2,,,,,,<58qrpuytw61-$O. .o+$-><188tttppppttt0tt00q0q0qqqqqqqqqq0qw0qqqqqqqqqqq8654<<<246qtttutw91>$O   .$++2237errppiir7722%**233688877222****%%**%222257880863322::::::,,,<<55668008957444222*22::::&,:,,2568ttyttr06>$$   oO$->,458qttppyte074<22*2",
"06866553<,,::&&&&&:***:*:**:**:**:**&&::&:&,,,33555655<3<<<358ttyuuww6>>$.   o$$**27eerrpppree72::;;;********22%**2*************::***:**:**:*:*:::,235568855333,,::::*::::,23556655322:::*****:*:::>,,,<360rtyyyr01,&O. ..O+%:,377rrrpprre7722***@@2**2*2*2*2;22,-,,,,358qttyytq64&$O. ..+$&><360tttuppptt0t800000qqqqqqqqqq0qq0000wqqqqqq00006144<<<57qrtyytw91>$O   oO$&,,560trppprr777222*223688065532*****%****2222788888532,:::&:::><<<1566000086661111,,,:::::::,,,<360ttyytt01>$o. ..$$$,,478etyipprre74222@2",
"00866653<,,:::::::*::*:***:**:****::&&::::::,,33355555<<<<<3566ttuut961>$   oo+$*2227rrrppppee7222;;*********%**********%2*********:*:*::**::*:::,223566656553,,:,,:::*::2223556655322:::******::::::>,,360etyyyr05,&+o ..+$%:,377erppppre7222**@2%@****2**2*2::,,,,,,<56qttpytq6<>$O   O$%&,33680tyupppttt0t000t00qqqqqqqqqqqqq0ww0qqqqqww0006644<<<570rtyitw61>$O   o$$&:,358qripppre7222*2222780887332*2***%****2222788088332:::&:::,,><<5560900006665511<,,,,:,:&,:,,<360qttytq66>&O. .OO$&-,458ertpprrr9742222*",
"688866533<,,:::::&:*:****:*:**::*:**::::::&,,,<3355553<<,<<3588ttuytw61>$o  oo$$*2277errrprree72:;;;*%*****************************:**:**:**::::,,<355668665332,,::::**::2223566655322::******:*:::::,,<380wtyytr05,&O.  .O+%:,377erpppprre7222***%*******2*:,2,>,,>,,3560ttyytw61:$O. ..+%&,,3680ttpppptttt0000000qqqqqqqqqqqqqw000qqqqqqqq00614<<<<55qrtyitw81>$$   oO$&,<368trpiprre722*22227788867532****%%%****222788887532,::::::,,,<<15669000086665114,,,::&,,&,:,<568ttyuyt51>$$.  .+$&:,350qtyippre9722*2@2",
"088666553,,,::,::::***:**:**:*****::::::::,,,,<3335535<<<,<<588ttuurw61$$o   o+$@22777rrpprree772;;;*%**%2******************2%**::**:**::*::::::>,<3558886653222::::**::::,2356555532:::*******::::::,,<380wtyyyr05,$$o  .O$%:,<77rrrpprrr722***%*%****2*2*2,,,,,,,,,<3560ttyytw61&$O.  O+$&:<360tttppppttt800t8000qqqqqqqqqqqq00q0wqqqqqwq000665<<<358qrtiytw81>$O  ooO$&:,368qripiire7222*22237880763222*****%***2227788087532,:::::&,>,<<55660000088665513<,,,,,::,,,,<568ttyytt05>$O.  .O$&-<368ertpppre77222@**",
"8888655533,,:,:::::*:*:***::*:*::*::&:::::,,,<<<353533<<,<<358tttyytw6>-$o  oo+$*#247eerpprre7722****@2@************2***%********:**:***&:&:::2:>,<35666886633::::&&&**:::225556555322::******:*::::::,<550wttuyt011&$   .O$&-<<77errppprr7722***%******:,,:,,,,,>,,,<3560tttptq61-$O. ..+$&:,5680typpppttttt0t00q0qqqqqqqqqqqqqqqqqqqqqqqq0006144<<257qrtyitw81>$.   O$$&:<36qwrpppire722*2*227680887522**2*%%%***2225588086532,:::&,::,,,3556090q8q888665543<,,,,,,::,<<560ttyyyw84>$$. ..+$%:,470ettpprre772*2@**",
"8886665333,,,:,:::::*****:**********::::,,:,,<<<333333<<<,<35800yuytw61-$o  .o$$22247eerppppee722*2*%*@*%2******2*******2*********:*:*:*:::::::,,<3356068855322:::*****:::,23556665322:*:*******::::,,,<360wtuutw06>$$.  oO$&-,477erppppir7722****%*****:::,,,,,,,,,,,356wwtpttw81-$O.  O+$&,,368ttyppppttt80080q0qqq0qq0qqqqqqqqqqqqqqqqqqq06664<<<347qrtiytw91>$$   oO$&>,360wripprr77222*2227688887522*****%%****225788887332,::::::,,,<315669000q008666343<<,,&,,>,,,<366ttyuyw85>&O.  OO$%:,458erypppre7422*2**",
"8886655533<,,,,::::***:***:*:*****:::::,,:<,,<<<3333<<,,,,<3560ttyyt961-$o  .o$$;:247erprppree772*****2@****2%*******2*******22%::***:***::::::2,<35560008653322::&*****2:22356655532:2********:::::,:,<550wttuut95>$+.  oo$&&,<77errpppre772***%%%*****:::,,,,,,,,,,<<58qttpytw61>$O. ..+$&,<360tppppppttt00t880qq0qqqqqqqqqqqqqq0qqqqqqqq0006143<<346qrtyitw64>$$   OO$:>3360wrppiire72222*222788067332****%%****22255888865322::&&:&>>,<<556680qq00886665513<,,,,,:,,<<3600tyuyr85>%O.  .O$&:,478ertpppr97722**@*",
"888665553<<,,::,:::*::**:***:*:**:**:::,:,,,,,<<3333<<<,,<33560tyyyt991-$   .o$$:224errrppppee722*************%2*************%*****:***:*:::,:,,,<356660886633::::&****:::23555665332,:*:******::::::,,<360wtuutw951$+. .oO$&&,370erprppre77222**%*****2:,,:,,,,,,>,,,458qttyytq61$$O  .O+$:,2368qpppppptttt88t0q00qqqqqqqqqqq0qqqqqqqqqqq00006643<<356qrtyitw64&$.   O$$&:2360wripiir77222*22227808655322***%%***22225788887532,:::,&>,,,<3<566000q00080665533<,,,,,,>,,<560ttyuuw01>&O.  O$$&:,450eryiprre742*2**@",
"68665555<<<,,&,&::::**:*:*:*****:**:::::,,,,,,<<<<<<<<<,,,,358tttputq6>>$.  .O+$::<55qrtppprrr722***%******2********************:*******:::::,,2<<4556000865222:***%****:222<5566533222********::::::,,<35qtttuut011$$o  oo$&&,<77eriiiirre722***%%*;;:::,:>,,,,,><>,<<59qwtuytw61-$o  oO+$&,,360tttppppptt088000qqq0qqqqqq0qqqqqqqqqqqqqqq0000114<<456qttuutq81:$O. .O+$:,,368tiiiiie07222%22356808675322%***%%**22223788888532:::::::,,,<35560800000t66665553<<,,,:,,,11169wtyuyw011$O.. O+$%:,450qtyiiyr07422***@",
"6565555<1<<,,,:,:::::******::*:***:*:::,,&,,,,,<,<<<<,,,,,<3586ttuutq61-$O. ..+%&,<360rtppprre722*****%****%*************2*******:*:**:**:*2,:,,,35568600865322****%***:::2<3556655322::********::::,,,<550qtuutw01>$$o. oo$&-,<77eriiiirr77222*****;;::::,:,<,<,,,,,<156wryuytq61-$o   .+%%,<360qttpppputt0t00000q0qqqqqqqqqqqqqqqqqqqwwq0w006641<<<46qqttutt81:$O. ..+$%,,368qriiiire72222223558086732222*********2237880855322:::::&,,,<<355006t000608665533<<,,,,,>>1116qwtyutw91>$O.  .O$%,,478etyipyre7422****",
"555555353<<,,,,&:::***:****::***::*::::,,,,,,<,<<<<<,<,>,,33560tuuttq61-+.  .OO%&>2560etrpppre722*2@@*******%*****2*********2%***:**:**:*:::,:,,<35566000885322****%***:::223566655322::*******::::::,,<560tttutt96>$$o .oO$&&,177erriiirr752*****%%;;:::,,,,<<,,,,,,<<59qwuuytw61>$O   O+$&:,360qttppputtqq0008000qqqqq0qq0qqq0qqqqqqqqqw00066141<<455qttuutq81>$O. .OO$%,,360wrppirre7222%2235788087322%%%*%*****2225788887532,::::::,,,<355668000t6668666553<,,,,,,,>>1199rtyutw91>-O. ..O$%:,450eryipyre7422**%%",
"55555533<<,,,:,,:::::****:****:***:*::::,>,,,,<,<>,<,,,,,,,3560ttuttq6>>$O  .O+$-,<560rtppprre7222**********2*******2***2*********:****::::::,,2335566000855322:**%*****:222355665532::::****::*&:::::,<3580tuuurq11$Oo .oo$&-,157eriiiire7522****%;;:::,:,,,,<<<<>,,<149qwyuytq01-$O  ..+%&,,560qttpppptttq0080000qqqqqqqqqqqqqqqqqqqqqqqq000064<<<<56qqtuttt81&&O. ..+$::,360wriipir0722%2%23358087753222%**%***+2225780887532::::::::>,<33560006t06t68865533<<,,,:,,,<1199rtyuyw91>-O. ..+$%:,178qryiprre722***%%",
"55535333<<,,,,&,::*:**:*:***:**:*::&::,:,,>,,,<,,,<,,,,,,,<356tttuutq61-$....OO%:,,589rrppprr7722*********2%************@****2**::******:::,,,,2335568800865322*2**%****::22556665332:2:*******::::>>,,<368qtuutr96>-Oo  oO$$>,178eriipirr05222**%%*;;::::,,<<<,<,<,><159wwuuytw61-$O   .+$&,<560wttpppptqq00800000000qqqqqqqqqqqqq0qqqqqqqq06615<<<116qttuutw61>$O. ..+$&><550wiiiiir072222%223688885532@***%*****2223770088532,:::::,:>,<355688000668666665333<,,>,,,,><16qwyyutw91>$$. .OO$&:,450qtyypyre7422**@%",
"5335333<<<<,,>,>:::::*****:*:******::::,>,,,,,,,<,<,,,,,,,<3506ttuutq6<-$....O+%:><47ertpprpre722*******%2**********@2******%%*%**:**::*::::,,,,335568008865322*********::223565655322:::*****:*:::::>,<368ttuuuwq11-Oo  .o$$>>157errpiire0722%**%@*;;::,,,,<<<<<>><<>151wwyyytw61-$Oo oO+$::2350wtypppttttq06600000qqqqqqqqqqq00qqqqqqwqqq000015<<<1180qttutw81>$O. ..+$&:,360wriiirr0722@222236800863322*%**+****2225588888332,::::::,,,<355580000t8t586653533<,,,>>,><116qwtyuyw96>$o.  .+$&,,378wryiyyr0942*2**%",
"3333333<<,<,,,,>:::*****::***:*:*::::::,>,,,,<,,<,>,,,,,,,<356qtuuutq6<&$.. .OO%:>257ertrpprre772***@********************%*****2:******::::,,,33355568000865332***%****::222555666332:::*****:*:::::,:,<550qttutt91>$$   .o$->>157eriiiirr8322@*@2**;::::,,<<<3<<<,<<<169qwuyyrw61>$O   .+$&,,560wttpppptt0q006000000qqqqqqqqq0qqqq0qqqqqq0q0601<<<<556qttuutq61>$Oo ..+%&,2360rrpppire7222222256888665322@2*****2**222788887532,:::::::,,<115668000t66688655533<,,>,:,,,156qwtyuyrq1>-o. ..O$&:,558qtyiprre7722***%",
"3333333<<<<,,,,>2::::**:***:******:::::,,,,<,<<,,,<,,,,:,,,3560ttuttq6<&$.. .O+$:>2470rtppprr7722*************2%2*****2%*2********:******:::,,,<25566880086532*2*******:::233556555322::********:::::,,<360tttuywq6>-Oo  oO$$><178ertiiire822%2**@**:::::,,<3433<<<,<>119qwyyytw61>$O   O+$&,<360wttpppptqq006068000qqqqqqqqqqqqqqqqqqqqqq0000665<<<<560qtuutt84>$O. ..+$&:2360qripprr83222+2225788885332@2+*%*%***2222588087522,:::::::>><<1568800t86tt8665533<<,,,>,>,,<169wtyutrq1>$$. ..O$&:<<50rryiyyrr9422***%",
"<<<<<<<<3333<,,,2::*:**:*:*:*****:*::::2,22<<<<<,,,,,,&,,,,358ttuuutq9>>$o   o$$->,16qwyppprre722***+2**;;;;;;;;***:*::*:***2****::***:*:::,,2<<3455680088654<>:********2*223556555322**:******::::::,,<160qtyyyt06>$$o  .O$&>>357ertypyree722**********222222523<<<,<356qttyytq8<-$o. .O+$&,,360wttppputwqq00600000qqqqqqqqqq0qqqqqqqqqw0w0006111111100wtuutw81>$O. .oO$&,,360wtyuutr06222%22257880755222***%%%****235788885532,&:*::::2:2335680000880088666533<,,,,>,,,<459eriirrq4,=Oo  oO$&>2277errppree772;****",
"<<<<<<333333<<,,::::********::*:***::2:222<<<<3<<,<,,,,,,,33588ttuurw11-$   oo+$>>156qwtppprre7222**2%%*;:;:;:;:::********:***:::*****:*::::,:,33456880008654<,::********22235666653222:******:*:::::>,<169ttyuttq11&Oo   +$&-,378eryyiyre77222***%***2**222355533<,,<<56qttyptq6<-$o. ..+%%,<360qtuppputtw06606000q00qqqqqqqqqqqqqqqqqqww00000161>11560ttuutq85>$O. . $$&><360wtyputt0722*2%222780887522*2***%%***22335808885322:::*:::::,23358800qt00088665533<<<,,::,,,459eiiiie84:$+   oO$&:227eerppprre7222**%*",
"<<<<<<33333333<,2:::******:********::,2,33333333<<,,,,,,>,<3580ttuurq11-$o  oo$$->1160wyrpprr7772*2++%**;:;;:;;;*::*:****:**************:::,,,224455680008653<,::***%****222555655532:**:****:*::::::,,<169wttyyt61>&O.  .O$$-,358ertipyre772****@%****22222355233<<<<<560ttyytw61&$o.  O+$&:,360qttppputwq00060000qqqqqqqqqqqqqqqq0qqqqqqqq006611111160wtuutw81>$O.  OO$&,,360qttuuyr08222%222278087752*****%%****2223888087532:::&&*:::2*23356800t000008865553<<,,,>::,,357rriirr851$+o  oO$*:2277eripppre772;***@",
"<><<<<33355533<<2:::*:***:**:****:::::,235553533<,<,,&,,,,,3550tuuutw91>$o   o+$->,56qwtppppre722****%**;;;:;;;:****:*********:**:*:**:*:::::2,3<4566890086542,:**%*****:::235666553222:*******::::::,,<169qtyyyt86>$$o  OO$&-,358eryiiyree222****%******222555753<<,<3568ttyytw01>$O  ..+%&,,560wtpppputt00060600000qqqqqqqqqqqqqqqqqqqqqq0006111111660wtuutq81>$O.  .$$&,,360qttpuye87222222227888875222****%****22355888855322::****::::2355880008t0000866553<<<,:,:,:,35erriiire1>$O   O+$%:227errppppre7222**%%",
",<,<,333555555332:::******:*:*****:::22235555533<<<,,,&,,,<356tttuutw11-$o   o+$&:446qrypppre9722***%%**;;;;;;:;::**2***::*:**:::******:*:::,,,<44568980067532,:*******::2,23556655322:*:*******::::,:,<169wttyyt06>&O.  .+$&&,378ertipyrre722***@*****222335555533<,<<560qtuttq61&$O. .O+$&,<550wtuppputww0606000000qqqqqqq0qqqqqqqqqqqqqqq00661111116qwtyutw81>$O.  OO$&:<360triiitre7222@2227788887522*****@***2*2238888865322:&******2*23357000t0q0005886555<<<,,,:,,,250eriytw91>$O   oO$&:2270erppppre772;2***",
",,,,,33335655533:2:::**:***:******::2:2<355555553,,,,,,,:,,3506tuuurw61>$o  oo$$:,,460rrpprpee742****%**;:;:;;;;***:********:*****:*:***:::,,,<3<5556890007552,::*******::,2355665332:::******:::-:::,,256qwtyuyq66>&$.  .O+&-,357ertpiyrr7722****@*****22355577533<<<356qttuutw61-$O. ..+$:>,460wtupppptww000066000qqqqqqqqqqqqqqqqqqqqqqqq06661111116qwtyytw01>$O.  O$$&,,550qtiiitr8722222233778077522*2********2225588887532:::*****%2*233578000qqtq0t06665544<,:>::::237erryuw911-Oo  o+$&>2277errpprre7222****",
",,,,,335566555532:::*******:******:::,2<556655333<,,,,,,,<<3560ttuutw61$$o  oo$$-,1480ryrppree742*2+%*****;;*******:*:*::*:*:****:*:***::::,,,,344566990067532,::******:::223556655322:::******:::::>>,<559wttyyt01>%O. ..O$&&,358ertipyrr7722***@*****222357775553<<<358qttuutq61>$O.  .+%&>,550wttppuutwq006606000qqqqqqqq0q0qqqqqqqqqqq00066111111160ttyuyw61>$O   oO$&:,360qriiitre722@22225780877222****%%****22255880865322:********2223588000tqqqt66666554<<,,:::,:258eriytt91>$O   oO$&-2570eripprre7722**@%",
">,,<<33355666533222:::*:*:********:::2<355666555<<,,&,&,:,<3560ttuutw11>$    o$$&,1460rrpppree7222****%****2****2:***:****:***::***:****::::,,3345568990007732,:***%%**::222555665332:2:*******::::,:>,<16qwtyuyw051%+.  .O$&-,358eryiiyre722*2********222355775533<,<356qttuutw61>$o  .OO%&>3460qttppuuttq006666000qqqqqqqqqqqqqqqqqqqqqq00006611111660wtyytw61&&O   o$$&,,368triiiir072222@2336808772222*****%****2357880875322:*********22357800t0qqq08t866514<<,,,:::2258eriyuw911$+o  oO$&>2377erippiee722;***%",
",,,,<<35566665532,,::&::**:********::223556665533,:,&,,:,<,356tttyytq61$$.. .O$$&,<56eetyiitee742*******;;;;;:****;:**;:********::***:*::::2,22345568800067532,::******:**23355655532::::*****:*::::,>,<16qtttuyw061$$   .++%:,377ertipyre0522****:&:::,22555666533<<<356qttyptq61>$O...oO$-,<360wttupputw00066606000qqqqqqqqqqqqqqqq0qw0w0006614<<<1560wyuutw61>$O. .oO%&,,360etiiirre722222222680887522%%**%%****:233688887532::**+%%+*%*2235700q0qwqwt600665143<,,,:,22358qttytw96>$O. ..O$&-2250eriiprree722**%%",
">,,,,<355566665332,::::::**::*****:::22355666553<<,,,,:,,,<3500qyuytq61-$.  ..+$&,,479etypitr9722*******:;:;;;2;***:*:;******::***:******:::,233456888q0007742,::*******:2225565655322:::******::::::,,<16qwttutt01>$$. ..O$%:,358eryypyrr7522*****&::,,223556665533<<336qwtyytw8>>$o. .o$$->,160wtuuputtw0066666000qqqqqqqqqqqqqqqqqqq00000066141<11580wtuutq01>$O. . $$&:2360etiiiire7422*22227780765222****%%***22255880875322*:*2%%2*2*2235800qwwqwq0006656551<,,,:,223580ttytt91>-+...oo$&-2278eriipprr7222****",
",,,,<<355666655532,:,:::*::********::23356666533<,:,::,:,,,356qttuytq61>$.. .O+$&><56erttpite9742****%%*;;;;;;;;***;;*;:**:***:*:******:::,2,23356688q00066532,:****%***:222356665532:2*******:*&::::,,<16qwttuyw911$$.  .O$%:,358eryyyyre772*2***&::::,22355665554<,<358qwtyptq61-$o.  oo$-,<360wtupputtq0666666000qqqqq0qqqqqqq0qqq0q0000006611<1,156qwtuutw81>$O   OO$*:3460eriiiire7222*2224688865332%%2*%****2*2356888875322::*%%%****22357800wqwwq0t006651133,,,::*2350qttyyw91>$o.  o+$&>2258eriiprre772:2**%",
",,,,,<33566666553,,,:::::::********::23355665553<::,&,:::,<3560ttyytq61$$....O$$&,,569rypppte9742***%%**;;:;:;:;****;:;*2***:**:**:*****::::225556688q0q0665322:****%***::233556555322*********:::::,:,<16qwttuyrq6>$O.  .O$%:,<58ertypyre7722****:::,,,22366666544<<<358qttyytw61-$o  .o+$-><160wttppptw000611666600qqqqqqqqqqqqqqqq0qq000066663<,11160ttuutw81>$Oo  .$$%:2360rtiiprr07222*22256808675322%+***%***2235588086532::***%****%2225880q0wqqw00066665133<,:,,*2350wtyytw96>$+.  o+$$-2250ertiprre772;***%",
",,,<<<<5556665533<,,,,::::::*******::2<355665533,,:::::,:,,3680ttuutq6<-$O...o$$&,<56qrripprr0742*******;:;::;:;**;;:;:;**::***:*:;;****:::2225566800000007532,::*******::2235666553222*:*****:*:::>:,,<16qwttuuw96>-Ooo .O$&&,458eryypyie0722**&::::,,<3535666555<<,<4560rtyytw61-$.. .o$$&><560wtupputtq0666161660qqqwqqqqqqqqqqq0qqq0006066113<<<118qwtyutw81>$o  .OO$%,,368eripiir0722*2*24568088752*2+2*%%*%**:2235888855322::******2222257800qwqwqq0008661333,2,:,22358tttuyt91>$$.  o+$&>2378eripppre722*****",
",>,,<<33556666553<<,,:,::::*******:::23355665532,::::::>,,33580tyuutq6<-$....o+$&,,55qrttpptr07422**%***;;;;;;;;*2;:;;;;:***::**;******::::22355686000q00675322:*******::2223556655322:*********:::::,,<169wtuutt96>$$o. oO$&>,<78eryyyyre74222*&::::,,<33566666544<22248qrtpytq61>$o.   $&&>>160qttpputwq01116666000q00qqqqqqqqq0qqq00q000066663<<<156qwtuytw01>$O. .O$%%,,360eripitr77222*222478807652222@******2*2256880885322::***%**%**225780qqqwqqq0086655533<,,,,*23600ttytw91>$o. .oo$&>2378etiiprre7222**@*",
",>,,,<<55566655533<,,,::::*::****:::222355665532,,,::::::,,358tttuttw6<-$.  .o$$&,<460rtipiyr0742*****%*;::;;;*;**;;;;:;:**:**:*:;;*****:2::33566600qqq0067522,:*******:::22555665532*:*:******::&:::,,,199wttutwq6>-Oo  oo$&&,<57ertypyrr072*2*::::,,,333366666543<<<458qryyytq91>$o...oO$-<<460wttpuutw006116166000qw0qqqqqqqqqqqqqq0000066611<<<<156qwuuutw01,$o   OO$&:<460wtiiitre72222*222688885522%%2*%%****2235588885532:::**%%%**22222700qqqqqqqq888665333<,,,,23550ttuutw91>-+.  oo$->2278ertippeee22***%@",
",,,>,<<35556565333<,:,:,::::*::*:::2:23355555532,::::::::,33580qtuutq6<&$.  .o$$-><560rtipiree7422******;;;;;:****;:;:;;*:***:*:*;:****:::22255566000qqq0075322:**%***:::,:235656553222*******&::::&,>,<169wtuutt96>$Oo  oO$&&<<58ertppyrr7722**:&:,,,<335566685643<<<456qrtpytw11>$O. .o$&$><450wtupuutw066161616000q0qqqqqqqqqqqqqq00000066661<<<<116qwtyutq01&&O.  OO$&>,488wtiiiiee7422*22225808855222***%*****22355880885322****%*****22227800qqqqqq08886555333<<2:23566tttuyt61>$+.. .O$$>2378erippree7722****",
">>,,,,23355555533<<,,>,&::&&::::::,,<<<555555332,:::&:::,,,358tttuyt961$$o  oo+$:,2469rrippteq8422******:**:***:*:**:***::*:*****::*****:::,335560006t6t56553<,>:*******2*223556555322,:;;***;*:::::,:,,360wtyyyt911$Oo  oo$&&,<58eriiiite8522::&::,,,<3355666665333<<<56qttuytw6<&$O   o+%&:<560wtuuputqq6611555666000qqqqqqqqqt0t06tt6000685553<<<355tttypt06<>$O  . $$&&<550wriipire722*2222568888553222%%*+***::225580888532*22**%***::223558000qqqqqq000666533<<<,<,3550tttytw06>$O. ..O$&:2368qttiiire8522**%%",
">>&,,,23335555533<<,,>,:::::::2:2,2,<3335555532,,&:::::::,33588tyuytw61>$o  oo+$:>258ertipptre742***:*:**:*:*:***:*::*:*******:********:::,233560600t88008653<,,&********2225566555322::;;%**;;;:::::,,<360wtyutwq6>$$o   O$&-,<58erriiirq8522::::::,<<3356660866533<<<56qttiytq6<>$O  .O$$&,<450wtupputwq851551566000000qq0qqqq8060t66606006553<<<<35600tyytt03>$O  . $$&,,360wripirr07222*22356808765322%%%*****:22335880865322*%+%%*%*:::23568800qqqqqq0088665553<<,<<<565tttytt01>$o. .O+$&,:368eryiitre73222**%",
"::,:,,,233535333<<<,,,,:::&:::,:22333555555533,,,:::&:::,,,3580ttuyr961>$o   o$$:>247qrtyiptre65222*:&:&:*****:*:*****::*::*****:*******:::233566600t60008653<,&****%%**:::235566552,::::;***;;::::::,,<568qtyuyt96>$$.   O$&&<158eriiiitq852::::&,,,,33556686866333<<<56qqtuytw81:$O. .OO$&:<460qruppttt0065551556800000qqqqqqq00t6668t00666655<<,<335ttttpt061&$O.  OO$&>,360qiippir8722*222337808855322@2*%*****22236888865322%+2*%***::222556800q0qq000088665553<<<,<<550tttyyq65>$$.  .O$%:2350etuppyrq5222**%%",
":&,:::,233355553<<,,,&&,::&:::,,23335555535332,,:::::::::,,3560tyuytw61$$o  oo$$:>247qrtipptee95222*::::*::*:*:***:::*****:****2:*******::,<3356688086t008653<,:****%***::223565855222::;;**;;*::::>:,,<360ttyutwq1>>Oo  oo$&>,158eriiiire8322::::,:,<35556680066633<<3580ttuytq61:$O. .O+$&><550qtuuuutw0851515566660000000qqqq00006t86080666533<<<3550qttptt01>$$.  O$$&,,360qripprre7222**223680866322@2+**%*****2256880855322*2@2%***:::23356800000qqq000866665333<<<<566tttytt05>$O. ..O$&>2358qttiiirq7222**%%",
"::::::,2<<3<3333<<,,,,,&:::::2223355555555333<,,:::::::,:,2358qttuutq61-$o  .oO$&><47eeryiitre85222***:::**:*:***:******:*:**:**********::223355600000t688653<,::******:2:22356656532,::;;;;*;:;:::>:,,<360wtyyyrq11$O.  oo$$>>157eriiiite8522:::::2,333558808066533<<356qrtyyte61>$O  .O+$*,,560wttppyttq8655155556808000q0qqqqt0006t6t088866153<,<<560ttyut061>$O.  oO$&,,360tripitre7322222225888875222********2223568808553222%%%%***::22235668000q0q0000088666533<<<<550tttytw81>&$. ..+$%>2358qttiiiee7522@**%",
"&&:::::,<<<533<3<,,,,:,,::&:::2<355565655353<,,,2:::::::::23580tyuutq61$$o  oo$$:><470etyppyrq9522:2::::::*****:*:*::***:*****:**::***&::::233556800000008653<,::******:::,<355665533,::;;;;***::::::,,2360rttutr06>-$.  oo$->>158erriiire8522:::::,,335568880086513<<346qttuytw61&$O.  .+$&><36qwttppttq065114155668880000qqq0q00t0t88888886653<<<<<568ttuytt61>$O.  O$$&,,550qrppiir87322*2222680885522*2**%*%***:235588886532%****%%*::::,235666800q00q00088866653<<<<<566tttyyr84>&O. ..O$%:,360qtuiiiee73222*%%",
"&::*:::,,,<<<<<<,3<,,,&,::::,:2335666655553<<,,,::::*&::,,2358qttuttq61-$o  oo$$-,<47eryipprteq5222*:::::*:*:***:*********::::***:****:::::233566600t000086332,&:*****&:2222356665332:::;*;***:*::::,,,,488wtyuyrq11$$.  oO$$>>178eriipire852:::::,,3333568880886513<<3560ttyytq61>$O....+$:,,560wtupputt865531555566880000qqqqqt00068t0808665543<<<<5580tyytq81&$O   oO$&,,360qriipieq522*2222568808552*2***%%****22236880865322********::2223566000000q0000088866533<<<<368tttuur94>%O. ..O$&:,368ettpiiee5222**2@",
"&&*::2:2,,<<<<<53<3,,,,,,::,,22355666655533<,,,::::::::::,33580ttuytw61-$    o$$-:<570eripppre85222*,:::*:*****:**::*:***:*****:***:**::::,23556800088t68865322:******::::223656565322::;;*****:&::::>,<360wtyutrw1>$$.  oO$$>>558eriippre77222:,,2,3355588800086613<<358qwtuutq61-$....O+$&:<450wtuppytt86543<155568888000q0qqq0000t86080666644<<<<<58tttyytt81>&O   o$$&:,368tripitr03222%2225688867522*****%%****22568808653322*******:::2355106000000q000000665553<,<<550tttutr94,&O.  OO$&,,358qttipree72222@@*",
"***::::,,,,<<33333333,,,,::::,33566666655<<<,,,:::&:::::,,<358qttyytq61$$O  .O+$::<46qwtyppytw863<,,,:::::**:**::***:*2**::**::*:**:**::&,:<3366880000008855322*:****:::,:<33556655322**:*****:;:::>:,,,360etyyyw01>-$.o .O$&:,258erriiit06532:,,,<<315568800008654<<<3599wtyytw61-$o   OO%*:<36erriiiir00553233555666800000qqqq00w0000088665544<<<<156qttuut061>$O. .oO%%*2350eiiiiir07222%2225788077522******%**2*225578077532********&::,,335660000q0q00q0000666553<<11169wryutr01>$$.  .O$&:2270rrppiire7522:***",
"****::::,,<,<<33333333<,,,,,<<335566665553<<,,,::::::::::,<3580typytq61-+.  .OO%-,<46qwtypptrwq652,,,:,::*:*******:*:************:*:::::,,<<3556800000008655322*:**:*::::23355666553222*********:::::,,3460rtyitt05>$+.  .+$&:,378eriiiitt8532,,&><<115568800008655<<<3569tyuytq61-$O  oO+$;,<568rripiirq6543<<<1156608000qqqqqqw00ww0008666614<<<,,416qqtuutt81>$O. . $+%*237qerippiee72222%22578087552222**%*****22256800877322******%&::,,2351660000q0qqq0000066553<<>1169wtyuyw91>$O.  O+$&:2277rrrpiir07722:**@",
"***::::,,,,<<<3335553333,,:,,<35566666635<<,,,:,:::&:::,:,,358qttyttq61-$.. .O+$&,<57qwtyppytw0753<,,:::::***:*:*:*:**:::**:*:*::*:*&:::&<,3556880000008865522::::&::::,2233556665332:**:******:::::>,,,450etyiyt65>$Oo  .O$$:,358eriipit00532,:<,<15666680000086541<<156qwyuytw61>$Oo  O+$&:<46eeiiipirq0532,,215566080000qqqqq0w00q0088666544<<,<<<16qtttttt81>$O.  OO$*2257qeripirr07222%2%2378088752*2***%@*****22368888753222%**%**::::2<3506000000q0q000006655333<1119qwtyutw91>$$. ..O+;:2277rrrpiir07222:*%%",
"***:::&,:,,,<<<535555333<,,,,<335666665533<<,,:::::&::::,,,3500ttyytq61-$O...O+$:><470wtyppytwq553<,,::,:********:**:***:**:***:*::::::2,,<355660088t0008655222::::::::,,,3355566553222:*******::::::,,3560etiitt051-+.o..O$&:,357eriiiitt0633,,,<1315668880q0086541<<159qwyuytw61&$O   OO%&,,550eripiirq65<,,,<115560800qqqqqqqw0w000886655154<<,,<456qqtuutq01>$O.  .$$*2227qeripiiee722%22222788077522**********2223570077522***%*%%%:::,,235660000000q0q00008665533<<116qrtyutr911$O.  O++;:227errppiire722*;**%",
"**:*&:::>,,<<33555555553<<,,,<355666655533<,2,:,,:&::::::,2358qtyyytq6<-$O  oO+%:,<45qrtyppytwq6533<,,:::::******:**:******:****&::::::2,,35558800t60008865322:::&:::::,,2<35566655322*:*******::::::,,,360etyitt81>%+.  .+$%:2258erripit0063<<,<<331866800008086511<<1569wyuytq61-$O  oOO%&22370eripiire732,,,,1116888000qqqqq0qqqqq0886551411,,<,<116qwttptw61>$O. .OO$*:237eeripirre722222235780877522****%%%**2*2357808875322***%*%*::::>11616000000q0000000066543<,<116qwyyuyw01>$$.  .O$&:2378rrppppr07522:**%",
"***::::,:>>,,<34556655533<<,<<33556665533<,,::,:::::::::,:2358qtyyytq6<-+.   O+$::<56qwtyppytrq6533,,,::::***:*:*:*:**::*:**:*:*:::::,:,,,3356880000000865532:2:::&:::,,,<35566665332::::******&::::,:,3560rryiyt85>%+.  ..$%:,258eriipit00553<,<33566688008t6086511<1169qrtuyrw61-$O   O+$&:237eeripitr0732,:2:115668880000q00wqqqq008665541<<<,,,<156qttppt081&$Oo ..+$*,,277eriipire7222@22357780775222***%%****22335880875322*2*****&,:,1111066000000q000006866553<<<<169wtyuuw96>$o.  OO$&:2378rrrpprre7722:*%%",
"***:&::,,,,,<<35556665533<<,<3355666655533,,,::::::&:::,:,2358qttyttw6<&$O   O$$&,2470wtyppytw00543<2::::::*:**::****:****:*****:*::::,,,3355688000t0088665322:::&&,,:,,,<335566655322::******:::::::,22360ettitt81,&O. ..O$%;2258eeiiiittt653<<33356688800t0008651<<<116qryuutw61-$O   OO$:,238eeriiitr07322:::1116680000q0qqqqqqq0008665441<<,,,,<1580wtpttw81&&O.  O+$&:,57errpiire07222@2235780877222*****%***%22257708875222****%**&&>>>116166000000q000000666511<<<<18qwruutr91>$$. ..O%%:2378errpprre722*:**%",
"**:*&:::::>,<<44566666533<<<33355566655533,,,,:::::::::::,23560tyyytq6<&$O  o.+$:>2570wtyppytrq0654<2:22::::**:***::**:*::**:**:*::&,:,,,335568000880008855<2,2::::::,:,<3355656653222::*****::&::::,::3370etiiitq5,&O....O$+22258eeiipitt8653<<335568880000q0086611<<119qrtuutq61>$Oo  OO%&,,370rtiiitr0732:::2>1156680000q0qqqqqq00866514<<,,,,,,,1180ttyptw81,$o.  .+%&,,270rrpppiee72222%2357708772222****%****22257880873222*******&&>>>11166660000q0000000066651<<<416qwtuutwq1>$$. .OO$%:2378erppppre7222::%*",
"*:*:::::,:,,<<55556666533<,<<<355666655533,,,,&:::::&:::,,,358qtyuutq61-$o  oo$$&,<36qwtypputt00653322,,,::::&::::***:***::***:**::::,,,<<3556800qq00006855522:::::::,,,<<3555666553222*********::::,,,,550wtiiit05,-Oo  oO$&->1500tttputt06531<3355688800wq0q06611111156qtttttq61&$O   O$$&>156eerppprrr772;:22227777770000qq0qqq00886555<<,<,,,,,,<56ertpytw611++   o+$*:,550wtiiirre732*2*2226888855322%%*******2222560086553,:::&:&**:::22335666680000q0q00000611111<<350tttyyt65>$$   oO$->,368erypiyr07442%%@*",
"***:*::::,,,<<33566665553<<<<<<55566665333,,,:::::&::::::,,3580ttuytq61&$o   o$$&,<360qtypputtq085533,,::,::::&::**:***::********::::,,,<34566800qqq00088553222:::::::,,<<355566655322::******:::::::,,3360wtiitr85,$+o  .o$$><158qttuputt065133155668000q0qq00066111>118qttuttw61-$Oo  oO$&>>46errrprrre7222:;::22227796000q0w0qq00086533<,,:,,,:,<346qrtyptw61-$o   o+$&><460wttiiirq7222*22225808863322@2**%%***22235888885332:,::&::*::::2333566688000qqq00008666111<35600tyytt81>&O   oO$&>,350qttpptre7422****",
"*:**&:::,,,,,335666666553<<,<<35566665553<,,,:,::::&::::,,,358qqtyytq61-+o  .oO&&,<560ttuppptttq8555332,,:,:::&&:**:*:*********:*::,,,,2<355588000q00088855522:::::::,,,,<35556665532::**********::::,,<550wtyiit05>-O.  oO$&->158qttuput000651533568800qqqqq0006611<15560ttuutw61-$O   oO$-><46errppprre722;:::22274777000q00w0qq00865533<,,,:::,,,<56qrtyytw81>$o.  oO$::<450wtipitre732222223688085532%2+*@%*****2357600885532,,:&&:::*:2:,2355566880000qqq0008665511<<550qtyytq86>$+   oO$&&,559erypyyre7422****",
"***::::2::,,<<355666665333,<<<<55666655533<,,,:::::::::,:,,350tttytt061-$o  ..$$&,<560qtypppttqq8655333,,,:,,&::*:***:*:*:*:****:::::,,,<3456880qqqq008855532:::::::::,,,333556665332:2*******::::::::,<370wttitt05,$$.  oO$&-<<58qrtpputtt8535155568000qqqqqq006151<115880tuutw81-$O  oO$$>><46rrrrpppr77222::;:22247776600w00w0q88865533,,::,::,,,356qrtypyw81>$Oo  o+$&:<460wtipitr07522*22377808673322%2*******22237880866533,,:,:::::::,,23335568800qqqqqqq008651<<<3360ttyytt81>$Oo  o$$&>,378ettpiyre722****%",
"**:*:::::,,,,33356666655<<<<<<35566665553<,,>,:::::::::,,,23580tyuttq6<&$o  .o$$&,,3600typpppyqq0665333<,:,,,::::****:***:**:**:&:::,,<<334568808808q088655322,::::::,:,<3335666655322::*******::::,,:<<360wtyuyq05>$$.. Oo$&:<<58qrypuuttt655111566800tqqqww00665<5<<1168tttttt61-$o   .+$&,,56eerppprre7222*;2:,:444776000qq000000655322,,:::,>,,,2560rtypte81>$Oo  O+$&:,370wrtpiyr08222:*222788887332%***+%****2223768008553,,:,:::::::,:,,2316566600qqqqwqq006655<<<<366tttytq84>$+   Oo$$&,350ettiiyre7422****",
":****::::,,,<335555665533<<<<<<5556665533<,,,&,::::&::::::23580tyuttq6<>$o. .o$$&,<360wtupppyttq0865533<<,,::>:::::***:***:*****:::,,,,<<55568800t080088855322::::::&,,,,335566665532:2::******:&&:,:,,<550wtyutt06>$+.  .O$$&,<58qwtppptt086551556680080wqq0000655<<<<56tttutt061-$o   O$$&><36errrpppre7222;;*::44444766600000006065532,,::::&::,,259qeyyytw81>$O   OO$&,<578wtiiptr0722:2222278807752222****%****2255800886553<,,,::::::::2,2333656880qqqqqqq000651<<<<568tttutt84>&O    $$&-,568erypyyre842****@",
"***::::::,:,,<33566666555<<<<1555655555<<<,,,&:::&&::&:::233580ttuytq6<&$o   o$$:,2560ttypppyttq00655333<,,,,::::*******:**::*::::::,,,<34556880000t888865332,,:::::::,,<<355566553<2::*********:::::,,<368tttuyw01<$+.  .O$&,,<50wwtupptt08555155668000w00ww006653<<<1560tttut861-$O   O+$&,<36errppprr7722;::2:422444766000000000665532,:::&&::,,<256ertpptw81>$Oo  o+$&:,370wttiiyr0732::2225680885532%*****%***22255680886533<,,::::*::::,,,131566000qqqwqqq0006551<<3360tttuyt04>&OO  O$$&-,379qtyiiyr07742****",
"**::::::::,,,<33355655535<<<5<<555665553<,,,,,,&:::&::&,:223580tyyytw6<&$o.  .$$&,2370qtyppputt000665553<,,,,:::*::**:*::**:**::::,:,,<<345566800000088655522,,:::::,,,2<<3556566552222::******:&:::::,<550qtyuyt85>-+....OO&&<150qwtpppttt886555568088t0www0000555<<<3568ttuutt61-$O  o.+&&&<56rrrrpppre722::;::::224446660000088666533,,,:::&:::>,256qryyytw81>$O   o+%-:<370wrypitr07322::22568886733%22+******22225788006655<,,:,:::::&:,:,21111566600qqqwwq0066555<<35500ttutq05>$+   oO$&-,358ertppyre8442*2**",
":*:*::::::2:,223155555555<5<55555555555<2,,,::::::*:&:::,,,358qttutt061-$o  .o$$&><550wtpppptttt00665553<<,,:,:::**:***:*::*:::::,,,,,<<11166680000006661511<,::&:::,>,,<<555566653322::********::::,,,<360tttutt06>$$. ..O$%:,<560wyuppttwq6666666600qqqwqqq006651<<<3568ttuut064&$O. .O+$:,,567rrppprre722;2**::,,22445768800086665533,,::::&:::,,358qrtuutw91>$oo  o+$&>,470wriiiie8732*2*222788887532*2****%**2*223778008853<,,,,:::::::22,211<5666000qqqwqq008655<<<<568tttytw05>$O   OO$%:,378eryppyre854,22**",
"***:*:*::::::2,331555555551551155555133<,,:,::::::*::::,:,3358qttuutq6<-$o  .o$$-><5600tppppttt0t606555<3<,,,,::::*********::::::::,,,,<1155680000000666611<,::::&,:&><<<3355666655322:::*****::::::&,,,356ttyuyt05>&$. ..O+%:,366qtyuppptwq066166680qqqqqqwq000655<<<356tttuutt6<>$O   .+$::,36errrpppr77222;;*:::,:22457680888866553332:2::*:::,,,348qrtyutw91>$o   o+$&>,470wiiiiree7322222227888853322***%*****22257700885533,,::,:::*::::,,111556600qqwqqwwt8866<<<<<565tttytt61>$$o  o+$&:,35qqttppirr8542****",
"***:*::::::,,,,,<555555555555555545453<,,,:::::*:*:::::::,,3580quuutq61&$o  .OO%&,<560ttppppttttt0866553<<<,,:>::*******:*::::2:>,,,,<<<1156668000008665441<,,::::,:,,,<<5555666655322*:*******::::::,,<566tttuyt66>$$.  .+$&:,<56qttuppptt00666668800qqqqqwq006651<<<<55ttttut661&$O. .O+$&,<56errppprre722****::::2,22556880886665533,,::::**::>><357qryuutq61>$+   oO$&>,370wriiiire7322@2224780885522*****%*+2*2225580088653<<,,,::::*:::,,2111556600qqqwqqq0006651<<<368ttyyyq05>$O   oO$&&2259ettppyrr954,2@2*",
"::**:***::::::,2<<11555555566555555533<,,:,::::***:*:::,:,<368qttuutq61-$.  ..$$&><460qtpppputt0000865551<<,,,:::****:*:*:::::::>>,,<,<<111666800000865543<,,,::::&,,,<<3335666655532::::******:::::&,,<350qtyutt66>$O.  .O$&:,350qwyyppttw00666688000qqqwqqq00065<5<<35588tuttt61:$O.  .+$&,<36rrrppprre7222;***:::::223556688665653332,:::::::::,,<56qrtuutw91>$o. oo+$&><370wriiiir8732222225888085532****@%*****2237880886553,,,,::::::::,,,1115666000qqqwqq0086551<<<568tttytt05>$$o  O$$&:2359ertpiyre874,222*",
"***:***::*::::2,,<311555566665555443322,,,:::**:*:*:::::,,<356tttuutq61-$O  .O+$-,<5680tuppppyttt66666555<<><>::::****:*:&::,::2>,<,,<<1155668000008665544<,,>:::::,,,<<<555566665332:::******:*::::,,,<368tttuyt01>&$   OO$&:,3560tupppptww000088800qqqqwqqqq06651<<<356tttttt861>$O. ..+$&:,367rrrpprr77722***=**:2:2235588866655533,,:2::::&::,,,156qryuutq61>$Oo .o+$&,,450wriiirre7322**:238788772222*********22257880888533<,,,::::::,::,2>115166600qqqwqqq086651<<<55ttttytw81>&O   OO$%:,459rryipyrr874<2*::",
"*::**::*:**::::,,<335155556556655443,2,,:::::*****:*::&,:,,35000uuttq61&$.  .O+$&,<466ttupppyyttt0t66555<5<<,,,::::*****&::::,:,,,,<<<<1511668800088665543,,,:,:::,:,,<<<3566666655322,::******:::::::,<368tttutq06>$$    O$$:,3680wtppppttw000088800q0qw0qwqq08655<<<<5660tuttt81&$O   O$$&,,36errppppre722;***#**::::225558586555332,,,:::*::::->,116qrtuutt91>$O. ..+$&:,460wiiiiire722*22234780887322****+*****22237880885553,,,,:::::::,,,,111666000qqqqqqqq00651<<<<5568ttyyw04>$$   .+$&:2459rrrppyre075<;2,:",
"**:***:***:*:2:,,<<115556566655554333,,::::*******:::::::,<3580ttuutq6<:$.  .O+%&><468ttpppptttt0t6066555<<<<,,::::*****:::::,,,<,<<<1111566680000886611<<,,>::::::,,,<35<55666666332:::*****:*::::,,,,<5500ttyyr06>&O    O$&-,368qttppppttqq00088800q0q0w0qqq08651<<<3568ttuut061>$O  .O+$&,<56errppprre7222********2::24555855553<3,2,::::*:::-,-1156qrtuutw91>$o. ..$$&:<460wriiiir0732**22357808872222*******2**2227888085533,,,:::::::::,,21111660000qqqwwqq006551<<<568tttutr04>&OO  OO$&-:478erypiprr07532:2,",
":**::******::::,,,<<<155566565554433,,,,:::::****:*:::::,,<358tttuttq6<&$.. .O+$&><568tupppptttwt6680665555<<,,:2::::*:*:::::::,>,,<<1155556880000886151<<,,>:::::::><<<<5555666555222::********:::::,,,360tttyyr06>&OO  OO$&-,310qwtppppptw000088000qqqw0w0q000655<<<356ttttutt61&$O. ..+$&,<36rrrpprrr7722;****#**::222455555553<<22::2:::::::---1159qrtuutw61>$O.  oO$&,<550wiiiiir07222*2334778077222*2***%****22223880886553<,:,::::*::::,,116116000qqqwqqqq0065511<<368tttuuw94>&O    $$&:2478rriipirr05532::,",
":***********:::2,,<<33355555555553<<,,,:::&:*****:%:::&,,,23580tuuutq61$$o   o$$-><16qwtpppppptt0t00066655333,,>:::::&&::::::,,,,<<<355556668000000655533,,:2::::::,22,3445566666533<,:::*****:::::::,,<58qwtyyurq11$$o. .O$$->1680wtupppputwq000000q0qqqqqqq0086553<<449qttyytq61-$O...o$$&><167rrrpprrr772;;**#**;:::42445554433<<,,:,::::::::::>,3580wuuutq61,$O. ..+$&:,360eriippre7422*2222788887532*****%%%::2,35688008654<<,,:,&::&:::2,,2235566800qqwqwqq006554<22370rryutw96>$$.  oO$-><356wryppyte8652,,>,",
"**::::***:*:::::>,,<<335355555533<<<,,,,::::******::::::::2358ertuuwq61>$o  oo$$&><56qwtpppppptwtq000666655533,,::2::::&::::::,:><<<33555660000000066533,2,,::::&,:,:233445666666553<,::********:::::>,<<59wtyyyr01>$oo. oo$->11100ttupppptwwq0000000qqqqqwqq0086533<,456qwtyytw61-$o...oo$->116errppppre7222;**2#**::::244444443<,,>,:::::::;:::,><358qwtuutw91:$O. ..$$::<370eripirr07222**2247888673322**+2**%:::,<5560888651<,,,>:::::::::,,,,<555880qqqqqqqq086544<23570rtyuyw91>$O. .oO$$>,35qettypytwq642<,,>",
":******:**:*:::,>,,<<<33555535133<<<,,,:::&::*****::::,:,,2258ettuutw11$$o  oo$$&,<150wtpppppptt00000666655333<,,,:::::::::::::,,,<<5556688000qq0086553<<,,:::::::::,,<3445666666533,,,::****:*::::::,,<559wttyyrq61>$.  oo$$>>110wwtupppttwwqq0000qqqqqqqqqqq08653<<<256qwtyytq61>$o. .oO$-><16errppprr7772:;**@@**:::4,4444444<<,,:,:::;;:::::::,,2580ttuutw91>$O.  .O$&,<470eriiipre742222227780887532*2%@@%**::,,35588086655<<,>:::::&::::,,,,33566800qqqqqwq08655<<23380etyytr96>$o.  oO$$><370eryppyrw065<,,>>",
":*:**:***:**::::,,,,<<3313133531<<,,,,,::::******::&:::::,23780ruuutw61>$o   o+$-><160wtpppppptttq000006665533<<,,,:::::*::::,:,,<<355568800qqqq0066553<,,,,::::::,,,,<334555666655<2,::*******::::::,,<169wtyyyrq1>$Oo  .O$$>>160qwtpppptttwqq00000qqqqqwqqq0086552<<4599ttuytw61-$o  .o$$>>116rrrppprre722;******;;::,,,444442<,,::::::;:;;::::,,,3580wtuutw81>$O. .O$%&:2470eiiiprr0772**22257888673322**2%%%%:::,355600886543<,>,,::::&::,:,,33355680qqqwqqq0006544<<337qetyyyr91>$$. ..O$->,356eryppytw0643<,,,",
"***::****:*:::::>,,,<<<<334<333<<<,,,,,::::***:**:*:::::>,<358ettuuww61-+o  oo+$:,<47qqtypppyytq000006066665111<,,,:::::::::::,,,<<3166800qqqqqq0065553<,,,::::&:::,,,3315556666655322::*****:*::-::,:,<550ettytr96>$$o  .o$-->1600wppppppttqqq0q0qqqqqqqqqwq008654<,24569rtyytw61-$o   o$$&><167rrrpprr7772********::::,41242242,::::::;;::::::::,,3580wtuutw91>$O   OO$%,,460eriiiir07222**222780085532*:***%***:2,35688008664<<,,::::::&::,:,,,<3356800qqwqqqq00655<<<3469rtiyyw91>$$. .o+$->,350ertipyteq742,,>,",
"*:*****:****:::2&,&,,,<<1<1<11<<,,,,,,:::::*:******::::,:,,358qtyuutq61$$o  oo+$:><56qerypppyyttt0000006866655132,,:::::::::,::,,<<5556000qqqqqq0006553<,,:,,:::::::,,<3315556666633,::::*******:::::,,2360rtyyytq11>Oo  oO$&-<1100wppppppttwwqqq0q0qqqqqqqq0000554<4,446wrtpytw61-$o. .oO%&><56errppppre722:*******;::2:4,222,,:2::::*:;;;;:::::,:,3480ttuutq91>$O   OO$*,,360eriiiir8722*22222788887522::******:::,35588086651<,,,,::::::::::,,<<3556800qqqqwqq006554<<2460rriyyw91>$o. .oO$$><350etyppyteq753<,,>",
":*:**:*::*:*::::,,:,,,<<<<<<<<<<,,,,:,:,:::**:****:*::::>,<3580tyuyt961>$o   o+$&:<47qetpppppytqt000008088655444,,,,,,:::::::::,,<1556680qqwwqqq0066533<,,,:::&::::,,,,33555668665332:::*******::::::,,,470rtyyyw91>$Oo  oo$&->110qwpppppptwwwqqq0qq0qqq0qqq0088554<11119qrtyytw61-$o...OO$&,<46errppppre7722;***@**:::2:1,4222*,:::*:**;;;:::::,:,23580wtuutw91>$Oo  oO$&:<460wriiirre7222*2225788875332**:*%*%**:2,355800886553<,::,::::::::,:,,<<556800qwqqqq0066553<<3470wtyytw061$o.  .$$$>,470qtyipyte8743<,,>",
"**:**:*****::::::,,,,,,,<<<<<<<<,,,,::::::::*****:*:::::,,,358qttuutw91$$oo oo$$-,<37qetppppyytt00t00000886655443,,,::::::::::,,,111568000qqqwqq0005553<,,,:::::::,:,,<351156666655322,:*******::::,>>,<470wtyytt96>$$oo .o$&-<<60qwuppppptttqqqqqq0qqqqqqq00008654411116wrtyytw61-$O. ..$&&:,55rrrrpprr7722;*******::::::1:*222,::::***;;;;;::::,:2348qttuutw81>$O. OoO$&,,360wiiiiire522*22225780887522*:********:,<56680866543,,,,,:::::::::,,,<<35680qqqqwwq0006543<<3478wtpyyw01>$$. ..o$&>,356ertppyrrq753<,,,",
"*::*::***:**::::::::,,,,,<<<,<,,,:,,:::::::******::*:::::,,358qtyuut961>$o  .++$:,,57qwrippppytwt8600t66088661443,,,:,:::::::,,,>1155680qqqqq000006655<<,,:,:::&::,:,,2<44555666555322::********::::,>,<550wtyyyt06>$Oo  .O$%:,3100wupppppttwwwqq00qqq0qq0qq0086554<<<<56qttyutq6<&$O  .O+%&,<367rrppppre7222**%*****2***222*2*2::::*******:;::::,,,3480ttuutw81>$O. .O$$*:,550wrrpprre7222*2222888885522%2**@***::2223588088654<<,,,&::::&:::,:>,<35566068twqqqq08655<<<<56qwttutt81>$O.  .$$&&,450wryiyytt06533,,>",
":******:*:*::*::::,,::,,,,,<<>,,,,::,:::*:*:::*****:::::,,<358qwtuttw61$$   .o+$&><470rtyppppttwt0t000t80086665433,,,::::&::,:,,<<156680qqqwq0t0000654<<,,:::::::::,,,<44455666665332:::******:::::::,,<16qwtyyytq11&$o  oO+%:,3660wuppppptwtwqqqqqq0qqqq0000086554<<<<56qwtuutw8<>$O  ..+$&:<36eerppprr0722***********22*@22*2*:::::****:**:::::,,,3580rtuutw81>$O.  .O$&><460wiippir8722*2*2225888885322%**2@***::2245880886543,,,:,::::&::::,,,<355660t08qwwqq006614<<<45qwtyut086>$$. .oO$&>,450qttpuytqw6513,<,",
"***::**:***:*:*::::::,,,,,,<,,,,,::::::::*:****:::*::::,:,,358wttuutw61>$o  .o$$>:<470wrppppyytt00t00068008865513,,,,:::&::::,,,<<155688qqqqt0t80066531<,,,:::,&:::,,,<<1455666655532:2:********&::::,,<550wttyyt61>&$o  .+$&:,<10qttuppppttwqqqqq00qq0q00000086554<<<3590wtuutq61:$O   O+$&,,56eerppprr07222%*%*%**@2***22*#2@2::::*******::::::>>,348qrtuutw81>$O.  .$%*:2450wrpppir77222*2225780885322%****@**:::2356880886153,,&::,:&::::::,,,<3<566800twqqqq006554<<4160wtyutt61>$O.  oO$&&,<58wrtpuutq06553<<>",
"*::**:***:**:*:*:::::::,,,,,,,>,:,:::::*:***:*****:*::::,,2358qttutt961$$o   o+$:><570wtppppyttwt860006t00086551433,,:,:::::::,2<1556680qqqqq000000555<<,,,,::&::::,,,<344555666655322*::*****::::::,:,<160wttyyt86>$O   .O$$:,360qwtuppputtwwqq0qqqqqq000080866514<,<<568ttuutq61:$O. ..+%%><36errpprpr0722****%**********22*2@::*::****:**::::>:,,356qttittw81>$O.  oO$&:,460wripprre7522222258888855222%2*@*%**:22347880866513<,,,:::::&::::,,,<356680008qqwqq086544<<4160wtyuttq1>$$.  oO$&><450qttpputtw8533<<<",
"*::***:***:::**:::::::,,,,,,,,>:::::*:*:**:*:***::&::::,,,,3580rtuut991>$o   o$$&,<46qwtpppppptrq000t0000088665544<,,:,:::::,,,211556680qqqq80080086531<,,,::::::::2,22345556666653332*********::::>:,,<160qryuytq5>$$   OO$&:,<600wpppppuuwwqqq0q0qqq0q00000065553<<<<56qttyytq61>$O  .O+$&,<367erppprre742*********2******2***:*:****:***::::::,,,256qrtuute81>$O   O$+*22478eripitre7322*2223580085522%%*********223588008655<,,,&,:::&::::,:,,<35566000t00wqq086544<<<160wtyutt64>&O. ..O$%:,458qwyupuyt885533<<",
"***::**::****:**&&:&::::::,,,,>>:::::*:*:*:****:*&:::::::,,358etuuuw96>>$o  oo$$:><450qtpppppptrtt00606tq00886555<<<2::::::,,,,3515668000qqqt6t0006655<<,,::::*::::,,,33145566856553222*:******::::::,,,160ttyuyq66>&$    O$&:,310qwuppppuuwtqqqq0q0qqq000006666533<<<<56qttyyt061-$O. ..+$&:<36errppppr07222*************2@@**2:**:*:***:***:::::,2<58qrtiitw8<>$O   oO+**2470riipitre522*2*23278888752*22***%****22245880886543<,,,::::::::::,,,,355600000qqqqq088554<<1160wtyutw04>$$  ..$$&,,460qtyupuyqt86553<<",
":***:**::****::**::&:::,>,,,,,:::::******:**:*****:&:::::22368qttuutw61>$o  oo$$&><560wtpppppitr000000000qq88665544<2,,:,::,,,3351566800qqqq6t06t68553<<,::::::*::::,,235457666865532***********:&:::,,<160wtyuur05>$OO  .O$&-,310qwuupppuuwtqqqq0qqqqq000000666333<<<3560ttyutt61>$O. .O+$:><56eerpprpre742***%********************::*:***:::::,,,,238qrtiitw04>$Oo  o$@*22470errpiir07322*22357888852222%**%***:2*2356600086543,,,,,&:::::::,:,,,335660000tqqqq086644<<1160ttyutt84>$$.  OO$&&,458wtyuuytt08653533",
"*::**:****::*******:&::::::,:::,::::**:****:**:**:::::::,:2358qryuutw61$$    o$$&,<46qwtpppppitrtqt0008tqqq00866554322,,,,,,233315666800qqqqt6tt068553<<,,:::::*:,2,2234555666856533222*:******::::&,>,<160wtyuur06>&$   .O$&-,360qwtuppputuwwqqqq0q0qqq00800665553<,<<568tyuytq61&$.. .O+$&,236errppprr77222***%**@2***2********::******::**::::>:,358qrtiitw64>$O   oO+@22470riipitr0822**223388888522*2**********2356888886553<<,,&:::::::::,,,33556600t000qqq08854<<11168qtuutw84>&O.  .+$&:,456qtyuuyttt0855453",
"**:***:2***:*********2::2:::2:::::*:*****::*;**;*:*:::::,,,<58wtyuyt061-$O  ..+%&,,5600tpppppttqq0qqqqqqq000006661611111>>><<<1566660000q0qwwqqqq0011111:::::*:::::,<3335566688665532:::********:::::,,<360wtyytt911$Oo  .o$&&,<58qtyippppttwwqqq0q0qqq000006066533<<<355ttttptt61>$.. ..O$-:<16qtttiitr07322********************::*:***:*:*&::::>,,116qrtuytw91>$O   o$%%,,360wtyyutre7222*22225800665322%2**%****22223000066653<<,,,,:::::&,:,,><155680000t0t00006643<<<460qttutw91>$Oo  o$$$>,458wrtpppytw0855533",
":**::******:*:*:******::*::::::::***:*:***;;;:;;***:*:&,,,,<58qtyyyrq61&$.  ..+$&><366ttpppppttttqqqqqqqq0q000006601611>>1<1<55566660000qq0qqqqq0060611>2:::*:*:::,,<35556666686655322::******:::::::,,<360wtyyywq6>>Oo  oO$&-,<58qqippppptrwqqq0qqqqqqqq0000665533<,<3558qtttt061-$o  .o$$-,<160wtypitr07222*2@**********************:*****:::::-,<156qryyutq61>$$   oO$&:<360wttputr0722*2222278886733222+**%%***222375008065532<,,,::::&:::::,<<1556800000006q088544<<<560ttuuyw91>$$oo oo$&>,<58qrtpppttwq085565",
"***::**:*******:%**:***::::::::::::***:*::**;*;;*:::::::,,,3580ttuutq6<&+....O+%>><55t0tppppptt0qqqq0qqqqqq0000006661111111<15566000000q0qw0qwwq006111>>:::***:*:::<<3556666888665332:2::******::::::,,<360qtyuyt96>$Oo  oO$&-<156qtpppppptttwqqq00q0qq000000665533<,<3560ttttt061-$o...o$$-><160wttpiyee7322*@*******2**********:*:*:*:***:::::>,:,158qrtyutw91>$O   o$$&>,360wtypytr87522*22236808665322%%********22578000665553<,,:::::::::,,><<<1568000t006tq0866431<<558qttutw961$Oo  oO$&-,468qtyyppitrq056656",
"::****:*****::**2******:::::*:::**:*:******:;:;;**:::::::,<3580tyuuy061&$O...OO%&,<356ttppppptttqqqqqqq0qqqq0000006661111111556800000000qq0wqqq00066111>::*****::,,<335666888886553322::*******::::>:,,<360ttyutwq11>oo. oo$&-,158qwppppppytwwqqq0qqqq0q00088866553<<<356tttuttt61-$O. .oo$-,<160qtypptr0732**************@2**2****:***:*:*:::::::,,158qryyytr91>$O   oO$&><360wtyiptre722222233780885332*2%**@%***22237660806653322,,,::::::::,,<1<556800000tt6q888543<<<460ttuuuw91>$O   o$$$><150qttpppitrq006666",
"**:**::********:**:*:**::::*:::**:*:**:*;:;::;:*&&:&::-:,,<358qttuyrw6<-$O. .O+$&,1560ttppppuut0wqqq0q0qqqqqqqqq00066116111556660000qqqqqqqqqqw0006511>>::*****::,,<33566888888665532::::*****:*::::>,,<360wtyyyr01>$O.  oo$$>>156qrtipppytqwwqq0qq0qqq0000086655<3<<<3560ttuutt61>$o  .o$$&><460wttuuyr77222****#*******22*****::****:**:*:::::::,,119qrtuutw91>$O   o$$%:,360wttpitrq8222*2*2268887733%2%%********223780008885533<,,:,::::::,:>,<<55680000t6ttq088553<<3360qttutw91>$$o  oo$$>,<50qttpppttteq08666",
"*:*:*********:**:**:*:**::*:******:**:**;;;;;;:;:::::::,,:<3580tyyytq61-+.  .O+%&,<1800tppppuuttwqq0q0q0qqqqqqqq00000661556166880qqqqqqqqqqqqw0w0665111>:*******::,<35566688888865332,::*******::::::,,2388rttutr06>-$.  oo$->>150qrtipppyttwqqqqqqqq0qq00886666553<<,3580qtutt061-$o  .oO$&><560wtuputre722*******************@***::*******&:::>,,,1580rtuutw61>&Oo  OO%&><460wttiptr0722;22223668077522%2**%*%***2223760008865533<2,::::&::::,,,<31566000t6t66q086511<<2560ttyuyr91>$O   o$$-><458qtyyppptrq008666",
"**:*:*::****:*:*:****:*:******::::****::;:;;:;;::::::,-::,,358qtyyytq6<&$O  .O+$&><560ttpppputt0wqqqq00qqqqqqqqq000066615565668tqqqqqqqqqqqqqqq006651<>>:**%****::,235666688088665332:::********::::,,,,480wtyuyrw11$$.  oo$$>>158qrtippppttqtqqq00qqq0000886665<<<<<<336qttytt061>$oo .oO&&><450etuiitre7222*********2********2:**::*****:*:::::,,,119qrtuutw91&$O   o+$%:2460wttiiirq7322;22276808875322%**%%%*2*2225760008865513<2:2:::::::::,,,<15660000t6t800865111<<568tttutr06>$$o  oO$$>,468qwypppyttw008866",
":********:2***:***::***:*:*::******::***;;:;;;:::&,:::,:,,,366qttyytq6<&$O  ..+%&><360qpppppttttwwqqqq0qqqqqqqwq0000066665666686qqqqqqqqqqqq0q0006611<<>***%****::,23556666t8888655322:::*****:::&:::>,<368wtyutrw1>$$.  oO$$>>558qrtipppytttqqqqqqqqqq0088866615<<3,<356qttyttt61-$oo .o$$&,<460tttputr7722*******#2*************:***:*:**::::::>,,119qrtuuyw91>$O   OO%&:2360wttiitr0732;2;225780867332%****%*%%22223760008865533,,2::::::::::>,,<155600006t86q0886511<<368qtyuyr01>$O   oO$->,<58qttppptttw008888",
"*****:*:*:**::****:2****:*******;*;****:;;;:::::::,:,&:,,,2358etyyytq61-$.  .O+$&,<550ttppppppt0wqqqq0qqqqqqqqwqqqq000666666880tqqqqwqwqqqqq000006653,,:&:******:,,2335860808886553322**:******::::>:,,,360rtyyyt811-O   OO$&-,<568tpppppptttt80qqqqq000088666544<<,<<<500tttptq61>$o   .+$&:236errrpppre7422*******;;**;;:*;;;;*:**::***:**:::::,,,<56qwtuutq61>$O   oO$&:,360wriiptr07322*2222780887532****%*%***222278800086553<<,,>::::*::::&,<<3356880t806t0006653<<3550wtyuyt81>$$. .O$$&,23580tyypputtqq08886",
"*:********:****::*****:***:*****;:;:::**;:;;;:*2:::,,,:,,,2358qryyytq61$$.. .O+%&,,5600tppppppttwqqq0q0qqqqqqqqqqq00060066888088qqqqqqqqqq0000000653<<,::&******:,,2355660888886655322*2*******::::::,,3460etyitt01>-Oo  .O$&-,3560tppppputt00t0qqqqqq0008865544<<<<,<3560wttptw61-$o  ..+%&>246erpppprre7222%*%#***2;**;***:;:;**:****:***:*:::::,,<56qttuutw91>$$.  o$$&:<360wiipiiee722*2*2237808773322********%222378800886553<<,,,::::*:*::,>:,<356880000t80006533<<<360wtyytq85>$O.  .O$$-23580ttppputtq008866",
":**:*:**::**:*:*:**********::***:*******;:;:::*::,,::,:-:,2258qrtyyr961>$.  .OO$&>3366ttppppppttwqqqq0q0qqqqqqqqqq00000008000000qqqqqqqqq00q000866553,::*******::,2233580660088865532::*:*****:*::::,>,,460etyiyt65>$+o  .O$&&,3580tupppputtt080q000qq00885555443<,,,<350qttyptq61&$o   O+$&,,487epppprr7742***%***:#**#;;**;;;:::***:***::*:*::::,,256qwtuutw91>$.    $$&,,360qriiirr87322*2235780877532*****%****222578000886644<<,,>,:::***::&,,,<3556880tt8600665333<<360wtyuyt01>-+. ..+$&:2350qttpppputqq08686",
"2**:**:****:**:***::*****:**:***:;:**::*;;;:::::,:,,,,,,,,2358etyyytw91$$O  .O$$&<<5600tppppptttwqqq0q0qqqqqqqqqqq00000000000000qqqqqqqqqqq0000066553<,::*******:::2355666068886653322*2*******::::::,,3460etyitt05<-Oo  .O$&-,3580ttpppputtt0t0000tqq0086666444<,<,,<356qttyytw61-$oo o.+%&>336errrpppr07422***=******2;;**2;;;***:***:***::::::,,<356ettuttw61>$O   oO$&,<360qriiiire7322222337888773322***@******22558808886554<<,,,:::******:::,<3556880688tq006653<<3560wtyutq85>$O.  .O$&-,3580tyyppputt008866",
"****:*********:**:*******:**:*****;;:******:::2::,,,,,>,,,<<58ertuutw6>>$.  .O+$%,,560ttupppttttwqqq0qqq0qq0qqqqqqqq0q00q00q0000qqqqq0qqqq0q00886655<<,::********22235568880888865332::::******::::::,,,360etyiyt61>%+.  .+$&-,3580ttppputtt00t80qq0qq0086664441<<,,,<<56qttyytq61>$O. .O+$*>3367erppprr0722****=***;:;:;:;;;;;:*::*::**:***::::::,,346wwtuutw91>$OO   $$&,,550triiitee7222:;22278007772*2***%%****2223788008865544<,,:,::::****:::,,3356880000t0006553<23370etiyyt81>&$.  O+$%:,350qtypppptqt888866",
"***:*:::****:*2**::*****:**:**2*;:;:**:*:*::::::,,,,,,,,,,<358qryuuw991-$O  .O+$:,<5600tupppttttwwq0q00qqqqqqq0qqqqqqqqqqqqqt8q0qqqqqqqqq0q000886653<,,::*******:::255566808088665532:2:*******:::::,:,3560rryitt86>%+. ...$&-,<588ttupputttt000q00qq00886615441<,,,,,<56qwtpyyq6<>$O  .O+$:><48eerppprre7422******:;;;;;;:;;;;;;*****:***:*:>::::,,256qttuutq91>$O    $$&:<360qiiiiire532:;2233788877222******%****22578800886555322,,:::******:::,,33566880000q006553<33360rtyytq85>$O. ..O$%:,35800tpppytt0088668",
":::::::::*****%***:*:******:*::*:;;;:*****::::,::,,,,>,,,,<<58qrtuytq61$$.   O$$&,3380qtupppttt8qq0q00qqq0q0qqqqq0qqqqqqqqqqqqqqqqqqqqq0qq0008006653<,,,:***%***::22356688808888555322:*:*****:*:::::,22360ettitt65>&O. ..O$&&,3460ttpppputtt0t80q0q00086661443<<<,<<<<58qqyuutq64:$O  ..+$::<46errppprr07222*****;;:;;;;;;;;;**:**::***:*%:&:::,:,,256ewtuutw91>$O.  OO$&:,5600riiite0732:222337800772222***%%%*2%2222588000887544322,:::*******::,2355588000000006553323560ettytt84>$O.  .O$&:2350ttppppyttt008666",
"::*2::::::2*****:***:***2:**:***;;;:**:*:*:::::,,,,,,,:,,,<378qtyuttw61>$O  .O$%&>,550qtppppttttwq00000qqqqqqqqqqqqqqqq0qqqqqqqqq0qqqqqqqq0q008666553,,&:****%**:2233558800800866533:2::*****:**::::,::3370etiiit05>&$. ..O$&-,3568tupppputt0t00qq0q00066666443<<,,,,<358qtyyuyq6<:$O. .O+$%,,46errppppre02222*2**2;:;;:;;:;****;;:***:***:::::::,,,356qttuutw81>$O   O$$&,,350ttiiiir07322::235770077222*2**%%****222237800088655332,2::********::,,335650000000006533223360etittt04>&O.  O$$&:,3500ttpppyt0t008865",
"::::,,:::::*:*:**::*::***:**:**:;;:;;:;;*;:*:::,,,,,,>,,,,,350qrtuytw91$$o   o$$>><560tttyuuttt800000000qqqqqqqqqqqqqqqqqqqqqqqqqqqqqqqqqq0000608653222:***%****:2225566800008886533222******:*:&::>,,,,380etiiyr85,&$  ..O$%:,358qttyppppytt000000000886655533<,,,,<,156ertiirw61-$o...O+$;:3487epppprre9741>:::;;:;;;;2*******::;;:;;;:;;:::::>,,,<580wtuutw81:$O. ..O$&:2378eriiirre722*2*2225800855222%%**@**&:2,<365t860886755132,,:::*****;:::224566880q000086533<<<360wtyytt84,&O. .OO$&:,358qttupppytqq08866",
":2,::::::::::**********:*:*::**:;:;;;;;;:*;::::,,:,,,,,,,,<<56qtyuttw1>>$o  oo$$&><5508tttpptttt00000000qqqqqqqqq0qqqqqqqqqqqqqqqqqqqqqqq0qq0006655532:::**%***:::,2366680000086653322::*******::::::,,<360etyyyr04,&O. ..O$%:,<580qtypppyttt0080000088885555333<<,<,<156eriiiyw61-$O. .O+$;>2450rrrpppre9744,2:>::::;:;;;****2;*;:;;;;;;;;;;:::::,,<58qttuutw81,%O. .O+$&:,36qetipiire7222*22228888873322@2******::,356688t0008655532,:::;*****;::22245688800t00006553<<2560wtyyyw83>$O.  .+$%:,350qttupppytqq08888",
",,:,,:,:::*:******::***:********;;;;;;;;:**:::,:,,,,,,,,,<<358qryuutw61>$oo  o$$&>>560ttppppttt800600000qqqqqqqqqq0qw00wqqqqqqqqq0qqqqq0qq00000885532,2::**%****:,2255880000008865532::********:::::::,<380wtyytt05,&O.  .O$%:,3580tpppppyttt80t000008866555353<<,,,,<148qryiytw61-$o  .OO$&,,580erppppreq7442>;:::::;;;*****;;;;;;;;;;:;;:::::::,,,<56qttuutw91&$O.  .+$::2380rriiiir0772222227588085532%2+*%%**::,,3556888t60866553322:;****%*;:::22356680000q00065533<2550wtyytw81>&O.  OO$*,23500typpppttq008866",
",,,,:,,::::**:*::***::**:****::*;:;:;;:;*;;::::,:,,,:,,,:,<350qtyuuww6>>$o   o$$>><560ttuppptttt000060000qqqqqqqqqqq00w0qqqqqqqqqqqq0qqqqq0q0088665322:2:*******::,2368800q0008665332:2*********::::,,,<380wtyyyr85,&$.  .O$%:,<56qtyppppttt0t0000008866655533<<,<,,,,458qrtiytq61-$o.  O+$::<46eerpppppe9974>222:::;:;;**::**;;:;:;:;;;;;;;::::::,,<56qwttutw81>$O  ..+$&22368rrippree7222*22226808853322%2***%**::2<36886t0808665533,:2::**%**:::22245688800q0q006553<<2560wtyyyt81>&O.  .O$%:,350qttuppytt0008866",
",,,,,:,:::::*:*:*::***:*****:***;;;;:;;;*:**::,:>,,,,,,,,,<358qttuutw61$$o  oo$$>>1160wruppputt60000060000qqqqqq0qw00ww0qqqqqqqqqqqqqqqq0q00008866532,:::*******:22236886t000086563222::*******::::::,,,550wtyuyr05>$+.  .O$&>,<56qwyyppputtqtqq000888866555333<,<,,<,446qrtyytw61-$O...O+$&><46errppprpr994422>>::::;;;*****::*;;;:;;;;****;;:::,,<358qrtiite61>$O.  O+$&:2388etipiire7222@2222788887522%%**%%**::2,3356t688808065553,,;****%***:::22455688000q0086533<23360wtyutw86>&$. .Oo$&>2378qttypppttq088666",
",,,,,,:,2::*:********::**2****::;:;:;;:;**:::::,,,,,,,,,,,<<58qrtuut961$$o   o$$&><560wtuppputt600060000qqqq0wqqqq00w000qq0qqqqqqqqqqqqqq0000000655322:::*******::2336888008000685532:2*******:*:::::,,<360wtuutr051$$.  .O$&>,458qwyyppputttqq000888866555333<<<,,,,<458qrtyytq61>$O. .OO$:><477eprpppree9744222:2::;;;*::*****:;;;:;;;**::::::::,,347qrtiitw81>$O.  .+$*,,360rripiir072222222258088732222*******::,<36686tt0000605532,22;*%*%**::2,24456880000t888653<23560qtyutt01>$o.  .O$&>2358qttyppitre086666",
",,,,,,,:::::*****:*:*:****:*:***:;;;;;;;*::::,,:,,,<,,,,,,2358qtuuuww6>>$.  oo+$>>1560wtuppputtt066000000q0qq0qq0q0w000wqqq0qqqqqq0wqqqqqq00066665332:2::******:::2256800t0t00866533:22*:******:::::::,<550wttuur01>$+.. OO$$&,<50qtppppputtqqqq0068060565533<<,,,,,,,158qwyyytq61-$o. .O+%-,,47eepppppree94442>:::::;;;**:*:**:;:;:;;;;:*:*:::::,,,347qrtuttq04&$O.  .+$&:,360wtipirr0722@222237888855322%**+****::,35566680000005543,,;;**%***:::,2224566800008888553123370wtyutq81>&O.  OO$&-2258qryypptte0886555",
"<,,,,,:,:::*:**:***:***::***:*:*;;;:;;;;***::::,,,,<,,,>,,<358qwtuutw61>$o  oo$$$>1560wtupppttt00006000000qq0w0qqqw00ww0q0qq0qqq0w00qqqq00006066555322::********:22336888800000855522:::******:*:::,:,,<360qtyuttq6>&+.. oOO&,,<560typpputttqtq0000060665533<<,,,>>,,<<58qttyptw61-$o  .OO$-:236eerrppppee9444,2:2:::;;;****:**:;;;;;;:;*****::::,:,358qttuutr64>$$. .O+$&,<368wripiir0722222225888887332+*********2,335666t00086665532,2;*******:::,,44566660000886553<22560wtyutt05>&O.  OO$&>,278ettpppttr0875553",
",,,,,,,,&::::******:*:****:***::::;;;;;;;;;:::,:,,<<<,,>,,<450qttuytq61-$.  .o$$$>1180wtpppputtq00600000qqqqqq0qqqqqq0qqqqqq0qq0t80t80qq00000665533<2::::*******::<3566600888886653322*;********&:::,,,<36qtttuuw911$$o  oo$&-,<58qrtpppppytwqqq008088865551<,,,,:,,,,356qttyytw61-$oo ooo$>,,377eripppire9744>2>:::*******:*:**:**:*:*:***:**:::>,,<58qtyyytq61>$Oo  o$$*:,550wrrppir07222%2222588887532*2**%*%**::2233688000808666322:;;;;;***::::1244556660800088551<<<550wtyuyw911$Oo  o$$$>2368ettppptte0853533",
",,,,,&:::::&*****:**:**::**::***;;;;:;;;;;;:::,,,,<<<,<,,,,458qtyyyrq9>-$o  .o$$>>1160wtpppputww000660000qqqqqqqqq0qqqqqqqqqqqqq000000qq0000666653<<2,,::*******:,<336668tt0t6886552222:********:::::,,,350qtuutt91>$$o  oO$&-,<58qrippppptttqqq00088666511<<,:,:,:>,<358qttyytw61-$oo  o$$-><57eerippirre77412>2::::***:****::***:*********:::::,,,<58qwyuytt01>$O    $$*:2560wiipprr0722%222228808853322%%******::223558808000866552222:;;**%*;::::,:4115666000088553<<1560qtyutw81>$Ooo oo$&&,358qrtipitr00653333",
",,,,,,,&:::&:*:&:*:*:***:**:*:*:;;:;;;**;;;::2,,,,<<<<,,,,<458qqtuytq61-$.. oo+$>>1160wtupppttww00606000qq0qqqqqqq0qqqqqqqq0qqqq808tt0qq000606555332,2:::*******:,,3566t8t80868867422:::*******2:::>,,,,360tttutrq61>Oo   O$&&,157qrppppiiyrwqqq0008886655<><:,:>:,:,,<58qwtyytw61>$oo  o+$->246errppppree9444422::::*:**:*:**:**::*:***:*:*:::::>,,<56qttyytq61>$O   .$$*%2350wrpppir07222%2223580885522%2%*%****:22235668808088665522:;;;;****::::,:44115668900088553<<<368ttyuyw96>$$o  o$$&>2350ettppitr08643<3<",
",<,,,,,,::::*:*:**:***::*:***:**;:;;;;**;;:::::,<<<<<<<,,,<<58qtyuytw6>-$.. .o+$>>1660wtupppttww000600600qqqqqqqqqqqq0qqqqqqqqqqt00080qqq00666553332,:,:********&,<3366600008t866743:2::********::::::,<558qtuuurq1>$O.  oo$&>,158qrpppppytttqq00000866553<<:::::::,,,4580ttyttw61-$o  oo$$$><468rripppir09744,:::2::*******:*******:**:***:*:::::,,356qqtyyyw81>$O   .O$%*2360wripprr07222222258888855322****%**::::23556688060866553222*;;****:::::4,4151569900086553<<<560qtyuuw91>$O   oO$$-,3500tyipyte0653<<,,",
"<,,,,,>,,:::::&&*::**:***::**:*::;;:;;**;;:::2:2,<<3<<<,,<<458qttuutq61-$o  .o$$>>1160wtuppputqq006060000qqqqqqqqqqqqqqqqq0qqqqq00000w0w00086553332,:,:::******::,<356666tt6t886773322*2*******@::::>>,<368qtuutr96>$$o  oO$$>>1580rtppppittqqqq08088865333,&,:::::,,,<580rtiitw61>$o   o+$--<450erpppirre7744:1,>::::***:*:***:::****:*:::::::::,,,119qtttttt61>$O  .o$+222270eripitr0722222%2288808522*2%%**%%*:::22<55688808088653322*22*****;::::,,<14155990008855<<<<360ttyuyw01>-oo  oO$->,350qttppytq0852<,,,",
"<<<<<,,,,:::::::******:****:***:;;;;:;**::::::,,<<<3<<<,,,,1580ttuurq61-$o  .o$$>>>16qwtuupputwq00666060q00qqqqqqqqqqqqq0qqqqqqq8tt8q0w0q006655332,,,:::&*******::,3556t0666666673322*2********2::::>,,<558ttyuut91>>Oo  oo$$><158ertppppittwwqq008886655<,,,:::::::,,358etiiitw61>$o   o+$-><560eripppire974441222::::*:**:*:*:***::**:::::::::,:,,1560ttyytq61>$O   oO+@%2370eiipiire722@@2223588887322*2%**%**::::2335688880888855332;*%**%***:::,,,,<455666000886511<<568qtyutw91>$o   oO$$><350qtyipyte0653,,,:",
"333<<<,,,:::::::::*:::**:***:***:;::;:;*::2::2,,<<33<<<,<<<456qtuuutq61-$o  oo+$>>1160wtuppptwq0666660000qqqqqqqqqqqqqqqqqqqqqqqq0qqqqw0000665533,,,:,::******::::,355660t8t886637222@2@********::::::,<3600ttutrq11$Oo  oo$->>158qrtippppyttwq0088866653<,>:::::::,,<358qrtiitq61>$o   o+$->,55eerippprre877444>2::>:::::**::*******::::::::,,:,>,,1160ttyytq81>$Oo  o$@222770eripitr07222222337888852222%%*****::,223556688008886633222%**%***:::::,,<<<156688088651113<560qtyutw96>-$o  o$$$>,368qttpiytr0632,:,,",
"33333<<<,,,::::::*:****:*::**::*;;;;:;2*::*:2:,2<<33<<<,,,,458qttuurq51-$o   o$$>>1100qtuppputq006666660qqqqqqqqq0qqqq0q0q0qqqqqqqqqqq0w000665533,,,2:::******:&:,235600666t8666322222**2*******::::,,,<550tttuur96>$$oo oO$$>>157qrtpppppttwqq0888666153<,,:::&&::>>,<58qrtiitq61$$oo oo+$-><468erppppiree74444222>2:2:::::*******:*:::::,:,:,,>>,<1568tyyytt84>$O   oO++2227erripitee722%222357888872222@2******:::23356888000086622222****%**-::::,<<<455598000065511<3<68tttuyw91>$O   oO$->,350qttipytq8652<,,,",
"55533333,,,,,::::::::*:**::*:*****:&:::::&>>,,,,<<3<<<<<2223580wyuurw11>$    o$$&,,460rrpppiyre9855566990qqqqqqqqqqqqqqqq0qqqqqq0000000w000665<5<>,>>,:::*******::235588000886554422>>2#22@*****::-,:,,<160wtuutt011&O.  OO$&-,<5600ppppytttt0q008666554322,:::;:>::><459qttuutq64&$O  ..+$&><3600ttpppttq0865412<<,,,,:::::*::****::;:::4:2,,,>,,,<<56wrtyytw81>$oo. o+%&:<368wttpuiee7222*22225800855322%%**%*****2222550680000066533,:::*****::::2:,2233658800006544<<<47qetyptw85>&O.  .O$&,2370ertppite075222*2",
"55555533<,,,:,::::************::::::::::,,,>,,<<<3<3<<,,:22358qttuutw91>$o  oo$$&,<560rrippirrw98555668900qqqqqqqqqqqq0qqqqqqqqq00t00tw00088551<<<,>,&:&*:*****::22355800008865544,,:2::@#*****2::::::,<160wtuuyt06>&$.   O$&-,3560tppppptttqtq09966654322::::::&::>,,<56wwtuutw6<>$O  .O+%&>3360ttppppttt086554332<2,,:,::::*******::::::,,,,,2,,,,446qrtyptw91>$o...oo$&,,360wtyputr07222**2228888873322@2***%***22222566000000006533,,:*******::::2,,233566800086653<<3570etpyyw85>$O   OO$&:2358ettippre0732222*",
"65656533<<,,,:,&:::*:****:*:*:****&&:::::,,,,,<<<<3<<<,,2,2358qtuuutw11-$o  .oo$&,<460ryippiyrq8754756680qqqqqqqqqqqq0qqqqqqqq0q000000ww0086555<<,,,:,::********::22558000086655422:2:::********:::::,,<189wttutq06>$$.  .O$&&,3568tupppputtt0q0866554432,:,:::;:::,,,<59qttuutw61:$O. .O+$&,<360tttpppttqq0864544332<,,:,:::******::::,4:4,,,,,,,,<<56qttyytw81-$o. .o$$&,,360wttuuir0732222225580885532%2+*%*%****2223566000000066553,::******::::::22<35558800088554<<255qettptq01>$$O   O$&-2250erippiie0752*222",
"666665553<,,,,:,::::*******:***:*:&&:::,:,,,,,<<<433<<<<,,33580wtuurw11>$   .+$$&,<460rrippirr985754558800qqqqqqqqqqqqqqq0qq0qqqt0080w00q08665<<,>,>:::::*******::235660008865534422::::2*******:::::,,<169wtyuyt01>$$o  OO$&-,350tttpppputttq008665544<,,2::::;:::>,,159qwtuut961:$O   .+$%,<3600tpppppttq086645533<<3,2::::*******:::::41,44,4,,,,446qwtpytw81>$+.  .+$&:<160wtupuir07522*22257808853322%2*******2223366668000q006553,2::*****::::,,,2<35566880008544<<345qetyptt05>$O   O+$&:2350ertpiirr875222**",
"8666665333<,,,&::*******::***:*****:::,&,&,,,<<<<4<4<<<,,2<3580ttuurw11$$o  .o$$&,1570rripiirrq85554566900t0qqtqqq0qqqqqqqqqqq0q000tt6t60086511<,,,,,::&:******::2233588000865534,>2>;:;******2*&:::>,,<169wttutt06>&Oo  .+$&&,356tttppppuytt0008665444<2,::::::::::><156qryuutw61>$O. .O+$%:,5660ttpppptt88886654443<,,:,:::***:*:::::2>2,414,,,,,<<56qrtyytw91>$+.  .+$%:,370ettputr07322**222580087522%*****%**%%2222566000000006553,2:::****:::::,,2<34566000066554<<<470wtyytw06>$O   O+$%:2258ertppire073222@2",
"885t665533<<,:,:2*::*******:*:***:*::::,,,,,,<<<44443<<,,,<358wttuutw91-$o  .o$$&,,560ryipiyrr98541555680080q00qqqqqq0qqq0qqqqqqt0006t6t006655<<,,::&:::*******:::23588800066553422>22::********:::::,,2569wtuuyq65>&O   .O+&-,<560qtupppptt0t00865554<<,,,,:::::::,><1599ryuutw61&$O.  O+$&,<360tttppppttt0886655543<,,,::::*:**::::::,2,1,4,21<,,<<56qrtiytw61>$o.  .+%*><460ettiptr0722**223388888752222******+22222246668000t006553,::::******::,:,,<34556688006544<<<460wttptr84>$$o  oO$%:2268ettppite7752%22%",
"6566665533<,,,,::::*2**:*:*:***:***:::::,,,,<<33444433<,,<,3588tuuutq11-$o  .o+$&,4460rriipyre95545115690008qqqqqqqqqqqqqqqqq00w00060t88q086511>,:,:::&:********:2235680808855534>2:;:::******2*:::::>,<16qwttutr05>%$.  .O$&-,3560ttppputtt00088655443<,,:::::*:::,>>169qryuttw61>$O...O+$:,,360qttpppytt0008665544332,2:::*:::::::2:2,2244,41,,,,<<56qrtiitw81>$O. .o+$;:2550ettuutr0732*22233588075522%%*******2%2222556660008000655<2:::****:::::,,,<<4556600866553<<3460wtyptr04>&O   O+$&&2358ertpiire07222@%2",
"0t66665533<,,,:,:::*********:*****:*:::,&,,<<<334445533<<,33580ttuurq91>$o  .o$$&:247erriipiyw9751115566000tqqqq0qq0qqqqqqqqq0w06t0t06t80086511<,:::::&&*******:2::355880088655342,2;2::******@*::::>>,,569wtuuyt06>%+.  .O$&-,3568ttppputtttq88665543322<,:::::::::>1116qryuutw61-$.....+$&,2360tttpppytt0t08865555322,,,:::::::::2,,,2,4,4414,,<,<<56qrtiytw94>$o. .oO$::2360ettuuire7322*223478088533%22+*+****+22222156668000086653<,,::&***&:::,:,,,3345666606654<<<<57qqtyuyw94,$OO   O$&,2370eriiiite0322222+",
"6006665533<,,,,&:::******:***:***::*::::>,,<<3355555533<<,<3560tyuytq61-$o   o$$&,<570eyipppre77441455680qqqqqqqqqqqqqqqqqw00qqq0t66t6t60866532,,::::*:*********::235760808865114,,,:::;;;;;;;;:::::>:,<16qwtuuuw06>-Oo...O+%:,358qttyppuutwq088665511<<,,,,:::::::>,,3590ryuutq61-$oo  O+%%,,380qttupppttqq008655544<<,,:::&::::>>,,,,<12,441,,,,<<<46qwtyyyw61-$O.  oO$&><460eripiir07322@22228880855322*****%*%**%22222376800000865332::::::&:*:::,,2><<556668666533<<<160ttyutw011$Oo  .O%&&,268qttippre7722%2%%",
"0660665553<,,,:,:::::**:***:***:****:::,>>,,<<3355555131<,<3580ttyyrq9>-$o  oo$$&,,560eyipprre97444145589qqq00qq0q0qqqqqqq0qw0qq080t6t8tq8663222:::&*:*::*******:,,246808088655144,,>>::;;;;;;;;::::,,,<160wtuuttq1>$$o ..+$%:,<580ttyppuyttw0886555151<2,::::*::::,,,359qruuutq61-$O   .+$*,<360qttupppttt000866555<<<,,:::::::2:2,<<21,441,421<,><<58qttpytw61>$o.  o$$&>,360eriiprr07322@2222588885332*2******2*2222222556680000865532,,:::::*::::::,<<<<5566606653<<<<160qtyuyw91>$$.  oO$&:2368qtyiprrr77222@2*",
"0666666533<,,,:::::::****:**::****::::::,,,<<<3555665431<<<3580tyyytq91-$o  .o+$-,,560rriiiire874:11456690qqqtqqqqqqq0qqqqqqqqqq0tt08t68006653:::::::**::******::2,45788008865544:,,2:::;;;;;;;:::::>:,<16qwtuuyw911-Oo  .O+%:,3580qyppputttq008665551<<2::,:::::::>,<3590ryyutw61>+O   O+$&:<360tttpppptttqq086651111<,,::::::::2,<<<1241444,,1,,><<56qwyyptw91>$oo   $$&>,360rrpiiir073222222378088753**2%*%******2@2%33375880000866532,,,,::&::::::,,,<<535666665553<<1560wtyutw91>$O.  oO$%,,358qrtppire77222+**",
"6006655553<,,:,:::::***:**::****:**::::,>,,,<33556655543<<<3580ttyyrq6>-$   .o$$&:4460ryipiire754411355880qqqqqqqqqqqqqq0q0qqqqq0080t8t608663222:::&*****:*****:::,15588008665144,1,:::::;;;;;;::::::,,<16qwttutrq6>$Oo ..O$%:,<58qtypppyttwq0886555411<,,2::::::::>,,<59qrtuytq61-$O  o.$$&,,360qttpppptttwq08865551<<,,,:::::,2>,1222144,4444,<,<,<56qrtyytw61>$oo  oO$&><360qrppiir07322222337880853322********%22@222235568800086653<,,::::::::::,:,,,<<3556666643<<11160wtyutr91>$$.  oO%%:,368etyiprre7722+2%%",
"8886665533<,,,,::::::**:*:***:**:::::::,>,,,<33556655533<,<3566tyuytq61-$o  .o$$:,<57erripirre9744,44458000w0wqq0qqqqqqqqq00qqq08000qqqq0066332:::*****:*:****::::2357690086654<2,,,:2::;;;;;;:;&:&,,,,,169wttuuwq6>-Oo  oo$&-<<580ttppppytwq006555414<,2::::::::::,,<356qryuutq61-$O   O+$&,<460wtuppppyttwq98865554<<,,::,,&>>:>22414444441,4,<><<116wrtyytw91>$o....$$&>3360rripiyre7222;2*22788887222***@%2%****222223455588000666333,,,,,&:::&:,&&,><<335566665543<1116qwtyuyw96>$$o  .O$&:2378ettipire722*****",
"8888665553<<,,,,,::::::**::***:::&:::,,:,,,<335556866553<<<356qttuytq61-$o  .o+$::,57eriiipiee77442,2456800q00qqqqqqqqqqq0wwqqqqt00tqqqq0865332::*********:**:::,22356800086555<2,,::::;;;;;;;;::::::,,<169rtuuttq1>$$o  oO$&-,<580wtpppuutqq06655544<1,,,,:::*::::>:,<59qruuytw61-$Oo  OO$::,550qtuppppytwwwq986555444<<:,::,>,2222144444444441><<<1160ryyytw91>$o. .OO$&>,358riipitr0722;22223788875322%2*2%+%**%2*%2223345688000066533,,::::::&::&,,>,,<<3556666543<<>116qwryuuw91>$$.  oO$&>2350qtyipire7222****",
"88866655333,,,,::,:::::::*:*:*:::::::,:,,,,<33366666555<<<<358qttyytq8<-+o  .O+$*:4470rrippire7224,22556800qwqqq0qqqqqq0qqq00qq000000tq00665332,::******:*:**&:::,235680808655<<:2:::::::;;;;;;:&:::::,<199wttuuw961$$   oo$&&<<58qtyppppttwqq66554424,,,::::::*:::>,,356qrtuytq61-$O  oo$$&,,460wupppppyttwq0988655544,<,::,,,,,1221444455444,4<>><1690rtyytw81>$o.  .+%%><568wripitr8732*;22357880852222%***%***2*2*2%2335566800068653<,,,,:::::&:::>,,,<<3555666553<<11169wtyuyr91>$o.  o+$$>,368ertpirre772*2%*+",
"886666555333,,,,,:2:::::*:*:*::::::,::,,,,<<<5566666655<<<<35800yytt061-$o...o$$*24470rrippree77,::42455880000qqqqqqqqqqqqqqqqqq00t000q086653<:::********:*:::::,,25568808665<<<22:2::;:;;;;;;;;::::,,,<169wtuutt911$Oo  oO$&&,358qwyppppttwq0665544,,,,2:::*::::::>,,359qttuytw61>$O   OO%&><460wppppppytwwqq9886755444<<<,,,,,>124415445444441<<111160ryyytw81>$+. .O+$%>,360wripitee8322*2225780887222*2**%****%**2222335568800006653<<,,:,::&:::&,>>,,<<555656555<<<1116qwtyytrq1>$$o  oO$&>,350qtyiiire7322*%%%",
"88886665511<<<>,,>,,&,&:&&&&&:::::,::,,,,<<<355556866533<<<356tttuutq61$$.. .o+$-><460wtpprpre723,>,111660000qq0qqqqqqqqqqqqqqqq0qqqqq0088653<,::*******&:::&:::,2346600085553,,,:::::*:;;;;:;;:::::,:,<360wtyytw911$O.  oo$&&,<57qrtipppptqq0855532,,2::::::*:*:::>,,3500tttutq61-$.  ..O$-,,368wtypppppptqqq08066616111111>,<,221444445555531<<<<<<55ttttutw81:$O...OO%&,,370rriiipre7222*22226888877222***%*%;;:::>,,<115566800066653<<,,&::::::::::,,,<<355686555<<<<<55ttttuuw91>$Oo  o$$$>,368ettuiure7522****",
"88866655511<<<,<,,,>:,,::::::::::,,,,,<,,<<3535566665553<<<3580ttuttq61>$o. .o$$-><560rtpppree77,,>,111560600q00qqqqqqqqqqqqq0q0qqq0q80088613<,:::*****::&:::,:,,2345660088542,,:::::::*;;;;;;;::::::,,<360wtyyytq6>$$o  oo$&-,<58ertppppitrq0865322,,:::::::*:::::>,,350qtttutw61>$o  .o$$-,,550wttpppppptwq000606666611111<<<<422214445556655<<<,<<558qttutw81,%O  ..+$&:2360eiipirre722*22222580885332:;*****;::::>,,<<11560000006653<<,,:,:::&&::,:,,,<<3556666653<<<<366tttutw96>$$o  oO$&-,468ertuitr07522****",
"88886656511<<<<,,,,,,,&:::::::&,,:,,,,,,<<<3<55566665553<<<3568ttuutw11$$.  .o$$-><460rtppppee72<,,,<<1566000000q0q0qqq0qqqqqqqqqqqq000886543,,::*******:&:::,:,,<356600067542,,::::*:**;::;;;:;:::>:,,<360qtyutwq6>$$o  oO$&&,158qriipppttr0085532,,,::::::*:*:::,:,,<56qttuutq61-+o...o$$-><368rttpppppttwqq00066666116111<<<12121447455566515<<<<<56ttttutw81&$O. .O+$%:3550eripiire7222*2227680885322:;;***%;;::,:,,<<15568860008553<,,,,,&:::&::::,,,,<3555666653<<<<5688ttutw91>$Oo  oO$$>2458etupiite722****%",
"6886666555511<<<<,,,,:,::::::::::,:,,,<<<333355666665533<<<3560tyuytw61>$o  .o+$-><560wtrppree72,,>>><15660000000qqqqqqwqqqqq0qqqq0008086654<<,,::*****:::::::,,,2356660007532,::::****:;;;;;;;::::::,,<360ttyuyw96>>O.  oo$&>,157erppppptteq8855322::::*:*::*:::::,,,356qttuutw61>$O. .oo$-,<160qttpppppywwqq08600066661111<11141444147566665613<<<<558ttuutw81>$O  ..O%&:2360eripirr77722*22247808675322:;****;;:::,>,<<15566800068653<<,&::::&::::::,,,<355566665533,<<558tttuuw91>-Oo  o+$&>,350qttiptr07222****",
"8860666555131<<<,<,,,,,&::::::,:,,,,,<<<<13355556655555<<<<3580tyuuww91-$.  .o+$&>2460ryrpppee72:,::>11516600000q0qqqqq0qqqqqqqqq0q0008666533<:::*******:::::,,,<<4566q00755222:*****:**:;;;;;:;&::>>,,,360rtyytr911$$.  oO$$>>158qrtpppitte0065332,::::*******:::::,,358qttuptq81-$o  .o$$&><160eryipppttqtqqq0000666666111115141114477666666513<<,355ttttutw81>$Oo  .+$%>,550erppirr07222@2222688065532;::****;::::,,,,<355668000666533,,,,:::::::::,:,,,<355556555<<<,355t0ttutw91>$$   oO$$>,450ettiiree7522****",
"886066665555531<3,,,,,,>,:::,::::,,,<,<33445555566655531<,<3588tyuutw11-$o. .o+$:,256qrtippre874,::,>111666660000qqqqqq0q0qqqqqqqq0008866553<,:,:*******:::::,,,<<556600075522:::******:;;;;:**::::::,,<468wttuyr06>$$.  oO$$>><58ertpppitteq06552,,2:;******::::::,,<<58qqtutyq61>$o   oo$&><360etypppptttqqq000060066666511111415571156668866533<<<558wttutw61>$O  .O+$%><360eriipire72222*222668887522::;****;;::&,,,<<33566600008553<,,,::,::::::,:,,,333555566533<<<3566tttutwq1>$Oo  oO$--,350eruipire7522****",
"8066666655553513,<,,,,>>::,:::,,,,,,,<<3455555556565511<<,<356tttyytw11-$o. .o$$&,2460rrippree72,,::1>1161660000qqqqqqqwq0qwqqqqq00088665553<,:::******::::::,,,<<456060087432,:*******:;;*:*;:;:::::,,<560wtyutt01>$$.. oo$->>158ertippitt00865322:::;***%***:*::::,,358qttyytq61>$Oo .oO&&><160ettppppttt0qq000006066611651115441511776868865533<<3560ttuutw81>$O.  .+$&:<368rripiire7222*22276808673322*;*%;;;;;::,,,,<13556800066653<<,:,:,:::::::,,,,<33355555353<<,3366tttutt96>-O   oO$$>,460qrtiiire3222**%*",
"860606666655515333<<,&,,,::,,:,:,,,,<<3335555556555543<<,<<3588tyyutw9>-$o .oo$$&>2569ryippre872,:,:>>11166666000qqqqqq00wqqqqqqq0008866553<<,,&::****::::::,,,,<4556600087422::********:;;;;;**:::::,,<368wtyuyrw11$$.  oo$$><157eetpppyttq085332,2:::******::::,:,,,358qtyyyyq61-$o. .O$$&><560ettpppptttqtqq00000006666115111445197778888865533<<3560wtuutw61>$O. .O+$&:<360eiipirre722*2222578086752:::***%;;;::::>,,<33566880006555<,,,,::::::::::,>,<333355535<<<,,3558ttuuywq1>$Oo  o$$->,458etuuiire7222***%",
"8868866666555533<<<,,,,>,,&,>>>,>,><<<<<55565655554444<<,223580ttyytw9>$$oo  o$$:><57qettpyte875,,::2,2316166000qqqqqqqq0wqqqqwqq000666555322,:2:******:::::,,,3<<556800885522:::*****:****:*:*::::>:,,,360rtyyyw01>-+. ..O$&&,358qryippytt086533,,,::*******:*::::,,,358qrtiytw61>$o   .+$&><558ttyppppttt00t600000006666111111515556688800886533<<3560tttttt51>$$   .$$&>,360rriiiir07222*22226888865222:;****;;::::,,,<335568000866133><>:::::&::::,,,,,3<3555555<<,<,3560tttutt01>-Oo   O$&:2577rrppiire7522****",
"86088888866665553<,,,,,,,,,,>,,,,,,,<<1555556565555444<<,22358ewyyytw11>$o  oo+$&,<46qrtppyte9722::::,,2116666600qqqqqqqq0qqqqqqq00066653332,2::::******:::2:,,,45556800885522,:*******::******::::::,,3460etyitt011-O. ..O$&:,358qttpppyttq85533,,::::*******::::::,,350qttiitw61-$o  .O$%&><3680tppppputt00000q0q0000661661111555766888000886433<<3360ttutt061>$o.  .O$&>2368wiiiire0722*2*22278888553:::;****;;;:::,:,,<33566800866531<,>,:::&::::,:,,,,<333333<3<<<,,3360tttytq85>$O   O+$&>2270rrrpiire7522****",
"606868866666655<3<<,,,,>,,,>,,,,,,,<<<<55566655554441<<,<,2358qtyuyw99>>$o  ooO$:,<47qetypytee74,::::,,2111066000qqqqwqqqqqqqqqqq0006665332,:,::::*****:::::,,,3155669099665322:*******:*:*:*:*:::::,>,,460etyiyw851$$   .O$&&,358qrtippytq08533,,,,:::******:*::,:,><356qttyytq61&$o. .O+&&,,550tpppppptttt0tt80qq0006661111616555766808000886633<<3560ttuttt81>$O.  o$$%,,568wriiiire7222*2225680865522::**%**;::::,:,,,<35566800866513,,,:::&:::::::,,,,<<<33333<<<,<<3560qttytt81>$Oo  OO$&:2257rrrpirre7222***%",
"66868686888665553<<,,,,,&,,,,,>,,,,<<<<5556666655443<<,,,,2338qwyuutw91$$o  oo$$:><56qrtypyte9742:::::,,1161106000qqqqqq0qqqqqqq00886654332,2:::********:::,,22315668990995522:::*************:*:::::,,3460etyitt05>$$. ..O$&&,358qryippttq065322,::::::****:*:::-::,,258qrtyttw61-$oo ..+$&>,3600pppppputt00000q0qq000666616111555988880000086133<<3556ttpptt81>$O.  oO%&:,360wriiiir0722222225688087332:****%*;*;:::::>,,33566800866513<,>,:::&:&:::,,:,,<<<<3333<<,,<,3360tttttt811$$   OO$&:227errppiire722*****",
"666668686886655533<<<,,,,,,,,>,,,><<<355566665555333<,,,,,<358qttyut991>$o  oo$$&><46qrtypitrq722:::::,,1116166000qqqqqq0q0qqqqq0008665533<,::,::******:::,:,2<3156688008855<<,:******:*:*:****::::::,,,360etyiyt65>%+.  .+$$:,3580ryiiiyre06532,:::::*:****:*:*:::,,,356qttyutw61>$O  .O+$%><5600ttppppttt0t00tqqqq0000661661665766960000q0086653<<356t0tyutt61>$O   o$$*:2370eriiitee7222;2222688886432:::*****:::::,:,,,<<568000886553,,>,&,&::::::,:,,,,<<<3333<<,<,,,550qtyyyt84>&oo  O+%%:2378erppppre7522****",
"66666668888666551<<<,,,,,,,,,,<,,<,<<35566666655533<<,,,,<<358wtyyuww11$$o   o$$:><46qetypyteq74,,:::,,,>1116660000qqqqqwqqqqqqqq066651333,,2::::*:*****:::2,2355558890088643,:::*******:****:*:::::,:,3560rryitt05>%+.  .O+*:,358ertiiitt085322,,,::::****:**::::,:,,358wwtuytw6<>$O  .O+$&><<68tttppppttt080080qqq006661611116575999000qqq08615<<<<568ttyutq84>$Oo  oO$*:3370eiiiiire532;2*22358086553,:::*******::::,,,,35566800866513<,,,,::::*::::,:,,,,<<333<<,<,,<3560ttyptw64>$+   oO$%:2278rrrpprr07722****",
"56666666686866555<<<<,,,<,,<><,,,,,<335556666555333<,,,,,,<3588ttyytw6>>$o  oo$$:,<56qetypyteq422:::::,,1111160600qqqqqq00qq0qqq06865533<<,,:,:::******::::,,2335568900008553,,::*****::*******::::::,22360ettitt81,&O....O$%:2378eryiiitr08522,,::::*:******:*:::>:><258qwtyytq64:$O  ..+$&><1680ttpppptt0t8t00qqqq000066611616779998q0qqq0086633<<<566tttytt6<>$O   o$$*22570eriiiie0732*;2235788085332:::******:::>:,>,<<<566800086553<,,,,::::*:::::,,,,,<<<<3<<<,<,,3368ttyytt05>$+   OO$%:2278errpprre722***%*",
"55555566668665555<<<<,<,,,,,<,,<,<<<<<556686655533<<<,,,,,<3580tyyytw91>$o   o$$&:<46qrtypyteq742::::::,111116600000qq0q0w0qqq0q00865553<<,,,::::*******:::,23355568990006653,,:*********:*:*::*::::,::3370etiiit05,&O....O$%*2257eryiiitr06522:::::*:**:*****::::::,,358wtyyytw6<:$O. .O$$&><468tttpppttttt006tqqqq00060666666679999q0qqqqq08665<<<<56t0tyutq6<>$O   OO+**237erripitr07322*22256808663222:******:::::::>,<<1566800886513<<,,&:::::*::::::,,,<,<3<1<<,,,,35600tyytw01>%Oo   O$&:2278rrppppre7222***%",
"55555555666666551111<<<,<,><,<,,<<<<3555666665511<<,,,,,,,,3580tyuyr061-$O  .O+$*2277errrpppe7722:::::,,,<335566600066t6000000008866555<<<,:,:::::*****&*:222255568800q08865222::*******:*******&::>,,,,380etiitr85,-Oo  oO$$><157eriiiire072222****2********:*::,:,,<<58qryiitq6<>$oo  o+$&><460wwuppppptwww00q0qqq0q0066666666880000qqqqq0086552<2156qrtuutw91>$O...o$%%,,360wtyyutre7222*22228888855322@2*%******2%*2,,,<3566800896554<<,,:,::::**::::,:,,,3,<3<<<><,,336qwtyyyw81>$+. ..+$$>,468ettuptt07722***%",
"515<55555666666555<1<<><<,<,,,,<><<<<555568665555<<<,>,>,,<3580ttuutq61&+.  ..+%@2227rrppppree722:::::,:,<<335566080t66tt06t00008866533<,,,,:::::&*****:*2:22355688000q0866422:::*****::**:*:*:::::::,,<360etyiyt85,$O.  oo$$>>177erriiiie07222***********:***:*:::,>,358qrtiitw6<-$oo  o+$-><150wtupppppuwww0qqqqqqq0000666666680000qqqqqqq086544<21169rtuutw61>$O.  oO$&:<360wttputr0722*2*22358888833222+********%22%&,3335669000865543<,,,::::*****::::,,,,3<34<<<><<<388ttyytw05>$$. .o+$$>,350qrupptrq7422***@",
"11155555666666655511<<<<>,,,><<<<<<<115666666555<<<<,,,,,,<358qtyyutq6<&$.. .O+$22227errppprre772::::::,<,<335568880t6t8600000008665533<,,,,,:::&:*****::::2335568800q000864322*:********:*:***:::::::,<380wttitt05,$$.  oO$&>,150eriiiire0722*2*********:****::::::,,<58qtyittw6<>$oo .oO$-><560wwupppputtww00qqqqq000006066666880q0qqqt0qq08664<1,1599wtuutw91>$O.  o$$&>,360wtypytr07522*2235688085332%%%********%2%2,,,<35568008886544<<,,,::*:**::::::,,,,3<<<<<<<,,3560rtyytt85>$O.  .O$&>2350ertiptte74222*%%",
"111511556666666655<5<<<<<<<,<,,<<5<<55556666555<<<<>>,,>,,<358qtyyutq6<-$O...O+%@*277errppprr772:::::::::,<<355568888666000000086665533<,,,:::::::********2:33568880qqqq88642,::******:******:*:::::,,,<380wtyiyw05,-Oo  oO$&-,150eriiiire7522*******2****::::::::>,,<358qrtiitw6<-$o  .o$$-,,550qttppppuuwww0w00qqqq0000066060088000qqqq0q008615<,1156qrtuutq91>$O   oO$&><360wtypptre72222222578088553222%*******2%%2%,,,35558800q8665443,,,:,:::*****::::,,,3<4<<,<,,<2360wtypyw85>$$.  .O$&>2350ettpiir0522@**%%",
"<<311<55566666665115<<<<<<<,<,<<<155555666666655<<<,,>,,,,<3500ttyytq61-$O  .O+$*:237errrppree722::*::::,,<<335556668t8t000080886655333,,,,::::&*:********2235568800qq00086532:::**%**:*::****:*:::::,,,550wtyuyt85>-+o  .O$$-,358eriiiiir0722***%%*****:::%::::::>:,,<56qttyyyw91-$o   O+$&>,550quuppppuwwwwq0qqqqqqq000000000000qqqqqqqqqq086653<<156qrtyutw91>$O   o$$%:,468wrtiptr08222*2222580887322%%**%%*******22,,<355660000886544<<,,,&::::******:::2,,<<<<<<><<2360wtyyyw81>&O. .oO$%:2358etypptre7322****",
"<<<<355556666666655515<<<,<<<<<<<55355666666655<<<,,,,,>,,,3580qyyurw6<-+.  .O+$*22477rrppppe7722:::&::,:,,,333355666666000088866635332,,,,::::::********22235565800qqq088633:2*:******:**:*:**::::::,,<360wtuutt05>$+o  .O$&-,<580rriiire7222****%*****::::::::>:>,,,350qrtyytq61&$o   O+$&,,460wtupppputtwwqqqq0qqq0q000060000000qqqqqqqqq0865<<<<1569rtyutw61>&Oo  OO%&><460wtypitr0722;2*22278808753222******%2%2%%%&,,335568008965554<<<,,,:::::**:::::,:,2<<<<,,,,,2560wtyytt81,$O. .o+$&>2358ertyiire7722****",
"<<<<<<<55666666655555<5<<<<<<<335155556666666555<<<,,,>,:,2358ttyyytq6<&$o. .OO$::24eerrpppree722::*:&&::,,,<<335556668t00088866655332,,::,::::&*******:**22335688000q00887522*2:********:*****:::::::,<550wttuuw01<$Oo  .O$&&,358eriiiirr772****%%****2::::::,:>:,:,,<56qttyutq61>$oo oOO$::<550wppppppuuwwqqq00qqqqqq00000000000qq00q0tqqq086644<<1569wtyutw91&$O   oO$%:2460wttipyrq7322;222778888553*2%*******2%2%22,,<3355090008655141<,,,,:,:::::*::::,,,2<<<,<,,,22360ttuyyw85>&O.  oO$%>2278eryyiir07322***@",
",<<<<<<556668666665555<51<1<<<<5155555666606555<<<,,,,>>,,235800tyytq6<&$O  .O$%:,257rrrpppree772::**&::::,,,,3335555668080886655533<<,,,:&:::&:*:*****:*22235558000qqq08873222:******::***::***&::,:,,<360wttutt85>-+o...o$&>,<58eriiiirr07222*********:::::,::,,:,,<358qwyyutw61-$oo  O+$-,<460wpppppptwwwqqqq0q0qqqq00000000q0q0q08t00qqq06655<<<1169ttyutw91>$O   .$%&:2360wttiitr0732;*2225870885522%*********%%%2@,,,335669900986554<<,,,>,:,:::*:::::::,,,<<<,,>,22560wtuptw01>$$  .oO$&:2278etyyptre7722***@",
"<,<,<<55555668666665555113<5<<5<5556666668666555<<<,&,,&,,3358ttyyytq61-+o  .oO%:><560wtrpppre7222***%****:2,,23<5155666880666655333<<,:::::::*:::*****:::22355668000600065532:::********:*:**::::::,,,<36qtttuut011$$. ..O$%:,377eriiiire752*2*%*%********2:,:,:,:,,,<58qttyytw8<>$o. .OO$%,<360qtupppputwwqqq0qqqq0qq0000q00q0q0qqqqqqqqqq00654<<<456qttuutq61>$O   OO$&:,380wripitre7322*2222888885522*2***%****2%2%2%222355690088665541<<,,,,::::::::::::,,,,><<,>,,<<560tttytw05>$Oo  OO%%:2258ertppiee72222**%",
"><,<<<<555666888686656555131<55555666660t68665533<<,,,,,,,,3580tyyytq61$$o  ooO%&,,560wtippree72::******2*:::,,,<<355666866666555333<>,,2:::**:*******:*:::2335660000tt00665222::******:*:**:***:::::,,,350qtuutt06>$$. ..O+%:,377erriiire7522***@*****2*22*,:,,,>,,,<358qttyptq64&$O  .O+%&:<360wwppppputtwwqqqq0qqqqqqqqq0q00q0q0qqqqqwqq0066544<<<560wtuutw81>$$.  o$$&,<360wtiipie0722*2*2235888873322*********%%22%22*2355069008965443<<,<,,,,:,:::&::::,,,,<,,,,,,,<468qttytt61>$$  .oO$&:2377etypirre722*****",
",,,<<<<<5666688888666561533<<<155666606656665553<<,,,,,,>,<3560ttyyr961>$o  oO+$&,<35qttpppree722:**%***::::,,,,><<<556666665555333,,,::*******::******:::2235668800t868085522::*******:**:**:*::::>,,,,360tttutt66>&$.  .+$&:,377eriiiirr7722****%***2****2,,,,,:>,,<<50qttyytw61&$O.  O+%*,,550wttpppptttwqq0qq00qqqqqqqq00qq0q0qqqqqwqqqq08654<<<256qwtuutw81>$.   OO$&:<360qriiirr87322*2235788085532***********2%%2*222556000089655444<<<,,,,,,:::::&::::,:,,,,,,,,<<568ttyyyq05>$O.  oO$&,2377etyyprre772***@*",
">,<><<<55566868866666661151555556666660666666553<<,,,,&:,,<3560tyyytw91$$o   O+%:><580wtppppee722:********:::::2,<<<51556666655532<<,,:::*:**:*:**:*****:::23356600086t0887322:::*******:******:::::::,<558qtuuut61>&O.  .O$$:,377eriiiirr7222***@******2*2*:,,,,,,,,,3560qtpttw61:$o. .OO$*><460wwuppppuwwwwqqqqqqqqqqqqqqqqqqqqqqqqqqqqqqq00655<<<346qwtuutw91>$O   oO$&,,3600riiiire732222225780885332******%*%%2%%2%:*2235566q0096665443<<<,,,,:,::::::::,,,,,,>,,>,,<368ttyytt05>$$.  o+$&&2270ertpppr07522****",
",,,,<<<555668880t66666155351<<556666606066666533<<,,,>,,,,,3580ttuuwq61$$o  oO+%:,2580rtiiirr0742::***%**:::::,:>,,<3555555555153<<,2:2:::**:****:*****::,,2335666t6868t0655222:********:***;;;;::::>>,<368qtuutt01>&$   .O$&:,377erripprre72*****@*******2%22,,,,,,,,356qttyytq61>$O.  .$$&,<360qtupppputwwqqqq0qqqqqq0qqqqqqqqq0qqqqqqqqqq006543<<357qwtuutw91>$O.   $$&:<360tiiiitee722;2*:237808772222***%****%**2%22:,33566800099655<5<3<<,,,,,:::::::::::,,,,>,,,,,<360ttyytw81>&O   .O$%:2270rrrpppre7522***%",
",,,,<<<555666888560666655533555556666606t5666533<,,,,,&,>,<3586tuuutw61>$o   OO$::<47qetipirr0742:********:*::::,,,,33355555151133,,::::*******:********::,23566t6668t66865522:::****:*:**:*;;::::::>,,<558ttyuuq011$$    O$%:,377eepppprr02222********2*22@2%,,,,,,,,<58qwtyytw81&$O  .OO%&:<360wtupppputwwqqqq0qqqqqqqqqqqqqqqqqqqqqqqqqqq006543<<346qwtuutw91>$O  . $$&,<558qripiir07222:2233788087322*********2**%2%:2,<556680009666553333<<,,,,,:,:::::::,:,,,,>,>,<<566ttyyyw04>$$.  O+$&:2277rrppprre7522**%%",
">,,<,<<<55688888066666555333<5556666000006665533<,>,&,:,,,,358tttuut961$$o  .O+$&,<470rtppprr0722***%%****::::::,>,,<<<55555511<<,2,2::::*:*****:*:****:::223566568t6t8t86532::::****:*:*:*;;*:;::::::,<3600ttutw06>&O.  OO$&-,370rrrpprre0722***********2*22;2:,,::,<<58qttyytw61>$O. .OO%&,,550wtppppputtwwqqqqqq0qqqqqqqqqqqqqqqqqqqqqqqq066543<<337qwttutw61>$O. .OO$&,,360tripitr07322;22357708872222********2*22%2,,,3356680008866555333<<<,,::,::::::,:,,,,,,,>,,,<560qtyutr04>&OO  OO$$:227errppppre732****@",
",,,,<<<5156668886060665555533<556660666060666533<,,&,&,:,,,3500tyuytw61>$O   O$$:><48qetpppre0742***%%**:**:::::&>>,,<<11<15<1<12,,,,:::*:***:*:********:2:235665t6t88668653222:*********;:;;:;;::::,,,<550tttuut06>&OO  .O$&-,377eripiire0222***@******2*2**2:2,,,,,<358qttyutq61&$O  ..$$&><46qwtpppppttwwqqq00qqqqqqqqqqqqqqqq0qqqqqqqqqq006543<<356qttputw91>$O.  O$$&:,360qripiie0732;2;235780885222*2***%***%*%*2%,,23355680000896655553<<<,,,,::::::::::,>,,,,,,,<<368ttyuur84>&O    +$&,2277rrrpprre72222***",
",,,,<<33556660600606665551<155555666008888665533,,,:,::,:,<378ertuutw61>$o   o$$:,,560wtyuuyee722:*******:**:*::,:,,2,2<3333<<<<3,,,::::::**:**********::&,<556860t60000665<<,>>;;;;;;;:;:;;;;;::::,::,,550wtyytw01>$$o  oO$$->158eriiiire772****%*****:::,:>,,,,,>,,<258qttuytq61>$oo .o$$->>160wwuupppptwww00qqqqqqqqqqqqqqqqqqw0wqqqqqqqq006133<<3580wtuutw81:$O. ..+%&>,360eiiiirre722*2*2225800855222%%***%*:&&:::,,,,335680000088865515111,,,,&,::::&:,:,,,,,,,,,,,3570rtyuyw91>$Oo..oO$>>2258wtyyytt07522**%*",
",>,<,<355666668060666655555<5<55666666068866653<,,::::::,,,356etyuuw961$$o  oo$$:><36qwtyuytr0722:********::*:*:&::::,,,,<<<<<<,,,,,:,:::&:****:::******:,,3556800000006665<<,,&:;;;;;;;;;;;;;:;::::>,,<460wtypyt911$$o  oo$->>158eriiiirr75222*******:::,&,,,,,,,,,,,458qwtuutw61-$o. .oO$->1160wtupppppuwww0q000qqq0qqqqqqqq0qq000qqqqqqqq00665<<<<580rtuutw81>%O. ..+$%,2360eripiire7222*22228888873322@2*****::::::,,,,33558800qq80886655111<,,,::::::::::,:,,,,,>,,<2370rtyutw91>>o....O$$>23500tyipyrq7522****",
",,,,<<33166606066006665555<<5<5556660600886653<<,::::::::,,356ertuutw61>$o   o$$:><580ttypyte0732:***%***::**:*:::::,,,,,<,<<,,,,,,,,,&:*:*****:*******::,,33568000000086651<,&,;;;;;;;;;;;;;:;:::::,,,<450wttpyt061>Oo   O$&>>158erriiire0722**%%***::::,:,,,,,>,,>,<2589wtuytq61-+o. .oO$-><160wwtpppputtww0qqqq0q0qq0qqqq0qqq0ww0qqqqqqqq08615<<<<560rttutw81>$O. ..+$%:3570eripiire772222227580885532%2+*%***:::::,::,,33565800q00088666551<<,,,,,&::&::,:,,>,,,>,>,,257qrtyyyr911>O. .oO$$>2258ettyptre73222%*+",
",>,,><<555666068060666665<55555566066006888665<<,,:::::::,<279ertuyt961$$    o$$:><36qqtyputre732:*********:***:&::::::,,,,,,<,,,,:,:::::*:*:****:*****:&,<<558806t000886551,,,&;;;;;;;;:;:;;;;;::::::,<560wtyytr01>$Oo  oO$$>1158eriipire752*2**%*****:::,>,,,,,,,,,,159qtyuytw61-$o  .o$$>>1160wtuppppuuwwwq00q0qqqqqqqqq0qqqq00w0qqqqqqqq088644<<<560rtuutw81>$O  .OO$%:2450eripirr07222*22258888853322%2******:::::::,,33568000qq0q88665351<,,,,::::::::::::,,,>>,,,,337qetyyyw91>$O.  .O$->2370ettypirq322***%*",
",,>,,<<355666080060666665551555660605t5t8886553<,,::::&:,,<<59eryuut991>$o   o$$&,<580wtypitr0732:::****:**:****&:::::,,,,:,,,,:,,:::::::***:*:**:**:&:::,<<158000t000866633<,::;;;;;;:;;;;;;:;:::::>,,2460ettyyrq1>-$   oo$&->158eriiiiie7722********::::,,,,,,,,,,,,158qttuttw61-$o.  O$%&,<360wtuppppttwwqqq00q0q0qqqqqqqqqqqw00qq0qqq000086143<,3480rttitw84&$Oo  .+$&,,380etiiiir0722*22222580087322%%*******:::::,,,,<3365800q000088655531<,,:,:::&::::,,,,,,,,,>,<<46qwtyyyw01>$O   OO$--2258eriiptee8322****",
">>>,,<<3156688060060606665655556660666668866613,:::::::::<<<59ertuut961$$o. oo$$:><360rtypptrq832:::*****:**:*:*&&*:::::::,,:,,,,:,:2::::**:****:**::&:::,<3568000000006655<,,:::;;;;;;;;;;;;;;:&::::,,2450rttuyr96>$Oo  oO$$><158erriiire75222*%%*%*::::,:,,<,<,,,,,,1589rtuutw61-$o  .OO$&><360wtupppputtwwqq0qqqqqqqqq0qqqqqq0ww00wqq000088614<<<357qrtuutw64>$Oo .O+$&,,360eripitr072222*22388888753222*****:**::::::,,<3566800q0q008866515<<,,,:::&&::::::,,,,,,,,,,2560wtyytw91>>O.  o+$$>2350eriiiiee8322****",
":,,&,,<155668808060606666656566006600656888655<<2::::&-::,<<59eruuuww61>$o  oo+$::2560rtypitr0852,::*::**::****:::*::::,:,:,:,::::::***:****:*:::*:*::&:,,<3560008000088655<,,,:;;;;;;:;:;;;;;:;::::,:,<550rtyyyrq61$$   oO$&>,<58eriiiire0722***%**&:&:::,>,,<<,,,,,1116qttuutw61>$o....+$&><160qppppppttwwqqqqq00qqqqqqqqqqq0q0w00qqqqq000866143<<3460rtiutw04>$Oo ..+$&:<368rtiiiire7222@22255888755322%********::::::,:<3356800qq00qt56651<<<,,,:::,:::::,:,,,,,,:,,<<550rtyyyw96>$O.  .O$$>2278eriiptre8222**%%",
":&,,,><115668880000000066806660660066tt8086655<<,:::::::,:<358qttuutw6>>$o   o$$*22360wtypittq8332::::**:*:*:***&::*:::::&,::,,:2::::::::*:*******:::::,:,3355680t000006655<2,,:;;;;;;;;;;;:;;;::::::>,2479etyyyr91>>Oo  .O$$&<<57eriiiiie7722***%%%&&::,,:,,<,<,,,,,1159qrtuttw61-$O. ..+$%,,560wupppppuwtqwqqq0q0qqqqqqqqqqqqqw00w0q0q000086663<<<3580etuutw8<>$O  ..+$%,,360wtiiirr0722*22225780887332+****%***:*&:&:::,,3356800qq0006565555<<,,,:,:::&::,:,,,,,,,,,,,2570rtiyyw01>$$    $$->2378eriiiire8522****",
"&:::222255588808000000008000860088t8t6888866553,:::::::::,<350eryuttq6>-$.  .o$$&,<380wtuuyytq853,,:::&::****:*****:*:::::::::,::::::*:*:******:::::::,:,,3356606t8t0088655322*::;*;;;;;;;;;;*;;::::::,<16qwtyuyt06>$$o  oO$%:,357eriiiire032*2*%%%****2,:,,<<<<<,,,<<116qtttutq6<&$O. .O+$:,,360qtuuppputtwwqq0q0qqqqqqq0qqqqqqqq0qq00q000066613<<<<56qttyytq81>$O. ..$$&,,368rriiiir07222*2222680085532:::****:**:*::*:::22356000q00000665553<<,:,:::::::::::,,,,,,>,,,146qwttyyw05>$Oo  o$$$>2357rriippee722***%%",
"&&::::,2<556880800000000000000008668886t088663322,::::::>,,358qttyytq91-$o  .o$$&,<36qwtuuuytq8532,::::::*:***:*:*:*::*::::::::::::::::**:*:*:**:*::::,,,<35560080800888663322::;;**;;:;;:;;;*:::::>,,,<16qwtyyttq11&Oo  .O$%:,<58eriiiiie7722%*+2******::,,,<<<<,,,,<459qwtuutw8<>$O  ..+$::<360wtuppppttwwqqqq0w0qqqqqqqqqqqqqqqqqqqq0000666613<<<3160qtyyyt61>$O. .oO$%:<360wripire0722*2*222588885322::*******:***&*:::22336800q00000666553<<,<:,:::&::::,,,,,,,,>>,,456qwtyyyw61>&O   oO$&>2378rriipree72222**%",
"&::::,,<15568800000q00q00000q0000t00tt6888865332:::::::::,<<58eryyytq61-$.. oo+$&,2360ttyuuyt0853,,,,::&:**:*****:*:**::::&&:::::*::**::*:***::***:::,:,,<<556808t88000665532::::;*;;;;;:*:*:*:*::::>:,<189tttyyt61>&$o  oO$&:,358eriipire7322**%%*****2,,,,<<3<<<,,,,4190ttuutq61>$o   O+$&,<560wwupppputtqqqq000qqqqqqqqqq0qqq0q0qq0q0000066113<<<356qttyytq61>$O.  o$$:>,350wiiiiir07222*2225680885532:::****::***:***:::2336800qq0000066535<<,,,,:::::::,::,,,,,,,,,,<16qrtyyyt65>$$o  oO$&&2277eriiprre772****%",
"&&*:::,21556680000q0qqqq00q0qq0088t068880866553,2:::::::>,,558eryyytq6>-$.  .o+$&,<56qqtuputtq0532,:::::::***::***:**:**&&&:**:*:****:****:*****::::::,,,<35660088t008055553222:;;;*;;;;;;;;;;;*:::::,,<158wttyyt86>$O   .O$&:,350erripire72222*2+%*****,,,3<<3<<<<,<<459qqtyutw61:$o. .O+$*:,5500tuppppuwtwqqq00qqqqqqqqqqqqq0qqqqqqq0000066666<<<,3560qtyytt81>$O   oO$%,,560wriiiire722222225688885532::********:****:::2,356600q0q006666555<,,,,::,::&::::,::,,,>,>,<4160wtyytt01>$o.  oO$&,2270eripppee7722***%",
"***::2221156666000qqqqqq0w0qqqqq8000000008665522,::::&::>><<19wttyytq61-$o  .o$$&,<560wtyupyt0653<<::::::*****:*::****:::*:**:***:*****:::***:**&:&,,:,,<<35665t88t6088855332:::;;;;;;;::;;;*:*:::::,,,,198wtyuyt06>&O  ..O$$&,357eripprie0722%**%%%22%2>,3,33533<<,,,456qttyytq61>$o. ..+$&,<360qtupppuuuwww0000q0qqqqqqqqqqqqqqqqqq00008886611<<<<116qttyytt61>$O   o$+*:2370eriiitee7222;2222680085532:::*******:****&:::<<56680000008886655<<,,,:::::&:::::,&,,,:,,,>1160wryytw01>&$   OO$&>2270rpppppre7722**%%",
"****:::,11556600000qqwqqw0w0qqqqt0t8000008665522,,::::::>>,159qryyytw61-$o  .o$$&,<360wtypuytq053<,,,::::*:*:******::**********:*:*:::*****:***::::::,,,<3556668t68688655532:,2::;;*;;;;;;:;**;::::::,,<16qwtyutq66>&$o  .O$&:,377errppire772******%%*2%,,3335333<<,<<<56qttyytq61&$O  .O+%&,,360wtuppputwwq0000000qqqqqqqqqqqqqqqqq00q0008866554<<<156qqtyutq61>$Oo  oO%;:3370eiiiiire532:**22358888633,:::*****:******&&:2><15600000000886555<3<,,,2::&::::::,,,:,,:,,<156qwtuptr84>&O.  .O$&:2277rrrpprre7222**%%",
"***:::,21156666000qqqqqq0q0wqqqq808tt60008865522,:::&:::1>1169wrtuyrq6>-$o  oo+$::2580wtypuyt6665,,:,:::*::****:***:**:****:*******:**:**:***:*::::::,,<<355666886t68865533222::;;;;;;;;;:;;*::::::>::,<160wttuyt01>$O.  .O$&-,377erippire77222****2%%%2<<<355534<<<<,458qtyyyt061>$O. .O+$&,<360wupppuuuwww0000000q0qqqqqqqqqqqqqqq000000886651<<<<<168ttyutq64>$Oo  OO+*22570eriiite0732;222356808655322::*****::*****&&&><<15680000000886655<3,,,,:::::&:::&,:,,:,:,,>1160rtuptr84>&O.  O+$&:2277errpprre772***%%",
"**::::,:11111666000qqqqqwqwqqqqwt0000000006655222:::::::>>>119wryuutq61-$o  oo$$*22380wtyuyytt053<,,::::::**:***::**:****:**:*:**:***:*:***:****::::,,,<<335666t8t8686555332:::::;;;;;:;;;;;*:&&::::>,,<160qtyuyw051&$....O$&-,377eriipire7722****%%22%2<<35355343<<,<<560wyuytt61&$O  ..+$%,<360qtpppuuutww00000000qqqqqqqqqqqqqqqq0000088666551<<<1569ttyutt84>$O    $+@2235erriiiir07322*223368888633:::*************&,&,,<5566800000008665553222,,:::*::&::::::,&,:,1119qwtuuuw04>&O.   +$&:227errppprre7222**%%",
"****:2:,2235566600000qwqqqqqqqqqqqqq0q000666553<,>&,::::,,,358qttuutq9>>$o   o$$-><569wtiipyrw954<,:::-:::;;:;;;*:***:%*****;2*********;;:;;;;;:::::2,,2335668800008666142,,>>:::;;;;;;;;;*;;:;:::::,,,<360tttyyw05<$O. ..O+%:,3500tuiitte87222@&:::,:,,<3555655513<<,356qtttutq61-$.   oO$-><450wttipppt0000880000068t60tt800t8qqqqq00000666655<<<<<560tttutw81>$oo  oO$->,550trppprr77722*22237708855222%%%****:*******:::,2356688000000088651111<,::::::*::*::::::,,,,<360ttyitw85>&O. .OO$&:,368qttuutre8322%*%%",
"****:::2,23336666000qqqqqqqqqqqqqqqq00000006553,,>:&:&:::,<3500tuuurw11-$   oo+$>><16qwtiiiirw954,,,,::::&;;;;;:*:*:**2*****;;****;***;;;;:;;;;;:::::2,33356680000886651442,:2:::;;;*:;:;::;;;;;::::::,<558qtyyyt01,&$. ..+$%:,<500ttipute85222*&&::,,,,<3355565513<<,356qqtuutq61>$o. .o$$-,,460wttppputtt008068000t86t06000000q0q0qqq0000685511<<<<55ttttttw81>$O  .o$$&><368qripppre722*2*22278088752222+******;:****:*::2235568000000008666111<<,,,:::::%:*::::::::,,<560qttptt83>&O.  .+$%:,368qtuuuurq8322%2*%",
"***::::2,,33355660000qq0qqqqqqqqqqqq0q000666533<<::::::::,,358qttuurw11-$o  oo$$->1560wtiiiyrw974,,,,&:::;;:;:;;**:*::*****2:*;*:;;;**2;;;;;;;;;*::2,,23335560000088655122>22::::;;;;;;:;:;;;;:;::::::,<368ttyytw05,&O.  .O$%:,3560ttpiure052***:::::,,<33556666533<<<<50qttyytq61-$o...o$$-,,560wtuppputtt000608800t66t00060000qqqqq000000666551<<<<150qtuutw81>$Oo  oO$&>1350trpppirr7222*2225780885532%%2****;::*****;::2:2356668800t0000865551<<,,::::&&***::::::,:,,<56qttyitw84>$O.  OO$*,,368qttpittq7222@%@*",
"****::::,,2333566600qq0wqqqqqqqqqqqqq0000066553,,::::&::,,,3580tuuutq91>$o   o+$->>56qwtiiiyrw975<,>:,::::;;;;;;:******:****;*::;;;:***;:;;;;*;:::::,2,335566600088865544222::::;;;;;;;;;;;;;;*:::::,,,<368qtyuyt04,&$o  .O+%:,<560ttipttq83222*::::,,<<35556666553<<<<560ttyttt61-$O. .oo$-,,450ettppputt000660086t6t86t60t000tqqqq0q0000665551<<<<3<5tttuttw81>$O  oo$$&>>3600riiprre722*2222578087552*22@********;***;:::22335688000000008655511>,,,,:::&::**::::::,:,<360wtyyyt61>$$.  .O$%:,368qtupiur072222@2*",
"*:*::::,,,<<155566000q00qq0qqqqqqqqq0q000066551<,::::::,:,2358qttuutq91-$o  oo+$&,446qwyipiyre964<,,:::::;;:;;;;:**:2******:*;;;;;:;;;:;:;:;;*;;:::,2<3355666000008665114>2>2::::*;;;:;;*::*:;:::::::,,3560wtyyyr06>$+.  oO$&-<<50qttupure7522@*:::,,,<<356668866333<<3560qtyytq81-$o. .o$$&><560qtypppptt80888880000t8tw00w0000qqqq00006066555<<<<,356ttttutw81>$oo ooo$&,<360qrppprr0722**2225778887332*2*******::****;:::2235568800000q000655133<,,::::::****:::::,:,,<560ttyytt65>&$. .OOO&,,368wttpiiee7522**%@",
"***:::::,,,<355566800000q0qqqqqqqq00q0000666511<,::::&::::23580ttuurw11>$o  oo$$::,460wyiipiye054<,,,:::::;;;;:;**:***::***:*:*:;:;;;:;;;;;;;;*:::2:233355666000008866544,>2:;2::;;;;;;:******;*:::::>,,360wtyyyr96>$$.  oO$&>,<58qwtuutre75222*:::>,<<3355668666533<<<560ttyytt61-$o  .oO&&><1600tupppptt0088888008886tq0w00t00qqqq000088666111<<,<3556wtuutw61>$oo   $$&&,560wrippir07222**22778e8755322%**%***:******;;:::2335688808tqq006665531<,,,,,,::::*:&&&:::::,<360qtyytt61>$O.  .O$&><350qttuitre73222**%",
"**:*:::2>,,<3316660000000qqqqqqqq0qqqq0000665511,,:&::::,,2358qtuuutq61$$o   o$$&,1460wrippirr975,,,,,::;:;;;;;;*:**********;;;;;;;;;;;;;;;;;;;;:::,,<355666000000886551,42:::::;;;;;;;;:*:*:;:;&::,,,,<360wtyytr05>$+.. oo$&&,<58qtuupuie752***:::>,<<<55568886553<<<<58qttyyt061>$O.  oO$&><160ettppputqt008888808tt660ww00ww0qqqq000686665611<<<<<56tttuutw81>$oo  oo$&:<550wrpppir0772222*27788877532%*********::***;::22225668880800008055531<<<,,>:>:::::::::::::,,<560wtyytt61>&o. ..$$&&,366qttuiire7222**%%",
"***::::::,,<333566800000q00qqqqqqqqq00q000665511,:::::&::,33580ttuut961>$   .o$$&,4460wyipiirw06514,:::::;;;;;;;******:**::*:*:*;:;:;:;:;:;;;;;;::,,2<35566000000088661442222>::;;;;;;:;:******:::::::,<380wtyyyt05>-+.  oo$&&<<58qttuuure72222*::>,,,<<556888866533<<356qttyytw61-$o. .O$$&><160rtuppputt000888000t888tq00w000wqqqq000066611111<,,,<566wtuutw81>$oo  o$$&,,360wripprr07222*22228888873222%2*****:******;:::2225568806t0000086555<<<<,,,,,:::::*::&::::,,3560ttuytt85>$$. ..O$&>,360qttpprre722***%%",
"*:*:::::,,,,<335666880000qqqqqqqqqqq00000066511>2:::&:::,,,358tttuytq61$$.  .O$$&,<57qetyppyyw97444,,::::;;;;;;::***:*:**:**2***;;;;;;;;;;*****;::,,<336668000000086555111:1:::;*2*************2::::,,,3450rttuurq1>$$.  oo$&&,<78eripprrr77222*&,,,,<<516688888654<<<<56qrtiytw61-$.   o$$&:<560ettpppptrq08880000qqqqq0wqqqqqqqqqqq0068555533<,<,<<568ttttt081:$O ..OO%&:,360wriiiir07222*2225780887522%%*****;;:;;;***::2223356888t66t8t66665533<<,,,,:,:::::::*::::,22360rtyutt61>$$. ..o$&>2278rrppiir07422:;%%",
"****:::,,:,,<3351666800000q0qqwqqqq0000000666511,,:::::>:,<3588tyuytq61-$.. ..+$&,,479etyppyrr08541,,,,:::;;;;;;**:*:*****:***:::;:;:;:;2;****;;::,<<355688000qq00887551411:2>::********2*#2****:::::>,,460etuutr011$$.  .o$&-,<58errppire7422**,&:,,<<5666800086553<<356qrtiitw61>$O  .oO%&,<450ettpppptre08888000000qqq0qqqqqqqqqq0068655533<>,,,,<56tttttt881>%O....+$&,<360wripiirq722*22235780887522*2*****;;;;;;***;:::3356688888t688686653333<<<,,,:,,:::*::::::,2256qetyyyw81>-O. .o$$$>2278eripiiee8722:;%%",
"**:::::::,,,,333566680000qqqqqqqqqqq000006666111::::&::::,,3580ttuttq61>$....O+$&,156qetyppytr08544,,,,::::;;;;;*:*:**:::*******;;;:;;;:****;;;;:::,335568000qq00086754444:4::::*****2**#*******::::>>,<460ettiurq6>$$.  oO$&-,157erippire07222*&>>,<<55566800086543<<356qrtyytw61&$o. .o+%&:<460ettpppytrq08868000qqqqqqqqqq0qq0qt00006653331<<,,,<<566tttutt81,$O  .O+$&>,360wiipirrq7322**2257880855222%**%**;;;;;;;**:::22345688t68866t666655333<,<,,,,:,:::*:::::,,22570rtyuyw011$$.  .O$&>2378errpiire7222::*%",
"**:&&::::,>,<<355668888000qqqqqqqqqq000000661111,,::&:::,,,3560tyyytq61$$....O$$&,,46qetyppyyrq8744,,,:,:::;:;;:*:***:**:*****:*:;;;:;;;****;;;;::,,<55668000qq000865544,4::2:::*****@**********:::::,,3460etuitr96>$$.  oo$&->178rrrpiiie77222*>,,,<33566808008654<<<250qrtyytq61>$O. .OO$&><460etipppyttq0868860000qqqqqqqqqqq0000q08865553<<<,,,<<56tttuutt81&$O  ..O$%,,360wriipirq732*2*235588885522%*%****;:;;;;*;;;::,,345668888ttt8606555533<<<,,,,,,:::::&::::,:2570rtyuyw91>$O. .oo$&>2378rrppiire822*:;**",
":*:*&::::>,,,<355566880000q0qqqqqqqq00066661161>:::::::::,2358qttuutq6<-$....o$$&,<47qetyppptrq05541<,,:,:::::;;*:**:******:*:**;:;;;:;:;;;;;*;;:,,<115688000qqq0066611<,,2::::;****************:&:::,:2460ettiut96>$$o. oo$$><158errppire7522**>><<151666600008654<<<356qttyytw61>$.  .O+$&:<360etipppttq00886600000qqqqqqqqqqq0t8008866511<<<<,,,<3558ttuutt81>$Oo  .+%&>,368qriiiir073222%2238888873222******;:;:;***;:::,23455668000600066665133<<<<,,,,::::*::*:,>:,3360rtiutw911$$. ..$$&>2278erppprre7522:&:*",
"***::::,>>,,,3<5556680000q0qqqqqqqqq00066666111>2:::::::::2350qtyuutq6<-$....o+$-,237qwtyppptrq087442,,,,::::;::***:**::*:***:*:;;:;;;;;;;;;;*;;&,,:11566800q0q008665111,,:2::::**2***2**#2*2#2*::::::<,550etuitw91>$$.  oo$$>>158erippiree52222>>,<1156660000086544<<356qwtyytq61>$O  .O+$&,<550eripppytq0866666600qqqqqqqq0qqq0800008865545<<>,,><<55t0tuttt81>$O  .O+$%,,568rripiie07322*2223588077522*2*****;;;;;;;;;::::2235566660600000066555533<<,,,:,::::::::::,,3560rtiyyw91>$O. .o.$$>2250rrrpppre0722,:&:",
"*:*:&::>,:,,<<35566880000qqqqqqqqqqq0000661161112:::::::,,2358qttuttw6<-$.. .o$$-><56qetyppptreq67443<,,:,,:::;:***2*:**:*:*****;;;;;:;;;;;;*;;;&,><15566800qqqq006651<,>::>:::;**%*************:::,,,22360ettittq11$$.  oo$->>158eerppirr0722*2>111151666000000655<<<258qwtyutq6<&$O....+$::<460etippptte0866566600qqqqwqqqqqqq0t08008665511<<<<,,<<566tttttt51>$Oo ..+$%,2460riiiirre7222%222588087722*2%*****;;;;;;;**:::,,<3355560860t600066555133<<,,,,:,:::::::::,,3380rtyytw91>$o.  .O$--2250errppprr7522,:::",
"****:::::,,,,3335668880000q0qqqqqqqq0006666111>>:::::::::,23560ttuutq6<&$.. .o$$&><47qetypppyteq8774322,,,::::::******:***:*:*:::;:;;;:;:;;;*;;;&>>>155668000qq0086651,,:2:::::;********2*******::::::23470rtupuwq6>>oo  oO$$>>558erippprr7522*2>1>1556688800008655<<<356qttuytw6<:%O...O+$&,<460erippptr08855566600qqqqqqqqqqqq8t0t008855511<,,,,<,356tttttt051>$O  ..+$%:2460qriiiir8522%22225580875222%2******:;:;;*****2:,,23555686t00600666655553<<<,,:,::::::::::,,3460rtyuyw911$$....O$--2278erppppre8722,>>-",
"***:::::,,,,<<335566600000qqqqwqqqq09986555432,,::::::::,,,358qttuyt961$$o  oo+$&,33666tupppttt686544<<<,,,:::::&&**:*:*:*******;;;2*****:*****:::2225558800000q087722222*2******2%***********2*::::>>,<360wttitt011$Oo   OO&->358eriipitq05522:22335666000000086544<<446eetiitq61-$o...O+%*:<550qtyppytwq86655566000qqqqqqqqqqqt000008665511<<,,<,,116qttuytw61>$$   .$$&>,368rtypitr06222%222588888833::::******:**:***::::2,21515660600008888865553<<<>,>>&:::::::::,,<560rtiutt61>$O. ..$$&>,350eryppyre974<,>,:",
":**::::::,:,<<<5556860080q0q0qqqqqq0986655532,,,::::&::::,<3500tyuyt961>$o  oo+$&,<566ttuppptttt086554<<,,:,,:::&::***:***2***:*:;;;**;;*:******:::,2356680000qq077522*2*****%2*****************:::::,,<360wttiut06>&$.  OO$$>,378erripitt0633222235566600000008654<<<456qryiiyw61-$O.  OO$*,<460qtyppytw086515566600qqqqqq0qqqq00000086555511<,,,,<156qwtyutw91>$o.  .O$&><360wttiptt072222%2255808853322::*************:::2:,211155660000006t88665533<<<,>>,::*:*::::,,,360rtiuyq65>&O. .O+$$:2370ertppyyq9752,,>:",
"**:*::::,::,,<355556688t00q0qqqqqqq0996655432<,:2:::::::,,<358qttuytw61>$o   o$$&,<360ttupuuttt6086654<<<,>,:,&:::&******:*:****;:;:;;;;******::::,23555880000000775222@******2@*****2**2*******::::,,><360rttiuq06>&$.  O$$&-,358eriipitw0853322335568000000008654<<<348qrtyitq61-$o. .O+$&:<160ttyppytwq6615551660qqqqqqqqqqqq000000866511<<<<,,,<116qwtuutw91>$O.  o$$&,<350wttiitr08222*222278088753:::*******::****:*:::2,,1<5556600000008866655533,<,,,:::*:&:::,,,<560rtyuyt61>$$. ..O$&-,356etyppyrr9642,,>,",
"***:::::::,,,<<355666866000qqqqqqqq999665542<,,,:::::&:,:,,3580tyuyrw61$$o  oo$$&,<5606tuputttt60885554<,,,,,::::::*:**:*:*****:;;;;;;;;:*:*:%*::,,23358800000q00873222@********2*******%*******:::>:,,2360wtuitt01>&Oo  .O$&:,357eeiipitt0855333355666000qq0q006544<<457qttiitq61-$O.  OO%&,,558qtyuptttq6651166600qqqqw0qqqqqq0t00008655151<,,<>,,1660ttyytw61>$O.  oO$&&,560wttpiyr8722*2*2225880873322::****:***:**:**::::,2<<1156600006t0850666553<<,,>::,::::::::,,3360wtyytt05>$O. ..O$&>,370qrtpiyyqq5522,,:",
"****:*::,:,,,22335556888000q0q00qq0088655511<,,::::*:::::,2358qtuuutq61-$o   oO$&>3568ttupppyttt006655<<<,,>:,:::**:*:****::*:**;;;;:;;::***:::::,,2355888000000885422@2**********2@********2***::::>:,<380rtyiit01>&o   OO$&&,<77erriiitt086353355568800qqq00086513<<346qrtyytw61-$O...O+$&>,470qttppytw0865161668000qqqqqqqqqqt600t865555<<<<,,,<<169wwtputw91>$O   o$%%:<360qripptre7222*2233788087332:&**********:***:::::,,<<5556660000t66t66665533<,,>,:::*::::::,,3580ttyyyw04>$$. ..+$%:,370eryppytr9742,,,,",
":*:::::::::,,,,2355566880000q00t000088655141<,:,:::::&::::23500ttuutq61$$o  oo$$&,<33ttttpppttttq0065533<,,>,:::::*****::*****::;:;:;;;;*:::*:::::233568800000008764222******************2**@*%2&::::,,<360etyitq851&$o  .O$&-,357eriipptt0065535566888000qqq0086553<<356qrtyytq61-$O. .OO%&,<550ttyppytw0851516668000qqqqqqqqqq0000586655<<<<,,,>,,1160wtuytw91>&O   oO$%,,460rriiptr0722*22235880875532::*******::****;:::,,:2<1135660008t0888886655533<,,,&,:::*:::,:,<360qtyyyw85>&O.  OO$%:,358ertppyrr0754<,:,",
"**:**::::::,,,,23355566800q0qq00008886755411<,<:::::::::,,2358qttuttw61-$o  oo$$&&<568ttppppttttq0666513<,,,::-::***:***:**::***:;;;;;;::*:::::,,,233568800000008655222*************************:::>,,,<368etyiyw05>%O.  .O$&-,357eeiippytt0855555668000qq0q0q08655<<<356qwyyytq61>$o.  O+$::<560wttppttwq66511516800qqqqqqqqq0q006t66655<<<<<,<,>,<1199wtuytw91&$Oo  oO$%:2468rrpppir07222*2227588887332::******:**:**:**:::,,,<<5556680000t600886655333<<,,::::::&::,,,<56qwtyuyw85>%O.  .O$&,<378etyppyrr0742,,,:",
"*:**:*:*::::::,233555668000q0q00000866755442<,,,2::*:::::,23580ttuytq61-$    o$$&,<366tuppppttt0t0065513,,>,,:,:*::****:*:**:*:*;;;;:;;;**:::::::23355688008t006665322*2**************2%********::::::,<560rryitt06>%$.   O$&-,<78eripppytqq88855668866t0qqqq008651<<<356qttuytw61-$o  .OO$:><470wttputttq6515516880qqqqqqqq0qq06t660665155<<>,>,,,,1199ttuutw61>$o   O$%::2360wrppprr072222@225788887332::*******:******:::,:,,<1316680000000088666555<3<,,,,:::::::::>,3380ttyuuw01>&O.  OO$&:,356ertppyte0744<,,:",
"**:**:**:*::,:2,,33555688000080008886655533<<<,:::::::::,,<358qttyytq61$$O  .O+$&<<360ttpppppptt00065511<<>,::::::************::2***2****;:::>,,,2<35660000000606653322*@*******;;;;:;;;******2*::::,,,,16qwttuuw06>-Ooo..O+%&,3580rtippitre086566880000t000q0085513<<356qttyytw61>$oo  oo$>,<350wttuuutwq05155616600qqqqqqqqq008888866513<<,,,,,>,,458qryuutw61>$O.  OO$&,,550wripipre7222*22235888855322%%******:*:***:*:::,,,<<45568800000008066665443<<,,,:::::::::,>1169wtyuyr01>-O   O+$%:<366qryppyre0754,,>,",
":**::**:*::::::2,3<355568000t000088866655533<,,::::::::::,<3580tyyytq61-+.  .O+%&,33600tppppppttqq006551,,,,,::::*:********::*******;;**;;:::::,,<<55660000q6t066753222*2*******:;:;;;:;***@****::::::,<169wtuutrq1>$$o ..+$%:,357eripppptrrq88686880000000tqq006513,<356qttpytw61-$oo oo$$->,570wtyuuytwq66511566000qqwwqqqqqq06t88865553<<<,>,,,,<<16qwtyutw91>$O.  O$$&>,360wiipirre7722**22288088733222%****:*:******::::,,2<<4456880000t0000666555433<,,,,::::::::,1119qwtyutw91>$O. .OO$&:,35qetyppyte9644<,,>",
":**::******::::,,,<335568800000008886655533<<,,,,::&:&:,,,,358qttpttq61-$.  .O+$&,3560ttppppputttq066553<,,-,:::::***2:*:*:**:*:;;;;;;;:;::::,,,,<35566800q00606663322*********2;;;::;::***2*2**::::>,,<199wttuut91>-Oo  .O+%:,378erppppiyrrq088888t008t0000q0086553<<<560wtyytq61-$oo  oo$->2460wttuuytwq86115566600qqqqqqqq0q06888666533<,,,:,>>,,<58qryyutw91>$$   .O$&,,360qrripire7222*2227588885332%%2********:**:*::::,,2<3455868000060086066655453<<,,::::::::>,>119qrtyurw91>-O.  OO$%,,359ertpptte9641<,,:",
"*:***:*:***:::,:,,<315566800000088866655533<,,,>:::::::::,,3500ttyytq61-$O. .O$$&,<3660tppppputtqq066453<,,,:,:::*:*******:**:**;;;;;;;;;:::::,,<3335600008t6t666553222*********;:::::::2*******::::,:,<169wtuutr961$oo  .O$%:,3380rpppppirrq0088886000000t00008653<<<3560ttyytr61-$o   o+$-><460wtupuytq081511516000q00qqqqqq006t88665533<<,,,,>,,<<56qwtuutw91>$O   OO$&>,360qiipire07222*222488008753222+:*:*::*:*****:::::,,<<345558000000080666655433<,,,:,:,::::>,<116qwtyuyr91>$$   .O$%:,378erypppte0644<,,,",
"*::**:**:**::::2,<<<33556800000008066655333<,,,,:::::::::,2358qtyyytq6<-$O  .O+$&,,560ttypppttttqq0865453<,,,-::*:**:**:*:*:***:;;;;;;;;:::::2,,,335560000t688566553::::2@**;;;:::::*:::2**2*2**&:::>,><169wttuuwq6>-Oo   O$&-,3780rtipppytrq0008tt66t60w0qqqq08655<<<3580ttuttq61>$o   o$$--<550wwyppytw006611116600000qqqq00q00888665553<,,,>>,,,,<56qttyytw91>$Oo  .$$&:<360trppirr07222*22475880855322****:***:******::::2,,,<1555880000000000666555433,,,>>:>:::,:,><16qwyyuuw91>$$O  OO$&:<35qertpppte0654<,,,",
":**********:::::>,,<33556880800088666555533<,,:::::::::::,2358qtyyytq6<-+.  .O+$&,<5600tppppyttttq086543<<,,,::::**:*******:*:*:;:;:;;;:;:::::,,<33566606t006tt66653222:****;;;;;:;2*22:*2*@****::::>>><199wtuuttq1>$$o  o+$&-,338ertipppttrrqq0666606t0wwqqq0086533<<<58qrtuutq61>$o  oo+$-><460wtyppytw061111166100000qq0qq0000086655533<<,,,,,:,<356qwtuutw91>$O    $$&:<360qripiir0722*2*22488088853222*2:*:::***:***:*::::,,<<3155860000000060666554333,,,,>:>:::>,<<56qwyyuuw96>$o   .$$&-,358ertppptr0854<,,,",
"***:::*:****::::,,,<<355668808880668655533<<,,:,::::::::,,2358qttyttw6<&$O  .O$$:,2360qtpppppttqq00866553<,,,::::****:*:::**::**;;;;;;;;;::;2,,,<355660000t08588655322::**@2;;;:;:;:2*2222*2****::::>><1160wttutwq11$Oo  oO$$-,378ertipppytrqq00t8tt00000w0wqq08653<<<3580ttuute61>$oo  o+$-><560wtyppytw0661116160600000qqqq0000006665533<,,,,>:,,,256qryuutw81&$o  oOO$&,,5680ripiire7222*22245880885522***::****:***:**::::2,,<<1555880600000006665554<<,,,,,:,::,:>,,<18qwtyutr91>-$.  .O$&,<360ettpppteq6543<,,",
"*::******:*:*::2,,,,3355566860808066655533<,,,,:::::::::,:23560tyyytq6<&$O   O$$::,560qtpppppyttt00885533<<,,:,:*:*********:**:*;:;;:;;;:::2:,,2<355660000808t8866322:2:*2##;;;;:;:2*2*22#2*22@2:::--,>116qwtuutt96>-$   OO$&-,<770rtipppytrrqq06868t6t60wqqqq006533<<3560wtuutq61$$oo  o+$->,<60wtyppywq0611111116600000q0qqq0q0880665553<<,,,,,,,<356qwtuutq91>$Oo  O$$&:<360tiipirre772*2*222888885532*2*:::::::**:***::::::2,<11155566000000000065554433,,,,,,,,,>,><116qwruuyww1>$o.  OO$&:,358ertppttrq9744<<,",
"***:*::*:**:::::>,,<<33566666080888665533<,,,,,::::&::::,,<3500ttuuww61$$o   o$$->,569wtpppppptt0t06665333<,,,,:::*******::*:****::*****::::,,2<115588000qq00006655322:*:*****;:::2:,,,<,,,,:,:::::::,,<360tttiyr05>&$  ..++%:,360qtppppuuttwqqq00q0q0qq0w0w00066544<<<599rtuytq8<&$O  ..+$&><360wyyipyre67433<3455688000t8t68t6088666553<<,,,,,,,,,336ttttytw81,$O. .OO$&:,368rripprr07222*223558858651<<,,,:::*::*****:&&::::,>,,335556680000000006655111<<,,,,,,,>>,,,336qttyytq03>$$.  .O$&:,478qryppptwq8615<<>",
"::**********:::,>>,,<33556668880866866553<<,,,:::&:::::::,,3560tyuyt991>$o  oo+$>><16qwtppppppt0t000065553<,,,:,:*::*:*:******::******:*:::,:,,<51555880000000006653222::;****;;:::2,<222<,,::::::::&,,,368qtyiyt05,&Oo ..O$%:,360qwppppputwwwqqqq0qqqqqw0w00000654<<<<56qrtuutw6<>$O  .O$$&>3360rryiiirw074<<<<45568880666tt6t6008866555<<<,,,:&,,<3558qtyytw81&%O. ..+$&:2388eriipir0722*22233688t86553,,,,:::::*::*:***:::,:,,,<334556688000000086661511<<<,<,,,>>,,,,<5600ttptt05>$O   O+$&:,278eryypptwq8651<<<",
"**:*:*:***::::::>,,,<<3556666806886655533<<,&,&,::&::::::,<358tttuutq11$$o  oo$$->1559wtpppppytt000065555<3<,,,&::**:***:**:*:**:*:**:*:::,:,22<155688800q000866655322:*;;**%;;::,:2,<<<<<,,,::::::::,,<360wttiyw05,$O.  ..$%:,310qwupppputtwwqqq00qqqqq0w0w000065<<<<159qryyutq61:$O  .O+$:,<38qeryiiire674<<<<<55668600688t866q888665533<,,,,:,:,,<56tttyytw81>$O. ..+$::238qerpppire7322**225686888553<,,::,&::****:**:::::,:,,,<135566668000000086651111<,<,,,,,,,,>,<360ttyytt85>$$. ..+$%:,478qryyppttw95111<<",
"*:**:****:::&:::&,,,<<3356668866666555533<,,,,:::::&::::,,<35800yuytw91>$o   o+$&>1189wtpppppyttt0060665553<,,,>2::::*:**:*:**:*:*******::::,,<3155588000000086655332:2:;*****;;::::,<<32<,,:::::&::,:,<558ttyutw05,&$o ..O$%:,<16wwuupppuutwwqqqqq0qqqqw0w0w000655<<<<59qrtuytw61:$O  ..+$&,,369ryypiyye0542<<<355668808tt666t8888665133<,,,,>,,,,,<550ttyytw61>$O   .+$%22368erppprr0732*2*222586t86553<<,,,:&::::******&::,:,,,,<315566668000000086616111<<<<,,,,,>,,,3566ttpyyq81>$O. ..O$%:,459etyppptwq9655<11",
"**:*:******::::,,,,,<<3555666860665555333<,,,,,:::&::::,:,,358qttuuww61$$o  .o+$-:<460wtuppputtt00088665533<<<,>*:::::***:***:*********::::2,2<355568800q0006066553322::;;*****:::,,22<<444:,,:::::::>,<360rtyiyr06>$+.  oO$&&,4600wtuppputttwqqqq0qqqqq0qqq000055141<1569ttuytw61>$O  .OO%*:<369eryppyrw874<<<<33566800006t6006086655443<,,,:>,,,,<<560ttyytq61>$O   .$$&:<360rripitr0732222222688t866533,,:,&,::*:**:*::::::,:>,,<<3355566880000q008665513<<<<,,,,,>,,,3560tttutw85>&O.  OO$&>,450qtyypytwq86511<<",
":**:***:*::*::::,,,,<<35566686666655555<<,,,:,:::::::::::,2350qtuuut961-$o  oo$$&,<460qtuppputww008866655555<<,,2*:::::::**:*:*:*::****&*:::2<<555688800000000665532:::::;****;;:::,,2<3,4:1::::::::,>,,368wtyiyr96>-+.  oO$&>,<100ttuppppttwwqq0qqqqqqqwqwq00006544,1<56qwtuytq81&$O.  O+$&,<360wyyipirw654<<<<355688600000t66t86655543<,,,:,:,::,,356qqtyytt01>$O. .OO%%,,378riipiir07322*22226885886533,,,,:::*:*******:*:,:,,,,<<3<5556668800000086665531<<<<,,,,,,,,3366ttpuyw81>&O   OO$&&<<78qtyyppywq86411<<",
"***:*:*:*:*:::::&,&<<33356666666555555<<<<<,,,::::&:::::,,2358qttuutw91-$o  oo$$-><560rtuppputwwt0866666655<<<<,,::::::::**:***::*******::2:2<33566880000000666553322,:::;*****::2:,,<3<4,2:2::::::::,,<568rttitr05>$+.  oo$&&,416qwuuppuuttwwqqqq0qqqqqqw0q0006654<1>1699ttyytw61>$O....+$:,,360ryyppyrq054<<<<3556660000000066865554<<,,,:,:,:,:,,<56qttuytq81>$Oo ..+$&,,388eriiitr05222%22255880865533,,,:,:::***:***:::::::,,<<<<355556680000q00866555511<<<,,,,&&,,3560qttutw86>&O.  .+$&>,458wryppytww66333<<",
"::***:******::::,,,,<335666666665555<33<<<,,,:,::::::::::,23580ttuytw11-$.   o$$&,,570rruppputtw60086666655553<,,2:,::::*:**:*****:****::::2<355568886t0000866553332::2:;******::::2,2<221,1:::::::::>,<360wttiytq5>-+.  oO$&&,<60qtuppputttwwqq00qqqqqqqqqq0000654411116qwtyytw61&$....O+$&,,560erippirw053<<<3355660000006t000865554<<,,:,:::::,,,356qtyyyyq81>$O  ..+$%,,370rriipir0522%222256808885533,,:,::::*:**:***:*::,2>,><<<<<115666880q000806665551<<,,,,,,,,,3360tttptt65>$O. . +$&&,178qrtppyytw8555<<<",
"****::**:**:::2::,,,<<3556666665551533<<<<>,,::::::&:::>,,<3580tyuytq61$$.. .O$$&><570wripppyttw06886866666553<<2,::,:::*:*:**:**:*****:&::,33366888000t00086655333,,::::*****:;:,:,2,244,,>2:::&::::,,<370wtyiyw911$$o  oo$&&,<10qttupppuutwwqqqq0qqqqqqqqqqq006544<<4560ttuutq61-$o  oO+$&,,389eyyppirr9742<<<155668600000000066554<<,,,>::::::,,,<56qttyyt061>$O.  O$+*22350wrppirre72222*225685886553<,,,:::::*:**:***::::,:,,,,<<<333556660000000t66655533<,,,,,,,,23560qtyuyw011$oo  oO$&>,478qtyiputt066531<<",
"*::***:***:**::::,,,<<3356666665555<<<<<<,<,,:,::::::::::,<3580ttuytq61-$.  ..+$:,<47qwtypppttwqt08886688665533<,,,,:::::***:*****:*****&:,<3355680000880088665533,,,:::::***;*::::,,,424,2,:::::::::>,<470wtyitt91>$$o  .o$&&,410qwtuppputtwwqqq0qqqqqqqqqqqq00554<<<<590wtuutq61-$o   .+%%,,360rryipyre944<<,<115666000000000865544<<,:,:::::::,,,<560ttyytt61>$O. ..OO%:2350wrppiire7222*222258t886553<,,:,,::*:******:::*2::,,,,,<<<35355668000006666666533<<,,,,&>,23360ttyutw01>$$o  oO$&>,358wrypputt0055511<",
"**:*:***:*:*:::::,,,,3355556665555<<<<<<,,,>,:,:::&:&::::,,358qtyuttq61>$.. .O+$-><470rtppppyttw688606606666553<,,,::,::*:*:**::::****:*:,,,355666800000088855333,,,,:::********::,,123444,,>;:::::::,,<470wttiyr911>Oo  oO$$><<100tpppppptwwwqqqq00qqqqqqw0qq006514<<<560wtuutw61>$O   O+$&,,369eriiiyre8742<,215556880000000866553<<,,,::::::&&,,,356qttyytq81>$O.  o$+2*2570wripire0722*2%222688806653<,,,,:::*:*****:**:*:::>,,,,<<<334556800000t6560665533<<,<:,,,,:3550ttttyw011$$   o$$&><550qrtiuuttt865531<",
":**:**:****:*:::,:&,,<33555655555<51<<<,,,,,,::::::&:::,,,,3580ttyytq61$$....O$$:,247qwrppppytwq868866068666553<3,:,::::::********:*:*::::,<<3556880088t088663332,,,::::::***;;::::,,4444,,,22::::&:,>,,470wtyiyrq11$O.  oo$&-,1600wupppputtwwwq0qqqqqqqqw0wqq006514<<<59wwyuutq61>+O  ..+%&:<560eyiiiyre9442,,,<1566660000000866513<<,,,::::::::&,,356qttyytt84>$O.  oO++22368wiipiiee7222*222268t586555<,,:,::::*:***:**:::::2,,,,,,<<<3356668006t06t66665553<<,,,,&,,,2560qtyuyw01>$oo  oO$&>,<58eryputtt08853351",
"**:***:**:**&::::::,,,334556655515<<<<<,,,>:,::::::::::::,,350qttuutq6<-$O...o$$:><46qwtpppppywe0006060088865533<,,:,:::*:*****::*&::*::>>,<<5566600060000885333,,,::::***:****:::2:234444222::::::::,,<45qwttitt96>$$o  o$$$-<116wwtuppputtwwqqq0qq0qqqw0w000006553<<3560rtyytq11-$O   O+$&,,460ryyiiyre75422,2<<5566666000806655433,2,:::::::::,,,<36qqtuutt63>$O   o$+222270eripirre7222*2235660086653<,,,:2::::*:**:*:**::::&,,,,,,<<345566800t8t66586665333,,,,,,,,23380ttyuyw01>$$   oo$$>,259etyipputt6855515",
"::**:*:****::&::::,:,,,3444555555<51<<<,,,:,:,:::&:*:::::,23500tuuutq6<-$.  oo+$-:<45qwtypppytwe0060606088865533,,,,:::::********:::::::>,,3<55660000t0008855322,:,,::::*:*****::4:42444444>::2:::::::,2480wtiiyr91>$$o  oo$$->160qwtuppputtwwqqqq00qqqq0w0w0006653<<<<59qryyytw91>$Oo o.+$::2460eryiiyre7522:,,<<515566606088665443,,,:::::*:*:::,,3560ttyyt085>&Oo  oOO2+2570eriipire722222233660006553<,,::::::*******::::::::,:,,,,<134456880000868t8665533<<,,,:,:,,33600ttyyw91>$oo  oO$$>,478qrypputt0t865555",
"***:*:***:*:&:&::::,:,,344451554<11<<<<<,,:::::::**::::,,,2258qttuttw6<-$.. .o$$-:<460wtypppytee0006060058865533<,,,:,::*:**:*:**::::::2,,,<55566000000t008653,,,::::::*********:,42444444422:;;::::,,,2470wttitt961$Oo  .O$->>1100tppppputtwwqqq0qqqqqqw0w000006533<<3560wyyyrw91-$O   O+%&>3480eryppyr9743::,,><<5556660880866554<3,,:,::::*:&,:,,3360ttyyt063&$O   oO+*2227eerpiiree7222%22356606065533,,2:::::*::*****:*::**:::,,,,<<445566800008t668665553<<,,,,,,,,,568ttyutw96>$$   o$$$><476ertippttt6065555",
"*:*:**:**:*&:::&:::&,,,<<14514445113<<>,&,:::&&&*:*::::::,23580ttuutq6<&$.  .o+&-,<56qwtypppytrq00606000t888653<<,,::,:::*:******:::::::>,<<<55666000088086533,,:::::::::*****:::::24477444222::::::::,2470wtiiywq1>>Ooo oO$$>>1100tupppputtwwqqqq0qqqqq0w0w0000555<<<<56wryyutw61>$O   .+$:>,36eeyiiiyre7422::,,<<<1556668866655433,,,,::::::::&,,,356tqtyytt63>$o   O$O%2257errppiie0722*2*2336000865533,,,::::*:****::**:*:*2&,,::,,,<344668000006t8t8655533<,,>,,>,,,2568ttyuyw01>$$o  oo$->,378qrypptttt0066655",
"::***2****:***:*:*:::::2233344443333322,:2:::*****::::::,,,358tttuut961$$o   o$$::2560etpppptttq0060800000066551<,,,>&&:&&&:******::::,,,<<3355660000t0000655<,,:::::***:******:::22555555332**2:::::,,<360wttitt06>$O.  .O$&&<<66qwtpppppttwwq0q0qqqq0qqwqqq0006513<,3560wtuutq61-$.  ..O$->336erripprr0722*22%,,<<45556666666554<<,,:,:::::::::>,>156qrtyuyw91>$O.  OO$&,,360trpppire72222*223560866651<<>,>&>::**:***::*:*:**&::,:,,,<<5166880000000088616111,,,,>,,,,3368tttyyt05>$O. ..+$&,,450eripppitrqq66666",
"***:*:******:*:**:::::,,,23343143333,,,:::::*:*:*::*:::,:,<3588tyuutw61>$o  ooO$:22360etypppytwe0606800000066511<,,>,>,::&:::**::::::,:,,,3335566060060000653<,::*****::**:****::2243557653322**::::::,<550wtyiytq11&$o   O$&&,<66qwuppppptwwwqqq0q00qw0qqqq00006513<<356wttuutw61>$o  .o$$->,560ripppir05222*%2>,<<34456566666543<,,,,,::::*::::>><<580rtuutw61>$O.  O$$&,,3600ripprre7222*222260000655<<,<,>&,:*:****:*****:*:::&:,,,,<<<5566800t0000086661511<,,,,>,,,<566tttytq61>$O. .OO$$:,458eryippptrwqq8666",
":*:***:***::********:::,,<<3333313<<3,,,:::********:::&,:,<3580ttuur961>$o  oo$$&>2560etypppttr00666880000086551<<,,,&,::::***:**::::::,,<<355666660080006653<,:::****:********::,,2355655532::*:&&:::,<480wttitt61>&$o  .o$&&,<10qtpppppputwww0qq0qq0qqqwqq0006655<<<356qttyytq61-$o...o$$-><550erppiir0722**%*,>,<34355566665543<,,,::::::::&::,,<<56qryyutw91>$O.   $$&:,360qrppiire722*2222566000655<<<>,,,&:::*:*:***:*****&::::,,,<1555668000000008666551<3,,,,,&,,<360ttyyyq05>$$. ..+$%:,478qryippptrwq68866",
"**:*:*******::****:::2:2,,<<3333333<3,,,2::*:******::::::,<3560ttuytw61$$o  oo+$&,2370etyppyttr000668880000085553<<,,,,&:::::***:::::,:,,<<3556666t00t00006533:::********:*****:::223566655322*2::::,,,<450wtiiyt86>$O.  O$$&><<10qwppppppttwww00qqqqqqqqqqq00006513<<356qwtpytw61-$O. .oo$-><36eeriiirr0722%22*&>,<<<535556555142,,,:>:::::::::::>><59qrtyytw91&$$.   O$&,,366triiprre7222*2223560006551<>,::,:::*:****::**:***:&::::,,<3111668800000000866551<,,,,>,,,,3566ttpyyt05>$$. ..O$&,,<78qryppppttwq08866",
"*:*:***:**%2*******:::,:,,<<<33<3<<<2,,:::::*****:*:::,::,2358qttuutw11-$o   oO$:,2360etypppyre0066666800008865533<<,,,>::::&:*:*:*::::,,<3335668t666t8800553<,:***************::2,3476665532::::&:::,,,460etiiyt01>&O.  .+$&:<<60qttuppuuttwwqqq0q0qqqqqqwqqq06651333355qwtyytw61-$o  .o$$&><560eriiirre722***%,,,,<3355555551322,,,:::::::*::::,,,119qrtyutw91>$Oo  .$$%>,360wrpppir0722*22227680086653<,,,:::::***:*:**:****:**:::,,,,<15555880000000886651<<<,,&,,:,,3360tttyyw84>&o.  .+$$:,458qrtipputrwq08868",
"***::**:*****:**:*:*:::,,,,<<<<<3<<<,,:,:::*******:**::::,,3500tyuutw61-$o  oo$$&><580rtypppyre066566080000088655533<,,,,::::::*:*::::,:,<335586666tt6tt0665<<,::******::*:****:::22455665532:2:::::::,<460wtyiyq011&Oo  .O+$>,<100wtupppuutwwqq0qqqqqqqqqqqqq006533<<356qttyytq61>$o  .oO$&><160eripiir07222**2&,,,<<33<51555532,,,:::::**::::::,,,156qryuytw61>$O    $$:><160wripprr07222*2*25688000553<,,:,,::*:******:**:****:::,&:,,<<35558600000000066555<,,,,,,,,,3566ttyytw84>$$.  OO$%:,478qtyppuutre008866",
"**********:***:***:::::,,,,,,<<<<<,<2,:2:::*******::::::,,2258qttuttw61$$o   o$$&,<378wtypppyeq066566660000008665553<<,,,,:::::**:::,,:,,,335568t6t86t6808653<,,****************::22456655332:*::&:::,,<460ettptt06>%$.  .O$&-,3680ttuppputwwwqq000q0qqqwqqqq0006533<3338qttyytq61>$Oo  oO$>,,16errppirr07522%%%::,,,<3<<55555<<2,,,:::::*:**:::::,,159qwtyutw91-$Oo  OO$::<480wrppiir072222*2225800665533,,:,&::::*:*****::**:**:*:,,>,,<<1556680000000088655<<<,,&&,>,,3560qtyuyr94>&O.  O+$&:,158eryippyttw008666",
":*:**::*****::***:*::::,,,,,<,<,,<,,,,,::::**:*****::::::,23580ttuutq61-$o  oo$$&><580wtyppytrq8655556800000088655553<<,,::,:::::*::::,,,<3356868866t6t000653<,&:*****:*::****::,2224566653322:::&:::,,<460ettiyw06>%+.  .O$$>,310qwtupppuutwwqqq0q0qqqqqqwqqq006513,3358qwyyptw61>$o  .O$$&><56erriiiie0722*2*2:,,,,<<<1<<5<33<2,:,:::*%:*:::::,:,,116qryyutw81>$O   O$$%>,450wriiiir07222*2222680806553,,,,:,:::*:**:*:*********::&>>,,,<31555688000000086555<<,,,,,>,,3360tttuur84>&O. ..O$&:<<68eryppptttw008666",
":*:***::*2**::**:**::::::,,,,,,,,<,,,,:,:::*****&&::::::,,<358qttpytq61$$O  .O+$:,<360ttyppytw085555566000000008666553<<,,,:,:,:&:::&>>,,<<5558t00t0t0t60855322,:******::******:*2225556553322**%:::::,<169wtyutw011$$   oO$$>,<10qwppppputtqwqqqq0q0qqqqqqqqq06655<<<<57qttiitq61>$o  ..+$%2237eerppprre73222%*:::,,,,<<55<<3<<,:,:::*::%:%::::>::<<56qtttytw81:$O. .OO$&:,368tttiiir0722:2:2356800085533,,>,&,::*:**:****:*****:::::2:,,<335556880000000066511<,,,,,>,11169wtyutw01>$$. .O+$&,23580ttppputtq000666",
"*:**::::**:***:***:*:::2,>,,,,,,,,,,,>:::::**:**&&:::::>:,,3580tyyytq61-+.  .O+$&,<580qtyppytw0655<5556800q000886665533<,,,,::&&:::&,>,,,<<556650000t006008532:::**************:*2233565653322*2:::::,,<16qwtuuyt01>-$   oO$&-,<60qtppppputtwwqq0qqqqqqqqqqqq0006543<<257qrtyitw61-$o  .OO%*22370erippir07322%%2:&,,,,<<<<<<<<<<,,:::::*%:%:::::,:,<<58qwtyytw81>%O. .O+$&,<368qttiitre7222:2233568886553<,,,>:&:*:*:***::**::***:*::::,,,,<<5556688000000886551<,,,>,,,>116qwtyuyr91>$O.  .O$&:,5580typpppttqq08806",
"::::::::****:******::::::,,,,,,,,,,,,:,::::*:***::::,:::,,,358qtyyttq61-$.. .O+%&,<360wtyppyte88515<55660000000066665533<<,,,,&,:::,,,,,<<35568800008t6t085532:::*****:**:****::*2235566655322*:::&::,,<199wttuyw911$o.  oo$$>,<60qwuppppuuwwwqq0qqqqqqqqqqqq006654<<<358qrtyytw61&$o   O+%%22570eripprr0722%***::,,,,,<<<<<<<<>2:::*****::::::::>,,356qttyytt61,$O. .O+$%,,368ttiiiire7322::225688086553<,,,,,:::*:*:*:**:****:**:::,:,,,,<<355668800000008655<3<<,,>,,11199rtyutw91>$$.  OO$%:2258qtyyppputqq08886",
"::::::::***:**:*:**:*:::,::,,:,,>>>>,,:::::**:::::::::,:,,,3580ttyytq61-$O. .O+$&,<360wtypuywe8651<<1566000000005t6665533<<,,:>>::,&,,<<3555665t00t000000655322:******:**:*****:::23355655532:2::::::,,<119wtyutt96>-$.  oo$&&<116wwtpppputtwwqqqq00qqqqqqqqqq006543<<257qrtyytq61-$oo o.++%*2270erpipirq7322%**::,::,,<,<<<<<,<:2:::*****&&:&:::,:<348qttyytq61&$..  .O%%:<368qtiiitr8732:::235568086555<<,,:,::::******:**:****::::::,,><<<55556666000000085553<<<,,,,<<16qrtyutw91>$$.  .+$%:,3580ttpppppttq08888",
"::,::::::**:***:*:**::::::,,:,,,,,,:::::::*:&:::::,:::,>,,2358qttyyt06<-+O  .O+%::2560rtypuytq851<<<555680000000666665553333>>,,::,,<<<355666800000tqq00855532:::******::******::22235665533:2*:&:::>,><660wttytw96>$$.  oo$$>11100wtuppputtwwwq0q0qqqqqqqqqq000654<<<356qttyytw61>$O. .O+$*2227errrpirr0732:::*:::::>,,,<,<<<,,:::::******::::::,:,258qtttytq81>$O.  .+$%>,560wtiiitrq73222:223668886655<<,,,::::::**:***:**:*:*::::,:,,,,<<1515666800000008655333<,<,,><16qwtyuuw91>$$.. O+$&,,3500typppyytt080888",
"::2:,::::::*:*****:*&&::::::,::::::,::::::*::::::::,,::,:,23500typytw6<-$.  .O+$&,2460rtuputt085<<<<<15580000000t88866655333<>,>,,,,><3555668000t000q000885522,:::*************:2:22555665532:::::::>>><180wtyyytq11-Oo  oO$$>>160qwtuppputwwwqqq0q0qqqqqqqw00005544<<456qrtyytw6<>$O  .O+$**225erppiipr0732::**&&::,::,,,,<,,,>2:::******:*&:::::,<<57qqtyytt81>$O. .O+$:>3360wriiitrq7322**2235688665533<,,:,::::*:****::******::::::,,<,<<1<515566800000086656333<,<,<116qwtuuuw96>$O.  .O$&:,3500ttppputt0000080",
":,:,,:::2****2*:*:**:&::::::::,::::::::::*::::::::,::,:,,,2358qttyttw6<&$O  .O$$&,2380rtuuptt865<,,,111668000q00886686665533<<<>:,,<<55556688000qqqqqq08665522,::******:*:*****:*2:23565553322::::>:>><<160wtyuywq6>$$o ooO$>>>118qwuuppputtwqqqq0qqqqqqqqqq0000654<<<458qrttptw64:$O  .O+%%22277rpppprr08322*:*&&:::,,:,,<,,,,>:::*:*:*****:::::,,<258qttyytq81>$Oo ..+$:,,368wttiitr0822**:223566866555<<<,,,::::***:**:***:***:::&,:,>,<<<<1155556600000088865551<<,<<156qwtuutr91>-o.  .+$&:23500tpppppyt0t00000",
",,:,::2::*********:::::&::::::::::::::::*:*:::::,,,,,,,:,,23560ttyytq6<&$O  .OO%:>2560etupptq053<,,,11156800000q6t8t886655551<<<<,,<<5566000006t0q000000665522:::********:*****:::23555665322:2::-::::>1160wtyutt91>-O. ooO$$>>160qtuppppuutwwwq0q00qqqqwqqw000665442,4560wtpttw6<:$O. ..+$&2277errrpppr0632::&&&::::::,>,,,,,,,2::::******::::::,:,357qttyttt64>$O. ..+$%:2360wtiiiir0532*2*22256666655533<,,>::::*:******:**:*:*&::::,,,><<<11115566800000088665551<<<,116qwruutrq1>$$.  .O$&:,3580typppyyttt00000",
",,,,,:,:::::******:**:*:*::*:::*:*::*::*::*::::,:,:,,:,,,,<3560tyyytq6<&$.. .oO&&><160rtuiitr0732:::223578800000q000088666651111<,3335680000q0qqqq0q000666511>>>*******:;*:;;;;:::,33556655222**:*&::,,2550wtypyr85,-O.  oo$$>>158ttttppppptqqqqqq0qqqqqqqqqqq006544<<<580rtpitw64-$oo  o+$&><46errppprrr772*********;2;@222;2,:::::******:::::::,,,348qrtiitw64>$O...oO$&&<550wtyuutr063222%22255666665533<,,,,&::&*:**:**:*:**:;::::,:2,,,,1244445588960t008886655<<<<<<360ttyyyt85>-Oo  oO$-><358qtuupppptt0qqq00",
",,,,,,:,,:::*::*:*:*:**::*:**:*::**:***:***:::,:,,,,,,,,,,,3500tyyttq6<-$o. .o$$&,<580etiiite07322:2,22558888000q0w0000866655111<33355600q0qqqqqqq00060666611>>>::**;:;;**;;;;;;:22336566552222::::::2,,370wtyytt85,$+oo oo$&>>1568tttppppttt0qqq0q0qqqqqqqqqq065544<<4480rtiitq6<-$o  oo+$-><467rrrpppre7222:********;:2*2*::,,:,::*:******:*:::::<358qrtiitw64>$O.   $&&><360wtyputt06322*%22255666665533<3,,&::&&****:**:**:*;;:::::,,,,,,4,4144558896t686t0866655<<<<<5600ttytq81>$Oo .oO$&>,3500ttuppputtqqqq00",
",,,,,,,:::::**:**:**:****:*:*:*:*:*::*:**:*::::::,,,,,:,,<<350q0tyytt8<-$.  .o$$&,<160wtuiite072:::,:225566800000q0000080666511133555660qqqqqqqqq00000666111<,>>**;;;;;:;;;;;;;;::235566555322*:::::::,3570wtyyyt05,-O.   O$&><<5688tupppyttt000qq0q0qqqqqqqq000654<<<4480ttiite61-$oo .oo$-><46errpprpre722:*******2;2**22#2,::::::**:**:*:::::::,<347qrtiitw91>$O  ..O$&,,360wttupyr08322*2222556666655533<,,,:::&:***********;:;::::::,,,1,,11445556980t08880866553<<<<5600tyytt65>$Oo  oO$&&,358qrtpppputqqtqq00",
",<,,,,:,:::*:******:**::*********:*********:::,,,,,,,,,,:,<356ttyyyt851&$o  .o$$&,<588ttuiitr07322::,22355668000q0qqq0000666655133555600qqqqwqqqqq0000661661<,>>:;;*;;;*;;;;;;;::223556665532****:*::,,,370rttyyq05,$+o  oO$$&<135ttttpppyttqt0t0qqqqqqqqq0q00005541<<4580wtiitq61-$o  .o$$-><46rrrppprre722*********;;;2@22::,:,:::::*******:::,:,,348qryyitw81>$Oo  O$$&,,350qttuute0722**%2225566666655533<,,2:::*****::*:*:*;*:::::,:,,,,,,4,44456890060t68866665<<<<3360ttyytt81>&+   o$$&><358qttpppputttqqqq0",
",,,,,,,,::::*****::**:***::****:****:**:*::*2*::&,>,,,,,,,,3560ttytt06>-$.. .O$$&,<16qwtiiiiee522::::,2455660000008tq0q00066661655568800qqqwwqqq00000666553<,,&,:**;**:*;;;***;:*2235566655522:::::::,<<350wtyuyt05>&+o  .O$&-,<58ttppppputtt000q00qqqq0000000066133,<356qttuytw81-$oo  O+$:,<467rrppppre7222*****;;**;;2*2*2**2::::***:**::::::::,,<58qwtuutw81>$O   OO$%:,550triiptre73222*2225668666655553<,,:::***:********:;:;:::::,:,,,,4,1415669900t00006866555<<<<366ttuytq84>&O   Oo$$&,3580tyupppputqq8000",
",,,,,:::2::*::*:******:*****:****::********:**:2,,,,,,,&,,<3560ttyytt51-$o. .oO$&,<560qtiiirr0722:::,,<3555666800000qq000000666666668000qqqqqqwqq0000666553<,,,::*;*;****;;;**;;*2235568865322::&&::,:,<560wtyuyt85>$+.  .O$&&,4568tpppppyttt000qqqq0q0q00000066653<<<<56qwtuytq6<-$o   O+$&:<46eerrpprr7722:******;***2**@2*2**::;;:****:**:::::,,,<50qttuutw81>$Oo  OO$&,<360qtipitre7222*;*2236666886655533,,::*:****:*::*:**;;:;:::::>:,,,,,11455689008000008665<<<<<<550tttutt84>$O    $$&-<368qttupppptttw0t00",
",,,,,,,,::::****:*::::**:*:****:***:****::**::2:,,,,,>,,,,<358qtyuut061&$.  .o$$&,<180ttiipie8722::::,,2455568800t8008q00008088866888000qqwqqwqqq000661633<<,,:&:*;*;*;::;;;***;2*23558885532:2::&::::,<358tttutt01<&+.  .O$&&,<580tppppputt0000q00qqqq0000006665133<<3560ttuytw9<-$oo oOO$&><55errrpprre722:*****;;;;**2****2**::;::;;;****::::>:,,<56qwtuutw81&$O   o$$&:,5600ripiir87322*2;2256688886665533<,2::***********:*;:;::;::::,,:,,21415568900t0t60088655<<<,3550tttutt85>&OO  O$$&-,358qtyupppptwwqt008",
",,,,,,:,::::*:*:*******::***::**:****:*:**::::*:,,,,,,,,,,<35800tuut061&$.   $$$&,<36qwtiipree722::::,,2<455688088t00t0q000000008080086tqqqqqqqq0000666153<<,::::*;**:**;;;;***;*233568886553:::::::,,:<550wttptw05>-O....o$&>,4560tupppppttt0t0qqqqq0qq00000066553<,<<560ttuytw61-$oo  O+$&,,56rrpppppre7222*****;;;;;****2*@2*:;:;**:;**:*:::::,,,<56qttuutw91>&O  . $$&:<350triipree722*2*222556688888665533,:::******::*:*:*;:;;;:;:::::,,,2145556880880000686555<<<<<5500ttutt61>$$   oO$&-<3588tuuppppttwq08t0",
"<,<,,,&::::&*:*********:***:**:***::*******::::,,&,<,,,,,,<<500tyuutq61>$oo.ooO$@2257erpiiirre722:;:::,23355568000t8qqqqq0q0000000000qqqqqqqqqq0000865553<,,,::::****:*::*****::2222568886552,::&:::,:<<360tttpyt06>$$. ..O$%:,<580tttppputtwwqq00q0qq0q00000666533<<<<560ttuutq6<&$O  .OO$&><369errpprre722********;;;;2***2***;;:;;;:;;;:;*::::,:,156qwtpytw91>$O.  oO$&:<370eiiiirre7222222223566t56t566553<,:2:*&******:***:;;:;:*;::::::,,,1444568890qq00008865<<<<<<568tttptw81>&O   OO$%:<350qttupppytt0tt000",
",,,,,,,,,&:&*:**:*::::***:*:*::*:***:**::*:*::,:,,,,,,,,>,<158tttuttq61$Oo. oo$$*2227erriiiir0722::::,:2234456880000qqwqqqqqqqqqt6t00qq0qqqqqq0qq0866553<<,,:,:::******:**:***::*2225680885322:::&&:::,<366ttyptt05>&$. ..O+%:,<580ttupppptwwwqqqq0qqqq0q0000666533<<<336tttuutq8<>$O  .O+%&,,56eerppppre7222*********;;********:*;;;:;;;;:;::::::,,156qwtyytw91>$O.   $$::,470eripiire7522*@222556668666666533<2::::****:*:*:**:;;;;;**:::::,,2,44457889qq90088865555<<<<565tttyyw06>$+o   $$&:,3500ttupppyttt0088t",
"<,<,,,,,,:::***:*******:::******:**:******::::,,,,<<,<<,,,<<588ttyytq61>$o  oo$-*22570rriiire0722:::::,,223356688tt8qqqqqqqqqqqq8660qqqqqqqqqqq000865533<,,,,::::********::*:::,2223688088552::::::::,,<558tttptt66>$$. ..+$&:,<580ttuppputttqqq0qqqqqqq00000666533<,<356qqtuutq61:$O  .O+%%,,36eerppprre722**********2;*2*;****;;:;;;;;;;;;:::::,,1446wttyytw81>$Oo .oO$&,<470rriiiire722***22235666888066655<<::::*:*:*:**:*:*;;:;;;;::::::,,,14445768809q0800886511<<<<368ttyptw01>&O   o+$&&,3500ttuppptt0t00880",
"<<<,,,,,:::&:****::**:*:***:::*:*:***:****:::,:,<<<<<<<,,<<3560ttyytq61$$o  ooO$*:257erpiiiie0752::::::,,23356688000wqqwqqqqqqqqtt6tqqqqqqqqqq0006655532,,,,:,::*:***:*:*:*::::::23568808853222::&::::,<3680tyyyt66>$O   .O$&:<<580wtuppputtwwqqq0q0qq000000606655<<<<3566ttuutq61:$O   OO$*:336erprpprr77222**********;*;;;****;:;;;:;;;;;::::::,:,448qwyyytq81>$O   o$%&:2470etiiprr8722*22@22355666686666553,,2::::*::*:***:*:;;;;;;;;;:::,,,,44476688009000686655<<<<<558ttyptt01>$Oo  OO$&:<356qtttpptttt0ttt00",
"<<<<,,,&,:::&:***:******:*****:**:*********::,2,<33333<,,<<3580tyyutq6>>$.  .o$$*:2470erppprr7742::*::::,,237768000qqqqqqqqqqqqq6t00t0qqqqqqq0000065532<,,,::::::**:****:::::,:,22556808085322:::::::,,3368qtyytt01>&$   OO$$-,<68qtppppputtwqqqqqqqqqq000000661533<<<3560qtyyt061>$O  ..+$&>,567erppprre722**********;;********;::;;;;;;;;;::::::,,118qwtuytw91>$O. .OO$%:<370eriipir87222**222355556886666655<22::::::::*****:;;;;;;;;;;:::,,2,114446680000000666551<<<<55ttttytw04>&Oo   +$%:>3500tuppppptt80800q",
"<<<<<<,,,:::*******:******:::*:**:*::*:**:::::,23353333<<,<3568ttpttq61>$o  .o$$:,<57eerppppee742::**::::,,333780000qwqq0qqqqqqq060000qqqq0qq0008665532,,:::::::*:****::*:::::,,235568808673222::::&::,,368ttypyq06>&O    O$&:,318qwupppppurtqqqq00qqqq000006066553<,<3380ttyutt61-$O. .O$$&,<36errppppre7222*********;;***2***2;;;;:;:;:;;:;::::,,,158qtyyuyw91&$Oo .O+$*>,360eripiire7222****2333556666066553<,:,:::::**::*:**:;:;;;;;;::::,:,>144456680800860886551<<<<5568ttptw84>$$   OO$&:<450tttpppppttt80000",
"<<<<<<>,:::::***%2*:*****::****:**:********::2233555533<,,<358tttuytw61>$o. .o$$&,<47erprpprr774,::*%*:::,,2377800qtqwqqwqqqqqwq080t0qqqqqqq000086653222:::::*:***:**::*::::,,,,2355688088552,::&*::::,<550qtyptr06>&oO  .O$&:,358qrtpppputrt0qqqqqqqq0q0000066655<<<<<58qttuutq61>$O...O+$::356eerpprrre722*****@****;;********;;;;;:;;;;;;:::::>,,118qwtyutw61&&O.  OO%&><460eiiiirre7522*2222335556666666553<3,,::::*2*:****::;:;;;;;;;::,:,,2244457668000060886511<<<<5688ttptr04>$$o  oO$&:<<588tpppppptqqtt000",
"<<13<<,,,:::***:******2:****::**:***:*****:::22335555533<<<3588tyuytq61$$.  .oO$:,247errpppree722::*%**:::,2337880qqqqqq0qqqqqqqt000qqqq0q000000866322,:,:::*:*::*******::,:,,2,33558808885322::::::,,,3360tttptr06>&$   .O$&-,350qwtpppputtqtqqq0qq0qq0000060665<<<<<3580ttuytq61&$.....+$:>,36rrrpppree7222*********;;********;:;:;;;;;;;:;::::>,,1189ttyytw91,$O.  OO$&>,360eriipire7422****2,3355556666665532,,,:2:****:*:**;;;;;::;;;::::::>2,4455768886006666551<<,355ttttuyw03>&O   OO$&,>1668tpppppptttq8000",
"33332<,,2::*:*::****:***:********:*******:::,,<355555533323358qryuyt061&$O  .O+$&,,57qrttiitr0732***%%%***22257780qqt08tqqq00ww0066t0t000q00000066332,,,:::**:**:******::::2,,3345578000886422:::::>:,,<56qwtuutrq11$$.  .o$$->158ttttppppptt000qqq0qq000008666654<<<<<58qwtuytw61-$O...o$$&>>569erppppre742************@2******:******:****::::>:,,356qryyyte8<>$o. ..+$&>,360eripiiee722;2:::,<<1<5556666665533,,,,:::::::***:;;:;;;;2**;;::,,,,<<44556966977966555<<<22570rtyuyw91>$Oo...O$>>,558qtuupppptqqqqqqq",
"433<<<<,:,::::&&******:*:******:*:*:*:**:*:::,<356665553222358qrtuyrq61&+.  ..+%:><470rtipitr0732***%%%****22257800q80000q0ww000tt000000q0000066666322::::*****:***:***:::::,,3345578000865422::::-:::,<169wtuuur01>$$. ..o$->>1588tttpppptt0t0q00qq0q000080066544<<,,4589ttuytq61-$o...oo$->116errppprre7222*********************::::***:*::::::,,,256qrtypte85-&Oo  .+$&>,360eiiiiiee7222=::>,,<3555566666653<<,,,,,::::&:*:**;:;;;:;;**;::::,:,,<<4556666999966554<<<23370rryutw96>$$...oO$$>,4580ttuppppttt0qq00",
"44343<<,2:::::&&***2*:*:*******::*:*:****:::,233556665533223580tyyytw61&$.. .OO%&,<58qetiiitr0732%**%%*****22255888000000000000w6000000t0006066665332,,::******:*:*:****::,222335568000088542,2::&:::,,<169wttyurq61$$.  oo$$>>15888ttpppytt0000q00qq0000868655553<<<<2589ttyutw61-$o. .oO$-><16eerppprre742****************2****:******:*:*:::-:,,,256ertpyyw81-$O. .o+$&,,460wriiirr99222*>2:,,<5<15566t66655<3,,,,:::::&&:**:;;;;;;:;;;;::::2,,,<<4556666567766554<<,<238qetyytr91>$O. .oO$$>,458qwtpppputttqqqq0",
"4433<<<,,,2:::::*****:***:2*::*****:*::::::2,<35566665532233380ttyytq6<-$O...O+%:><45qrtiiitrq7322**%*%****22255688808000000w00wt08t000000000666655322:::*******:***:*::::,:23355568800086542,::::::::,<559wttytrq1>$$o  oO$$>1135ttttpppytttt00q0q00000060666554<<<,<1599wyuytq61-$o   o$$>,116errpprpre7222*****@**22*********:*:**::****:%::::>,,356qryyytw61>$O.  o+$&><360wriiiire722=2:=:2,<<15566658865553<,,:,::::&&****;:;;;;;;;:;::::::,,<<4355566567756554<<<<3370rtyyyw91>>o.  .O$->,450qtuupppyttqwqq0q",
"44<4<<<<,:,::,:&*:**:*:****:***:*:**::&:::,,,2355666653323,358qryuyt08<-+O  .OO$&><560rtipiie8722***%%@2**2*22256688888000000qq060t6t000008886665332<,:::*****:**:*****::::2235555000000865522::::%:,,,2450ettyur96>$$.  .O$-->156ttpppppyttt80000000006886675554<<<,1158qttuttw81-$o. .o$$&><16eerrpprr77222*******2@**2******2***::***:*:**::::,,<<56qryyytw61>$O....+%%><460eiiiiie97722*:,::<<<155666066665<3<<:,,,&:::*****;:;::;;::;;:::::::,,<<44555557555533<<<<,<46qwtyyyw911$$.  oO$-><3560tyuppppptqqqq00",
"4<4<3<<,2,,,:,,::::::***::***:***:*::::::::,,235566665332,3358qttyytw6<-$.  .O+%&,,56qwtipiire732*****@@****2222166668880000q0w00000000600868655533<,,,:*:*******:**:***:2,:33558860000006733:::*:::::,,460rttyurq1>$$.  oO$&-<1588tppppppttt0t0q0000060666555514<<<,,<589rtuutw61-$o  .oO%&><16eerppppre7222***%***********@2***:****:****::::::::<<47qttyptw91>$O...OO$%>,450wriiiir97222;::,,,1<55556666t65553,<:::::::***:*:;;;;;;;;;;:;:;:::,:,,<<5155555555553<<<,<2570wtyytw91>$$o  oO$$>,3500tyupppptttqqqq0",
"441<3<3,3,,:::,::::*******:****:***:::::,:,,2335566655533,<3580qyuyrq6<&$O  .O+$:,<36qrtiipreq732%**%******222225656668888800q000000000088866555533<,,:::*****:***:****:::22335566000000865322::::::,>,,550rtuyttq11$$o  .o$&->1568tpppppytttt800008066666555444<<,,,1156qrtuutw61-$o...o+$&,<56eerppppre772*;***********2******:*:**:*:*:*:::::::,,356qrtyytw61>$.. .O+$&:<560wriiitre722:::::,<<155566606686533<,,,::::**::**:;:;;;;;;:;::;;::::,:,,<1155555455133<<,<<3460rtyytw01>$O   oo$->,366qttuppppttqwqq00",
"<<44<3<3,,,,,,:::::**:*:2***::***:**:::,:,,,,33556666533<<<358qttyytq6<&$O   O+%&><56qetiipreq7322***%**2*2**222115156688880000008t000606866555533<<,::::*****:*:******:::22335668600q00867322::::&::>,<479wtuuuw96>>Oo  Oo$&-,135ttupppppyt00000008060666655441<<,,,1156qttuttw61-$O. ..+&&:,46errrpprr7722;;********************:**:******::-::,,<<56wrtyptw91>$O.  .+$&,,350wiiiiir97222::::;<<<15666060086553<,,,,,&:::*****;;:;;:;:;;;;;:;::::,,,,<<15115443533<<,,,3460wtyyyr011$Oo  oO$&><3560tyupppptwwqqqq0",
"44<1<<1<,<,,,:,:2******2%********:*:::::>,,,<<3566665553<<<3580tyyytq61-$.. ..+$@2277erriiprrq722*******:::::,,21135556668880000000000808666555433,22::::******::******:::,,355680000q008654322*:*:::,,<550wtuutt05>&O.  .O$%:,356ttttppptttt000006008666555444<<<,,,,419qtttutq6<&$o  .O+%&,,380eripipre7222**%@****************:*:*****:**:::::,,,156qrtyytw91>$O....+#*;;47eeriiiire74222*;;2><355566000066553,,,:,::::*****:;;:;:;;;:;:;;:;;::::,,,24444444413<<<<,,<<16qwtyptw81>$O   o$$$>,358tttuppuytrwwqqq0",
"44545<1<<<,,,,,:%%2********%*****:*:::::,>,,<<5556666533<,<3588ttyyrq61$$O...O+%*2247eriipprre742:****@*:::::,,,,1<5555566888000000008066655554<32,2:2:::*:**:*********::,,<356668000qq0075322::::::::,<160wtuuut051&$o  .O+%:,3580tttpppttt0t000800668665555<41<,<,<<456qwtuutw6<>$O  ..+$&:<36eerppirr8722**********2************:*:*:***:*::::::,159qrtpytw91>$O....+#*:2479eriiiiee722;;;;;2,<<33566600886533<,,,:,::*:*:***;:;;;;;:;;;;;;;;::::,:,2,4,4414433<<,,,,,<180ttypyw85>&+.  oO$&><358qqyupppyttwqqq0q",
"551451<<<,3,,:,:*2%********2**2%***::::2>,,<<<5566665553<<<358qtyuyt961>$.  .O+$*:237erriiiiee72::**@***::::,:,,,<13355566698000000006666655443<,,,:::::**:****::*******:,,<35566800qqq006542:::*::&::,<166ttuutt61>$$.  .+$&:,2560ttuppppttt000008088665551531<<<,,,,456qttuutw81>$O  .O+$&,<38eeriiirre7222%***********2**2**2:****:*:*:**:*::,:,1146qrtpytw81>$O....O#*22479eriiirr9922;22*;;,<<<3566000086553<,,,:,&:*::*:*:;;;;:;:;;;;;;;;:&:::::,,2,,2,2423<<<<,,,,1160rtyptt61>&Oo  oO$&&<358qttyppputrwwq000",
"555455<533,,,,:,*%2***************:*::::>,><<53556666533<<<356qttyytw91$$.  .O+$:,2778riiiire07522:*****;;:::,:,><<<13555566888000000066555443<<2,,2:::::****:*********:::,<35660000qq0088542:2*:%::,:,<160qttutt66>&o.  .O$&:,3580qttppptttt0t0000088866555113<,,,,<<<59qqtyutq61&&O  .O+$*,236errppiir0722****************@****::*******:::::::,:,449qrtpytw91>$O. ..++*22479eiiiiir97222;**;2&,,<3566600886553<,,,:::::******;;:;;;;;;::;;;;;::*::,:,,,,2,,1,<<<<,,,,<<560wttptw06>$O.  oO$&>>168qttyppputrwwqqq0",
"5555544422,,222%22%*****%2****2%**:::::,>,,,<35556665533<<<3588ttuutq61>$..  O+$:,<47eerrpppe972::***%%*;::::::,:,,,<33555566888800066665544322,,,,:::::*::*::**&:*****::,,23556066tqq0087542,,::&&::,,,16qqryuuw85>&$   .O$$:,3500tppppppttt000005t86856555414<<,,<,<458qttyytq61>$O  ..+$&:,567erppppr0722**********2@2*****2**::*::**:***::::::,,116qwtyutw61-$O. .OO=--,779eripiire7422;;;**::,,3556800086533<,::,::::*:***:;:;:;;;;;;;;**;;*:*::,:,:2>2>224<,<<,,,,<1160rtyytw04>&O    O$%:1168qtuppppptwwwqqq0",
"6665544422,,2%22%*******%**%***%:&*:::::,,,,<35556666533<<<3560ttuuww61$$.   O+$::<47eerpppree7222******:;:;:::,:,,,<<33<5586888886665655444<2,2:::::::;:******:********::,235566000qqq0885422::::&::,,<16qttyutt06>$$   .O$&:,<560tuppppptt0t00006888866555451<<<,,,<448qttyytq61$$o  .O+%&,,36eerppprre7222*******************;;*****:***::::::,,<156qtyuytw91>$O. .OO+*><279eriiprre722**;#*2::,,<356880088553<<,,::::*:*:***;;;;:;:;;:;::;;;**:::::::22:22>>,<,,,,,,>1180wryptw84>$$O  O$$&:>158qwyppppptwwwqq0q",
"666555542222@22%2***%*****%%+2**::&:::&,,>,<<335666665533,23560tuuutw61>$O  .O+%:,<47errpppree722*%***%:;;;::::::>,,,<<355555668886665555432<,,:,::::::***:****:******::::,235566000q00087542::::&:::,,<180wtupur01>&O.  OO$&-,3580ttppppptt006t005688866554513<<,,,,,<56qtyyyt061>$O  .O+%&><36eerrpprr0772********************:**:*:**:*:*::::>:>,156qwtuutw61>$O. .O++*>,47errpiiiee742;*;*;;::,,<<55880086553<,,,::::*:**:*:;:;;;;;:;;;;;;***::*::::::2>:222,<><,,,,11160rtyptr04>$$   OO$&:1150qtppppppttwwqq00",
"868666512222%2%2%*%22*****2+2@2*&&&&::,&,,,,<355566656333,23500ttuut961$$O   O+$&><57errpppre0772:****;%;:;;&:::::>,,,<3<55556666666655543<2<:,:::::*:*:*:**::********::::,2356660000qq007732,::::::::,<160wrypurq6>&OO  .O$&-,3500wtppppptrtt0000t888665555443<<,,,<<<560wyuytt61>$O  ..+$:>336erppppre07222****@****2**@2*****:;*:***:***::::::>,,1199ttyytw91>$O  ..+$:><479erpiiiee72222**#;:::,,<55680086633<<:::2:::*:****;;:;:;;;:;:;*:;:;**:::::::::::>:<><,,,>,>1590wtuuyw04>&O    $$&:>150qrppppppttwwqqq0",
"8606655553<,,>,&**;;;;;;;:;;;;;;2***:::::2>2244456665553,,335600tuutw91$$o  oo$$:><46qrtppytee742***@******2******22*22222245577666655333<<,>,::::*:***:***:;:**;;:*::::2:224566000000000661<,,::::::,,<160wtuutw911$O.   O$&&,<58qtyyppppttqqqq80888866555443<<<,,,,<456qttiytw61-$o  .oO$-,,460wtyiitr08322*******2*@***2******:*;:;;;;:;::::::,,<256wrtpytr81>$oo  o+$-><460wyypprr9942::;;;;:::::23588088863421>>:::::::;;;:;:;;:;;;;;;;;;;:****;;;;;*;;::>2,,,,,>,:<<360qtyytw01>$$o  o$$$>,458wrypppppyrwqqqq0",
"86666655333,,,,,2:=::;;;;;:;;;;;**;;;:>2:>224444566565533<<350ttyuuw96>>$o   o$$:,<47qetypytee7222***************2**#222224455776665555<<<<,,::::******:*:***:*::;;::::::22345666000qqq006613,:,:::::,,<460wtuuutq6>$$o  oo$&-,<58qwtpppppttrqq099888666554432<<,,,,,,<50qrtyytw61-$o   o$$-:<560wtypitr07222@**@#****2*****2***;;*:;;;;;;;;;:::::>,256qrypytw81-$oo  o++->,468wrypypre7542:;==;%:::22358880886542,,2>,::::=;;;;;;2;;;;:*2;;;;;;2;**;;;;;2:::22:>,,,,,,,,<560ttyyyw91>$oo  oo$&>,<50qrtipppptttqqqq0",
"06066665533,,,,:*;::;;;;;;;;;;;;;;;;*;:222>>444566666553<<<3566ttuutw61>$o   o$$&>,56qetypytr9742*****************@22*22:42445575555553<<<,,,::::***:*****:***:***:::::,223455686q0qqqqq8661<<,,,::,:,,<450wttutr96>$Oo .oO$&-,156qwpppppitrwq00888866655444<<,<,,,,,<<56qttyytq61-$oo ..$$-,<55qwtypitre7322***#2************2*:;;;:;;;;;;:*::::,,,357qrtyytw65>$oo  o+$&><470wrpppirr9522:::;=*:::2235888088634222:,:::::=;;;;;;**;:;;**;;;;:;;;;;;;;;;;;::>:::,>,,:>,,<5600tyuyw961$o   oO$&>,450qrtpppppttwqqqqq",
"0060666553<<,,,,2:;*;;;;;;;;;;;;;;;;:::>:>22,44556665533<<<3560ttuytw6>$$o  oo$$:><46qrtypyte97422***@***************2#2,,2244445555333<<>,&:::::*****:*::******:**2:,222235568800qqqqq006664<,,,:,:>,,<550wtuuut911>$o  oo$&-,156qtppppppttwq00886865555433<<,,,>,,,<<58qrtyttw61-$oo  oO$-:<460qtyiitr0732****=*************@*;;;:;;;:;;;;:::::>,,<56qrtpytw61>$oo  o+$&-,450eryppire9542::::=**:,23358880866544>>2:::::;:;;;;;;**;;:;**;;;:;;;;;;;;;;;;:;:::2,:,-,>>,<<550ttyyyw91>$$   oo$&><<66qtypppppttwwqqq0",
"60066655553<,,,,=:::;***;;;;;;;;;;*;;2:::,,,444556666544<,<3588ttuttw11>$o   o$$&,,560eyypitrq44******%*******2*****@2*2:44444445555<<<,,,::::::***************::::2:2223555668800qqqqqq086111,,,::,,>,3450ettutrq1>$O. .oO$$>,158qrtpppuytqwq088666774443<<,,,,>>:,,,458qttyytw61>$O. .o$$&>146qetyyytr87222**@****:;:;*2******;;:;;;;;*****:::,:,,256eryyyte81>$oo oo+$:><45qerpppyyr97422::::*::,2255888006654412::2=::****;;;;;:;;;:;;;;:;:;2=*;;;;;;;:;:::::::,:,-,23560tttutw911$Oo  oo$$>,<58qtyypppyttqqqqqq",
"880666655<5<<,,:2::*;***;;**;;;;;;****:;,>,<,44556665544<<<3566ttuttw91$$o   o$$&,2569ryypiteq7422**%*************2*****:::44,4415<5<<,,:,:::::::**:*:*::*******::::2232555688000qqqqqq0086651<<,,,,,,,,460ettuuwq6>-$.  .o$$>>158ertppputttwq08666554444<,,,,,:>,,,,<<58wwtyytw61-$o   oO$&><55qwtyiitre722********;;;;*@******;:;;;:;;:**::*::::,,2560rtypte81>$o   oo$::,46qerippyrr97422,::::*:::23588000865441>22:2::**;;;;;;;;:;;;2;:;;;;;;;;;;;:;:;;;:::::::,,:,:22360tttuyw01>$$   oO$-><458qttppppytwtwqqq0",
"888666665<<<<,,,:::;;;::;;;#;;;;;;;****;:,,,234566666544<<<358ttuuutw6>>$.  oo$$:>256erryiite07422***%*****2*******22@*2:1:::,4415<<<,,>,::::::%:***:******:**:*:*22223556688800qqqqqqqq0866541<<,,,,,,<460ettutw011$$o  oo$&>>156wrtypppytqw08667775444<<,,:,:,::,:,,456qwyyytw81>$O. .OO$&><160wtyiiyr87222****=;;;;:;**2*****;;;;;;;;****:::::,,,459eryyytw01>$oo  o+$&,,558erippyrw97522<:::::::22356800886544422::>2;;2;;;;;;;:;:;:**;:;;:;:;:;;;;;;:;:;:::::,:-,:,,2360qttutw911$$o  o$$$>,168qwtpppyyttqqqqqq",
"88666655555<<,,,:2:::;=:;;;2;;;;;;2*;2;2:,,<<33556665544<<<3588ttuut991>$o  oo+$&,2469rrypite074*****%******************:::2,44,11<<,,,>::::*:&:**:*:*:*:******::2:2225766880000qqqqqqq908665441<<,,,,,<360etuuutw1>$$.  oo$$><156qrtpppuyttq00675554444<,,,::::-::,,,<58qttyttw61&$o.  O$$-><560wtyiiyre722****;;;;;:;;****2***:;;:;:;;:**:*:::>:,,2460rtyyte81>$+   o+%&>,35qeryppiyre9542,,,::::::236680088867422>22:;;=;;;;;;;;;;;;;**;;::;;;;;;;:;;;;;;;;;:::&:::,,,256qttuuyr91>$Oo  oo$->,<50qttppptttttqqq9q",
"8886666553441,,,2::::::=*::*:::::::::::-,,,,<4457756554<4,,449eryuurq6>-$.. .o$$-><460eyipiir97422********2**********22*::;2:22433222,:::::****:**::**:*;;;;;*::::,<<55566600000999wqq9099915544<<,,,,,<470etyiyw01>-Oo  oo+&>,<560tupppuyt008667544444>141:::::::,:,,458qriiitq61>$O   .O$&:<46errippir072222%%;;;;;;:;;:;:;:;:;;:;;;::*::::::::>,,356ertyytw91:$O. .O++&:<46qwyyipiyrw97424>2>:::2:24558008855141>2>>:::;::;;;**;;;;;;*;;;;;;:;2*;;;;:;;;;2;;;&::::::,,3560wtyyyw81>$$. ..$$&:<358qwtppppytt009q99",
"6666565555431<<,::::::::::::::::::::::,,,,,<<34557755544,1,457ertuytq61-$o  .o+$=,<560ryipirre742*2@2****2***********@**;;;>:2>>,,,,::2:::***:**:;***:**::;::::::,,<3356688888089999q99979775541<<<<<,,<460etyptt811$$   oO$&:,4580wtpppyytt086554444414:::::::::::>:,458qrtiiyw61-$O. .O+%&,<46errppprre7522***;;;;;:;;;;;;;;;;:;;;:;:::::::::,-,,,256qryyytw91,$O. ..+$&:<450wriipyyr9744422:::::::244588866657441222::::;;;;;**2;:;:;;;:;:;;;;;;;;;;;;;;;*;;;:&:::>:,,,360ttyyyt61>$O.  .O$&:,458qtypppppttw09999",
"6665556534433<,,>2>:>=::2:2:2::::::,,,,,,,,<<4455555544<,11459ertuytq61-$o. oo+$&,1560rriiiyre7422*2@*******************;;:::222,,2,:,:::****:*::*;***::;::::::,,,<<35566666888899799996777751444<,,,,<<450eryyyt66>-Oo  oO$$:,<58qttpppyttqq865444144,,:,:::::;:::,,24480riyyrw61-$O.  O+$::<469erpppire7722***:;:;;;;;;;;;;:;;;;;:;:::::::,::,:,,,<56qryyytw51:$O.  OO$&:<370qrippyrre97442>>:::::22245880666554222>2:2;;;;;;;*;;:;;;:;;;;;:;:;;;;;;;;;2****;;&:&::,:,,336qwtyttt05>$O.  OO$&-,350qttpppppttw89769",
"5556555554443<<<2,2,222:2:>:2::2:1,:,,,,,<<<<44455555<<<4,4457eryuyrw9>-$.  .o$$*,,460ryiiiiee972*2**2*******2****2*****;::::::2,,:2::::***:****;*:::***;:::::::,,<33335566666667979966677555544<<<,,,,<460etyyyt06>$$o  oO$&:,458qttuppytt0065544,41::,,::::;;:::::,,448eriyyyw61-$O. ..+$&,<569rripppre77222*2:;:;:;:;:;:;;;;:;;;;;:::::,,,:,,,,,,356qrtyytw91>$O  .O+$&:3450wrippiyrw974422,,::::,:24555566554441>2>2:;:;;;;;;;;;:;;;;;;;;;;;;;;;;;;;******;;:*:::::,,3580wtyttt65>$$.   +$&,,456qttpppppww089977",
"5555554144443<<<<,,,,,,,:>2>>2>>1,,1,,,,,<<<<<4444454444,1,457ertyytw61-$o  .o$$*>157qeyiiiirw952222@2@**2**************;:::::2>::,:::::********;:*;;;;::::::,,,2,2335555556656677775777555144424<<,,<,<378rtypyt65>%+.  oO$%-,<580ttpppyttq865542,22>:2:::::;:;:::>:1456qryyyyq61-$O   O+$*><469eriipirr07422*2::::*2;;;;;::;;;;;;;:::::,:,,,,::,,<156qrtyytw91>$Oo  OO$&:<450wriipuyr997414,::::::,,4415555555441222,,::::;;;;;;;;;:;:;;;;;;;:;;;;;;;****;2#;;**::::::22370ttyutt64>&O.  O+$%:,450qttpppttw0067755",
"5544451541413<<<<1<,2,2,22224,22,,4:<<<<<<<<4444444444,,,,,459eryyurq61-$o  .o$$*1,479rriiiirw9522;2222*****************;;:;::;::,:::::*:*:**:*:;:;;;;;;;::::,,,,2333155555555535717571755554444<<<,,,<<370eryyyt05>%+.  oO+&-,<580rtuppytq0665342,,22:>::::;:;::::>,,446qryyyrw61-$O  .O+$&,,45eerippire074222@:;::*;;:;;;;;;;;;:;:::::,:4,2,2,,,,,1199rtuyyw91:$O. .OO$&,<470wryppiyre9741:4,::::2:,,2155555544411<2:::::;;;;;;;;;;;;;;;;;:;;;;*;;;;;***;;;;;;*:&:::,,2257qwtyutt61>$O.  OO$$:,4500ttyptttw8867444",
"4444444444<14<4<21,121,,4,22,,4,,14,<<<<<<<44<444444111,,,4457eruuutq61-$o  oOO$-:4499ryiiiiyw9642222@2*****2********22@**;2:::::::::::***:****:;;;;;;;::::2,,,,<<3335353353555351151515711141444<<,<,,3370rtyyyt65,&o....O$$>,4580ttpuuytq065332,2:;:::::;::;;::::,:1459wryiyyq61&$O  .O+$&,<46eerpppprr07522222;2;**;;;;;;:;;:;;;;:::::4,,2,,,,,,,1599rtyurw91>$+   O+$&:<370wyyppirrq77441:1::::::,,4<45115454422,,2:::;;;;;:;;;;;:;;;;;;*2;:**;;;;**;;;;;;;:*::::,:,,2580wtyttt06>&O   .O$&:<350wttpppttt0654444",
"444444441444<44<24212242122442124,441<<4<4<4<44444444,,1,,,459ertuurw6>-$o  oo$$;:4489rriiiirrq6732:*2**2***%****2***@***#2#:;::::::::*:*:**::**;:;;:;;:::::,,2<<333333335333535515511511511444,<<<,,,22478rryytt85>&+....O$%>,<78qrtuputtt0655<22>2::::;;;;;;:;:::::1156qryiiyq83:$O   O$$&:<468rrpppirr07422*2>:;:;;;;;;;:;;;;;;;:::2::11,41<<1,,,1599ryuyyr91>$O   OO$&:2478wriipiyrr6744,1:,::::::,,,1<5154441422,:2::;:;;;;:;:;;;::;;***;;;*2;;;;**2;;;;;;;**:::::,,2380wtyttt01>&O   O$$&-,358qttppptt00654444",
"441411444<44<54141112141,44241,444,44,441424124441411<,<,<<249eryuurw11>$o   o+$-><560wtyppytwq9544,,:>:::****:**:*:*:*;:;;;;:;:::::*:*:**:**:**:*:***:*::22:2<<3444<4<4441441441444444444244,14<<<,,<><460wttptr011$+o  oO$$>,456qryyppirr07542<,:,::::;;;;;;::::::,,<50qrtpytq6<-$O  oO+$&><460erpppprrq97442>:::::;;;;;;;;;;;;;;;:::2222,4,4,,,,44479rriiye61>$O. ..$$&,,160ettpputre8554,,,::::::4:4,4444444144,,,,:,:;;;;;;;;;;:;:;;;;:;;:;;;:;;***;;;;;;;;:::::::,,<560ttyutt63>&Oo  o$$&-,368qrypppyr0957444,",
"141134<114<41<214444441441412441414114144441444242221<,,,<<159ertuut991>$o  oo$$->1160wtyppyyw96744:,>2::**:*******:;;*:;;;:;;:;*:******:**:**:*:******:::::,2<<4<<444<41<41144214141211144144421<<<,,<<360wttpyr011$+    O$=-,<58ertpppire07542,,,:::;;***;;;;:::>,,<<56qttyptw81-$O   .+$-:<46eerippiirq94444>:2:::;:;;;;::;;;;;;:::2>>,2444,4,,,,147qryiiyr91>$O. .oO$&:<460wtupputrq8652,,:,::::::,:2,4141414,4,4,,::::;;;;;;;;:;;;;;;;;:;;;;:;;;2;*:;;:;;;;**:::::,,2368ttyutt83,$$   oO$&,<358ettipyyw09544111",
"44<14<4<4<411144141144444424444444244444,44414141121<,<,<><259ertuut99>>$o  oo$$->116qwtyppytrq954412:::::******::**;:;::;:;;;;;*:;;**:*:***::*********:::::,,233444444<115<21211444,42441214,41<<<>,,<<469wtyptr95>&Oo  oO$=-,458qrtyppire07332,,:,::;;**;;;;::::,::<456wttyptw61-$O   o+$-,<468erippiirq9744,222;:::;;;:;;;:;;;;;;::;22244141,1,11447eryiyrw91>$O.  o$$&><460wwuupitrq66431,,::::::>:4,444,4444,44,2,:::;;;;;;:;:;**:;;;;;;;;;;;;;;;;;;;;;:;;:::::::,,,3560qtyuut83>$Oo  oO$&:,<68qtyppiyrw857441,",
"<14<<4<4<4<411144444114414444141414444,44411424,2441<<<,,,<157eryuurw11-$o   o$$->116qwtyppytwq85444,2,:::**:**:***:;;;*;;;;;;;;**;;*:****::***::*:*:***:::2,233334414<11<<<41414,1,414,4,4414444<<<<,,<450wttity851&+o  oO+$>,<58qryppyire87532,,::::;;***;;:;::::,,<<56qrypttq61-$Oo  OO$-:<46eerpppirre97444>>:::;;;;;;;;;;;;;;;:::::>2244,,1,,,,4499rryyye61>$O   oO$&-<450qttppitre0553,,,::::2:::,,2444414441,2,,,::;=;;;;;;;;*2;;;;;*;:;:;:;:;;;;:;;;;;;;*:*::&,:,2580tttutq84>$$   oO$&&,450ertipytrq874111,"
};
